site/assets/luts/sha256-ca8c645f39b6eea926d3380438ad71115f0819c3583a3e0f6ee0ecbfd2b40854.cube
# LUTr-Schema-Version: 2
# LUTr-ID: sha256-ca8c645f39b6eea926d3380438ad71115f0819c3583a3e0f6ee0ecbfd2b40854
# LUTr-Title: kodak elite color 400
# LUTr-Collection: Natron HaldCLUT
# LUTr-Collection-ID: natron-haldclut-presets
# LUTr-Source: https://github.com/NatronGitHub/clut
# LUTr-Retrieved: 2026-07-27
# LUTr-Source-File: submissions/natron-haldclut-presets/negative_color/kodak_elite_color_400.png
# LUTr-Source-Format: HALD-PNG
# LUTr-Source-SHA256: ca8c645f39b6eea926d3380438ad71115f0819c3583a3e0f6ee0ecbfd2b40854
# LUTr-License: CC-BY-SA-4.0
# LUTr-License-URL: https://github.com/NatronGitHub/clut#license
# LUTr-License-Basis: repo-license-file
# LUTr-Transform-Class: film-emulation
# LUTr-Tags: creative, film, film-emulation, hald-clut, natron, png, cube
# LUTr-Input-Color-Space: srgb
# LUTr-Input-Gamut: rec709
# LUTr-Input-Transfer: srgb
# LUTr-Output-Color-Space: srgb
# LUTr-Output-Gamut: rec709
# LUTr-Output-Transfer: srgb
# LUTr-Color-Space-Confidence: assumed-display-referred
# LUTr-Domain-Normalized: true
# LUTr-Shaper: none
# LUTr-Original-Grid: 64x64x64
# LUTr-Conversion-Grid: 25x25x25
# LUTr-Conversion-Interpolation: trilinear
# LUTr-Conversion-Method: HALD-PNG LUT image decoded at 16-bit and sampled to 25x25x25 3D CUBE
# LUTr-Conversion-Tool: LUTr scripts/convert-all-to-cube.mjs 2.0.0
# LUTr-Conversion-Date: 2026-07-27
# LUTr-Note: Preserve this metadata and the upstream license notices when redistributing.
TITLE "kodak elite color 400"
LUT_3D_SIZE 25
DOMAIN_MIN 0 0 0
DOMAIN_MAX 1 1 1
0.0078431373 0.0078431373 0.023529412
0.026960784 0.0078431373 0.021078431
0.061764706 0.011764706 0.015686275
0.089215686 0.015196078 0.0083333333
0.11764706 0.015686275 0.0058823529
0.14656863 0.015686275 0.0083333333
0.17352941 0.011764706 0.0088235294
0.19901961 0.006372549 0.006372549
0.22352941 0 0
0.26470588 0.006372549 0.014215686
0.30882353 0.011764706 0.024509804
0.34705882 0.011764706 0.034803922
0.38823529 0.011764706 0.045098039
0.4254902 0.0078431373 0.055392157
0.46960784 0.0049019608 0.059803922
0.51715686 0.0039215686 0.048039216
0.56470588 0.0039215686 0.031372549
0.61617647 0.0039215686 0.017156863
0.6627451 0 0.0078431373
0.70735294 0 0.01127451
0.75098039 0.0039215686 0.015686275
0.79411765 0.0039215686 0.015686275
0.83921569 0.0039215686 0.015686275
0.88039216 0.0039215686 0.010294118
0.90980392 0.0039215686 0.0078431373
0.028431373 0.030882353 0.031372549
0.042095588 0.025428922 0.02745098
0.067156863 0.01997549 0.018627451
0.091666667 0.015992647 0.0083333333
0.11960784 0.015686275 0.0039215686
0.14656863 0.018137255 0.0083333333
0.17634804 0.01997549 0.014215686
0.20386029 0.020588235 0.016666667
0.23137255 0.020588235 0.023039216
0.27107843 0.016666667 0.015134804
0.30980392 0.01875 0.024509804
0.35098039 0.022058824 0.034803922
0.38946078 0.020098039 0.045098039
0.42922794 0.01127451 0.055392157
0.47058824 0.0039215686 0.062745098
0.51715686 0.0039215686 0.048039216
0.56715686 0.0039215686 0.031372549
0.61617647 0.0039215686 0.014705882
0.66335784 0 0.0078431373
0.70784314 0 0.009129902
0.74901961 0.0039215686 0.0125
0.79411765 0.0039215686 0.015686275
0.83639706 0.0039215686 0.012132353
0.87738971 0.006372549 0.011764706
0.90735294 0.006372549 0.010294118
0.048039216 0.057843137 0.039215686
0.061397059 0.05502451 0.035661765
0.082352941 0.045098039 0.026470588
0.10208333 0.035661765 0.013235294
0.1245098 0.031372549 0.0098039216
0.15147059 0.034681373 0.017156863
0.18235294 0.040441176 0.028186275
0.21115196 0.045098039 0.034803922
0.24019608 0.041176471 0.045098039
0.27745098 0.032720588 0.026960784
0.31691176 0.030147059 0.024264706
0.35502451 0.032352941 0.030882353
0.39264706 0.025490196 0.041176471
0.42941176 0.012254902 0.055882353
0.47058824 0.0041666667 0.062745098
0.51776961 0.0039215686 0.049509804
0.56862745 0.0039215686 0.031372549
0.62009804 0.0011029412 0.010784314
0.66740196 0 0.0039215686
0.70784314 0.00085784314 0.0078431373
0.74901961 0.0039215686 0.011764706
0.79068627 0.0049019608 0.013112745
0.83529412 0.0078431373 0.015686275
0.87647059 0.0078431373 0.015686275
0.90588235 0.0078431373 0.015686275
0.065686275 0.08872549 0.039215686
0.078431373 0.082352941 0.036764706
0.095588235 0.075980392 0.030882353
0.11574755 0.069546569 0.027818627
0.13676471 0.066911765 0.026470588
0.16176471 0.065196078 0.027022059
0.18970588 0.068137255 0.036887255
0.21832108 0.067830882 0.053247549
0.24656863 0.058333333 0.065686275
0.28382353 0.051470588 0.041666667
0.32144608 0.042647059 0.026102941
0.3622549 0.039644608 0.027022059
0.39779412 0.032843137 0.039215686
0.43676471 0.02254902 0.052389706
0.47794118 0.014828431 0.062745098
0.5245098 0.01127451 0.049509804
0.57598039 0.010784314 0.031372549
0.62745098 0.0070465686 0.010784314
0.67046569 0.0034313725 0.0073529412
0.70827206 0.0039215686 0.010845588
0.74901961 0.0073529412 0.015196078
0.79368873 0.0078431373 0.016115196
0.83529412 0.0078431373 0.019607843
0.87647059 0.0078431373 0.019607843
0.90588235 0.0078431373 0.015686275
0.084313725 0.11568627 0.039215686
0.093137255 0.11323529 0.036029412
0.10980392 0.10784314 0.037745098
0.12867647 0.10588235 0.042892157
0.15 0.10294118 0.043137255
0.1754902 0.099509804 0.033333333
0.20294118 0.096078431 0.038235294
0.22843137 0.094607843 0.053186275
0.25686275 0.08627451 0.058823529
0.29289216 0.074019608 0.045343137
0.33039216 0.057843137 0.029901961
0.36862745 0.047303922 0.023284314
0.40588235 0.044117647 0.035294118
0.44705882 0.038970588 0.045588235
0.48970588 0.032352941 0.052941176
0.53480392 0.026715686 0.048039216
0.58627451 0.023529412 0.033333333
0.63259804 0.019117647 0.021568627
0.6745098 0.0098039216 0.020098039
0.71372549 0.0078431373 0.021568627
0.75490196 0.0078431373 0.023529412
0.79632353 0.0080882353 0.025245098
0.83921569 0.0083333333 0.023529412
0.87965686 0.0078431373 0.019607843
0.90784314 0.0078431373 0.019607843
0.10294118 0.14264706 0.035294118
0.10784314 0.14264706 0.035416667
0.12438725 0.14007353 0.044730392
0.14117647 0.14264706 0.059252451
0.16323529 0.1372549 0.057598039
0.18670343 0.13045343 0.043137255
0.21323529 0.12659314 0.035416667
0.24019608 0.12156863 0.04442402
0.27107843 0.11519608 0.050490196
0.30459559 0.10667892 0.04620098
0.34068627 0.095098039 0.03627451
0.37892157 0.080943627 0.03627451
0.41666667 0.070588235 0.036029412
0.46127451 0.063664216 0.040134804
0.50281863 0.052941176 0.043137255
0.54773284 0.042340686 0.045281863
0.59656863 0.03627451 0.035294118
0.6377451 0.029411765 0.031678922
0.67892157 0.019117647 0.031862745
0.71960784 0.012683824 0.032352941
0.76102941 0.011764706 0.035784314
0.80245098 0.011764706 0.035723039
0.84362745 0.011764706 0.028431373
0.88480392 0.0078431373 0.022058824
0.91421569 0.0073529412 0.019607843
0.11960784 0.17745098 0.042156863
0.12303922 0.17683824 0.042156863
0.1379902 0.17352941 0.052941176
0.15404412 0.17732843 0.069607843
0.17352941 0.17303922 0.068137255
0.2 0.16519608 0.053431373
0.2245098 0.15710784 0.042401961
0.25441176 0.1557598 0.046078431
0.28529412 0.15294118 0.05
0.31617647 0.14509804 0.053921569
0.35098039 0.13627451 0.053921569
0.38921569 0.12254902 0.052941176
0.43039216 0.11029412 0.05
0.47156863 0.094485294 0.049509804
0.51642157 0.07745098 0.043872549
0.55931373 0.059313725 0.039215686
0.60294118 0.05 0.035294118
0.64509804 0.039705882 0.038235294
0.68529412 0.032352941 0.042156863
0.72647059 0.019117647 0.046078431
0.76764706 0.011764706 0.046078431
0.80882353 0.011764706 0.045588235
0.85098039 0.011764706 0.035294118
0.89215686 0.0078431373 0.025
0.9245098 0.0039215686 0.019607843
0.13627451 0.21764706 0.056372549
0.14264706 0.21464461 0.056372549
0.15294118 0.20943627 0.056372549
0.16697304 0.20833333 0.064705882
0.18651961 0.20637255 0.067892157
0.21207108 0.20196078 0.06372549
0.23982843 0.20012255 0.054901961
0.26770833 0.19656863 0.057843137
0.29705882 0.19019608 0.064215686
0.32647059 0.18327206 0.068137255
0.3622549 0.17352941 0.068137255
0.40128676 0.16323529 0.068137255
0.44215686 0.14901961 0.064215686
0.48596814 0.13431373 0.060294118
0.53026961 0.11482843 0.053431373
0.57205882 0.096078431 0.047610294
0.61470588 0.077941176 0.044607843
0.65441176 0.06372549 0.048529412
0.69558824 0.050122549 0.05245098
0.73547794 0.035294118 0.056188725
0.77401961 0.018382353 0.056372549
0.81764706 0.011764706 0.052267157
0.85882353 0.011764706 0.044117647
0.9 0.0078431373 0.030821078
0.93480392 0.0039215686 0.019607843
0.15294118 0.25882353 0.066666667
0.15931373 0.25245098 0.066666667
0.16960784 0.24607843 0.065686275
0.17990196 0.24313725 0.062745098
0.2 0.23921569 0.066666667
0.22892157 0.23921569 0.070588235
0.25588235 0.24019608 0.067647059
0.28529412 0.2377451 0.068137255
0.31372549 0.22745098 0.074509804
0.34068627 0.22107843 0.078431373
0.37647059 0.21078431 0.078431373
0.41764706 0.20441176 0.078431373
0.45882353 0.19019608 0.074509804
0.5 0.17598039 0.070588235
0.54509804 0.16176471 0.066666667
0.58627451 0.14754902 0.06127451
0.62745098 0.13333333 0.058823529
0.66862745 0.10882353 0.058823529
0.70588235 0.088235294 0.062745098
0.74705882 0.06372549 0.062745098
0.78431373 0.037254902 0.062745098
0.8254902 0.019607843 0.062254902
0.86666667 0.019607843 0.051960784
0.90637255 0.019607843 0.041666667
0.9372549 0.015686275 0.031372549
0.16960784 0.29607843 0.076960784
0.17745098 0.29215686 0.076960784
0.1877451 0.2872549 0.073039216
0.20018382 0.28431373 0.071752451
0.22058824 0.28161765 0.069852941
0.24901961 0.28039216 0.073223039
0.27647059 0.28039216 0.076960784
0.30343137 0.27892157 0.080882353
0.33039216 0.275 0.082352941
0.36127451 0.27107843 0.082352941
0.39705882 0.2622549 0.084803922
0.43431373 0.25196078 0.084803922
0.47303922 0.2377451 0.083578431
0.51666667 0.22481618 0.080392157
0.55784314 0.21139706 0.076960784
0.6004902 0.19754902 0.073039216
0.64166667 0.18088235 0.069117647
0.68192402 0.16029412 0.069117647
0.72009804 0.13578431 0.07120098
0.75765931 0.11127451 0.073039216
0.79656863 0.086764706 0.070588235
0.83529412 0.061948529 0.069117647
0.87303922 0.043627451 0.064093137
0.91121324 0.039276961 0.054411765
0.94117647 0.025980392 0.048039216
0.18235294 0.3372549 0.082352941
0.19227941 0.33333333 0.083333333
0.20686275 0.33039216 0.083333333
0.22107843 0.33039216 0.083333333
0.24362745 0.32941176 0.083333333
0.26973039 0.32647059 0.083333333
0.29705882 0.32647059 0.083333333
0.32401961 0.3254902 0.087254902
0.35098039 0.32254902 0.090196078
0.38186275 0.32193627 0.089093137
0.41666667 0.31372549 0.090196078
0.45490196 0.3 0.090196078
0.49215686 0.2872549 0.08872549
0.53333333 0.27365196 0.08627451
0.57352941 0.26004902 0.083333333
0.61176471 0.24448529 0.079044118
0.65588235 0.22843137 0.075490196
0.6935049 0.20784314 0.074509804
0.73333333 0.18333333 0.07622549
0.76813725 0.16360294 0.075857843
0.80686275 0.14313725 0.074509804
0.84215686 0.11323529 0.074509804
0.88039216 0.077696078 0.071568627
0.9185049 0.05747549 0.066544118
0.94509804 0.035294118 0.06372549
0.19558824 0.3745098 0.08627451
0.21176471 0.37794118 0.090012255
0.22830882 0.37794118 0.093627451
0.24509804 0.37794118 0.093627451
0.26568627 0.37794118 0.093627451
0.29068627 0.37444853 0.093627451
0.31764706 0.37401961 0.093627451
0.34460784 0.37401961 0.094117647
0.37156863 0.37058824 0.094117647
0.40245098 0.37009804 0.093933824
0.43431373 0.36433824 0.093627451
0.47205882 0.35098039 0.094117647
0.5127451 0.33676471 0.093627451
0.55343137 0.32254902 0.090196078
0.59117647 0.30845588 0.089705882
0.63088235 0.29264706 0.084497549
0.66617647 0.27598039 0.078431373
0.70490196 0.25753676 0.078431373
0.74362745 0.23872549 0.078431373
0.77843137 0.22113971 0.078431373
0.81519608 0.20098039 0.076470588
0.85245098 0.16813725 0.074509804
0.88970588 0.12696078 0.074509804
0.9254902 0.085784314 0.077941176
0.95245098 0.056372549 0.077941176
0.22941176 0.4254902 0.096078431
0.23578431 0.4254902 0.1
0.24901961 0.42941176 0.10392157
0.26568627 0.42941176 0.10392157
0.2872549 0.42745098 0.10392157
0.3129902 0.4254902 0.10392157
0.33872549 0.42401961 0.10392157
0.36519608 0.42156863 0.10196078
0.39215686 0.41960784 0.098039216
0.42303922 0.41764706 0.098039216
0.45441176 0.4127451 0.096078431
0.49215686 0.39901961 0.098039216
0.53039216 0.3872549 0.097058824
0.57058824 0.37401961 0.095833333
0.61029412 0.35980392 0.094117647
0.64705882 0.34681373 0.089460784
0.68235294 0.33333333 0.088235294
0.71764706 0.31593137 0.084313725
0.75392157 0.29705882 0.082352941
0.79215686 0.27941176 0.078921569
0.82647059 0.25882353 0.076470588
0.8627451 0.2254902 0.074754902
0.89852941 0.18431373 0.078431373
0.93259804 0.14926471 0.078431373
0.95882353 0.12352941 0.078431373
0.26421569 0.47303922 0.10637255
0.26813725 0.47518382 0.11029412
0.27303922 0.47696078 0.11115196
0.28633578 0.47696078 0.11421569
0.30882353 0.47696078 0.11372549
0.33529412 0.47604167 0.11029412
0.36017157 0.47267157 0.10980392
0.38823529 0.46893382 0.10588235
0.4127451 0.46519608 0.10196078
0.44117647 0.46488971 0.099816176
0.47144608 0.46029412 0.098529412
0.50882353 0.45 0.098529412
0.5497549 0.43578431 0.10196078
0.58719363 0.4254902 0.098529412
0.625 0.41519608 0.098039216
0.65980392 0.4036152 0.094607843
0.69460784 0.39068627 0.094607843
0.72941176 0.37273284 0.092156863
0.76519608 0.35747549 0.086642157
0.80245098 0.3411152 0.07935049
0.83995098 0.32254902 0.07622549
0.87254902 0.28431373 0.074938725
0.9060049 0.25306373 0.077941176
0.94185049 0.22009804 0.077941176
0.96862745 0.1995098 0.077941176
0.29509804 0.52156863 0.11666667
0.30085784 0.5245098 0.12058824
0.30392157 0.5254902 0.12058824
0.31029412 0.52843137 0.12058824
0.32941176 0.52696078 0.11911765
0.35637255 0.52414216 0.11666667
0.38333333 0.52058824 0.11372549
0.40992647 0.51666667 0.10980392
0.4372549 0.51372549 0.10588235
0.46176471 0.51090686 0.10306373
0.48823529 0.50784314 0.10196078
0.5254902 0.49754902 0.10196078
0.56519608 0.48872549 0.10196078
0.60098039 0.48088235 0.10196078
0.6375 0.47058824 0.10196078
0.67156863 0.45931373 0.10196078
0.70490196 0.44607843 0.10196078
0.73970588 0.42904412 0.099142157
0.7754902 0.41348039 0.092401961
0.81286765 0.3995098 0.082843137
0.84901961 0.38284314 0.074509804
0.88284314 0.35245098 0.074509804
0.91372549 0.32156863 0.072303922
0.94852941 0.29068627 0.07120098
0.9754902 0.26862745 0.070588235
0.32990196 0.57205882 0.13088235
0.33235294 0.57205882 0.12696078
0.33811275 0.5745098 0.12512255
0.34656863 0.5745098 0.12156863
0.35735294 0.57328431 0.1254902
0.37824755 0.57028186 0.12285539
0.40428922 0.56703431 0.11801471
0.43088235 0.56421569 0.11464461
0.45784314 0.56029412 0.11127451
0.48235294 0.55729167 0.10827206
0.50723039 0.55245098 0.10196078
0.5408701 0.54883578 0.10410539
0.57867647 0.54264706 0.10588235
0.61470588 0.5341299 0.10588235
0.64889706 0.52598039 0.10698529
0.68186275 0.51568627 0.10827206
0.71519608 0.50294118 0.10980392
0.75 0.48627451 0.10343137
0.78480392 0.47022059 0.095220588
0.81960784 0.45637255 0.086764706
0.85294118 0.44019608 0.076470588
0.88792892 0.41519608 0.070588235
0.92193627 0.3872549 0.070588235
0.95882353 0.35790441 0.066115196
0.98578431 0.33578431 0.062745098
0.35686275 0.61960784 0.14117647
0.36323529 0.61960784 0.13235294
0.37352941 0.61960784 0.12156863
0.38382353 0.61960784 0.11764706
0.39411765 0.61960784 0.12352941
0.40490196 0.61568627 0.1254902
0.4254902 0.61568627 0.12254902
0.45147059 0.61176471 0.11764706
0.47843137 0.60784314 0.11372549
0.50686275 0.60392157 0.10735294
0.53529412 0.6 0.10196078
0.56323529 0.6 0.10196078
0.59411765 0.59411765 0.10196078
0.62892157 0.5877451 0.10588235
0.6627451 0.57745098 0.10588235
0.69460784 0.56715686 0.10588235
0.7254902 0.55686275 0.10980392
0.76029412 0.54411765 0.10343137
0.79509804 0.52843137 0.097058824
0.82598039 0.51421569 0.083333333
0.86078431 0.49803922 0.076470588
0.89215686 0.47696078 0.070588235
0.92941176 0.44901961 0.067647059
0.96519608 0.4245098 0.062745098
0.99215686 0.40392157 0.058823529
0.39019608 0.66862745 0.13872549
0.4004902 0.66715686 0.12843137
0.41470588 0.66470588 0.11703431
0.42126225 0.66470588 0.11501225
0.43137255 0.66323529 0.12034314
0.44166667 0.66292892 0.1254902
0.45306373 0.66078431 0.1254902
0.47598039 0.65686275 0.12009804
0.50539216 0.65294118 0.11372549
0.53290441 0.64810049 0.10435049
0.56262255 0.64509804 0.098039216
0.58805147 0.64509804 0.098039216
0.61470588 0.64240196 0.099509804
0.64558824 0.63707108 0.10165441
0.67647059 0.62892157 0.099509804
0.70735294 0.61862745 0.099509804
0.73970588 0.60833333 0.099509804
0.77058824 0.59957108 0.10104167
0.80428922 0.58345588 0.093627451
0.83627451 0.56991422 0.082536765
0.86715686 0.55784314 0.074509804
0.89981618 0.53872549 0.070281863
0.93431373 0.51360294 0.066666667
0.96519608 0.49356618 0.06127451
0.98823529 0.47990196 0.056372549
0.43627451 0.71372549 0.12352941
0.44166667 0.71188725 0.11776961
0.45196078 0.70980392 0.10808824
0.4622549 0.70686275 0.10882353
0.47009804 0.70588235 0.11176471
0.47892157 0.70588235 0.1127451
0.48921569 0.70294118 0.1127451
0.5060049 0.7004902 0.1127451
0.53235294 0.69803922 0.10882353
0.55931373 0.69227941 0.099509804
0.58848039 0.69019608 0.093137255
0.61360294 0.69019608 0.093137255
0.63970588 0.68627451 0.094117647
0.6622549 0.68333333 0.094117647
0.69215686 0.67941176 0.093137255
0.72120098 0.67009804 0.093137255
0.75392157 0.65980392 0.093137255
0.78480392 0.6495098 0.090686275
0.81568627 0.6370098 0.084313725
0.84301471 0.62892157 0.077941176
0.875 0.61960784 0.072058824
0.90735294 0.60490196 0.065686275
0.93921569 0.58431373 0.062009804
0.96911765 0.56580882 0.056740196
0.98823529 0.55294118 0.053921569
0.48431373 0.75490196 0.10294118
0.48431373 0.75490196 0.099203431
0.49227941 0.75098039 0.09375
0.49957108 0.75098039 0.094178922
0.50980392 0.74705882 0.095098039
0.52009804 0.74705882 0.095098039
0.53039216 0.74411765 0.098897059
0.54246324 0.74313725 0.098835784
0.56323529 0.73921569 0.098529412
0.5877451 0.73658088 0.092156863
0.61629902 0.73394608 0.086642157
0.64068627 0.73137255 0.086703431
0.66176471 0.73112745 0.086764706
0.68284314 0.72745098 0.086764706
0.70980392 0.72708333 0.086764706
0.7372549 0.72285539 0.082843137
0.76813725 0.71127451 0.082843137
0.79509804 0.70098039 0.078921569
0.82598039 0.69154412 0.074142157
0.85643382 0.68431373 0.06807598
0.88382353 0.67745098 0.063480392
0.91470588 0.66715686 0.059252451
0.94558824 0.65257353 0.05502451
0.97647059 0.6346201 0.05
0.99166667 0.6245098 0.04754902
0.52941176 0.79607843 0.080392157
0.52941176 0.79607843 0.078431373
0.53333333 0.79215686 0.074509804
0.53897059 0.79215686 0.074509804
0.54705882 0.78823529 0.074509804
0.55735294 0.78823529 0.078921569
0.56764706 0.78823529 0.085784314
0.58186275 0.78431373 0.085539216
0.59803922 0.78235294 0.084313725
0.61862745 0.78039216 0.080392157
0.64411765 0.77794118 0.076470588
0.66397059 0.7747549 0.076470588
0.68431373 0.77254902 0.080392157
0.70686275 0.76862745 0.080392157
0.73088235 0.77009804 0.076960784
0.75735294 0.77254902 0.07377451
0.78235294 0.76666667 0.070588235
0.81004902 0.75637255 0.064215686
0.83823529 0.74656863 0.057843137
0.86740196 0.73970588 0.051470588
0.89705882 0.73431373 0.050980392
0.925 0.72696078 0.049019608
0.95588235 0.71862745 0.046078431
0.98529412 0.70171569 0.041176471
0.99607843 0.69607843 0.041176471
0.5745098 0.8372549 0.057843137
0.5745098 0.8372549 0.057843137
0.5745098 0.83370098 0.053921569
0.57843137 0.83333333 0.053921569
0.58823529 0.82941176 0.055882353
0.59852941 0.82941176 0.062254902
0.60882353 0.82990196 0.065686275
0.62273284 0.828125 0.065686275
0.63333333 0.8254902 0.066176471
0.65343137 0.8254902 0.065870098
0.67401961 0.82193627 0.063112745
0.69117647 0.81770833 0.066176471
0.71078431 0.81764706 0.065686275
0.73143382 0.81421569 0.065686275
0.75502451 0.81764706 0.061764706
0.77775735 0.81764706 0.056372549
0.8004902 0.81372549 0.05
0.82530637 0.80637255 0.043627451
0.85441176 0.79889706 0.037377451
0.88143382 0.79466912 0.034803922
0.90833333 0.78872549 0.038235294
0.93529412 0.78235294 0.034803922
0.96580882 0.77512255 0.034803922
0.99295343 0.7658701 0.030882353
1 0.76372549 0.034803922
0.61568627 0.8745098 0.040196078
0.61568627 0.87512255 0.037254902
0.61887255 0.87843137 0.032598039
0.61960784 0.87487745 0.029411765
0.62941176 0.87401961 0.035294118
0.63578431 0.87352941 0.041666667
0.65 0.8745098 0.045098039
0.66029412 0.87242647 0.045098039
0.67058824 0.86666667 0.049019608
0.6872549 0.87022059 0.049019608
0.70784314 0.86642157 0.049019608
0.71911765 0.8627451 0.051960784
0.73529412 0.8627451 0.047058824
0.75588235 0.86568627 0.045098039
0.77941176 0.86348039 0.041176471
0.80098039 0.86237745 0.037254902
0.81764706 0.86176471 0.029411765
0.84105392 0.85784314 0.019730392
0.86764706 0.85294118 0.017647059
0.89215686 0.84656863 0.020588235
0.91862745 0.84215686 0.024509804
0.94522059 0.83394608 0.024509804
0.97034314 0.82745098 0.024509804
0.99117647 0.82401961 0.020588235
1 0.82156863 0.024509804
0.64607843 0.90343137 0.02745098
0.64944853 0.90490196 0.024448529
0.65281863 0.90833333 0.018627451
0.65851716 0.91341912 0.009620098
0.66838235 0.91495098 0.018137255
0.67696078 0.9158701 0.024509804
0.69117647 0.91960784 0.024509804
0.69908088 0.91421569 0.025980392
0.70637255 0.90784314 0.032352941
0.71966912 0.91421569 0.032904412
0.73872549 0.91286765 0.033823529
0.74773284 0.90441176 0.03627451
0.76127451 0.90588235 0.030392157
0.78186275 0.91323529 0.024509804
0.80490196 0.91213235 0.020588235
0.82156863 0.90784314 0.020588235
0.84215686 0.90931373 0.014215686
0.86029412 0.90931373 0.0069240196
0.88333333 0.90441176 0.0084558824
0.90637255 0.89803922 0.011580882
0.92818627 0.89019608 0.014215686
0.94981618 0.88057598 0.015502451
0.96727941 0.88186275 0.014215686
0.98670343 0.88094363 0.013664216
1 0.87794118 0.014215686
0.65490196 0.90980392 0.02745098
0.65490196 0.9122549 0.025
0.65882353 0.91372549 0.019607843
0.65882353 0.91372549 0.015686275
0.67843137 0.92745098 0.015686275
0.70343137 0.94215686 0.011764706
0.73039216 0.9627451 0.00098039216
0.72941176 0.95147059 0.011764706
0.73333333 0.94509804 0.019607843
0.75 0.94901961 0.019607843
0.76176471 0.94803922 0.019607843
0.76862745 0.93431373 0.023529412
0.78431373 0.93921569 0.017647059
0.80490196 0.95294118 0.0073529412
0.82156863 0.95 0.0078431373
0.83823529 0.94117647 0.010294118
0.85882353 0.94901961 0.0078431373
0.88186275 0.95784314 0.0014705882
0.89901961 0.94803922 0.0039215686
0.91666667 0.93431373 0.0073529412
0.93333333 0.92156863 0.0098039216
0.95 0.91421569 0.01127451
0.96666667 0.92156863 0.0078431373
0.98333333 0.9254902 0.0039215686
1 0.93333333 0
0.0053921569 0.0039215686 0.023529412
0.024509804 0.006372549 0.022610294
0.057843137 0.011764706 0.022671569
0.08872549 0.015686275 0.024509804
0.11568627 0.015686275 0.024509804
0.14393382 0.015686275 0.028431373
0.17169118 0.012745098 0.028431373
0.19748775 0.0078431373 0.024509804
0.22352941 0.0039215686 0.024509804
0.2622549 0.006372549 0.028431373
0.30588235 0.0078431373 0.034803922
0.34705882 0.011458333 0.041482843
0.38578431 0.011764706 0.050245098
0.4254902 0.0078431373 0.057843137
0.46960784 0.0039215686 0.062745098
0.51715686 0.0039215686 0.051960784
0.56470588 0.0039215686 0.037745098
0.61372549 0.0039215686 0.02745098
0.66090686 0.0035539216 0.020588235
0.70520833 0.0021446078 0.021875
0.74901961 0.0039215686 0.025245098
0.79411765 0.0039215686 0.021568627
0.83921569 0.0039215686 0.015686275
0.88039216 0.0039215686 0.010294118
0.91372549 0.0039215686 0.0078431373
0.024509804 0.030882353 0.033823529
0.03817402 0.026386336 0.029901961
0.064522059 0.02265625 0.027374387
0.089100797 0.018328738 0.024509804
0.11568627 0.017218137 0.024509804
0.14564951 0.019247855 0.027948836
0.1748315 0.022058824 0.030882353
0.20294118 0.021507353 0.031227022
0.23229167 0.020588235 0.031801471
0.26839767 0.017011336 0.03214614
0.30721507 0.016835172 0.036642157
0.34797794 0.015686275 0.041482843
0.38823529 0.01372549 0.048560049
0.42941176 0.0078431373 0.058647365
0.47058824 0.0039215686 0.062745098
0.51715686 0.0039215686 0.051960784
0.565625 0.0039215686 0.037745098
