site/assets/luts/sha256-db60a3882733319b9496d11493ced91585dbe462756543d95b478f326eb824cd.cube
# LUTr-Schema-Version: 2
# LUTr-ID: sha256-db60a3882733319b9496d11493ced91585dbe462756543d95b478f326eb824cd
# LUTr-Title: agfa precisa 100
# LUTr-Collection: Natron HaldCLUT
# LUTr-Collection-ID: natron-haldclut-presets
# LUTr-Source: https://github.com/NatronGitHub/clut
# LUTr-Retrieved: 2026-07-27
# LUTr-Source-File: submissions/natron-haldclut-presets/colorslide/agfa_precisa_100.png
# LUTr-Source-Format: HALD-PNG
# LUTr-Source-SHA256: db60a3882733319b9496d11493ced91585dbe462756543d95b478f326eb824cd
# LUTr-License: CC-BY-SA-4.0
# LUTr-License-URL: https://github.com/NatronGitHub/clut#license
# LUTr-License-Basis: repo-license-file
# LUTr-Transform-Class: film-emulation
# LUTr-Tags: creative, film, film-emulation, hald-clut, natron, png, cube
# LUTr-Input-Color-Space: srgb
# LUTr-Input-Gamut: rec709
# LUTr-Input-Transfer: srgb
# LUTr-Output-Color-Space: srgb
# LUTr-Output-Gamut: rec709
# LUTr-Output-Transfer: srgb
# LUTr-Color-Space-Confidence: assumed-display-referred
# LUTr-Domain-Normalized: true
# LUTr-Shaper: none
# LUTr-Original-Grid: 64x64x64
# LUTr-Conversion-Grid: 25x25x25
# LUTr-Conversion-Interpolation: trilinear
# LUTr-Conversion-Method: HALD-PNG LUT image decoded at 16-bit and sampled to 25x25x25 3D CUBE
# LUTr-Conversion-Tool: LUTr scripts/convert-all-to-cube.mjs 2.0.0
# LUTr-Conversion-Date: 2026-07-27
# LUTr-Note: Preserve this metadata and the upstream license notices when redistributing.
TITLE "agfa precisa 100"
LUT_3D_SIZE 5
DOMAIN_MIN 0 0 0
DOMAIN_MAX 1 1 1
0 0 0
0.17352941 0.025490196 0.032352941
0.41176471 0.035294118 0.064705882
0.71372549 0.087254902 0.13921569
0.96862745 0.12156863 0.21176471
0.097058824 0.20490196 0.073529412
0.21960784 0.20784314 0.081372549
0.45637255 0.22401961 0.076960784
0.73333333 0.20294118 0.11495098
0.98333333 0.1372549 0.21176471
0.14901961 0.48039216 0.17647059
0.27352941 0.49215686 0.17647059
0.51470588 0.50392157 0.17058824
0.79068627 0.52009804 0.090196078
0.99607843 0.47254902 0.10980392
0.30098039 0.77352941 0.36470588
0.40318627 0.78259804 0.35196078
0.58823529 0.80637255 0.33872549
0.82279412 0.83627451 0.22843137
0.98039216 0.8627451 0.02745098
0.58431373 0.97647059 0.64705882
0.62156863 0.97941176 0.63431373
0.7254902 0.98627451 0.62156863
0.88823529 0.99607843 0.57843137
1 1 0.3372549
0.02254902 0.011764706 0.13529412
0.15710784 0.011764706 0.13039216
0.40686275 0.026960784 0.12352941
0.71764706 0.090196078 0.14828431
0.97647059 0.12843137 0.21176471
0.084558824 0.19534314 0.19926471
0.20171569 0.19571078 0.19552696
0.45085784 0.21139706 0.18051471
0.74191176 0.22199755 0.15980392
0.99019608 0.14191176 0.21397059
0.10931373 0.47254902 0.28823529
0.25 0.48039216 0.28370098
0.50833333 0.49509804 0.27352941
0.79117647 0.51421569 0.20490196
0.97794118 0.49019608 0.11960784
0.28627451 0.76176471 0.43529412
0.38823529 0.76397059 0.44019608
0.58713235 0.79644608 0.42401961
0.81740196 0.82395833 0.35563725
0.99215686 0.86372549 0.050980392
0.55882353 0.95392157 0.66666667
0.63137255 0.98235294 0.69411765
0.7254902 0.98529412 0.68137255
0.88112745 0.99117647 0.63137255
1 1 0.5
0.0098039216 0.01372549 0.30196078
0.11862745 0.0073529412 0.3
0.38039216 0.01372549 0.30196078
0.70882353 0.065686275 0.25637255
0.96666667 0.12156863 0.22941176
0.06372549 0.17107843 0.37156863
0.17071078 0.18039216 0.37732843
0.4127451 0.19240196 0.3872549
0.7245098 0.19705882 0.35588235
0.98088235 0.17696078 0.22107843
0.074509804 0.44901961 0.46078431
0.21568627 0.46348039 0.46446078
0.47254902 0.47303922 0.4754902
0.76151961 0.4877451 0.44240196
0.99411765 0.47647059 0.26764706
0.24607843 0.7377451 0.58235294
0.35882353 0.75441176 0.59166667
0.56372549 0.76691176 0.59215686
0.79742647 0.79460784 0.57242647
0.98970588 0.81666667 0.41470588
0.58039216 0.96078431 0.77058824
0.62303922 0.96666667 0.7745098
0.71372549 0.96372549 0.76372549
0.87352941 0.99215686 0.77009804
0.99607843 0.99607843 0.69607843
0 0 0.50588235
0.059803922 0.0039215686 0.5245098
0.33186275 0.0068627451 0.55294118
0.66446078 0.020343137 0.54509804
0.99117647 0.096078431 0.33235294
0.024754902 0.16078431 0.57058824
0.10588235 0.1747549 0.59019608
0.38247549 0.17928922 0.62365196
0.68939951 0.1754902 0.63333333
0.95661765 0.13553922 0.54117647
0.02745098 0.44852941 0.64019608
0.10686275 0.45294118 0.65196078
0.42941176 0.46470588 0.6754902
0.72267157 0.47438725 0.69718137
0.98333333 0.43137255 0.63676471
0.14705882 0.72156863 0.72867647
0.30122549 0.73333333 0.7338848
0.5310049 0.75294118 0.75367647
0.77328431 0.76960784 0.76960784
0.97573529 0.77647059 0.71960784
0.56078431 0.94117647 0.84509804
0.59901961 0.94509804 0.85588235
0.70245098 0.95147059 0.86421569
0.86004902 0.97941176 0.88333333
0.96862745 0.9872549 0.87156863
0 0.0078431373 0.70980392
0.023529412 0.0078431373 0.72843137
0.28823529 0.015686275 0.78627451
0.62941176 0.0098039216 0.80392157
0.92941176 0 0.74117647
0 0.17254902 0.73921569
0.055882353 0.18504902 0.75906863
0.3127451 0.19607843 0.80196078
0.65857843 0.17941176 0.83014706
0.91568627 0.10196078 0.88627451
0.0039215686 0.44509804 0.77843137
0.01127451 0.45441176 0.77107843
0.34901961 0.46568627 0.84607843
0.68137255 0.47254902 0.89068627
0.95882353 0.43529412 0.93333333
0.015686275 0.72156863 0.82156863
0.10514706 0.72941176 0.84632353
0.46911765 0.74509804 0.87745098
0.74215686 0.76495098 0.9127451
0.96470588 0.75784314 0.94901961
0.5372549 0.9372549 0.89411765
0.55294118 0.93235294 0.90392157
0.68235294 0.95882353 0.93921569
0.85 0.96862745 0.94215686
0.99607843 0.99607843 0.99607843
