site/assets/luts/sha256-55cee44486f5b43116cbaa8764f5be3780dcf795909b919b9aa78130f193c97f.cube
# LUTr-Schema-Version: 2
# LUTr-ID: sha256-55cee44486f5b43116cbaa8764f5be3780dcf795909b919b9aa78130f193c97f
# LUTr-Title: fuji ilford delta 3200
# LUTr-Collection: Natron HaldCLUT
# LUTr-Collection-ID: natron-haldclut-presets
# LUTr-Source: https://github.com/NatronGitHub/clut
# LUTr-Retrieved: 2026-07-27
# LUTr-Source-File: submissions/natron-haldclut-presets/negative_old/fuji_ilford_delta_3200.png
# LUTr-Source-Format: HALD-PNG
# LUTr-Source-SHA256: 55cee44486f5b43116cbaa8764f5be3780dcf795909b919b9aa78130f193c97f
# LUTr-License: CC-BY-SA-4.0
# LUTr-License-URL: https://github.com/NatronGitHub/clut#license
# LUTr-License-Basis: repo-license-file
# LUTr-Transform-Class: film-emulation
# LUTr-Tags: creative, film, film-emulation, hald-clut, natron, png, cube
# LUTr-Input-Color-Space: srgb
# LUTr-Input-Gamut: rec709
# LUTr-Input-Transfer: srgb
# LUTr-Output-Color-Space: srgb
# LUTr-Output-Gamut: rec709
# LUTr-Output-Transfer: srgb
# LUTr-Color-Space-Confidence: assumed-display-referred
# LUTr-Domain-Normalized: true
# LUTr-Shaper: none
# LUTr-Original-Grid: 64x64x64
# LUTr-Conversion-Grid: 25x25x25
# LUTr-Conversion-Interpolation: trilinear
# LUTr-Conversion-Method: HALD-PNG LUT image decoded at 16-bit and sampled to 25x25x25 3D CUBE
# LUTr-Conversion-Tool: LUTr scripts/convert-all-to-cube.mjs 2.0.0
# LUTr-Conversion-Date: 2026-07-27
# LUTr-Note: Preserve this metadata and the upstream license notices when redistributing.
TITLE "fuji ilford delta 3200"
LUT_3D_SIZE 25
DOMAIN_MIN 0 0 0
DOMAIN_MAX 1 1 1
0.074509804 0.074509804 0.074509804
0.074509804 0.074509804 0.074509804
0.074509804 0.074509804 0.074509804
0.078431373 0.078431373 0.078431373
0.078431373 0.078431373 0.078431373
0.078921569 0.078921569 0.078921569
0.085294118 0.085294118 0.085294118
0.099509804 0.099509804 0.099509804
0.11372549 0.11372549 0.11372549
0.12401961 0.12401961 0.12401961
0.13823529 0.13823529 0.13823529
0.16323529 0.16323529 0.16323529
0.19019608 0.19019608 0.19019608
0.21715686 0.21715686 0.21715686
0.24509804 0.24509804 0.24509804
0.26960784 0.26960784 0.26960784
0.29411765 0.29411765 0.29411765
0.31862745 0.31862745 0.31862745
0.35588235 0.35588235 0.35588235
0.39411765 0.39411765 0.39411765
0.43333333 0.43333333 0.43333333
0.47254902 0.47254902 0.47254902
0.51372549 0.51372549 0.51372549
0.55343137 0.55343137 0.55343137
0.58039216 0.58039216 0.58039216
0.074509804 0.074509804 0.074509804
0.074509804 0.074509804 0.074509804
0.074509804 0.074509804 0.074509804
0.078431373 0.078431373 0.078431373
0.079656863 0.079656863 0.079656863
0.082659314 0.082659314 0.082659314
0.091666667 0.091666667 0.091666667
0.10343137 0.10343137 0.10343137
0.11372549 0.11372549 0.11372549
0.12401961 0.12401961 0.12401961
0.13468137 0.13468137 0.13468137
0.15931373 0.15931373 0.15931373
0.19019608 0.19019608 0.19019608
0.22058824 0.22058824 0.22058824
0.24693627 0.24693627 0.24693627
0.27107843 0.27107843 0.27107843
0.29656863 0.29656863 0.29656863
0.32015931 0.32015931 0.32015931
0.3564951 0.3564951 0.3564951
0.39442402 0.39442402 0.39442402
0.43529412 0.43529412 0.43529412
0.47469363 0.47469363 0.47469363
0.51372549 0.51372549 0.51372549
0.55343137 0.55343137 0.55343137
0.58431373 0.58431373 0.58431373
0.070588235 0.070588235 0.070588235
0.074509804 0.074509804 0.074509804
0.07622549 0.07622549 0.07622549
0.079289216 0.079289216 0.079289216
0.084803922 0.084803922 0.084803922
0.090318627 0.090318627 0.090318627
0.098039216 0.098039216 0.098039216
0.10833333 0.10833333 0.10833333
0.11862745 0.11862745 0.11862745
0.12892157 0.12892157 0.12892157
0.14117647 0.14117647 0.14117647
0.16433824 0.16433824 0.16433824
0.19509804 0.19509804 0.19509804
0.22205882 0.22205882 0.22205882
0.25 0.25 0.25
0.27781863 0.27781863 0.27781863
0.30294118 0.30294118 0.30294118
0.32990196 0.32990196 0.32990196
0.36470588 0.36470588 0.36470588
0.39938725 0.39938725 0.39938725
0.4377451 0.4377451 0.4377451
0.47634804 0.47634804 0.47634804
0.51372549 0.51372549 0.51372549
0.55061275 0.55061275 0.55061275
0.58137255 0.58137255 0.58137255
0.070588235 0.070588235 0.070588235
0.074509804 0.074509804 0.074509804
0.081862745 0.081862745 0.081862745
0.086213235 0.086213235 0.086213235
0.091666667 0.091666667 0.091666667
0.097610294 0.097610294 0.097610294
0.10441176 0.10441176 0.10441176
0.11519608 0.11519608 0.11519608
0.12892157 0.12892157 0.12892157
0.14136029 0.14136029 0.14136029
0.15833333 0.15833333 0.15833333
0.18235294 0.18235294 0.18235294
0.20539216 0.20539216 0.20539216
0.23235294 0.23235294 0.23235294
0.25931373 0.25931373 0.25931373
0.28627451 0.28627451 0.28627451
0.31323529 0.31323529 0.31323529
0.34019608 0.34019608 0.34019608
0.37205882 0.37205882 0.37205882
0.40931373 0.40931373 0.40931373
0.44289216 0.44289216 0.44289216
0.47640931 0.47640931 0.47640931
0.51372549 0.51372549 0.51372549
0.55441176 0.55441176 0.55441176
0.5877451 0.5877451 0.5877451
0.080392157 0.080392157 0.080392157
0.085539216 0.085539216 0.085539216
0.090686275 0.090686275 0.090686275
0.095588235 0.095588235 0.095588235
0.097058824 0.097058824 0.097058824
0.10220588 0.10220588 0.10220588
0.11078431 0.11078431 0.11078431
0.12254902 0.12254902 0.12254902
0.13921569 0.13921569 0.13921569
0.15784314 0.15784314 0.15784314
0.17843137 0.17843137 0.17843137
0.19901961 0.19901961 0.19901961
0.22058824 0.22058824 0.22058824
0.24436275 0.24436275 0.24436275
0.26960784 0.26960784 0.26960784
0.29509804 0.29509804 0.29509804
0.31960784 0.31960784 0.31960784
0.3504902 0.3504902 0.3504902
0.38235294 0.38235294 0.38235294
0.41617647 0.41617647 0.41617647
0.45098039 0.45098039 0.45098039
0.48578431 0.48578431 0.48578431
0.52352941 0.52352941 0.52352941
0.56323529 0.56323529 0.56323529
0.59803922 0.59803922 0.59803922
0.094607843 0.094607843 0.094607843
0.098529412 0.098529412 0.098529412
0.10379902 0.10379902 0.10379902
0.10686275 0.10686275 0.10686275
0.10686275 0.10686275 0.10686275
0.10680147 0.10680147 0.10680147
0.11580882 0.11580882 0.11580882
0.13302696 0.13302696 0.13302696
0.15392157 0.15392157 0.15392157
0.1745098 0.1745098 0.1745098
0.19509804 0.19509804 0.19509804
0.21568627 0.21568627 0.21568627
0.23627451 0.23627451 0.23627451
0.26029412 0.26029412 0.26029412
0.28088235 0.28088235 0.28088235
0.30539216 0.30539216 0.30539216
0.33039216 0.33039216 0.33039216
0.36109069 0.36109069 0.36109069
0.39558824 0.39558824 0.39558824
0.42996324 0.42996324 0.42996324
0.46348039 0.46348039 0.46348039
0.49699755 0.49699755 0.49699755
0.53394608 0.53394608 0.53394608
0.575 0.575 0.575
0.60833333 0.60833333 0.60833333
0.10490196 0.10490196 0.10490196
0.11127451 0.11127451 0.11127451
0.11764706 0.11764706 0.11764706
0.12352941 0.12352941 0.12352941
0.12352941 0.12352941 0.12352941
0.12340686 0.12340686 0.12340686
0.12622549 0.12622549 0.12622549
0.15 0.15 0.15
0.17058824 0.17058824 0.17058824
0.19117647 0.19117647 0.19117647
0.21176471 0.21176471 0.21176471
0.23333333 0.23333333 0.23333333
0.25392157 0.25392157 0.25392157
0.2745098 0.2745098 0.2745098
0.29509804 0.29509804 0.29509804
0.3189951 0.3189951 0.3189951
0.34411765 0.34411765 0.34411765
0.375 0.375 0.375
0.40906863 0.40906863 0.40906863
0.4432598 0.4432598 0.4432598
0.47696078 0.47696078 0.47696078
0.51066176 0.51066176 0.51066176
0.54803922 0.54803922 0.54803922
0.58713235 0.58713235 0.58713235
0.61862745 0.61862745 0.61862745
0.11813725 0.11813725 0.11813725
0.12696078 0.12696078 0.12696078
0.13333333 0.13333333 0.13333333
0.13970588 0.13970588 0.13970588
0.14485294 0.14485294 0.14485294
0.15 0.15 0.15
0.15784314 0.15784314 0.15784314
0.17150735 0.17150735 0.17150735
0.1872549 0.1872549 0.1872549
0.20784314 0.20784314 0.20784314
0.22904412 0.22904412 0.22904412
0.25147059 0.25147059 0.25147059
0.26960784 0.26960784 0.26960784
0.29019608 0.29019608 0.29019608
0.31323529 0.31323529 0.31323529
0.33676471 0.33676471 0.33676471
0.36372549 0.36372549 0.36372549
0.39068627 0.39068627 0.39068627
0.42438725 0.42438725 0.42438725
0.45851716 0.45851716 0.45851716
0.49240196 0.49240196 0.49240196
0.52628676 0.52628676 0.52628676
0.56115196 0.56115196 0.56115196
0.59656863 0.59656863 0.59656863
0.61960784 0.61960784 0.61960784
0.14901961 0.14901961 0.14901961
0.15294118 0.15294118 0.15294118
0.16078431 0.16078431 0.16078431
0.16470588 0.16470588 0.16470588
0.17254902 0.17254902 0.17254902
0.18088235 0.18088235 0.18088235
0.18823529 0.18823529 0.18823529
0.20147059 0.20147059 0.20147059
0.21176471 0.21176471 0.21176471
0.22843137 0.22843137 0.22843137
0.24509804 0.24509804 0.24509804
0.26568627 0.26568627 0.26568627
0.28627451 0.28627451 0.28627451
0.30686275 0.30686275 0.30686275
0.33137255 0.33137255 0.33137255
0.35588235 0.35588235 0.35588235
0.38039216 0.38039216 0.38039216
0.41127451 0.41127451 0.41127451
0.44215686 0.44215686 0.44215686
0.47303922 0.47303922 0.47303922
0.50784314 0.50784314 0.50784314
0.53872549 0.53872549 0.53872549
0.56960784 0.56960784 0.56960784
0.60294118 0.60294118 0.60294118
0.61960784 0.61960784 0.61960784
0.18382353 0.18382353 0.18382353
0.18382353 0.18382353 0.18382353
0.19166667 0.19166667 0.19166667
0.19509804 0.19509804 0.19509804
0.20147059 0.20147059 0.20147059
0.21145833 0.21145833 0.21145833
0.21813725 0.21813725 0.21813725
0.22898284 0.22898284 0.22898284
0.24264706 0.24264706 0.24264706
0.25349265 0.25349265 0.25349265
0.26568627 0.26568627 0.26568627
0.28253676 0.28253676 0.28253676
0.30367647 0.30367647 0.30367647
0.32530637 0.32530637 0.32530637
0.34914216 0.34914216 0.34914216
0.37401961 0.37401961 0.37401961
0.40098039 0.40098039 0.40098039
0.42941176 0.42941176 0.42941176
0.46029412 0.46029412 0.46029412
0.49117647 0.49117647 0.49117647
0.52205882 0.52205882 0.52205882
0.55539216 0.55539216 0.55539216
0.58627451 0.58627451 0.58627451
0.61268382 0.61268382 0.61268382
0.62843137 0.62843137 0.62843137
0.21862745 0.21862745 0.21862745
0.21862745 0.21862745 0.21862745
0.22254902 0.22254902 0.22254902
0.22598039 0.22598039 0.22598039
0.23235294 0.23235294 0.23235294
0.23872549 0.23872549 0.23872549
0.24901961 0.24901961 0.24901961
0.25931373 0.25931373 0.25931373
0.26960784 0.26960784 0.26960784
0.28284314 0.28284314 0.28284314
0.29411765 0.29411765 0.29411765
0.30441176 0.30441176 0.30441176
0.32303922 0.32303922 0.32303922
0.34411765 0.34411765 0.34411765
0.36862745 0.36862745 0.36862745
0.39460784 0.39460784 0.39460784
0.42156863 0.42156863 0.42156863
0.44852941 0.44852941 0.44852941
0.47941176 0.47941176 0.47941176
0.51029412 0.51029412 0.51029412
0.54117647 0.54117647 0.54117647
0.57254902 0.57254902 0.57254902
0.60686275 0.60686275 0.60686275
0.63480392 0.63480392 0.63480392
0.65784314 0.65784314 0.65784314
0.2495098 0.2495098 0.2495098
0.2495098 0.2495098 0.2495098
0.2504902 0.2504902 0.2504902
0.25686275 0.25686275 0.25686275
0.26323529 0.26323529 0.26323529
0.26960784 0.26960784 0.26960784
0.27990196 0.27990196 0.27990196
0.29148284 0.29148284 0.29148284
0.30392157 0.30392157 0.30392157
0.31421569 0.31421569 0.31421569
0.32365196 0.32365196 0.32365196
0.33137255 0.33137255 0.33137255
0.34215686 0.34215686 0.34215686
0.36470588 0.36470588 0.36470588
0.38921569 0.38921569 0.38921569
0.41519608 0.41519608 0.41519608
0.44215686 0.44215686 0.44215686
0.46911765 0.46911765 0.46911765
0.5 0.5 0.5
0.53045343 0.53045343 0.53045343
0.56176471 0.56176471 0.56176471
0.59270833 0.59270833 0.59270833
0.62745098 0.62745098 0.62745098
0.66176471 0.66176471 0.66176471
0.68872549 0.68872549 0.68872549
0.28039216 0.28039216 0.28039216
0.28039216 0.28039216 0.28039216
0.28431373 0.28431373 0.28431373
0.28823529 0.28823529 0.28823529
0.29411765 0.29411765 0.29411765
0.30441176 0.30441176 0.30441176
0.31470588 0.31470588 0.31470588
0.325 0.325 0.325
0.33529412 0.33529412 0.33529412
0.34558824 0.34558824 0.34558824
0.35343137 0.35343137 0.35343137
0.3622549 0.3622549 0.3622549
0.37254902 0.37254902 0.37254902
0.39117647 0.39117647 0.39117647
0.41176471 0.41176471 0.41176471
0.43578431 0.43578431 0.43578431
0.4627451 0.4627451 0.4627451
0.4872549 0.4872549 0.4872549
0.51666667 0.51666667 0.51666667
0.54754902 0.54754902 0.54754902
0.57843137 0.57843137 0.57843137
0.61151961 0.61151961 0.61151961
0.64411765 0.64411765 0.64411765
0.68161765 0.68161765 0.68161765
0.70784314 0.70784314 0.70784314
0.31176471 0.31176471 0.31176471
0.31519608 0.31519608 0.31519608
0.31654412 0.31654412 0.31654412
0.32261029 0.32261029 0.32261029
0.32916667 0.32916667 0.32916667
0.33921569 0.33921569 0.33921569
0.3495098 0.3495098 0.3495098
0.35637255 0.35637255 0.35637255
0.36617647 0.36617647 0.36617647
0.37401961 0.37401961 0.37401961
0.38284314 0.38284314 0.38284314
0.39270833 0.39270833 0.39270833
0.40343137 0.40343137 0.40343137
0.42156863 0.42156863 0.42156863
0.43872549 0.43872549 0.43872549
0.45931373 0.45931373 0.45931373
0.47941176 0.47941176 0.47941176
0.50606618 0.50606618 0.50606618
0.53333333 0.53333333 0.53333333
0.56421569 0.56421569 0.56421569
0.59681373 0.59681373 0.59681373
0.62990196 0.62990196 0.62990196
0.66335784 0.66335784 0.66335784
0.69558824 0.69558824 0.69558824
0.72254902 0.72254902 0.72254902
0.34901961 0.34901961 0.34901961
0.35257353 0.35257353 0.35257353
0.35392157 0.35392157 0.35392157
0.36029412 0.36029412 0.36029412
0.36666667 0.36666667 0.36666667
0.37401961 0.37401961 0.37401961
0.38357843 0.38357843 0.38357843
0.39362745 0.39362745 0.39362745
0.40098039 0.40098039 0.40098039
0.40845588 0.40845588 0.40845588
0.41372549 0.41372549 0.41372549
0.42046569 0.42046569 0.42046569
0.43235294 0.43235294 0.43235294
0.44901961 0.44901961 0.44901961
0.46740196 0.46740196 0.46740196
0.48627451 0.48627451 0.48627451
0.50392157 0.50392157 0.50392157
0.5245098 0.5245098 0.5245098
0.55073529 0.55073529 0.55073529
0.5817402 0.5817402 0.5817402
0.61568627 0.61568627 0.61568627
0.64669118 0.64669118 0.64669118
0.68063725 0.68063725 0.68063725
0.7122549 0.7122549 0.7122549
0.73627451 0.73627451 0.73627451
0.39411765 0.39411765 0.39411765
0.39558824 0.39558824 0.39558824
0.3995098 0.3995098 0.3995098
0.40539216 0.40539216 0.40539216
0.41053922 0.41053922 0.41053922
0.41372549 0.41372549 0.41372549
0.41948529 0.41948529 0.41948529
0.42941176 0.42941176 0.42941176
0.4372549 0.4372549 0.4372549
0.44454657 0.44454657 0.44454657
0.45 0.45 0.45
0.45667892 0.45667892 0.45667892
0.46666667 0.46666667 0.46666667
0.48118873 0.48118873 0.48118873
0.49693627 0.49693627 0.49693627
0.51323529 0.51323529 0.51323529
0.52843137 0.52843137 0.52843137
0.54509804 0.54509804 0.54509804
0.57022059 0.57022059 0.57022059
0.60128676 0.60128676 0.60128676
0.63235294 0.63235294 0.63235294
0.6653799 0.6653799 0.6653799
0.69411765 0.69411765 0.69411765
0.72745098 0.72745098 0.72745098
0.75441176 0.75441176 0.75441176
0.43921569 0.43921569 0.43921569
0.44313725 0.44313725 0.44313725
0.44705882 0.44705882 0.44705882
0.45098039 0.45098039 0.45098039
0.45882353 0.45882353 0.45882353
0.45833333 0.45833333 0.45833333
0.45784314 0.45784314 0.45784314
0.46421569 0.46421569 0.46421569
0.4745098 0.4745098 0.4745098
0.48088235 0.48088235 0.48088235
0.4872549 0.4872549 0.4872549
0.49754902 0.49754902 0.49754902
0.51176471 0.51176471 0.51176471
0.52254902 0.52254902 0.52254902
0.53627451 0.53627451 0.53627451
0.5504902 0.5504902 0.5504902
0.56078431 0.56078431 0.56078431
0.57352941 0.57352941 0.57352941
0.5872549 0.5872549 0.5872549
0.62156863 0.62156863 0.62156863
0.65294118 0.65294118 0.65294118
0.67990196 0.67990196 0.67990196
0.71078431 0.71078431 0.71078431
0.74558824 0.74558824 0.74558824
0.77647059 0.77647059 0.77647059
0.49068627 0.49068627 0.49068627
0.49160539 0.49160539 0.49160539
0.49558824 0.49558824 0.49558824
0.50196078 0.50196078 0.50196078
0.50637255 0.50637255 0.50637255
0.50245098 0.50245098 0.50245098
0.50245098 0.50245098 0.50245098
0.50300245 0.50300245 0.50300245
0.50931373 0.50931373 0.50931373
0.51568627 0.51568627 0.51568627
0.52843137 0.52843137 0.52843137
0.54264706 0.54264706 0.54264706
0.55686275 0.55686275 0.55686275
0.56715686 0.56715686 0.56715686
0.5810049 0.5810049 0.5810049
0.59166667 0.59166667 0.59166667
0.60196078 0.60196078 0.60196078
0.61378676 0.61378676 0.61378676
0.62928922 0.62928922 0.62928922
0.64503676 0.64503676 0.64503676
0.66838235 0.66838235 0.66838235
0.69656863 0.69656863 0.69656863
0.73137255 0.73137255 0.73137255
0.76764706 0.76764706 0.76764706
0.7995098 0.7995098 0.7995098
0.54215686 0.54215686 0.54215686
0.54276961 0.54276961 0.54276961
0.54705882 0.54705882 0.54705882
0.55343137 0.55343137 0.55343137
0.55784314 0.55784314 0.55784314
0.55490196 0.55490196 0.55490196
0.55392157 0.55392157 0.55392157
0.55392157 0.55392157 0.55392157
0.55392157 0.55392157 0.55392157
0.55526961 0.55526961 0.55526961
0.57377451 0.57377451 0.57377451
0.58860294 0.58860294 0.58860294
0.60196078 0.60196078 0.60196078
0.6122549 0.6122549 0.6122549
0.62352941 0.62352941 0.62352941
0.63382353 0.63382353 0.63382353
0.64705882 0.64705882 0.64705882
0.65833333 0.65833333 0.65833333
0.67156863 0.67156863 0.67156863
0.67794118 0.67794118 0.67794118
0.6877451 0.6877451 0.6877451
0.72107843 0.72107843 0.72107843
0.75563725 0.75563725 0.75563725
0.79178922 0.79178922 0.79178922
0.82156863 0.82156863 0.82156863
0.59362745 0.59362745 0.59362745
0.5973652 0.5973652 0.5973652
0.60110294 0.60110294 0.60110294
0.60533088 0.60533088 0.60533088
0.60931373 0.60931373 0.60931373
0.60931373 0.60931373 0.60931373
0.60931373 0.60931373 0.60931373
0.60931373 0.60931373 0.60931373
0.60882353 0.60882353 0.60882353
0.61305147 0.61305147 0.61305147
0.62303922 0.62303922 0.62303922
0.63970588 0.63970588 0.63970588
0.6504902 0.6504902 0.6504902
0.65735294 0.65735294 0.65735294
0.66764706 0.66764706 0.66764706
0.67922794 0.67922794 0.67922794
0.69166667 0.69166667 0.69166667
0.70245098 0.70245098 0.70245098
0.7127451 0.7127451 0.7127451
0.72261029 0.72261029 0.72261029
0.72941176 0.72941176 0.72941176
0.74509804 0.74509804 0.74509804
0.77634804 0.77634804 0.77634804
0.80882353 0.80882353 0.80882353
0.83823529 0.83823529 0.83823529
0.65098039 0.65098039 0.65098039
0.65220588 0.65220588 0.65220588
0.65539216 0.65539216 0.65539216
0.66029412 0.66029412 0.66029412
0.6627451 0.6627451 0.6627451
0.66495098 0.66495098 0.66495098
0.66666667 0.66666667 0.66666667
0.66666667 0.66666667 0.66666667
0.66862745 0.66862745 0.66862745
0.67181373 0.67181373 0.67181373
0.67745098 0.67745098 0.67745098
0.68946078 0.68946078 0.68946078
0.7 0.7 0.7
0.70612745 0.70612745 0.70612745
0.71470588 0.71470588 0.71470588
0.72696078 0.72696078 0.72696078
0.7372549 0.7372549 0.7372549
0.74754902 0.74754902 0.74754902
0.75784314 0.75784314 0.75784314
0.76642157 0.76642157 0.76642157
0.7745098 0.7745098 0.7745098
0.78504902 0.78504902 0.78504902
0.80392157 0.80392157 0.80392157
0.83308824 0.83308824 0.83308824
0.85882353 0.85882353 0.85882353
0.70833333 0.70833333 0.70833333
0.70863971 0.70863971 0.70863971
0.7122549 0.7122549 0.7122549
0.71268382 0.71268382 0.71268382
0.71617647 0.71617647 0.71617647
0.72015931 0.72015931 0.72015931
0.72401961 0.72401961 0.72401961
0.72420343 0.72420343 0.72420343
0.7245098 0.7245098 0.7245098
0.72824755 0.72824755 0.72824755
0.73284314 0.73284314 0.73284314
0.74313725 0.74313725 0.74313725
0.75122549 0.75122549 0.75122549
0.75582108 0.75582108 0.75582108
0.76188725 0.76188725 0.76188725
0.77205882 0.77205882 0.77205882
0.78284314 0.78284314 0.78284314
0.79313725 0.79313725 0.79313725
0.80294118 0.80294118 0.80294118
0.80980392 0.80980392 0.80980392
0.81960784 0.81960784 0.81960784
0.82598039 0.82598039 0.82598039
0.83884804 0.83884804 0.83884804
0.85931373 0.85931373 0.85931373
0.87990196 0.87990196 0.87990196
0.76666667 0.76666667 0.76666667
0.76666667 0.76666667 0.76666667
0.76764706 0.76764706 0.76764706
0.76764706 0.76764706 0.76764706
0.77058824 0.77058824 0.77058824
0.77205882 0.77205882 0.77205882
0.77916667 0.77916667 0.77916667
0.77941176 0.77941176 0.77941176
0.78235294 0.78235294 0.78235294
0.78517157 0.78517157 0.78517157
0.7872549 0.7872549 0.7872549
0.79460784 0.79460784 0.79460784
0.80098039 0.80098039 0.80098039
0.80392157 0.80392157 0.80392157
0.80686275 0.80686275 0.80686275
0.81715686 0.81715686 0.81715686
0.83039216 0.83039216 0.83039216
0.8377451 0.8377451 0.8377451
0.84411765 0.84411765 0.84411765
0.85441176 0.85441176 0.85441176
0.86078431 0.86078431 0.86078431
0.86715686 0.86715686 0.86715686
0.87745098 0.87745098 0.87745098
0.89019608 0.89019608 0.89019608
0.90784314 0.90784314 0.90784314
0.8245098 0.8245098 0.8245098
0.8245098 0.8245098 0.8245098
0.82303922 0.82303922 0.82303922
0.82156863 0.82156863 0.82156863
0.82156863 0.82156863 0.82156863
0.82334559 0.82334559 0.82334559
0.82879902 0.82879902 0.82879902
0.83333333 0.83333333 0.83333333
0.83333333 0.83333333 0.83333333
0.8372549 0.8372549 0.8372549
0.84154412 0.84154412 0.84154412
0.84607843 0.84607843 0.84607843
0.8504902 0.8504902 0.8504902
0.84901961 0.84901961 0.84901961
0.85196078 0.85196078 0.85196078
0.8622549 0.8622549 0.8622549
0.87401961 0.87401961 0.87401961
0.87947304 0.87947304 0.87947304
0.88198529 0.88198529 0.88198529
0.89430147 0.89430147 0.89430147
0.89926471 0.89926471 0.89926471
0.90441176 0.90441176 0.90441176
0.91360294 0.91360294 0.91360294
0.92408088 0.92408088 0.92408088
0.9377451 0.9377451 0.9377451
0.88235294 0.88235294 0.88235294
0.86813725 0.86813725 0.86813725
0.86176471 0.86176471 0.86176471
0.85882353 0.85882353 0.85882353
0.85882353 0.85882353 0.85882353
0.85931373 0.85931373 0.85931373
0.86666667 0.86666667 0.86666667
0.87058824 0.87058824 0.87058824
0.87058824 0.87058824 0.87058824
0.8745098 0.8745098 0.8745098
0.87941176 0.87941176 0.87941176
0.88970588 0.88970588 0.88970588
0.88823529 0.88823529 0.88823529
0.88235294 0.88235294 0.88235294
0.88529412 0.88529412 0.88529412
0.89705882 0.89705882 0.89705882
0.92156863 0.92156863 0.92156863
0.91127451 0.91127451 0.91127451
0.91176471 0.91176471 0.91176471
0.92156863 0.92156863 0.92156863
0.92745098 0.92745098 0.92745098
0.93382353 0.93382353 0.93382353
0.94117647 0.94117647 0.94117647
0.95441176 0.95441176 0.95441176
0.96862745 0.96862745 0.96862745
0.074509804 0.074509804 0.074509804
0.076960784 0.076960784 0.076960784
0.078431373 0.078431373 0.078431373
0.078431373 0.078431373 0.078431373
0.078431373 0.078431373 0.078431373
0.078431373 0.078431373 0.078431373
0.085294118 0.085294118 0.085294118
0.099509804 0.099509804 0.099509804
0.11372549 0.11372549 0.11372549
0.12738971 0.12738971 0.12738971
0.14558824 0.14558824 0.14558824
0.16960784 0.16960784 0.16960784
0.19656863 0.19656863 0.19656863
0.22322304 0.22322304 0.22322304
0.24865196 0.24865196 0.24865196
0.27261029 0.27261029 0.27261029
0.29656863 0.29656863 0.29656863
0.32015931 0.32015931 0.32015931
0.3564951 0.3564951 0.3564951
0.39656863 0.39656863 0.39656863
0.43529412 0.43529412 0.43529412
0.47628676 0.47628676 0.47628676
0.51433824 0.51433824 0.51433824
0.55435049 0.55435049 0.55435049
0.58431373 0.58431373 0.58431373
0.074509804 0.074509804 0.074509804
0.076960784 0.076960784 0.076960784
0.077328431 0.077328431 0.077328431
0.078431373 0.078431373 0.078431373
0.079656863 0.079656863 0.079656863
0.082659314 0.082659314 0.082659314
0.091666667 0.091666667 0.091666667
0.10251225 0.10251225 0.10251225
0.11617647 0.11617647 0.11617647
0.12773438 0.12773438 0.12773438
0.14384191 0.14384191 0.14384191
0.16665901 0.16665901 0.16665901
0.19610907 0.19610907 0.19610907
0.22341452 0.22341452 0.22341452
0.25003064 0.25003064 0.25003064
0.27375919 0.27375919 0.27375919
0.29748775 0.29748775 0.29748775
0.32226563 0.32226563 0.32226563
0.35801164 0.35801164 0.35801164
0.39755668 0.39755668 0.39755668
0.43606005 0.43606005 0.43606005
0.47647059 0.47647059 0.47647059
0.51617647 0.51617647 0.51617647
0.55490196 0.55490196 0.55490196
0.58431373 0.58431373 0.58431373
0.074509804 0.074509804 0.074509804
0.076731005 0.076731005 0.076731005
0.078431373 0.078431373 0.078431373
0.081020221 0.081020221 0.081020221
0.085110294 0.085110294 0.085110294
0.090318627 0.090318627 0.090318627
0.098039216 0.098039216 0.098039216
0.11081495 0.11081495 0.11081495
0.12218137 0.12218137 0.12218137
0.134375 0.134375 0.134375
