site/assets/luts/sha256-4f96ade67f99932878f6809fdaf9b4f02ec3e7e26c366e7d5e7fd545765d640e.cube
# LUTr-Schema-Version: 2
# LUTr-ID: sha256-4f96ade67f99932878f6809fdaf9b4f02ec3e7e26c366e7d5e7fd545765d640e
# LUTr-Title: polaroid px-100uv+ cold -
# LUTr-Collection: Natron HaldCLUT
# LUTr-Collection-ID: natron-haldclut-presets
# LUTr-Source: https://github.com/NatronGitHub/clut
# LUTr-Retrieved: 2026-07-27
# LUTr-Source-File: submissions/natron-haldclut-presets/instant_consumer/polaroid_px-100uv+_cold_-.png
# LUTr-Source-Format: HALD-PNG
# LUTr-Source-SHA256: 4f96ade67f99932878f6809fdaf9b4f02ec3e7e26c366e7d5e7fd545765d640e
# LUTr-License: CC-BY-SA-4.0
# LUTr-License-URL: https://github.com/NatronGitHub/clut#license
# LUTr-License-Basis: repo-license-file
# LUTr-Transform-Class: film-emulation
# LUTr-Tags: creative, film, film-emulation, hald-clut, natron, png, cool, cube
# LUTr-Input-Color-Space: srgb
# LUTr-Input-Gamut: rec709
# LUTr-Input-Transfer: srgb
# LUTr-Output-Color-Space: srgb
# LUTr-Output-Gamut: rec709
# LUTr-Output-Transfer: srgb
# LUTr-Color-Space-Confidence: assumed-display-referred
# LUTr-Domain-Normalized: true
# LUTr-Shaper: none
# LUTr-Original-Grid: 64x64x64
# LUTr-Conversion-Grid: 25x25x25
# LUTr-Conversion-Interpolation: trilinear
# LUTr-Conversion-Method: HALD-PNG LUT image decoded at 16-bit and sampled to 25x25x25 3D CUBE
# LUTr-Conversion-Tool: LUTr scripts/convert-all-to-cube.mjs 2.0.0
# LUTr-Conversion-Date: 2026-07-27
# LUTr-Note: Preserve this metadata and the upstream license notices when redistributing.
TITLE "polaroid px-100uv+ cold -"
LUT_3D_SIZE 5
DOMAIN_MIN 0 0 0
DOMAIN_MAX 1 1 1
0.11764706 0.13333333 0.1372549
0.13823529 0.15392157 0.15392157
0.30392157 0.3254902 0.3254902
0.45784314 0.47647059 0.47254902
0.61176471 0.63137255 0.61176471
0.15686275 0.17647059 0.17647059
0.21495098 0.23455882 0.23823529
0.32254902 0.34264706 0.34411765
0.46862745 0.48823529 0.48431373
0.62352941 0.64313725 0.61862745
0.36078431 0.37647059 0.38039216
0.36666667 0.38529412 0.38627451
0.43137255 0.44803922 0.44705882
0.51372549 0.53333333 0.52156863
0.63921569 0.65882353 0.63137255
0.53529412 0.55098039 0.54019608
0.53627451 0.55196078 0.54313725
0.55 0.56960784 0.55539216
0.61862745 0.63602941 0.61078431
0.71372549 0.73333333 0.69411765
0.75294118 0.76862745 0.7254902
0.76078431 0.77647059 0.73333333
0.77254902 0.78823529 0.74509804
0.81666667 0.82843137 0.77745098
0.85098039 0.85490196 0.80784314
0.19313725 0.21666667 0.21666667
0.23039216 0.25 0.25098039
0.3754902 0.39509804 0.39117647
0.51078431 0.53039216 0.51862745
0.64215686 0.66176471 0.63431373
0.24387255 0.26666667 0.27058824
0.30355392 0.32487745 0.32377451
0.39595588 0.41372549 0.4129902
0.51862745 0.53504902 0.52628676
0.65 0.66960784 0.63823529
0.41470588 0.43431373 0.43039216
0.43014706 0.44705882 0.44583333
0.46960784 0.4872549 0.48186275
0.54411765 0.56360294 0.55098039
0.65637255 0.67598039 0.64656863
0.56568627 0.58529412 0.56740196
0.56666667 0.58235294 0.56960784
0.57610294 0.59178922 0.57647059
0.6372549 0.65686275 0.63014706
0.70882353 0.7245098 0.68921569
0.79117647 0.80294118 0.75588235
0.77573529 0.78823529 0.74509804
0.77647059 0.78823529 0.74509804
0.80784314 0.81960784 0.76862745
0.8627451 0.86960784 0.81470588
0.41764706 0.4372549 0.43333333
0.44803922 0.46372549 0.4622549
0.47843137 0.49803922 0.48921569
0.56715686 0.58676471 0.56862745
0.70784314 0.7254902 0.68823529
0.44068627 0.45686275 0.45441176
0.46605392 0.48284314 0.47941176
0.49656863 0.51519608 0.50857843
0.58333333 0.60220588 0.58333333
0.71176471 0.73039216 0.69166667
0.48627451 0.50588235 0.49705882
0.51568627 0.53431373 0.52426471
0.55392157 0.57303922 0.55882353
0.61764706 0.63651961 0.6127451
0.7372549 0.75196078 0.70980392
0.63137255 0.65098039 0.62352941
0.64007353 0.65894608 0.6317402
0.64509804 0.66372549 0.6377451
0.69105392 0.70686275 0.67156863
0.72843137 0.74411765 0.70441176
0.81764706 0.82745098 0.77843137
0.80931373 0.81764706 0.77058824
0.83333333 0.84117647 0.79019608
0.84411765 0.85 0.79852941
0.8745098 0.87647059 0.82156863
0.62352941 0.63529412 0.61470588
0.63431373 0.64681373 0.62254902
0.65588235 0.67156863 0.64362745
0.68161765 0.69730392 0.66887255
0.76568627 0.78137255 0.73823529
0.62941176 0.64607843 0.62254902
0.6379902 0.6564951 0.63039216
0.67512255 0.69068627 0.65894608
0.69779412 0.7127451 0.68118873
0.77647059 0.79117647 0.74509804
0.64607843 0.66568627 0.6372549
0.65 0.66813725 0.64215686
0.69313725 0.70833333 0.67598039
0.725 0.74019608 0.70294118
0.8127451 0.82058824 0.77352941
0.68627451 0.70588235 0.67058824
0.70122549 0.71838235 0.68529412
0.72830882 0.74509804 0.70735294
0.78431373 0.79607843 0.74901961
0.83333333 0.8372549 0.7870098
0.86764706 0.87156863 0.81568627
0.86544118 0.87181373 0.81838235
0.89166667 0.89166667 0.83284314
0.87647059 0.87647059 0.82328431
0.9254902 0.92156863 0.8627451
0.85098039 0.85490196 0.80392157
0.86666667 0.87058824 0.81568627
0.88235294 0.88431373 0.82941176
0.89411765 0.89117647 0.83921569
0.90588235 0.90588235 0.84705882
0.85392157 0.85882353 0.80784314
0.86960784 0.87647059 0.81862745
0.87254902 0.875 0.81862745
0.89583333 0.89436275 0.83946078
0.90588235 0.90588235 0.84705882
0.85098039 0.85882353 0.80784314
0.85294118 0.85882353 0.80637255
0.87843137 0.88039216 0.82352941
0.89705882 0.89656863 0.84215686
0.90588235 0.90196078 0.84705882
0.87941176 0.88235294 0.82843137
0.8754902 0.87941176 0.8245098
0.8995098 0.9 0.84117647
0.91372549 0.91151961 0.85490196
0.90686275 0.90294118 0.84803922
0.89019608 0.89019608 0.83529412
0.91372549 0.90980392 0.85392157
0.91176471 0.91176471 0.85294118
0.92941176 0.9254902 0.86960784
0.9254902 0.92156863 0.86666667
