site/assets/luts/sha256-cf7b092db252aa90cad344bf7acbac57345d510e8977b1251feb7e514811abe4.cube
# LUTr-Schema-Version: 2
# LUTr-ID: sha256-cf7b092db252aa90cad344bf7acbac57345d510e8977b1251feb7e514811abe4
# LUTr-Title: fuji fp-100c cool ++
# LUTr-Collection: Natron HaldCLUT
# LUTr-Collection-ID: natron-haldclut-presets
# LUTr-Source: https://github.com/NatronGitHub/clut
# LUTr-Retrieved: 2026-07-27
# LUTr-Source-File: submissions/natron-haldclut-presets/instant_pro/fuji_fp-100c_cool_++.png
# LUTr-Source-Format: HALD-PNG
# LUTr-Source-SHA256: cf7b092db252aa90cad344bf7acbac57345d510e8977b1251feb7e514811abe4
# LUTr-License: CC-BY-SA-4.0
# LUTr-License-URL: https://github.com/NatronGitHub/clut#license
# LUTr-License-Basis: repo-license-file
# LUTr-Transform-Class: film-emulation
# LUTr-Tags: creative, film, film-emulation, hald-clut, natron, png, cool, cube
# LUTr-Input-Color-Space: srgb
# LUTr-Input-Gamut: rec709
# LUTr-Input-Transfer: srgb
# LUTr-Output-Color-Space: srgb
# LUTr-Output-Gamut: rec709
# LUTr-Output-Transfer: srgb
# LUTr-Color-Space-Confidence: assumed-display-referred
# LUTr-Domain-Normalized: true
# LUTr-Shaper: none
# LUTr-Original-Grid: 64x64x64
# LUTr-Conversion-Grid: 25x25x25
# LUTr-Conversion-Interpolation: trilinear
# LUTr-Conversion-Method: HALD-PNG LUT image decoded at 16-bit and sampled to 25x25x25 3D CUBE
# LUTr-Conversion-Tool: LUTr scripts/convert-all-to-cube.mjs 2.0.0
# LUTr-Conversion-Date: 2026-07-27
# LUTr-Note: Preserve this metadata and the upstream license notices when redistributing.
TITLE "fuji fp-100c cool ++"
LUT_3D_SIZE 25
DOMAIN_MIN 0 0 0
DOMAIN_MAX 1 1 1
0.16470588 0.12941176 0.16078431
0.16470588 0.12941176 0.16470588
0.16960784 0.12941176 0.16470588
0.17598039 0.12941176 0.16470588
0.18627451 0.12941176 0.16470588
0.19607843 0.12941176 0.16078431
0.20294118 0.12941176 0.15784314
0.23333333 0.1254902 0.15686275
0.27843137 0.12156863 0.16078431
0.31960784 0.11519608 0.16078431
0.35686275 0.1127451 0.16078431
0.40147059 0.10637255 0.16078431
0.45686275 0.10392157 0.16078431
0.50833333 0.093137255 0.16078431
0.55980392 0.078431373 0.16078431
0.61127451 0.069117647 0.16078431
0.65882353 0.050980392 0.15686275
0.70245098 0.037745098 0.15294118
0.74607843 0.052941176 0.14901961
0.79019608 0.058823529 0.14901961
0.83333333 0.056862745 0.14509804
0.87205882 0.068137255 0.14901961
0.90686275 0.099019608 0.15294118
0.94558824 0.12598039 0.15686275
0.97647059 0.14509804 0.15294118
0.16078431 0.12941176 0.16078431
0.16470588 0.12941176 0.16470588
0.16960784 0.12941176 0.16470588
0.17598039 0.12941176 0.16470588
0.18382353 0.12941176 0.16470588
0.19264706 0.12941176 0.16078431
0.20294118 0.12941176 0.15784314
0.23333333 0.12702206 0.15686275
0.27843137 0.12156863 0.16078431
0.31960784 0.12009804 0.16078431
0.36078431 0.11911765 0.16078431
0.40410539 0.11617647 0.15863971
0.45686275 0.1122549 0.15686275
0.51176471 0.10373775 0.15686275
0.55980392 0.091544118 0.15686275
0.61127451 0.081862745 0.15594363
0.65882353 0.067647059 0.15294118
0.70545343 0.062254902 0.14957108
0.75183824 0.066789216 0.14620098
0.79411765 0.075490196 0.14509804
0.83529412 0.076715686 0.14509804
0.8723652 0.090686275 0.14901961
0.90870098 0.11176471 0.15588235
0.94558824 0.13964461 0.15686275
0.97401961 0.15931373 0.15294118
0.16078431 0.12941176 0.16078431
0.16531863 0.13002451 0.16323529
0.17034314 0.13112745 0.16470588
0.17598039 0.13419118 0.16470588
0.18480392 0.13431373 0.16470588
0.19669118 0.13431373 0.16078431
0.21078431 0.1372549 0.15784314
0.24215686 0.13823529 0.15686275
0.28333333 0.13431373 0.15686275
0.3245098 0.13039216 0.15980392
0.36568627 0.12965686 0.15686275
0.41066176 0.12647059 0.15686275
0.46127451 0.12254902 0.15294118
0.51311275 0.11776961 0.15196078
0.56372549 0.10857843 0.15196078
0.6122549 0.10245098 0.15196078
0.66372549 0.097058824 0.14901961
0.71066176 0.09252451 0.14620098
0.75710784 0.088970588 0.14411765
0.79901961 0.092892157 0.14117647
0.8377451 0.10882353 0.14558824
0.87340686 0.125 0.14901961
0.91004902 0.13848039 0.15514706
0.94558824 0.15821078 0.15686275
0.97254902 0.17843137 0.15294118
0.16421569 0.14068627 0.16078431
0.16715686 0.14068627 0.16078431
0.17340686 0.14068627 0.16470588
0.17947304 0.14068627 0.16470588
0.18627451 0.14068627 0.16470588
0.20091912 0.14160539 0.16078431
0.22487745 0.14460784 0.15784314
0.25245098 0.14852941 0.15686275
0.29362745 0.14460784 0.15686275
0.33137255 0.14430147 0.15686275
0.37303922 0.14068627 0.15686275
0.42401961 0.14019608 0.15386029
0.47181373 0.1379902 0.15294118
0.52303922 0.13535539 0.14901961
0.5745098 0.13186275 0.14901961
0.62598039 0.12794118 0.14901961
0.67401961 0.12401961 0.14901961
0.71911765 0.12156863 0.14509804
0.76433824 0.11997549 0.14509804
0.80545343 0.12696078 0.14503676
0.84093137 0.13970588 0.14901961
0.87647059 0.15637255 0.15245098
0.91458333 0.17303922 0.15294118
0.95079657 0.18792892 0.15294118
0.97990196 0.20637255 0.14901961
0.16470588 0.15882353 0.16078431
0.16789216 0.15882353 0.16078431
0.17352941 0.15833333 0.16078431
0.18014706 0.15686275 0.16078431
0.19019608 0.15294118 0.16078431
0.20710784 0.15318627 0.16078431
0.23284314 0.15833333 0.15686275
0.25931373 0.15955882 0.15490196
0.29607843 0.16078431 0.15490196
0.34240196 0.1627451 0.15490196
0.39166667 0.16666667 0.15294118
0.44460784 0.16666667 0.15318627
0.49607843 0.16666667 0.15294118
0.54362745 0.1625 0.14901961
0.59117647 0.15882353 0.14754902
0.64191176 0.15490196 0.14509804
0.68431373 0.15490196 0.14901961
0.72867647 0.15686275 0.15098039
0.77058824 0.16078431 0.15245098
0.81176471 0.16813725 0.14901961
0.84705882 0.17843137 0.15098039
0.88210784 0.19093137 0.15294118
0.91813725 0.20637255 0.15294118
0.95490196 0.21985294 0.1502451
0.99019608 0.23333333 0.14509804
0.16862745 0.17745098 0.16078431
0.16862745 0.17481618 0.16078431
0.17254902 0.17352941 0.16078431
0.17990196 0.17352941 0.16078431
0.19436275 0.17377451 0.16078431
0.21366422 0.17794118 0.16029412
0.24031863 0.17794118 0.15686275
0.26519608 0.18186275 0.15294118
0.31029412 0.18578431 0.15245098
0.35784314 0.19185049 0.14901961
0.41066176 0.19362745 0.14987745
0.46519608 0.19362745 0.1528799
0.51666667 0.19362745 0.15294118
0.56415441 0.19362745 0.15202206
0.61139706 0.19056373 0.14644608
0.65373775 0.19197304 0.146875
0.69460784 0.19460784 0.15245098
0.73578431 0.19675245 0.15667892
0.77696078 0.19938725 0.1567402
0.81770833 0.20931373 0.1495098
0.85343137 0.21568627 0.14681373
0.88866422 0.22990196 0.15251225
0.92561275 0.24411765 0.15416667
0.95539216 0.25784314 0.15343137
0.975 0.26421569 0.15392157
0.16568627 0.19803922 0.16078431
0.16862745 0.19411765 0.16078431
0.17254902 0.19019608 0.15759804
0.18247549 0.19276961 0.15686275
0.19803922 0.20294118 0.16078431
0.21973039 0.20882353 0.15686275
0.24411765 0.20882353 0.15318627
0.27843137 0.2127451 0.14963235
0.32352941 0.21666667 0.14607843
0.36997549 0.22058824 0.14509804
0.4245098 0.2252451 0.14607843
0.47892157 0.22745098 0.14607843
0.53039216 0.23137255 0.14803922
0.58051471 0.23529412 0.15294118
0.62622549 0.2375 0.1497549
0.66948529 0.23921569 0.14901961
0.70784314 0.24215686 0.15196078
0.74607843 0.24276961 0.15183824
0.78651961 0.24632353 0.15220588
0.8245098 0.2504902 0.14644608
0.86176471 0.25686275 0.14117647
0.89558824 0.27107843 0.14558824
0.92941176 0.28455882 0.15367647
0.96029412 0.29558824 0.15686275
0.98529412 0.30196078 0.15686275
0.15539216 0.23333333 0.15931373
0.15876225 0.23088235 0.16078431
0.16458333 0.22156863 0.16017157
0.18186275 0.225 0.15833333
0.19926471 0.23186275 0.16078431
0.22107843 0.23609069 0.15508578
0.24803922 0.23970588 0.14901961
0.28670343 0.24417892 0.14509804
0.33088235 0.25294118 0.14362745
0.3745098 0.26323529 0.13970588
0.42843137 0.26862745 0.13578431
0.47990196 0.27224265 0.13578431
0.53529412 0.27647059 0.1377451
0.58854167 0.28057598 0.14393382
0.64178922 0.28541667 0.14754902
0.6872549 0.28970588 0.14810049
0.72303922 0.28970588 0.14754902
0.75692402 0.28970588 0.14509804
0.79362745 0.29252451 0.14473039
0.83118873 0.29577206 0.14148284
0.86740196 0.30073529 0.13602941
0.8995098 0.3122549 0.14344363
0.93039216 0.32254902 0.15404412
0.96519608 0.33284314 0.15833333
0.99215686 0.34313725 0.1622549
0.14117647 0.26666667 0.15686275
0.14754902 0.26666667 0.16078431
0.15784314 0.26666667 0.16078431
0.17156863 0.26666667 0.16470588
0.19215686 0.27058824 0.16078431
0.22058824 0.27058824 0.15637255
0.24803922 0.2745098 0.14607843
0.28970588 0.28382353 0.14362745
0.33333333 0.29411765 0.1372549
0.37696078 0.30441176 0.13088235
0.42843137 0.30980392 0.12941176
0.48333333 0.31372549 0.1254902
0.5372549 0.31960784 0.1254902
0.59117647 0.3254902 0.12990196
0.64607843 0.33235294 0.13627451
0.69460784 0.3372549 0.13872549
0.72941176 0.3372549 0.14117647
0.76666667 0.3372549 0.13872549
0.8 0.33823529 0.1372549
0.8372549 0.34117647 0.14117647
0.86862745 0.34705882 0.14509804
0.90343137 0.35343137 0.15343137
0.93431373 0.36372549 0.16372549
0.96127451 0.3754902 0.17009804
0.98823529 0.38823529 0.17647059
0.12843137 0.30245098 0.15294118
0.13872549 0.30637255 0.15931373
0.15147059 0.30882353 0.16470588
0.16390931 0.31176471 0.16470588
0.18578431 0.31176471 0.16397059
0.21323529 0.31176471 0.15667892
0.24411765 0.31470588 0.15183824
0.2848652 0.325 0.14362745
0.32941176 0.33529412 0.13333333
0.37205882 0.34558824 0.12395833
0.42267157 0.35196078 0.11911765
0.47990196 0.35833333 0.11519608
0.5372549 0.36397059 0.1120098
0.5908701 0.36930147 0.11305147
0.64068627 0.37414216 0.11666667
0.68670343 0.37990196 0.11966912
0.72941176 0.38480392 0.12696078
0.76666667 0.38627451 0.13088235
0.80392157 0.38872549 0.13848039
0.8377451 0.39001225 0.14491422
0.87254902 0.39338235 0.15220588
0.90343137 0.39834559 0.16158088
0.93431373 0.40490196 0.17401961
0.96519608 0.41911765 0.18431373
0.98823529 0.42941176 0.19068627
0.10294118 0.34607843 0.15686275
0.11568627 0.34901961 0.16078431
0.13235294 0.34926471 0.16470588
0.15379902 0.35294118 0.16862745
0.17990196 0.35245098 0.16715686
0.20845588 0.35294118 0.16078431
0.24019608 0.35661765 0.15392157
0.27757353 0.36335784 0.14754902
0.32156863 0.3754902 0.1372549
0.36568627 0.38284314 0.12401961
0.4127451 0.39313725 0.1127451
0.47352941 0.40085784 0.10637255
0.53137255 0.40784314 0.10147059
0.58443627 0.41213235 0.090686275
0.63014706 0.41568627 0.085539216
0.67879902 0.42291667 0.095955882
0.7254902 0.42745098 0.10784314
0.76666667 0.43198529 0.12303922
0.80392157 0.43553922 0.13823529
0.84166667 0.43664216 0.1504902
0.87352941 0.43970588 0.1504902
0.90735294 0.44460784 0.16973039
0.93823529 0.45171569 0.18823529
0.96580882 0.46421569 0.19852941
0.98431373 0.46960784 0.20490196
0.075980392 0.39019608 0.16078431
0.08627451 0.39362745 0.16078431
0.10625 0.39411765 0.16470588
0.13976716 0.39411765 0.16862745
0.17107843 0.39411765 0.16862745
0.20238971 0.39411765 0.16421569
0.23627451 0.39705882 0.15392157
0.27273284 0.40343137 0.14754902
0.31764706 0.41372549 0.1372549
0.35882353 0.41795343 0.13039216
0.40490196 0.43051471 0.11654412
0.45686275 0.44460784 0.10631127
0.5127451 0.44926471 0.092647059
0.56813725 0.45294118 0.062316176
0.61654412 0.45330882 0.042156863
0.66666667 0.46096814 0.055882353
0.71470588 0.46862745 0.075980392
0.75931373 0.475 0.099509804
0.80392157 0.48039216 0.12438725
0.84209559 0.48382353 0.13731618
0.87647059 0.48602941 0.14901961
0.90735294 0.49215686 0.17395833
0.94166667 0.49901961 0.20061275
0.96911765 0.50410539 0.21256127
0.98088235 0.50784314 0.21519608
0.050980392 0.43529412 0.15686275
0.059068627 0.43529412 0.15931373
0.091666667 0.43431373 0.16470588
0.12598039 0.43137255 0.16862745
0.16176471 0.43529412 0.17254902
0.19583333 0.43529412 0.16813725
0.23039216 0.43676471 0.15980392
0.26789216 0.43995098 0.1502451
0.30784314 0.44509804 0.14313725
0.34509804 0.45147059 0.13357843
0.39460784 0.4627451 0.12058824
0.44264706 0.47941176 0.10857843
0.49705882 0.48823529 0.084313725
0.5495098 0.48823529 0.05122549
0.60490196 0.48970588 0.013235294
0.65490196 0.49754902 0.021813725
0.70392157 0.50588235 0.039215686
0.74901961 0.51102941 0.053186275
0.79411765 0.51617647 0.080882353
0.83529412 0.51960784 0.10465686
0.8745098 0.5245098 0.1372549
0.90735294 0.52990196 0.17009804
0.94019608 0.53676471 0.19901961
0.97034314 0.54264706 0.22107843
0.98431373 0.54901961 0.22745098
0.034313725 0.47647059 0.16470588
0.036458333 0.47647059 0.16341912
0.06372549 0.47647059 0.16605392
0.098529412 0.47647059 0.17205882
0.14436275 0.47426471 0.1747549
0.18921569 0.47254902 0.17297794
0.22438725 0.47254902 0.16617647
0.26421569 0.47598039 0.15980392
0.30147059 0.47990196 0.1495098
0.33658088 0.48382353 0.13529412
0.38394608 0.4935049 0.125
0.43235294 0.50686275 0.11470588
0.48602941 0.51715686 0.092892157
0.53921569 0.51917892 0.06127451
0.59068627 0.52598039 0.026960784
0.64166667 0.53235294 0.015196078
0.68970588 0.53921569 0.018627451
0.73854167 0.54295343 0.012254902
0.78382353 0.54754902 0.02377451
0.825 0.55398284 0.062745098
0.86617647 0.56053922 0.10220588
0.89993873 0.56623775 0.14117647
0.93382353 0.57352941 0.18272059
0.96519608 0.58382353 0.21930147
0.98872549 0.59019608 0.23970588
0.017647059 0.51764706 0.16862745
0.014093137 0.51764706 0.16801471
0.023284314 0.51985294 0.16862745
0.073651961 0.51764706 0.17254902
0.12892157 0.51372549 0.17794118
0.17941176 0.51078431 0.17941176
0.21960784 0.51078431 0.1754902
0.26078431 0.51078431 0.1682598
0.29803922 0.51372549 0.15980392
0.33529412 0.51715686 0.1495098
0.37745098 0.52352941 0.1375
0.42598039 0.53468137 0.125
0.47745098 0.54656863 0.10686275
0.52598039 0.55392157 0.067769608
0.57426471 0.56004902 0.030392157
0.625 0.56678922 0.0049019608
0.6754902 0.57352941 0.0049019608
0.72696078 0.57708333 0.0033088235
0.77671569 0.58235294 0.0039215686
0.82156863 0.59166667 0.021936275
0.85931373 0.59656863 0.059803922
0.89558824 0.60012255 0.097058824
0.92745098 0.60784314 0.14191176
0.96127451 0.61813725 0.19056373
0.98921569 0.62941176 0.23529412
0.0039215686 0.55882353 0.17647059
0.0023897059 0.55882353 0.17401961
0.0078431373 0.56066176 0.17401961
0.060294118 0.55539216 0.17775735
0.11544118 0.55294118 0.18112745
0.16568627 0.55079657 0.18400735
0.21323529 0.54705882 0.18039216
0.25539216 0.54705882 0.17555147
0.29411765 0.5495098 0.17009804
0.33829657 0.55251225 0.15980392
0.38039216 0.55833333 0.1495098
0.425 0.56617647 0.13707108
0.46911765 0.57573529 0.12181373
0.51599265 0.58265931 0.08872549
0.56433824 0.59166667 0.048651961
0.61372549 0.59803922 0.017156863
0.66519608 0.60441176 0.0053921569
0.72058824 0.61078431 0.0078431373
0.76813725 0.61715686 0.0078431373
0.81568627 0.62401961 0.0029411765
0.85416667 0.62794118 0.015196078
0.88805147 0.63186275 0.049019608
0.92218137 0.6372549 0.089705882
0.95588235 0.64754902 0.14411765
0.98039216 0.65392157 0.1995098
0.0078431373 0.59607843 0.18431373
0.0078431373 0.59607843 0.18431373
0.0098039216 0.59607843 0.18039216
0.05245098 0.59607843 0.18431373
0.10392157 0.59215686 0.18627451
0.15882353 0.59166667 0.18823529
0.20686275 0.58823529 0.18823529
0.25441176 0.58676471 0.18431373
0.30196078 0.58431373 0.18431373
0.33921569 0.58823529 0.17401961
0.38039216 0.59313725 0.16372549
0.42156863 0.5995098 0.15343137
0.46666667 0.60784314 0.1372549
0.50833333 0.61617647 0.11617647
0.55588235 0.62254902 0.082352941
0.60735294 0.62892157 0.054411765
0.65882353 0.63529412 0.031372549
0.71029412 0.64166667 0.013235294
0.75784314 0.65098039 0.0078431373
0.80539216 0.65490196 0.0039215686
0.84313725 0.65882353 0.0039215686
0.88039216 0.6627451 0.0044117647
0.91764706 0.66568627 0.037254902
0.94558824 0.6745098 0.10441176
0.97647059 0.67843137 0.16862745
0.0078431373 0.6372549 0.19460784
0.0053921569 0.6372549 0.19160539
0.00036764706 0.63333333 0.18615196
0.042830882 0.63333333 0.19019608
0.10122549 0.63333333 0.19460784
0.1596201 0.62941176 0.19883578
0.21323529 0.62941176 0.20098039
0.26470588 0.6254902 0.20245098
0.30980392 0.6254902 0.20098039
0.34705882 0.6254902 0.19068627
0.38223039 0.62977941 0.17647059
0.41911765 0.63676471 0.16617647
0.4627451 0.64191176 0.15269608
0.50784314 0.6495098 0.13756127
0.55257353 0.65625 0.11617647
0.60042892 0.65980392 0.085845588
0.65098039 0.66617647 0.055882353
0.7 0.67401961 0.02310049
0.74754902 0.68186275 0.0078431373
0.79166667 0.68578431 0.0078431373
0.83284314 0.68970588 0.0051470588
0.87401961 0.69362745 0.0040441176
0.91409314 0.69656863 0.015808824
0.94558824 0.70294118 0.067463235
0.97254902 0.70931373 0.1122549
0.0078431373 0.68235294 0.21764706
0.016789216 0.67843137 0.21188725
0.03627451 0.6745098 0.20686275
0.073529412 0.67352941 0.21066176
0.12254902 0.67352941 0.21372549
0.17830882 0.67058824 0.2185049
0.22377451 0.67058824 0.21372549
0.275 0.66666667 0.2127451
0.31862745 0.66666667 0.2127451
0.35588235 0.66666667 0.20343137
0.38995098 0.67058824 0.19509804
0.42745098 0.67316176 0.19215686
0.46764706 0.67794118 0.18137255
0.51311275 0.68272059 0.16801471
0.55759804 0.68921569 0.15
0.60232843 0.6935049 0.11678922
0.64803922 0.69803922 0.081372549
0.69215686 0.70551471 0.040196078
0.73651961 0.7127451 0.0071078431
0.78223039 0.71666667 0.0088235294
0.82745098 0.72058824 0.012745098
0.87156863 0.72463235 0.015808824
0.90906863 0.72843137 0.024264706
0.94669118 0.73235294 0.016176471
0.97156863 0.73529412 0.031372549
0.043137255 0.72009804 0.24166667
0.068443627 0.7158701 0.23792892
0.094117647 0.71213235 0.23431373
0.12542892 0.71176471 0.2377451
0.16617647 0.71176471 0.23823529
0.20741422 0.71133578 0.23780637
0.24558824 0.70796569 0.23137255
0.28743873 0.70655637 0.22518382
0.32892157 0.70441176 0.22303922
0.36960784 0.70784314 0.22598039
0.40686275 0.70919118 0.22990196
0.44460784 0.71176471 0.23333333
0.48357843 0.71568627 0.21960784
0.52303922 0.71666667 0.20104167
0.56421569 0.72267157 0.18088235
0.60949755 0.7276348 0.1473652
0.65441176 0.73186275 0.12941176
0.69589461 0.73823529 0.084007353
0.74068627 0.74362745 0.057352941
0.78186275 0.74754902 0.037254902
0.82352941 0.75147059 0.026470588
0.86819853 0.75545343 0.019669118
0.90588235 0.75931373 0.016666667
0.94185049 0.75949755 0.010110294
0.96519608 0.76323529 0.01127451
0.13529412 0.75882353 0.2627451
0.14607843 0.75441176 0.2627451
0.16715686 0.75294118 0.26176471
0.19313725 0.75294118 0.26642157
0.22058824 0.75 0.26862745
0.25245098 0.74901961 0.26642157
0.28676471 0.74705882 0.26127451
0.32205882 0.74509804 0.25343137
0.35490196 0.74313725 0.24901961
0.39093137 0.74313725 0.25294118
0.42647059 0.74362745 0.25098039
0.4629902 0.74509804 0.24901961
0.50196078 0.74803922 0.24019608
0.53872549 0.75122549 0.22867647
0.575 0.75490196 0.21323529
0.61715686 0.75882353 0.19387255
0.66078431 0.7627451 0.1745098
0.70588235 0.76911765 0.15392157
0.74705882 0.7754902 0.13284314
0.78823529 0.77843137 0.10539216
0.82745098 0.78235294 0.078431373
0.86642157 0.78627451 0.047794118
0.90294118 0.78627451 0.030392157
0.9377451 0.79019608 0.017401961
0.96470588 0.79019608 0.011764706
0.22401961 0.79411765 0.28970588
0.22401961 0.79411765 0.28970588
0.24068627 0.79276961 0.29754902
0.26127451 0.79019608 0.30441176
0.28186275 0.78970588 0.31078431
0.3028799 0.78627451 0.30392157
0.32904412 0.78627451 0.29705882
0.36060049 0.78449755 0.2903799
0.39362745 0.78235294 0.2877451
0.425 0.778125 0.28431373
0.45723039 0.77794118 0.28137255
0.49417892 0.77794118 0.2848652
0.52720588 0.78406863 0.28161765
0.56372549 0.79019608 0.27738971
0.60147059 0.79019608 0.27058824
0.63872549 0.79148284 0.26292892
0.67598039 0.79754902 0.24264706
0.7127451 0.80177696 0.22579657
0.7560049 0.80931373 0.20539216
0.79460784 0.81280637 0.18137255
0.83578431 0.81519608 0.15735294
0.87647059 0.81715686 0.13229167
0.90735294 0.81752451 0.083823529
0.94215686 0.82107843 0.032965686
0.97303922 0.825 0.0034313725
0.31960784 0.83137255 0.36176471
0.31960784 0.83137255 0.36176471
0.32083333 0.82745098 0.35808824
0.33333333 0.8245098 0.3622549
0.35735294 0.82745098 0.37254902
0.37745098 0.82708333 0.36519608
0.39509804 0.82352941 0.35171569
0.41470588 0.82352941 0.33970588
0.43823529 0.81666667 0.33529412
0.47156863 0.8127451 0.33884804
0.50490196 0.81176471 0.34387255
0.54215686 0.81262255 0.35343137
0.57058824 0.82009804 0.34852941
0.59754902 0.82757353 0.33909314
0.63137255 0.82843137 0.3375
0.67254902 0.82843137 0.33296569
0.70588235 0.83137255 0.32156863
0.7377451 0.83590686 0.30098039
0.76960784 0.84093137 0.28504902
0.81164216 0.84411765 0.27598039
0.85294118 0.84803922 0.26176471
0.89068627 0.85196078 0.23590686
0.92156863 0.85196078 0.19730392
0.95245098 0.85526961 0.14865196
0.97352941 0.85588235 0.11666667
0.41323529 0.87107843 0.43382353
0.41470588 0.86862745 0.43382353
0.41286765 0.86433824 0.42745098
0.41421569 0.85931373 0.42322304
0.42990196 0.86127451 0.42892157
0.45588235 0.86470588 0.43645833
0.47647059 0.86470588 0.43198529
0.49558824 0.86323529 0.42598039
0.50588235 0.85539216 0.41568627
0.52653186 0.84901961 0.41176471
0.55931373 0.84791667 0.41666667
0.59381127 0.84901961 0.42696078
0.61911765 0.85539216 0.42156863
0.64411765 0.85949755 0.41979167
0.67892157 0.86433824 0.42794118
0.71317402 0.865625 0.42444853
0.74313725 0.86862745 0.41470588
0.76917892 0.86678922 0.38780637
0.7995098 0.87205882 0.37598039
0.83645833 0.87892157 0.38511029
0.8754902 0.88284314 0.375
0.90490196 0.88431373 0.35637255
0.93333333 0.88786765 0.34730392
0.96127451 0.89068627 0.31268382
0.97254902 0.89068627 0.29313725
0.49803922 0.90196078 0.49803922
0.49705882 0.90098039 0.49705882
0.47352941 0.88921569 0.47352941
0.46666667 0.88235294 0.46323529
0.48235294 0.88431373 0.46862745
0.51519608 0.89117647 0.48333333
0.54705882 0.89803922 0.49803922
0.5622549 0.89656863 0.49656863
0.56862745 0.89019608 0.48627451
0.58529412 0.88235294 0.47843137
0.60686275 0.88235294 0.48333333
0.64166667 0.88578431 0.49754902
0.6627451 0.88627451 0.49411765
0.6877451 0.89019608 0.49460784
0.7254902 0.89705882 0.50784314
0.75196078 0.90196078 0.50980392
0.78039216 0.90588235 0.50196078
0.79705882 0.89558824 0.46715686
0.82647059 0.89901961 0.46078431
0.86078431 0.90931373 0.48137255
0.89019608 0.91372549 0.4745098
0.91519608 0.91029412 0.45441176
0.94607843 0.91666667 0.45098039
0.97254902 0.92156863 0.45196078
0.97647059 0.92156863 0.43921569
0.16470588 0.12941176 0.16715686
0.16807598 0.12941176 0.16715686
0.16960784 0.12941176 0.16715686
0.17598039 0.12941176 0.16501225
0.18235294 0.12941176 0.16470588
0.19264706 0.12941176 0.16078431
0.20870098 0.12757353 0.16078431
0.2372549 0.12457108 0.16078431
0.27843137 0.12156863 0.16078431
0.31868873 0.11519608 0.16078431
0.35796569 0.10980392 0.16078431
0.40147059 0.10588235 0.16078431
0.45686275 0.10073529 0.16078431
0.51207108 0.08939951 0.16078431
0.55980392 0.075490196 0.16078431
0.61127451 0.066115196 0.16078431
0.65882353 0.048529412 0.15686275
0.7033701 0.034375 0.15294118
0.74509804 0.048039216 0.15147059
0.79001225 0.054044118 0.15147059
0.83210784 0.048529412 0.14754902
0.87254902 0.064522059 0.15147059
0.90686275 0.095710784 0.15477941
0.94613971 0.12297794 0.15539216
0.98284314 0.14509804 0.15294118
0.16470588 0.12941176 0.16470588
0.16750153 0.12941176 0.16470588
0.16960784 0.12941176 0.16470588
0.17254902 0.12941176 0.16470588
0.18235294 0.12941176 0.16470588
0.19264706 0.12941176 0.16212469
0.20833333 0.12872243 0.16078431
0.23635876 0.1254902 0.16078431
0.27598039 0.12156863 0.16078431
0.31715686 0.11764706 0.16078431
0.36078431 0.11617647 0.16078431
0.40521599 0.11403186 0.16078431
0.45686275 0.10784314 0.15958946
0.51170343 0.09754902 0.15778186
0.56133578 0.087852328 0.15709252
0.61127451 0.080330882 0.15778186
0.66035539 0.065196078 0.15539216
0.706947 0.058884804 0.15167739
0.74993873 0.062254902 0.15147059
0.7931296 0.066666667 0.15147059
0.83529412 0.073069853 0.15091912
0.87254902 0.088051471 0.15184589
0.90939032 0.10992647 0.15787377
0.94579504 0.13650429 0.15839461
0.97156863 0.15686275 0.15539216
0.16262255 0.13002451 0.16470588
0.16585478 0.13039216 0.16470588
0.16960784 0.13250613 0.16470588
0.17340686 0.13333333 0.16470588
0.18253676 0.13370098 0.16470588
0.19724265 0.13431373 0.16429228
0.21654412 0.13431373 0.16323529
0.2464614 0.13431373 0.16231618
