site/assets/luts/sha256-7e3c6f2e3558f0f8882bd253d3b1a143f3c81aa45fa0f2da74e9bfa0cc51cd44.cube
# LUTr-Schema-Version: 2
# LUTr-ID: sha256-7e3c6f2e3558f0f8882bd253d3b1a143f3c81aa45fa0f2da74e9bfa0cc51cd44
# LUTr-Title: super warm rich
# LUTr-Collection: Natron HaldCLUT
# LUTr-Collection-ID: natron-haldclut-presets
# LUTr-Source: https://github.com/NatronGitHub/clut
# LUTr-Retrieved: 2026-07-27
# LUTr-Source-File: submissions/natron-haldclut-presets/various/super_warm_rich.png
# LUTr-Source-Format: HALD-PNG
# LUTr-Source-SHA256: 7e3c6f2e3558f0f8882bd253d3b1a143f3c81aa45fa0f2da74e9bfa0cc51cd44
# LUTr-License: CC-BY-SA-4.0
# LUTr-License-URL: https://github.com/NatronGitHub/clut#license
# LUTr-License-Basis: repo-license-file
# LUTr-Transform-Class: film-emulation
# LUTr-Tags: creative, film, film-emulation, hald-clut, natron, png, warm, cube
# LUTr-Input-Color-Space: srgb
# LUTr-Input-Gamut: rec709
# LUTr-Input-Transfer: srgb
# LUTr-Output-Color-Space: srgb
# LUTr-Output-Gamut: rec709
# LUTr-Output-Transfer: srgb
# LUTr-Color-Space-Confidence: assumed-display-referred
# LUTr-Domain-Normalized: true
# LUTr-Shaper: none
# LUTr-Original-Grid: 64x64x64
# LUTr-Conversion-Grid: 25x25x25
# LUTr-Conversion-Interpolation: trilinear
# LUTr-Conversion-Method: HALD-PNG LUT image decoded at 16-bit and sampled to 25x25x25 3D CUBE
# LUTr-Conversion-Tool: LUTr scripts/convert-all-to-cube.mjs 2.0.0
# LUTr-Conversion-Date: 2026-07-27
# LUTr-Note: Preserve this metadata and the upstream license notices when redistributing.
TITLE "super warm rich"
LUT_3D_SIZE 5
DOMAIN_MIN 0 0 0
DOMAIN_MAX 1 1 1
0.019607843 0.054901961 0.0078431373
0.42058824 0.024509804 0.016666667
0.71568627 0.029411765 0.01372549
0.88823529 0.011764706 0.012745098
0.94509804 0.023529412 0.015686275
0.024509804 0.20098039 0.0049019608
0.40563725 0.20098039 0.015686275
0.71372549 0.2004902 0.011764706
0.88039216 0.19779412 0.011764706
0.96078431 0.20784314 0.0078431373
0.023529412 0.41960784 0.0098039216
0.40588235 0.42647059 0.011764706
0.71078431 0.43333333 0.015686275
0.88627451 0.41568627 0.019607843
0.96862745 0.42156863 0.019607843
0.019607843 0.6872549 0.0039215686
0.41078431 0.6872549 0.015686275
0.71813725 0.67843137 0.011764706
0.88823529 0.6747549 0.011764706
0.98039216 0.6872549 0.0088235294
0 0.98431373 0.0039215686
0.41862745 0.96960784 0.0078431373
0.71372549 0.9627451 0.021568627
0.89313725 0.97843137 0.0039215686
0.98039216 0.97647059 0.0039215686
0.018627451 0.023529412 0.053921569
0.42941176 0.0125 0.057843137
0.72009804 0.013235294 0.055392157
0.89436275 0.011764706 0.056862745
0.98039216 0.017647059 0.056862745
0.049019608 0.19705882 0.061764706
0.41372549 0.19705882 0.060784314
0.71997549 0.20245098 0.057843137
0.89215686 0.19705882 0.057781863
0.97647059 0.19705882 0.060784314
0.017647059 0.41568627 0.053921569
0.41482843 0.41960784 0.057843137
0.71985294 0.42352941 0.057843137
0.88713235 0.41531863 0.059313725
0.96421569 0.41764706 0.061764706
0.022794118 0.68333333 0.053921569
0.4278799 0.67941176 0.056127451
0.71960784 0.68198529 0.059313725
0.89607843 0.68290441 0.063970588
0.9754902 0.6872549 0.061764706
0.03627451 0.96764706 0.057843137
0.4254902 0.97230392 0.057843137
0.72303922 0.95980392 0.060784314
0.89215686 0.96470588 0.068627451
0.98431373 0.96470588 0.069607843
0.01372549 0.0058823529 0.18431373
0.41568627 0.038235294 0.19068627
0.7254902 0.0049019608 0.19117647
0.88970588 0.042647059 0.19754902
0.96470588 0.011764706 0.19607843
0.025 0.19852941 0.19068627
0.42377451 0.19889706 0.19411765
0.72279412 0.19705882 0.20098039
0.89215686 0.19313725 0.20196078
0.97303922 0.2004902 0.19411765
0.032352941 0.41960784 0.19215686
0.42867647 0.42034314 0.19607843
0.72745098 0.41568627 0.19411765
0.88823529 0.41960784 0.20196078
0.98137255 0.41470588 0.20294118
0.018137255 0.68088235 0.19460784
0.43333333 0.68235294 0.19852941
0.7254902 0.68088235 0.19583333
0.89607843 0.68161765 0.19056373
0.98088235 0.68284314 0.20735294
0.015686275 0.94705882 0.19019608
0.42156863 0.95637255 0.20588235
0.72058824 0.97058824 0.19803922
0.88823529 0.96813725 0.20980392
0.98235294 0.96862745 0.20392157
0.030392157 0.052941176 0.49313725
0.42769608 0.0053921569 0.49117647
0.72352941 0.011764706 0.49852941
0.89215686 0.0058823529 0.49485294
0.96470588 0.020588235 0.50196078
0.019362745 0.19607843 0.49387255
0.42941176 0.19681373 0.50863971
0.71764706 0.19705882 0.5060049
0.89215686 0.19215686 0.49944853
0.97156863 0.19289216 0.49313725
0.017156863 0.41568627 0.48872549
0.42745098 0.41568627 0.51593137
0.71960784 0.42352941 0.49068627
0.8810049 0.42352941 0.49607843
0.96421569 0.42401961 0.49705882
0.027205882 0.67916667 0.50882353
0.41819853 0.68333333 0.50857843
0.72352941 0.68235294 0.48921569
0.89607843 0.68572304 0.50079657
0.9875 0.67941176 0.49534314
0.045098039 0.95392157 0.49313725
0.42328431 0.97867647 0.49901961
0.71960784 0.97156863 0.49705882
0.89681373 0.97401961 0.49387255
0.99215686 0.98333333 0.5
0.054901961 0.011764706 0.96078431
0.42843137 0.020588235 0.93921569
0.72745098 0.011764706 0.94509804
0.88823529 0.042156863 0.92745098
0.96862745 0.050980392 0.94901961
0.0088235294 0.19705882 0.96862745
0.43014706 0.19607843 0.94877451
0.7254902 0.19705882 0.95196078
0.89607843 0.19607843 0.95441176
0.99117647 0.19705882 0.97058824
0.035294118 0.41372549 0.94117647
0.43333333 0.41568627 0.95098039
0.72941176 0.41372549 0.93921569
0.89607843 0.41568627 0.95980392
0.98235294 0.41764706 0.95882353
0.056862745 0.68333333 0.95588235
0.42058824 0.67941176 0.93455882
0.725 0.68284314 0.95637255
0.89607843 0.68259804 0.94387255
0.99313725 0.67941176 0.96666667
0.054901961 0.92941176 0.95686275
0.42156863 0.93823529 0.94019608
0.72352941 0.9745098 0.94901961
0.89215686 0.98039216 0.96862745
0.98823529 0.92941176 0.96470588
