site/assets/luts/sha256-327f1e31fa32dec572221b801017137ae9b2404964bd47ae1e3bdb5730843519.cube
# LUTr-Schema-Version: 2
# LUTr-ID: sha256-327f1e31fa32dec572221b801017137ae9b2404964bd47ae1e3bdb5730843519
# LUTr-Title: kodak portra 800 ++
# LUTr-Collection: Natron HaldCLUT
# LUTr-Collection-ID: natron-haldclut-presets
# LUTr-Source: https://github.com/NatronGitHub/clut
# LUTr-Retrieved: 2026-07-27
# LUTr-Source-File: submissions/natron-haldclut-presets/negative_new/kodak_portra_800_++.png
# LUTr-Source-Format: HALD-PNG
# LUTr-Source-SHA256: 327f1e31fa32dec572221b801017137ae9b2404964bd47ae1e3bdb5730843519
# LUTr-License: CC-BY-SA-4.0
# LUTr-License-URL: https://github.com/NatronGitHub/clut#license
# LUTr-License-Basis: repo-license-file
# LUTr-Transform-Class: film-emulation
# LUTr-Tags: creative, film, film-emulation, hald-clut, natron, png, cube
# LUTr-Input-Color-Space: srgb
# LUTr-Input-Gamut: rec709
# LUTr-Input-Transfer: srgb
# LUTr-Output-Color-Space: srgb
# LUTr-Output-Gamut: rec709
# LUTr-Output-Transfer: srgb
# LUTr-Color-Space-Confidence: assumed-display-referred
# LUTr-Domain-Normalized: true
# LUTr-Shaper: none
# LUTr-Original-Grid: 64x64x64
# LUTr-Conversion-Grid: 25x25x25
# LUTr-Conversion-Interpolation: trilinear
# LUTr-Conversion-Method: HALD-PNG LUT image decoded at 16-bit and sampled to 25x25x25 3D CUBE
# LUTr-Conversion-Tool: LUTr scripts/convert-all-to-cube.mjs 2.0.0
# LUTr-Conversion-Date: 2026-07-27
# LUTr-Note: Preserve this metadata and the upstream license notices when redistributing.
TITLE "kodak portra 800 ++"
LUT_3D_SIZE 9
DOMAIN_MIN 0 0 0
DOMAIN_MAX 1 1 1
0.047058824 0.12941176 0.17254902
0.13235294 0.12990196 0.18431373
0.24313725 0.14803922 0.18039216
0.38872549 0.15441176 0.17647059
0.5745098 0.14313725 0.17254902
0.76568627 0.16078431 0.17107843
0.91764706 0.18235294 0.14705882
1 0.23627451 0.10931373
1 0.30196078 0.066666667
0.066666667 0.16813725 0.18088235
0.1127451 0.1754902 0.18817402
0.22794118 0.18333333 0.18517157
0.37579657 0.18707108 0.17647059
0.57058824 0.19901961 0.18039216
0.76813725 0.21991422 0.15196078
0.92647059 0.24166667 0.125
0.98921569 0.28229167 0.11813725
1 0.32794118 0.07254902
0.045098039 0.2372549 0.20294118
0.078921569 0.22941176 0.19215686
0.19313725 0.25882353 0.18823529
0.36764706 0.28627451 0.16960784
0.55490196 0.3 0.15588235
0.75098039 0.31973039 0.12892157
0.90784314 0.33921569 0.10980392
0.98431373 0.37794118 0.057230392
1 0.40882353 0.011764706
0.0039215686 0.33529412 0.21568627
0.029411765 0.34332108 0.21862745
0.1377451 0.34644608 0.19669118
0.32990196 0.39656863 0.16917892
0.55490196 0.44166667 0.11470588
0.72647059 0.44509804 0.093198529
0.87990196 0.45 0.030882353
0.98627451 0.4745098 0.0039215686
0.99607843 0.49362745 0.0093137255
0.0039215686 0.45882353 0.21960784
0.0039215686 0.45098039 0.21960784
0.05 0.45392157 0.21029412
0.24926471 0.49191176 0.18333333
0.48627451 0.55784314 0.10294118
0.70073529 0.59730392 0.0066176471
0.8622549 0.57990196 0.0039215686
0.95784314 0.58088235 0.0039215686
0.99019608 0.60196078 0.0039215686
0 0.58627451 0.21568627
0 0.58382353 0.22352941
0.014705882 0.58272059 0.22352941
0.16960784 0.60386029 0.20686275
0.39779412 0.64240196 0.16151961
0.62003676 0.69215686 0.027879902
0.85343137 0.73639706 0
0.95655637 0.725 0.0039215686
0.98431373 0.72892157 0.0039215686
0.0078431373 0.72647059 0.25196078
0.0035539216 0.72634804 0.23308824
0.011764706 0.72254902 0.24828431
0.12683824 0.725 0.22990196
0.37107843 0.74313725 0.20098039
0.56973039 0.77598039 0.12352941
0.7754902 0.81078431 0.0068627451
0.92990196 0.83786765 0.0039215686
0.99313725 0.85098039 0
0.03627451 0.85686275 0.33872549
0.0082720588 0.85686275 0.33088235
0.057965686 0.85637255 0.31887255
0.24822304 0.85294118 0.325
0.43259804 0.85465686 0.30392157
0.58872549 0.86991422 0.28333333
0.74215686 0.89166667 0.19362745
0.87990196 0.90735294 0.062254902
0.95735294 0.91519608 0.019117647
0.42352941 0.95686275 0.52156863
0.45735294 0.96078431 0.53284314
0.4754902 0.95294118 0.52156863
0.53823529 0.95686275 0.52941176
0.60980392 0.95686275 0.53137255
0.68284314 0.95686275 0.50980392
0.78333333 0.96960784 0.47941176
0.86813725 0.98039216 0.40980392
0.96078431 0.98431373 0.29019608
0.051470588 0.13382353 0.21519608
0.12794118 0.14068627 0.22647059
0.24705882 0.13026961 0.21568627
0.3908701 0.13265931 0.21109069
0.575 0.13553922 0.2129902
0.77567402 0.14215686 0.20686275
0.92156863 0.16715686 0.19362745
1 0.22849265 0.1745098
1 0.29019608 0.15931373
0.062745098 0.17598039 0.215625
0.11580116 0.17941176 0.22309283
0.23411458 0.17973346 0.21862745
0.38088235 0.18596814 0.21862745
0.58192402 0.19074755 0.21295956
0.77361366 0.2004902 0.19744179
0.92821691 0.22676164 0.17838542
0.99957108 0.27751225 0.16323529
1 0.32843137 0.14068627
0.059803922 0.24497549 0.22573529
0.10931373 0.24874387 0.22608762
0.20735294 0.25903799 0.22242647
0.37581189 0.28480392 0.20880821
0.57083333 0.29828431 0.19865196
0.75801164 0.30998775 0.18235294
0.90784314 0.33079044 0.16421569
0.99264706 0.36623775 0.13671875
0.99607843 0.39718137 0.11286765
0.0073529412 0.3526348 0.23823529
0.026125919 0.35042892 0.23676471
0.15833333 0.35917586 0.23003983
0.33591452 0.39725797 0.21047794
0.55186887 0.44093137 0.17049632
0.73039216 0.43977482 0.14392616
0.87322304 0.45110294 0.11078431
0.98017004 0.46666667 0.080392157
0.99607843 0.5 0.029105392
0.0039215686 0.47794118 0.25220588
0.0039215686 0.4745098 0.25416667
0.073223039 0.4716299 0.24227941
0.2625 0.49739583 0.22009804
0.48946078 0.55784314 0.16053922
0.71755515 0.60677083 0.049601716
0.85471814 0.59295343 0.034129902
0.97720588 0.57867647 0.0056372549
0.99558824 0.58676471 0.0095588235
0 0.60539216 0.25441176
0.0034696691 0.60147059 0.25553768
0.0011029412 0.59129902 0.24666054
0.17366728 0.60521599 0.22983303
0.40422794 0.64436275 0.19264706
0.63922335 0.69748009 0.089897365
0.8495098 0.73739277 0.010477941
0.95833333 0.72322304 0.0073529412
0.98823529 0.7213848 0.006372549
0.0039215686 0.73419118 0.29129902
0.0013480392 0.7372549 0.27990196
0.0078431373 0.72637868 0.27196691
0.1348652 0.72826287 0.26095282
0.37622549 0.74607843 0.23823529
0.58123468 0.7808364 0.18169424
0.76862745 0.80793505 0.065533088
0.92156863 0.83386949 0.011443015
0.98039216 0.83823529 0.012745098
0.0043504902 0.86078431 0.35778186
0.019607843 0.85686275 0.35310968
0.10196078 0.85032169 0.35355392
0.27567402 0.85294118 0.34607843
0.43069853 0.84828431 0.32457108
0.58780637 0.87336857 0.29460784
0.74301471 0.89129902 0.24056373
0.87990196 0.90380668 0.12703738
0.97640931 0.91819853 0.022487745
0.43431373 0.95686275 0.53676471
0.46568627 0.96078431 0.54417892
0.49411765 0.95735294 0.54166667
0.55275735 0.95931373 0.54754902
0.62598039 0.95808824 0.55514706
0.69117647 0.96096814 0.52616422
0.78198529 0.97169118 0.49080882
0.87205882 0.98039216 0.4338848
0.96715686 0.9877451 0.33578431
0.048039216 0.14117647 0.30686275
0.12659314 0.15257353 0.31066176
0.25 0.14215686 0.30980392
0.4122549 0.097058824 0.30196078
0.60588235 0.014215686 0.29509804
0.79889706 0.011764706 0.28921569
0.94411765 0.085294118 0.2872549
0.99607843 0.22095588 0.2939951
1 0.29705882 0.28431373
0.030392157 0.17941176 0.30294118
0.10931373 0.18333333 0.30946691
0.24224877 0.18026961 0.30980392
0.39655331 0.16046262 0.30588235
0.60716912 0.096875 0.29577206
0.79509804 0.1209712 0.2876685
0.94056373 0.21121324 0.29356618
0.99676777 0.26361826 0.28616728
1 0.32855392 0.28541667
0.037254902 0.25906863 0.29215686
0.098529412 0.265625 0.30686275
0.22671569 0.27150735 0.30686275
0.39117647 0.27325368 0.29840686
0.58982843 0.27794118 0.29411765
0.77778799 0.30291054 0.29034926
0.92156863 0.32015931 0.2745098
0.99586397 0.35882353 0.2671875
1 0.38823529 0.25882353
0.032352941 0.38026961 0.30931373
0.077037377 0.3814185 0.31046262
0.20196078 0.38219975 0.3091299
0.36026348 0.41078431 0.29264706
0.56519608 0.43204657 0.27401961
0.7417739 0.42757353 0.25245098
0.89641544 0.44653799 0.23936887
0.985769 0.47611826 0.21979167
0.99754902 0.49865196 0.21666667
0.0098039216 0.50490196 0.31666667
0.006127451 0.50545343 0.31568627
0.12426471 0.50404412 0.31617647
0.28890931 0.51213235 0.30085784
0.49656863 0.56568627 0.27058824
0.71666667 0.59552696 0.21911765
0.86078431 0.58235294 0.19607843
0.97916667 0.57647059 0.17175245
0.99215686 0.58970588 0.15196078
0.0039215686 0.62843137 0.32843137
0.0061427696 0.62843137 0.33769914
0.011458333 0.61792279 0.31286765
0.2372549 0.61973039 0.30833333
0.42849265 0.65147059 0.28039216
0.65294118 0.70484069 0.22738971
0.83860294 0.72435662 0.16681985
0.96193321 0.71715686 0.1149663
0.99607843 0.71384804 0.039093137
0.0039215686 0.74803922 0.35882353
0.0070772059 0.74813113 0.35012255
0.0071078431 0.74117647 0.33529412
0.21458333 0.73333333 0.32999387
0.38811275 0.74497549 0.30784314
0.58823529 0.78088235 0.28247549
0.77254902 0.8125 0.21764706
0.940625 0.84178922 0.10845588
0.99926471 0.83823529 0.068872549
0.025490196 0.86458333 0.41372549
0.043060662 0.86121324 0.40997243
0.15741422 0.85677083 0.41786152
0.32682292 0.84852941 0.41403186
0.44607843 0.85465686 0.39185049
0.60405944 0.86960784 0.3712163
0.74509804 0.89264706 0.33419118
0.88431373 0.90767463 0.27241115
0.9877451 0.93039216 0.075
0.45392157 0.96078431 0.56862745
0.47352941 0.96176471 0.5754902
0.50539216 0.95686275 0.57622549
0.56421569 0.95894608 0.58333333
0.62254902 0.95392157 0.57598039
0.69914216 0.95968137 0.56568627
0.77941176 0.96470588 0.52377451
0.87205882 0.98039216 0.49387255
0.9627451 0.98529412 0.40686275
0.015686275 0.1372549 0.43431373
0.125 0.13511029 0.43939951
0.26813725 0.12401961 0.44301471
0.42591912 0.087683824 0.44908088
0.62328431 0.0058823529 0.46372549
0.80735294 0.0044730392 0.45392157
0.9435049 0.0089460784 0.43051471
0.99393382 0.012438725 0.39197304
1 0.24264706 0.40882353
0.0083333333 0.18333333 0.43186275
0.095772059 0.18333333 0.43970588
0.25814951 0.17544424 0.44355086
0.42015931 0.15422028 0.45380668
0.61666667 0.048039216 0.45867034
0.81115962 0.0052772672 0.44117647
0.9537837 0.012561275 0.41360294
1 0.047189032 0.38709406
1 0.31256127 0.43039216
0.018627451 0.26764706 0.4254902
0.030836397 0.27040441 0.42397365
0.22745098 0.27686887 0.44197304
0.42205882 0.27066483 0.44829963
0.61617647 0.23419118 0.43854167
0.8004902 0.22696078 0.43284314
0.93786765 0.28275123 0.42686887
1 0.37202819 0.43517157
1 0.44031863 0.44117647
0.013235294 0.39411765 0.43039216
0.024203431 0.40294118 0.43174786
0.21421569 0.41487439 0.43578431
0.39959406 0.41917892 0.43333333
0.58670343 0.42254902 0.42886029
0.7654565 0.43373928 0.42367494
0.90804228 0.45176164 0.41617647
0.98491881 0.49884344 0.41599265
0.99607843 0.51323529 0.41133578
0.0039215686 0.5377451 0.44436275
0.065686275 0.53756127 0.44509804
0.22708333 0.54362745 0.44509804
0.34926471 0.53431373 0.42401961
0.5307598 0.56997549 0.41151961
0.71688113 0.58572304 0.39362745
0.86642157 0.57818627 0.37352941
0.97481618 0.58658088 0.37637868
0.99607843 0.60833333 0.36887255
0.0097426471 0.66176471 0.45686275
0.10195312 0.66176471 0.45324755
0.1614277 0.6560049 0.43575368
0.3122549 0.64607843 0.42159161
0.46151961 0.65661765 0.41056985
0.67220435 0.70749847 0.39117647
0.84595588 0.72176777 0.36666667
0.96059283 0.70440411 0.33731618
0.99699755 0.71029412 0.32401961
0.021446078 0.77009804 0.46507353
0.018060662 0.77009804 0.45453431
0.13259804 0.76096814 0.43823529
0.29241728 0.75085784 0.4307598
0.44080882 0.75422794 0.42628676
0.60882353 0.78088235 0.40931373
0.78606005 0.81516544 0.38079044
0.93907782 0.83952206 0.33872549
0.99607843 0.82892157 0.29803922
0.11930147 0.86844363 0.50931373
0.17262561 0.86701134 0.50343137
0.27924326 0.86685049 0.4941636
0.37787224 0.86140472 0.49185049
0.47117034 0.84656863 0.47598039
0.60343903 0.86813725 0.46324295
0.74995404 0.88860294 0.44797794
0.88151808 0.90386029 0.40980392
0.9841299 0.92254902 0.3286152
0.49264706 0.96078431 0.62843137
0.51029412 0.96127451 0.63020833
0.53835784 0.96078431 0.62953431
0.58382353 0.95686275 0.62843137
0.62696078 0.94852941 0.61617647
0.70735294 0.95686275 0.6161152
0.78137255 0.95637255 0.58517157
0.87205882 0.96862745 0.55147059
0.94901961 0.98039216 0.50931373
0.0058823529 0.13137255 0.60196078
0.11495098 0.13161765 0.60392157
0.29019608 0.10735294 0.61323529
0.46764706 0.04877451 0.62009804
0.66470588 0.0058823529 0.64411765
0.81053922 0.0039215686 0.62401961
0.94362745 0.0044117647 0.60098039
0.99607843 0.01372549 0.5620098
1 0.021568627 0.53921569
0.0039215686 0.17941176 0.59068627
0.077971814 0.17570466 0.59825368
0.28609069 0.17205882 0.60894608
0.47876838 0.12273284 0.62671569
0.65882353 0.04754902 0.63553922
0.81510417 0.0026041667 0.62205882
0.94681373 0.0078431373 0.59313725
0.99607843 0.026715686 0.56072304
1 0.081372549 0.54754902
0 0.27303922 0.58235294
0.021752451 0.2745098 0.59368873
0.22414216 0.27843137 0.60122549
0.45416667 0.27745098 0.61041667
0.64607843 0.24926471 0.61666667
0.81127451 0.19877451 0.61170343
0.94142157 0.16703431 0.59558824
0.99632353 0.225 0.56813725
1 0.35931373 0.57401961
0.0039215686 0.40441176 0.57328431
0.013143382 0.40833333 0.57420343
0.11623775 0.41072304 0.58363971
0.40389093 0.4205576 0.59065564
0.60735294 0.42720588 0.59803922
0.78210784 0.42003676 0.59754902
0.91844363 0.43780637 0.59466912
0.98872549 0.48265931 0.58480392
1 0.56102941 0.60514706
0.0068627451 0.55294118 0.57352941
0.019607843 0.55968137 0.56875
0.21176471 0.5627451 0.57671569
0.40453431 0.56409314 0.58235294
0.56666667 0.58039216 0.57794118
0.73382353 0.59289216 0.56789216
0.87647059 0.61421569 0.57279412
0.97720588 0.62757353 0.57156863
0.99607843 0.65098039 0.5745098
0.077941176 0.68946078 0.58039216
0.1893076 0.69019608 0.58112745
0.30802696 0.68964461 0.58039216
0.43060662 0.68599877 0.58039216
0.53958333 0.68406863 0.56985294
0.68872549 0.7004902 0.55174632
0.846875 0.71991422 0.53964461
0.95833333 0.71887255 0.52588848
0.99607843 0.71813725 0.52647059
0.26764706 0.79264706 0.6004902
0.30563725 0.78921569 0.60012255
0.37107843 0.78664216 0.59313725
0.44754902 0.78265931 0.58596814
0.50563725 0.77107843 0.55833333
0.63088235 0.78088235 0.54509804
0.79546569 0.81862745 0.53921569
0.93406863 0.83633578 0.51960784
0.99558824 0.82303922 0.49117647
0.38333333 0.88161765 0.62965686
0.4078125 0.87990196 0.63137255
0.41446078 0.87959559 0.61525735
0.46636029 0.8747549 0.60318627
0.53504902 0.86605392 0.58541667
0.63186275 0.86813725 0.5754902
0.75269608 0.88731618 0.5682598
0.88704044 0.91127451 0.55318627
0.98210784 0.92254902 0.53431373
0.54901961 0.96078431 0.70392157
0.55196078 0.95686275 0.69607843
0.57401961 0.95686275 0.69411765
0.60784314 0.96151961 0.69240196
0.64705882 0.95098039 0.67843137
0.71740196 0.95759804 0.69093137
0.7872549 0.95931373 0.66911765
0.87205882 0.96446078 0.64044118
0.94901961 0.97843137 0.61764706
0.030392157 0.13872549 0.74313725
0.16519608 0.12401961 0.75098039
0.31813725 0.096078431 0.75637255
0.49460784 0.024019608 0.76219363
0.66151961 0.011029412 0.77058824
0.81427696 0.0039215686 0.76519608
0.94865196 0.0039215686 0.75
1 0.0056985294 0.72714461
1 0.0053921569 0.70784314
0.015686275 0.17530637 0.74068627
0.12876072 0.17506127 0.74852941
0.31174939 0.16139706 0.75098039
0.49313725 0.13253676 0.76047028
0.66847426 0.070833333 0.77058824
0.81793811 0.027757353 0.77047335
0.94411765 0.0090839461 0.75147059
0.99264706 0.0056985294 0.73265931
1 0.057720588 0.71323529
0.011764706 0.27879902 0.72941176
0.036994485 0.27843137 0.74322917
0.26960784 0.27843137 0.74522059
0.47012868 0.27389706 0.75421262
0.65980392 0.26231618 0.76035539
0.8217065 0.23866422 0.76459865
0.94065564 0.18949142 0.75208333
0.99264706 0.20254289 0.73106618
0.99607843 0.30085784 0.70931373
0.0078431373 0.40980392 0.70784314
0.0095052083 0.40588235 0.7198989
0.17179841 0.41164216 0.72438725
0.42998621 0.42136183 0.73471967
0.62573529 0.43308824 0.74022672
0.79334406 0.43599112 0.75095741
0.91888787 0.42401961 0.74571078
0.99245558 0.44870558 0.72961091
0.99607843 0.49019608 0.72205882
0.0066176471 0.55098039 0.7
0.014460784 0.55704657 0.70269608
0.10177696 0.55863971 0.70784314
0.38504902 0.56789216 0.7129902
0.58431373 0.58823529 0.72193627
0.75664828 0.60104167 0.73333333
0.88541667 0.5971201 0.72990196
0.98137255 0.62628676 0.72506127
0.99607843 0.65661765 0.73259804
0.0044117647 0.69699755 0.69460784
0.11462929 0.70080423 0.70461091
0.27745098 0.7 0.70392157
0.44959406 0.70392157 0.70784314
0.57898284 0.70588235 0.70615809
0.72442555 0.72130821 0.71268382
0.85281863 0.73284314 0.71323529
0.95030637 0.74362745 0.71243107
0.99852941 0.7627451 0.72352941
0.36372549 0.81409314 0.7185049
0.38547794 0.8122549 0.7185049
0.45098039 0.81115196 0.71348039
0.529519 0.80833333 0.7127451
0.61666667 0.80441176 0.71176471
0.67921262 0.79166667 0.68933824
0.81556373 0.82291667 0.69381127
0.92844669 0.8303462 0.68235294
0.99901961 0.81678922 0.66041667
0.49901961 0.89136029 0.74656863
0.50449602 0.89162837 0.74217984
0.54178922 0.89136029 0.73970588
0.58609069 0.88609835 0.73425245
0.62677696 0.88054534 0.71706495
0.67971048 0.87286305 0.69668352
0.77455576 0.88431373 0.68776042
0.90098039 0.91127451 0.69215686
0.97598039 0.92254902 0.69264706
0.63529412 0.96470588 0.79509804
0.63351716 0.96207108 0.79215686
0.64754902 0.95833333 0.78517157
0.67745098 0.96470588 0.78535539
0.69436275 0.95808824 0.76642157
0.73866422 0.95741422 0.76127451
0.7995098 0.95294118 0.74558824
0.87959559 0.96734069 0.74166667
0.94901961 0.97647059 0.72745098
0.16568627 0.13235294 0.85490196
0.24816176 0.11556373 0.86176471
0.37058824 0.1 0.8627451
0.51519608 0.025245098 0.87242647
0.66568627 0.0058823529 0.87598039
0.8245098 0.0045343137 0.87745098
0.94411765 0.024264706 0.87352941
0.99607843 0.019240196 0.85490196
1 0.0039215686 0.84411765
0.14301471 0.17990196 0.85490196
0.23039216 0.17512255 0.86176471
0.36216299 0.15916054 0.86568627
0.51519608 0.14166667 0.86827512
0.66862745 0.090134804 0.87377451
0.82696078 0.07879902 0.88051471
0.94718137 0.052604167 0.87974877
0.99264706 0.041099877 0.8627451
1 0.062622549 0.85355392
0.04877451 0.27647059 0.85392157
0.17380515 0.27846201 0.85416667
0.34044118 0.27843137 0.86256127
0.4997549 0.27797181 0.8627451
0.66568627 0.27352941 0.86813725
0.82147672 0.28091299 0.87279412
0.94074755 0.28498775 0.87481618
0.99901961 0.28501838 0.8627451
0.99607843 0.30612745 0.85269608
0 0.40833333 0.83958333
0.040670956 0.40686275 0.84644608
0.26896446 0.41691176 0.8442402
0.46574755 0.42424939 0.84931066
0.63921569 0.43131127 0.85569853
0.80061275 0.46401654 0.86217831
0.91859681 0.46565564 0.86568627
0.99264706 0.47077206 0.85490196
0.99607843 0.48051471 0.85036765
0.011764706 0.55098039 0.82156863
0.013786765 0.55098039 0.82481618
0.13406863 0.55441176 0.82928922
0.39626225 0.56139706 0.83235294
0.59411765 0.5752451 0.83872549
0.77107843 0.60091912 0.84485294
0.89178922 0.61666667 0.84963235
0.97156863 0.62444853 0.84656863
1 0.63578431 0.84460784
0.0074754902 0.69607843 0.81078431
0.0029718137 0.69718137 0.81524203
0.19016544 0.69215686 0.81862745
0.4067402 0.69676777 0.81821385
0.55324755 0.69901961 0.82015931
0.73025429 0.7261489 0.83186275
0.86155025 0.74549632 0.84215686
0.9526348 0.75096507 0.84299939
0.99215686 0.7627451 0.84607843
0.29583333 0.80857843 0.81470588
0.33912377 0.8106924 0.81568627
0.41685049 0.81341912 0.81936275
0.51715686 0.81470588 0.81960784
0.62401961 0.81862745 0.82254902
0.73823529 0.81847426 0.82757353
0.8375 0.83376225 0.82647059
0.92598039 0.84512868 0.82647059
0.98823529 0.85220588 0.83431373
0.54215686 0.89938725 0.83088235
0.56095282 0.90343137 0.83382353
0.59117647 0.90294118 0.83446691
0.64446998 0.90338542 0.83468137
0.70091912 0.90018382 0.83088235
0.76505821 0.89644608 0.83069853
0.80162377 0.88909314 0.80477941
0.90473346 0.91078431 0.81176471
0.98823529 0.91875 0.81654412
0.66470588 0.96568627 0.86078431
0.67144608 0.96764706 0.86078431
0.69019608 0.96470588 0.86078431
0.72034314 0.96973039 0.8622549
0.74656863 0.95980392 0.85735294
0.79068627 0.96433824 0.85183824
0.83039216 0.95759804 0.83357843
0.88872549 0.96948529 0.83002451
0.9745098 0.95980392 0.82647059
0.29607843 0.13823529 0.94215686
0.34264706 0.12003676 0.95300245
0.44166667 0.12647059 0.95392157
0.55539216 0.084803922 0.95
0.68259804 0.045588235 0.95343137
0.82126225 0.023713235 0.95392157
0.93284314 0.13762255 0.95735294
0.99172794 0.14466912 0.95392157
1 0.091666667 0.95
0.28915441 0.2 0.94515931
0.34129136 0.19204197 0.94656863
0.43393076 0.18284314 0.95
0.55539216 0.17110141 0.95
0.68655025 0.15637255 0.95
0.82140778 0.16176471 0.95369945
0.93987439 0.21720282 0.9540288
0.99613205 0.22745098 0.95784314
1 0.21623775 0.9504902
0.27303922 0.29473039 0.94644608
0.33109681 0.29852941 0.9435049
0.42279412 0.30052083 0.94874387
0.54790135 0.29852941 0.94607843
0.68431373 0.30343137 0.95006127
0.81465993 0.31911765 0.95
0.92601103 0.36467525 0.95
0.98958333 0.38604473 0.95392157
0.99620098 0.37352941 0.94963235
0.21354167 0.43382353 0.93431373
0.27873775 0.4341299 0.93480392
0.39397978 0.43524816 0.93681066
0.52609528 0.43939185 0.93823529
0.66985294 0.45989583 0.93921569
0.80343137 0.48088235 0.94264706
0.91011029 0.51568627 0.94607843
0.98609069 0.52420343 0.94607843
0.99656863 0.52303922 0.94393382
0.017401961 0.5495098 0.92696078
0.11887255 0.56127451 0.92671569
0.31078431 0.56519608 0.92493873
0.48832721 0.5731924 0.9247549
0.64791667 0.59093137 0.93051471
0.78431373 0.61479779 0.93431373
0.89509804 0.64656863 0.93627451
0.97110907 0.6588848 0.93480392
1 0.65514706 0.93872549
0.0014705882 0.68823529 0.91127451
0.032153799 0.68952206 0.91485141
0.22740502 0.68823529 0.91372549
0.42285539 0.69257813 0.91127451
0.59411765 0.70343137 0.91734069
0.74688266 0.72530637 0.92254902
0.86813725 0.75646446 0.92700674
0.95422794 0.76176471 0.92910539
0.99607843 0.75784314 0.93676471
0.29031863 0.81090686 0.90343137
0.32412684 0.81176471 0.90735294
0.40523897 0.81470588 0.90735294
0.50248162 0.81176471 0.90735294
0.60447304 0.81121324 0.90704657
0.71372549 0.81488971 0.91078431
0.83072917 0.83504902 0.91479779
0.93345588 0.85304841 0.92571998
0.98823529 0.85036765 0.92647059
0.50980392 0.90343137 0.90343137
0.5245098 0.90686275 0.90343137
0.56531863 0.90735294 0.90338542
0.62990196 0.90692402 0.90686275
0.69463848 0.90686275 0.9075674
0.77598039 0.90735294 0.91472886
0.84264706 0.90821078 0.91246936
0.92303922 0.91992188 0.91911765
0.98817402 0.93382353 0.92689951
0.67892157 0.96862745 0.92254902
0.70625 0.97297794 0.92598039
0.72303922 0.97254902 0.92512255
0.74332108 0.96617647 0.92254902
0.78088235 0.96691176 0.92254902
0.82107843 0.96127451 0.92254902
0.86507353 0.96372549 0.92156863
0.91127451 0.97205882 0.91127451
0.97647059 0.95343137 0.91127451
0.42352941 0.19215686 0.99607843
0.45392157 0.19215686 0.99215686
0.51568627 0.19215686 1
0.60343137 0.19215686 0.99607843
0.71372549 0.19019608 0.99803922
0.81617647 0.18088235 0.98823529
0.91960784 0.25294118 0.99901961
0.98921569 0.33088235 0.99215686
1 0.30196078 1
0.40343137 0.24901961 0.9877451
0.45042892 0.25 0.99607843
0.50784314 0.2495098 0.99215686
0.5995098 0.24577206 0.99215686
0.70588235 0.24754902 0.99019608
0.82156863 0.2745098 0.99607843
0.9245098 0.30588235 0.99215686
0.99607843 0.3495098 0.99607843
1 0.39019608 1
0.41666667 0.34607843 0.99607843
0.43431373 0.34117647 0.99166667
0.51176471 0.34901961 0.99607843
0.60526961 0.35257353 0.99215686
0.71029412 0.36617647 0.99607843
0.81654412 0.38186275 0.99215686
0.91666667 0.41666667 0.99215686
0.98566176 0.45845588 0.98860294
1 0.48333333 0.99607843
0.41813725 0.47892157 0.99215686
0.44246324 0.47647059 0.99375
0.51470588 0.48002451 0.99791667
0.60098039 0.48192402 0.99368873
0.69681373 0.49215686 0.98455882
0.80441176 0.51323529 0.98186275
0.90098039 0.54448529 0.98529412
0.97303922 0.57794118 0.99215686
1 0.56421569 0.98431373
0.40196078 0.6 0.99607843
0.42132353 0.60392157 0.99411765
0.48970588 0.60392157 0.99215686
0.57769608 0.61029412 0.98946078
0.69019608 0.6245098 0.98823529
0.79656863 0.63676471 0.98627451
0.8872549 0.66568627 0.98872549
0.96568627 0.69460784 0.98676471
0.99215686 0.69607843 0.99215686
0.28578431 0.7 0.98676471
0.3591299 0.70637255 0.99246324
0.41813725 0.70637255 0.97598039
0.53137255 0.71219363 0.97971814
0.65343137 0.72279412 0.98235294
0.77303922 0.7377451 0.97647059
0.87205882 0.7622549 0.98431373
0.95606618 0.78265931 0.97303922
0.99754902 0.79803922 0.99215686
0.39313725 0.81176471 0.98039216
0.42794118 0.81948529 0.98517157
0.42671569 0.81495098 0.9497549
0.54448529 0.81078431 0.97696078
0.64852941 0.81862745 0.98382353
0.74852941 0.82365196 0.98492647
0.84901961 0.84117647 0.98039216
0.93737745 0.85428922 0.97647059
0.98333333 0.86470588 0.98431373
0.5627451 0.91078431 0.97990196
0.57101716 0.91078431 0.97990196
0.59705882 0.90686275 0.97512255
0.63155637 0.90686275 0.94834559
0.70294118 0.91078431 0.97622549
0.76078431 0.90588235 0.96783088
0.83517157 0.90686275 0.98026961
0.91868873 0.92303922 0.97996324
0.96862745 0.93823529 0.98431373
0.68627451 0.97254902 0.97647059
0.68284314 0.97647059 0.96519608
0.69215686 0.97254902 0.96078431
0.72794118 0.97254902 0.96715686
0.77254902 0.97058824 0.97254902
0.82009804 0.97009804 0.97401961
0.87647059 0.97254902 0.97254902
0.93382353 0.97647059 0.96862745
0.98039216 0.98431373 0.98039216
