site/assets/luts/sha256-cdeb0ad2f9c583b62975d9fc5c1b602ce28709002b5d6478888b692019424947.cube
# LUTr-Schema-Version: 2
# LUTr-ID: sha256-cdeb0ad2f9c583b62975d9fc5c1b602ce28709002b5d6478888b692019424947
# LUTr-Title: polaroid px-70 -
# LUTr-Collection: Natron HaldCLUT
# LUTr-Collection-ID: natron-haldclut-presets
# LUTr-Source: https://github.com/NatronGitHub/clut
# LUTr-Retrieved: 2026-07-27
# LUTr-Source-File: submissions/natron-haldclut-presets/instant_consumer/polaroid_px-70_-.png
# LUTr-Source-Format: HALD-PNG
# LUTr-Source-SHA256: cdeb0ad2f9c583b62975d9fc5c1b602ce28709002b5d6478888b692019424947
# LUTr-License: CC-BY-SA-4.0
# LUTr-License-URL: https://github.com/NatronGitHub/clut#license
# LUTr-License-Basis: repo-license-file
# LUTr-Transform-Class: film-emulation
# LUTr-Tags: creative, film, film-emulation, hald-clut, natron, png, cube
# LUTr-Input-Color-Space: srgb
# LUTr-Input-Gamut: rec709
# LUTr-Input-Transfer: srgb
# LUTr-Output-Color-Space: srgb
# LUTr-Output-Gamut: rec709
# LUTr-Output-Transfer: srgb
# LUTr-Color-Space-Confidence: assumed-display-referred
# LUTr-Domain-Normalized: true
# LUTr-Shaper: none
# LUTr-Original-Grid: 64x64x64
# LUTr-Conversion-Grid: 25x25x25
# LUTr-Conversion-Interpolation: trilinear
# LUTr-Conversion-Method: HALD-PNG LUT image decoded at 16-bit and sampled to 25x25x25 3D CUBE
# LUTr-Conversion-Tool: LUTr scripts/convert-all-to-cube.mjs 2.0.0
# LUTr-Conversion-Date: 2026-07-27
# LUTr-Note: Preserve this metadata and the upstream license notices when redistributing.
TITLE "polaroid px-70 -"
LUT_3D_SIZE 25
DOMAIN_MIN 0 0 0
DOMAIN_MAX 1 1 1
0 0.074509804 0.1254902
0 0.074509804 0.12303922
0.0049019608 0.075490196 0.1254902
0.015196078 0.089705882 0.12941176
0.025490196 0.1 0.1372549
0.035784314 0.10637255 0.14166667
0.069607843 0.11666667 0.14117647
0.12107843 0.11764706 0.14117647
0.17254902 0.11764706 0.1372549
0.23039216 0.11764706 0.1372549
0.30196078 0.12254902 0.14117647
0.38431373 0.12892157 0.14509804
0.4627451 0.13333333 0.14509804
0.54509804 0.1372549 0.14509804
0.63137255 0.1372549 0.14215686
0.70294118 0.16813725 0.13970588
0.76862745 0.22745098 0.13333333
0.83676471 0.28529412 0.12303922
0.90392157 0.34215686 0.1127451
0.94362745 0.38627451 0.10588235
0.97058824 0.42745098 0.1
0.99607843 0.46862745 0.091176471
0.99901961 0.50980392 0.10490196
1 0.5377451 0.11519608
1 0.56078431 0.13333333
0 0.091176471 0.12941176
0 0.091176471 0.12794118
0.0058823529 0.092156863 0.12830882
0.022855392 0.096384804 0.12941176
0.035784314 0.10392157 0.13406863
0.048713235 0.11243873 0.13903186
0.075122549 0.11948529 0.13933824
0.12352941 0.12009804 0.1372549
0.17647059 0.11764706 0.1372549
0.23131127 0.11764706 0.1372549
0.30588235 0.12254902 0.14117647
0.38676471 0.13137255 0.14491422
0.46911765 0.14215686 0.15269608
0.54901961 0.14656863 0.14852941
0.63137255 0.15588235 0.14509804
0.70778186 0.18633578 0.140625
0.77107843 0.23382353 0.13333333
0.83768382 0.2877451 0.12303922
0.90784314 0.34276961 0.11029412
0.94411765 0.39001225 0.10588235
0.96862745 0.43382353 0.10122549
0.99001225 0.47843137 0.098529412
0.99546569 0.51262255 0.10196078
1 0.54503676 0.12463235
1 0.57107843 0.13578431
0 0.11176471 0.13333333
0.0006127451 0.11176471 0.13394608
0.0088235294 0.11568627 0.13431373
0.023039216 0.11568627 0.13431373
0.043137255 0.11470588 0.13333333
0.060294118 0.11776961 0.13370098
0.080392157 0.1245098 0.1372549
0.12892157 0.1254902 0.1372549
0.18137255 0.12156863 0.13627451
0.23676471 0.11764706 0.13333333
0.31078431 0.12745098 0.13823529
0.39215686 0.14129902 0.14497549
0.47156863 0.15441176 0.14901961
0.55294118 0.16311275 0.14767157
0.63529412 0.18382353 0.15245098
0.70870098 0.21176471 0.14117647
0.77745098 0.25588235 0.13333333
0.84276961 0.30343137 0.12242647
0.90735294 0.35098039 0.10882353
0.94313725 0.39852941 0.10588235
0.96470588 0.44411765 0.10245098
0.98480392 0.48786765 0.10183824
0.99509804 0.51960784 0.10098039
0.99938725 0.55012255 0.11666667
1 0.57254902 0.13235294
0 0.12892157 0.1372549
0.0024509804 0.13235294 0.13939951
0.0088235294 0.13627451 0.14068627
0.023039216 0.13627451 0.14068627
0.043137255 0.13235294 0.1372549
0.06372549 0.12843137 0.13633578
0.086887255 0.12806373 0.13333333
0.1341299 0.13069853 0.13480392
0.1877451 0.13627451 0.1372549
0.24558824 0.13970588 0.13676471
0.31752451 0.14865196 0.13823529
0.39908088 0.16966912 0.15153186
0.47794118 0.17696078 0.15073529
0.5598652 0.17947304 0.14466912
0.63884804 0.19522059 0.14166667
0.71568627 0.23627451 0.13970588
0.7877451 0.27352941 0.12941176
0.8495098 0.31519608 0.11568627
0.89473039 0.36127451 0.10882353
0.93235294 0.40882353 0.10196078
0.9629902 0.45441176 0.1002451
0.98480392 0.49558824 0.094607843
0.99509804 0.52990196 0.097181373
0.99754902 0.55196078 0.11176471
1 0.56862745 0.12205882
0 0.14901961 0.14117647
0.0039215686 0.1502451 0.14240196
0.012254902 0.15343137 0.14509804
0.019362745 0.15686275 0.14509804
0.033333333 0.15686275 0.14313725
0.051960784 0.15441176 0.14093137
0.079411765 0.1495098 0.13578431
0.13823529 0.15759804 0.1372549
0.19803922 0.16666667 0.1372549
0.25588235 0.16985294 0.1372549
0.325 0.1754902 0.1372549
0.40196078 0.18578431 0.14068627
0.48137255 0.19215686 0.14117647
0.56470588 0.19852941 0.13897059
0.64558824 0.21764706 0.13578431
0.72009804 0.2627451 0.13259804
0.79215686 0.29607843 0.12352941
0.85490196 0.32941176 0.11053922
0.88921569 0.375 0.10343137
0.92205882 0.41936275 0.094607843
0.95686275 0.4627451 0.088235294
0.98529412 0.50588235 0.081862745
0.99607843 0.53578431 0.084803922
0.99607843 0.55514706 0.099019608
1 0.5745098 0.11764706
0 0.16568627 0.14509804
0.0037377451 0.16991422 0.14509804
0.0073529412 0.17745098 0.14522059
0.0073529412 0.18137255 0.14515931
0.01127451 0.18529412 0.14509804
0.023039216 0.18572304 0.14160539
0.056372549 0.18566176 0.14117647
0.12696078 0.19148284 0.14117647
0.2 0.19754902 0.14117647
0.26617647 0.19754902 0.13743873
0.33284314 0.20245098 0.1372549
0.40882353 0.2127451 0.1372549
0.49215686 0.23063725 0.14044118
0.57254902 0.23823529 0.13327206
0.65196078 0.25919118 0.12990196
0.72401961 0.29785539 0.12352941
0.79607843 0.33137255 0.11323529
0.85667892 0.36047794 0.099019608
0.88921569 0.39754902 0.088602941
0.92009804 0.43829657 0.081433824
0.95098039 0.47941176 0.075
0.98572304 0.51666667 0.065257353
0.99607843 0.54411765 0.076348039
0.99607843 0.56862745 0.097058824
1 0.58921569 0.11421569
0 0.20294118 0.14803922
0 0.20392157 0.14901961
0.0039215686 0.20784314 0.14901961
0.0039215686 0.21176471 0.14901961
0.0039215686 0.2122549 0.14509804
0.0040441176 0.2127451 0.14460784
0.028921569 0.21568627 0.14117647
0.11372549 0.22598039 0.14509804
0.19313725 0.23137255 0.14509804
0.26875 0.23137255 0.13872549
0.34313725 0.23014706 0.13333333
0.41911765 0.24742647 0.13333333
0.49901961 0.26666667 0.13039216
0.57941176 0.28333333 0.12904412
0.65882353 0.30612745 0.12573529
0.72977941 0.3377451 0.11507353
0.79607843 0.36862745 0.10294118
0.85539216 0.39656863 0.08872549
0.89215686 0.43137255 0.074509804
0.92303922 0.46580882 0.054411765
0.95490196 0.50294118 0.046078431
0.97843137 0.53676471 0.045588235
0.99215686 0.56470588 0.069362745
0.99607843 0.58737745 0.095220588
1 0.60980392 0.11764706
0 0.2504902 0.1504902
0.00091911765 0.2504902 0.15294118
0.0039215686 0.25294118 0.15294118
0.0039215686 0.25294118 0.15294118
0.0039215686 0.25441176 0.14901961
0.0041053922 0.25704657 0.14901961
0.025857843 0.26311275 0.15012255
0.11127451 0.27401961 0.1504902
0.19215686 0.27794118 0.1504902
0.27058824 0.27886029 0.14264706
0.35232843 0.28284314 0.13333333
0.42941176 0.29313725 0.128125
0.51127451 0.31053922 0.12401961
0.59362745 0.32971814 0.12371324
0.67205882 0.34901961 0.12009804
0.73670343 0.3783701 0.10631127
0.8 0.40588235 0.091176471
0.85839461 0.43284314 0.076041667
0.89411765 0.4622549 0.051470588
0.92794118 0.49313725 0.022732843
0.95294118 0.52647059 0.02254902
0.97352941 0.55343137 0.029105392
0.9872549 0.58137255 0.060416667
0.99362745 0.60441176 0.076960784
0.99852941 0.61960784 0.096078431
0 0.29803922 0.15294118
0 0.29803922 0.15294118
0.0039215686 0.29803922 0.15294118
0.0039215686 0.30196078 0.15294118
0.0058823529 0.30196078 0.15294118
0.0078431373 0.30588235 0.15686275
0.014705882 0.30980392 0.15686275
0.10490196 0.32303922 0.15686275
0.2 0.32941176 0.15294118
0.27843137 0.33333333 0.14264706
0.36372549 0.33823529 0.13333333
0.44313725 0.34852941 0.12598039
0.52156863 0.3627451 0.11960784
0.5995098 0.37745098 0.1127451
0.6754902 0.39411765 0.095098039
0.74215686 0.41862745 0.079411765
0.8 0.44705882 0.062745098
0.85294118 0.47009804 0.048529412
0.89019608 0.49705882 0.021568627
0.92794118 0.52401961 0.00049019608
0.94901961 0.54705882 0.0058823529
0.96960784 0.57352941 0.011764706
0.9872549 0.59803922 0.021568627
0.99607843 0.61715686 0.040686275
0.99607843 0.62352941 0.054901961
0 0.3495098 0.15294118
0 0.3495098 0.15539216
0.0039215686 0.3495098 0.15686275
0.0039215686 0.35324755 0.15686275
0.0039215686 0.35588235 0.15686275
0.0012867647 0.35980392 0.15704657
0.0047794118 0.3627451 0.15833333
0.087316176 0.37303922 0.15386029
0.18970588 0.38088235 0.14656863
0.28535539 0.38817402 0.14172794
0.37683824 0.39362745 0.13235294
0.45128676 0.40392157 0.11960784
0.52671569 0.41813725 0.10490196
0.60539216 0.43106618 0.088235294
0.67218137 0.44264706 0.065808824
0.74215686 0.46072304 0.044607843
0.8 0.48431373 0.027941176
0.84264706 0.50882353 0.018259804
0.87990196 0.53088235 0.010784314
0.91764706 0.55147059 0.0044117647
0.94264706 0.57205882 0.0058823529
0.96568627 0.59656863 0.0039215686
0.9877451 0.61862745 0.0028186275
0.99215686 0.62751225 0.021078431
0.99215686 0.63627451 0.037745098
0.0039215686 0.41372549 0.15294118
0.0039215686 0.41078431 0.15196078
0.0039215686 0.41078431 0.15196078
0.0039215686 0.41335784 0.15196078
0.0039215686 0.41617647 0.15196078
0 0.42156863 0.15196078
0 0.42843137 0.15196078
0.068014706 0.43443627 0.14693627
0.18039216 0.4372549 0.14117647
0.28823529 0.44301471 0.13664216
0.3875 0.44901961 0.12671569
0.46115196 0.45931373 0.1060049
0.53627451 0.47009804 0.084313725
0.61360294 0.48517157 0.062745098
0.68235294 0.49877451 0.043137255
0.74313725 0.5122549 0.01752451
0.79607843 0.5254902 0.0029411765
0.83443627 0.54215686 0.0068627451
0.87352941 0.56176471 0.0078431373
0.91090686 0.58235294 0.0078431373
0.93627451 0.60294118 0.0078431373
0.95821078 0.62254902 0.0078431373
0.97769608 0.63627451 0.014705882
0.98909314 0.6504902 0.035294118
0.99705882 0.66078431 0.051960784
0.0039215686 0.47941176 0.15294118
0.0060661765 0.47910539 0.14901961
0.0078431373 0.47892157 0.14558824
0.0078431373 0.47892157 0.14558824
0.0056372549 0.48112745 0.14558824
0.0038602941 0.48382353 0.14552696
0 0.49105392 0.14252451
0.067647059 0.49509804 0.14019608
0.1877451 0.49558824 0.1372549
0.30441176 0.49932598 0.12959559
0.39901961 0.50698529 0.12009804
0.4745098 0.51470588 0.099509804
0.5502451 0.52671569 0.069117647
0.62696078 0.54270833 0.034865196
0.69914216 0.5560049 0.014338235
0.74852941 0.56372549 0.011580882
0.79607843 0.57009804 0.0039215686
0.83333333 0.58088235 0.0039215686
0.86973039 0.59914216 0.0052696078
0.90484069 0.61672794 0.0078431373
0.93161765 0.63210784 0.0078431373
0.95349265 0.64656863 0.011764706
0.96813725 0.65686275 0.025
0.98363971 0.67107843 0.040870098
0.99656863 0.67843137 0.051960784
0.0078431373 0.54901961 0.14901961
0.0078431373 0.54779412 0.14656863
0.0078431373 0.54509804 0.14313725
0.0078431373 0.54313725 0.13946078
0.0078431373 0.54509804 0.13921569
0.0041666667 0.54901961 0.13529412
0.011764706 0.55196078 0.13529412
0.093627451 0.55294118 0.13455882
0.22352941 0.55686275 0.12941176
0.32867647 0.55931373 0.12107843
0.41127451 0.56519608 0.10980392
0.48848039 0.57205882 0.089215686
0.56568627 0.58431373 0.061764706
0.64289216 0.59460784 0.033823529
0.70490196 0.60294118 0.01127451
0.75098039 0.61053922 0.0085784314
0.79607843 0.61764706 0.0078431373
0.83480392 0.62598039 0.0039215686
0.86960784 0.64019608 0.0039215686
0.9004902 0.6504902 0.0073529412
0.92647059 0.65882353 0.0078431373
0.94779412 0.66715686 0.012254902
0.96323529 0.6754902 0.019117647
0.97598039 0.68112745 0.024264706
0.98431373 0.68431373 0.025490196
0.0083333333 0.60686275 0.14460784
0.0078431373 0.60686275 0.1408701
0.0078431373 0.60686275 0.13713235
0.0078431373 0.60686275 0.13376225
0.0078431373 0.60857843 0.13284314
0.0039215686 0.61078431 0.12849265
0.0026960784 0.61078431 0.12512255
0.13186275 0.61470588 0.125
0.26862745 0.61862745 0.12107843
0.35177696 0.61862745 0.11127451
0.42892157 0.62303922 0.10147059
0.50778186 0.62898284 0.091605392
0.58946078 0.63357843 0.075490196
0.65784314 0.6377451 0.054840686
0.70882353 0.64411765 0.03002451
0.75275735 0.6504902 0.012071078
0.79607843 0.66078431 0.0078431373
0.83480392 0.66715686 0.0039215686
0.86960784 0.68088235 0.0039215686
0.89699755 0.68431373 0.0039215686
0.92328431 0.6879902 0.0056372549
0.94215686 0.69558824 0.0082720588
0.9627451 0.69816176 0.0087009804
0.97941176 0.703125 0.0073529412
0.99264706 0.70735294 0.010784314
0.011764706 0.66176471 0.13823529
0.0049019608 0.66470588 0.13431373
0.0078431373 0.66495098 0.13259804
0.0078431373 0.66568627 0.12953431
0.01127451 0.66862745 0.12647059
0.028063725 0.6682598 0.12843137
0.077941176 0.6620098 0.13431373
0.20968137 0.66752451 0.13051471
0.30882353 0.6745098 0.12352941
0.3807598 0.67352941 0.11960784
0.45955882 0.67377451 0.11568627
0.53823529 0.67708333 0.11176471
0.61029412 0.67843137 0.096078431
0.66421569 0.68235294 0.075
0.7120098 0.68529412 0.048039216
0.75490196 0.69166667 0.021446078
0.8 0.69803922 0.0078431373
0.8372549 0.70833333 0.0039215686
0.86642157 0.71470588 0.0071078431
0.8939951 0.71862745 0.0069852941
0.91813725 0.72205882 0.0039215686
0.94178922 0.72647059 0.0049019608
0.95882353 0.72647059 0.01004902
0.97941176 0.7307598 0.0098039216
0.99705882 0.73529412 0.014705882
0.011764706 0.71323529 0.13186275
0.0053921569 0.72107843 0.12849265
0.0093137255 0.72254902 0.1254902
0.014215686 0.72469363 0.1254902
0.063235294 0.71960784 0.13161765
0.13449755 0.71176471 0.14068627
0.2 0.70784314 0.14987745
0.29448529 0.70876225 0.14803922
0.36176471 0.71176471 0.14803922
0.42359069 0.71813725 0.14650735
0.49901961 0.71960784 0.1435049
0.57009804 0.72322304 0.13676471
0.62573529 0.72352941 0.11666667
0.67273284 0.72352941 0.091973039
0.71519608 0.72745098 0.064338235
0.75882353 0.73137255 0.034742647
0.8 0.7377451 0.0068627451
0.83480392 0.74319853 0.0053921569
0.86360294 0.74558824 0.016789216
0.88903186 0.74932598 0.018627451
0.91568627 0.75465686 0.0056372549
0.93805147 0.75735294 0.0075367647
0.95379902 0.75588235 0.027083333
0.97254902 0.75643382 0.047120098
0.98676471 0.75980392 0.066176471
0.015686275 0.76470588 0.1254902
0.089215686 0.76470588 0.13970588
0.11372549 0.76078431 0.14607843
0.12794118 0.76078431 0.14901961
0.19019608 0.76078431 0.14705882
0.26519608 0.75637255 0.15735294
0.31372549 0.75 0.16764706
0.36323529 0.74901961 0.17254902
0.42352941 0.75294118 0.17254902
0.47745098 0.75931373 0.17254902
0.53921569 0.76470588 0.17156863
0.59019608 0.76470588 0.15735294
0.63529412 0.76078431 0.1372549
0.68039216 0.76078431 0.1127451
0.72156863 0.76078431 0.092156863
0.76519608 0.76470588 0.067647059
0.8 0.76470588 0.054901961
0.83235294 0.76862745 0.053431373
0.85784314 0.77254902 0.06372549
0.88480392 0.77598039 0.063235294
0.90980392 0.78039216 0.056862745
0.93039216 0.78039216 0.059313725
0.94705882 0.78039216 0.07254902
0.96372549 0.78039216 0.10098039
0.98039216 0.78431373 0.12156863
0.24852941 0.7995098 0.1745098
0.27800245 0.7995098 0.1778799
0.26813725 0.79558824 0.18272059
0.27873775 0.79166667 0.18253676
0.32843137 0.79632353 0.17647059
0.36746324 0.79509804 0.17910539
0.39460784 0.78872549 0.18823529
0.42898284 0.78627451 0.19460784
0.48137255 0.79019608 0.19705882
0.52886029 0.79503676 0.20196078
0.56752451 0.79313725 0.20698529
0.60471814 0.79313725 0.19969363
0.64558824 0.79044118 0.18602941
0.68676471 0.7877451 0.17058824
0.72647059 0.7877451 0.15183824
0.76519608 0.78921569 0.1372549
0.8 0.79166667 0.12696078
0.83088235 0.79313725 0.11966912
0.85686275 0.79705882 0.12095588
0.88106618 0.80079657 0.12420343
0.90343137 0.80490196 0.12132353
0.92224265 0.80490196 0.12922794
0.93958333 0.8067402 0.14166667
0.95735294 0.80735294 0.15882353
0.97254902 0.80735294 0.17941176
0.35392157 0.82156863 0.22058824
0.38026961 0.8254902 0.22242647
0.39730392 0.8254902 0.22034314
0.39607843 0.82291667 0.21875
0.42107843 0.82205882 0.21960784
0.43921569 0.8185049 0.22365196
0.46666667 0.81838235 0.22377451
0.4932598 0.82156863 0.22058824
0.5254902 0.82156863 0.22843137
0.56213235 0.81973039 0.23811275
0.59509804 0.81764706 0.24803922
0.62892157 0.81764706 0.24840686
0.65882353 0.81470588 0.24215686
0.69264706 0.81470588 0.22892157
0.72720588 0.81470588 0.21862745
0.76519608 0.81580882 0.20833333
0.8 0.81764706 0.19901961
0.82843137 0.81862745 0.18872549
0.85294118 0.82254902 0.18627451
0.87732843 0.82634804 0.18333333
0.90098039 0.82941176 0.18284314
0.91727941 0.83039216 0.19852941
0.93455882 0.83333333 0.2127451
0.95196078 0.83333333 0.22696078
0.96862745 0.83333333 0.2372549
0.44264706 0.84215686 0.26813725
0.46746324 0.84607843 0.26862745
0.48688725 0.84963235 0.26458333
0.49797794 0.85 0.26078431
0.50465686 0.84779412 0.2625
0.5151348 0.84215686 0.26905637
0.53235294 0.84215686 0.27205882
0.55294118 0.84215686 0.27205882
0.57401961 0.84215686 0.27598039
0.59754902 0.84215686 0.2841299
0.62855392 0.84166667 0.29264706
0.65980392 0.83823529 0.29908088
0.68480392 0.83823529 0.29362745
0.70637255 0.83866422 0.28682598
0.73382353 0.84166667 0.27953431
0.76519608 0.84185049 0.27401961
0.8 0.84215686 0.26372549
0.82843137 0.84558824 0.25931373
0.84914216 0.8495098 0.26102941
0.87310049 0.85 0.25196078
0.89460784 0.85 0.2497549
0.91470588 0.85392157 0.26078431
0.93235294 0.8564951 0.27708333
0.95196078 0.85735294 0.29001225
0.96862745 0.85735294 0.29901961
0.53529412 0.86666667 0.31568627
0.55269608 0.86666667 0.31568627
0.56323529 0.87058824 0.31568627
0.5627451 0.86887255 0.31568627
0.56960784 0.86666667 0.31568627
0.58088235 0.86446078 0.31617647
0.59509804 0.8627451 0.32107843
0.61397059 0.8627451 0.32352941
0.62941176 0.8627451 0.32745098
0.64681373 0.8627451 0.33259804
0.66862745 0.8627451 0.34019608
0.69313725 0.8627451 0.34681373
0.71470588 0.8627451 0.34411765
0.73235294 0.8627451 0.33872549
0.75441176 0.86617647 0.33235294
0.77696078 0.86666667 0.33063725
0.80392157 0.87058824 0.3254902
0.8245098 0.87058824 0.3254902
0.84509804 0.87058824 0.32303922
0.86764706 0.87058824 0.31813725
0.89019608 0.87058824 0.31666667
0.91078431 0.8745098 0.32205882
0.93137255 0.87745098 0.33627451
0.95 0.87843137 0.3504902
0.96470588 0.88235294 0.36078431
0.61960784 0.8872549 0.36666667
0.62616422 0.8872549 0.36697304
0.62254902 0.8872549 0.36715686
0.62254902 0.8872549 0.36715686
0.62843137 0.8870098 0.36715686
0.64264706 0.88333333 0.36715686
0.65637255 0.88333333 0.37009804
0.66881127 0.88333333 0.37126225
0.67696078 0.88333333 0.375
0.69068627 0.88302696 0.37745098
0.70845588 0.88333333 0.38382353
0.72598039 0.88333333 0.39368873
0.74240196 0.88333333 0.39240196
0.75882353 0.88333333 0.38676471
0.77647059 0.88627451 0.38284314
0.79607843 0.8872549 0.38284314
0.81617647 0.89117647 0.38284314
0.82647059 0.89117647 0.38284314
0.84509804 0.89117647 0.38333333
0.86568627 0.89117647 0.38333333
0.88627451 0.89117647 0.38161765
0.90686275 0.89509804 0.38382353
0.92745098 0.89767157 0.39411765
0.94626225 0.89901961 0.40784314
0.95637255 0.89901961 0.41421569
0.68529412 0.90784314 0.41470588
0.68137255 0.90784314 0.41470588
0.68039216 0.90784314 0.41862745
0.68125 0.90784314 0.41862745
0.69019608 0.90392157 0.41862745
0.69754902 0.90392157 0.4189951
0.70784314 0.90392157 0.42254902
0.71519608 0.90392157 0.42647059
0.7245098 0.90392157 0.42647059
0.73186275 0.90392157 0.43002451
0.74240196 0.9002451 0.43455882
0.75686275 0.90392157 0.43909314
0.77009804 0.90392157 0.43872549
0.78284314 0.90392157 0.43823529
0.79632353 0.90392157 0.4372549
0.81335784 0.90784314 0.4372549
0.83039216 0.90784314 0.4372549
0.84068627 0.90784314 0.43786765
0.85196078 0.90882353 0.43823529
0.86605392 0.91176471 0.44203431
0.88480392 0.91176471 0.44362745
0.90379902 0.91568627 0.44522059
0.92352941 0.91568627 0.45196078
0.93970588 0.91960784 0.46115196
0.94607843 0.91960784 0.46176471
0.73676471 0.9245098 0.46617647
0.73676471 0.92696078 0.46617647
0.73492647 0.9245098 0.46715686
0.74019608 0.9245098 0.46881127
0.74191176 0.9245098 0.46862745
0.74362745 0.92322304 0.46911765
0.75392157 0.9245098 0.4754902
0.76029412 0.9245098 0.47794118
0.76666667 0.9245098 0.47794118
0.7721201 0.92150735 0.48039216
0.77732843 0.92058824 0.4807598
0.78431373 0.92058824 0.48560049
0.79779412 0.92058824 0.4870098
0.80704657 0.92322304 0.48578431
0.81764706 0.9245098 0.48933824
0.83094363 0.92843137 0.48970588
0.84607843 0.92843137 0.48970588
0.85637255 0.92843137 0.48970588
0.86629902 0.92843137 0.48933824
0.8754902 0.92714461 0.48823529
0.88897059 0.92965686 0.49485294
0.90294118 0.93265931 0.50147059
0.92352941 0.93627451 0.50833333
0.93425245 0.93627451 0.51323529
0.93578431 0.93627451 0.51176471
0.77647059 0.94117647 0.50588235
0.78039216 0.94117647 0.50980392
0.7872549 0.94411765 0.51666667
0.77696078 0.94117647 0.50637255
0.77647059 0.9372549 0.50196078
0.77696078 0.9372549 0.50588235
0.78431373 0.9372549 0.50980392
0.79362745 0.94117647 0.51764706
0.79607843 0.9372549 0.51764706
0.8 0.9372549 0.51764706
0.80490196 0.9372549 0.51764706
0.81127451 0.9372549 0.525
0.81960784 0.9372549 0.5254902
0.82794118 0.9372549 0.5254902
0.83823529 0.94117647 0.52843137
0.84852941 0.94509804 0.53480392
0.85882353 0.94509804 0.5372549
0.86911765 0.94264706 0.52941176
0.8754902 0.94117647 0.5254902
0.88578431 0.94117647 0.5254902
0.89607843 0.94313725 0.53137255
0.90686275 0.94901961 0.54166667
0.92058824 0.95196078 0.55196078
0.92696078 0.95294118 0.55294118
0.92941176 0.95294118 0.54901961
0 0.080882353 0.13186275
0 0.080882353 0.13186275
0.00098039216 0.08125 0.13186275
0.0088235294 0.086090686 0.13314951
0.017892157 0.096078431 0.13921569
0.025980392 0.10245098 0.14509804
0.060294118 0.10919118 0.14509804
0.1122549 0.11127451 0.14117647
0.16862745 0.11372549 0.14117647
0.22647059 0.12009804 0.14362745
0.30551471 0.12610294 0.14852941
0.3846201 0.13155637 0.15147059
0.46666667 0.13529412 0.15539216
0.54901961 0.13756127 0.15539216
0.63137255 0.14485294 0.15539216
0.70833333 0.18143382 0.15147059
0.775 0.2377451 0.14607843
0.84160539 0.29466912 0.13578431
0.90294118 0.34791667 0.1254902
0.94362745 0.39264706 0.11862745
0.96936275 0.4377451 0.11470588
0.99019608 0.47469363 0.11764706
0.99607843 0.51262255 0.12794118
1 0.54319853 0.13823529
1 0.56470588 0.15245098
0 0.094178922 0.13578431
0 0.093627451 0.13520987
0.0046721814 0.095327819 0.13578431
0.015081189 0.098904718 0.13578431
0.02622549 0.10395221 0.13771446
0.040196078 0.10930607 0.14117647
0.069669118 0.11597733 0.14117647
0.11715686 0.11672794 0.14117647
0.1716299 0.11617647 0.14117647
0.23039216 0.12067249 0.14362745
0.30588235 0.12610294 0.14852941
0.38823529 0.13303462 0.15441942
0.47181373 0.14289216 0.15934436
0.55238971 0.15037531 0.15539216
0.63419118 0.16409314 0.15539216
0.71262255 0.19942555 0.15034467
0.77800245 0.24411765 0.14362745
0.84405637 0.29838388 0.133678
0.90709252 0.34921875 0.12193627
0.94492187 0.39538909 0.11862745
0.96862745 0.44093137 0.11620711
0.98920803 0.4816636 0.11531097
0.99546569 0.51609988 0.12415748
1 0.54746477 0.1428079
1 0.57199755 0.15729167
0 0.11176471 0.13970588
0 0.11176471 0.13970588
0.0051776961 0.11568627 0.14007353
0.019132966 0.11752451 0.13975184
0.037071078 0.11752451 0.13878676
0.053921569 0.11830576 0.1372549
0.076685049 0.1213848 0.13863358
0.12559743 0.12254902 0.13970588
0.17806373 0.12316176 0.14178922
0.2355239 0.12431066 0.14362745
0.31344975 0.13198529 0.14828431
0.39281556 0.14479167 0.15307904
0.47481618 0.15686275 0.15539216
0.5557598 0.167019 0.15539216
0.63599877 0.1895527 0.15759804
0.71470588 0.22210478 0.15
0.78382353 0.26041667 0.1432598
