site/assets/luts/sha256-c7acb2554f830c75812f951781583b60011ba74f293a1ace57ea72724826af4e.cube
# LUTr-Schema-Version: 2
# LUTr-ID: sha256-c7acb2554f830c75812f951781583b60011ba74f293a1ace57ea72724826af4e
# LUTr-Title: polaroid px-70 warm ++
# LUTr-Collection: Natron HaldCLUT
# LUTr-Collection-ID: natron-haldclut-presets
# LUTr-Source: https://github.com/NatronGitHub/clut
# LUTr-Retrieved: 2026-07-27
# LUTr-Source-File: submissions/natron-haldclut-presets/instant_consumer/polaroid_px-70_warm_++.png
# LUTr-Source-Format: HALD-PNG
# LUTr-Source-SHA256: c7acb2554f830c75812f951781583b60011ba74f293a1ace57ea72724826af4e
# LUTr-License: CC-BY-SA-4.0
# LUTr-License-URL: https://github.com/NatronGitHub/clut#license
# LUTr-License-Basis: repo-license-file
# LUTr-Transform-Class: film-emulation
# LUTr-Tags: creative, film, film-emulation, hald-clut, natron, png, warm, cube
# LUTr-Input-Color-Space: srgb
# LUTr-Input-Gamut: rec709
# LUTr-Input-Transfer: srgb
# LUTr-Output-Color-Space: srgb
# LUTr-Output-Gamut: rec709
# LUTr-Output-Transfer: srgb
# LUTr-Color-Space-Confidence: assumed-display-referred
# LUTr-Domain-Normalized: true
# LUTr-Shaper: none
# LUTr-Original-Grid: 64x64x64
# LUTr-Conversion-Grid: 25x25x25
# LUTr-Conversion-Interpolation: trilinear
# LUTr-Conversion-Method: HALD-PNG LUT image decoded at 16-bit and sampled to 25x25x25 3D CUBE
# LUTr-Conversion-Tool: LUTr scripts/convert-all-to-cube.mjs 2.0.0
# LUTr-Conversion-Date: 2026-07-27
# LUTr-Note: Preserve this metadata and the upstream license notices when redistributing.
TITLE "polaroid px-70 warm ++"
LUT_3D_SIZE 25
DOMAIN_MIN 0 0 0
DOMAIN_MAX 1 1 1
0.42745098 0.2627451 0.16470588
0.42745098 0.26666667 0.16470588
0.43137255 0.26666667 0.16568627
0.43529412 0.26666667 0.16862745
0.43921569 0.26666667 0.16862745
0.43970588 0.26666667 0.16813725
0.44313725 0.26666667 0.16470588
0.44705882 0.26666667 0.16470588
0.45098039 0.26666667 0.16470588
0.45098039 0.2627451 0.16470588
0.45490196 0.2627451 0.16470588
0.48039216 0.26617647 0.16470588
0.51176471 0.26666667 0.16078431
0.54264706 0.26666667 0.16078431
0.57058824 0.26666667 0.15686275
0.61666667 0.27745098 0.15294118
0.67843137 0.29803922 0.14509804
0.74411765 0.31862745 0.13872549
0.80980392 0.34313725 0.12843137
0.87156863 0.36372549 0.11813725
0.92745098 0.39607843 0.10588235
0.9745098 0.4372549 0.093627451
0.99607843 0.46862745 0.093137255
0.99754902 0.49460784 0.10343137
1 0.52156863 0.11372549
0.42745098 0.2627451 0.16470588
0.42745098 0.26519608 0.16470588
0.43137255 0.26666667 0.16470588
0.43529412 0.26666667 0.16599265
0.43921569 0.26666667 0.16617647
0.43970588 0.26666667 0.16470588
0.44313725 0.26666667 0.16470588
0.44705882 0.26666667 0.16470588
0.45098039 0.26666667 0.16470588
0.45435049 0.26666667 0.16470588
0.4622549 0.26666667 0.16470588
0.48333333 0.26666667 0.16470588
0.51568627 0.26985294 0.16078431
0.54479167 0.27058824 0.16078431
0.57536765 0.27242647 0.15686275
0.62156863 0.27990196 0.15294118
0.67843137 0.29803922 0.14509804
0.74411765 0.31862745 0.13872549
0.80980392 0.34313725 0.12843137
0.87156863 0.36372549 0.11470588
0.92745098 0.39730392 0.10392157
0.97843137 0.44099265 0.08939951
0.99607843 0.46862745 0.090318627
0.9966299 0.49460784 0.10343137
1 0.51764706 0.11127451
0.42647059 0.2627451 0.16470588
0.42745098 0.2627451 0.16470588
0.43137255 0.26666667 0.16470588
0.43529412 0.26666667 0.16470588
0.43921569 0.26715686 0.16470588
0.44056373 0.27058824 0.16470588
0.44387255 0.27058824 0.16470588
0.44914216 0.27156863 0.16470588
0.45490196 0.27058824 0.16470588
0.4622549 0.27058824 0.16470588
0.47254902 0.27058824 0.16470588
0.49007353 0.27058824 0.16127451
0.51960784 0.27156863 0.16078431
0.54791667 0.27463235 0.15943627
0.58602941 0.27941176 0.15686275
0.63468137 0.28872549 0.15147059
0.68333333 0.29901961 0.14509804
0.74411765 0.31654412 0.13872549
0.80980392 0.34338235 0.12843137
0.87156863 0.37291667 0.11470588
0.92696078 0.40882353 0.10343137
0.97745098 0.4495098 0.085784314
0.99607843 0.47352941 0.088970588
0.99607843 0.49411765 0.099509804
0.99607843 0.51764706 0.10980392
0.42352941 0.2627451 0.16470588
0.42745098 0.2627451 0.16470588
0.43137255 0.26666667 0.16470588
0.43529412 0.27009804 0.16470588
0.43921569 0.27230392 0.16470588
0.44313725 0.2745098 0.16470588
0.44693627 0.2745098 0.16470588
0.45459559 0.2745098 0.16470588
0.4622549 0.2745098 0.16470588
0.46881127 0.2745098 0.16470588
0.4754902 0.27401961 0.16470588
0.49307598 0.27444853 0.16084559
0.51960784 0.2745098 0.16078431
0.55827206 0.28192402 0.15686275
0.59938725 0.28872549 0.15392157
0.64822304 0.29901961 0.14901961
0.69754902 0.30588235 0.14509804
0.74540441 0.31599265 0.13872549
0.80637255 0.35110294 0.12757353
0.86813725 0.38927696 0.11421569
0.92352941 0.42303922 0.1
0.97058824 0.45931373 0.082781863
0.99509804 0.48382353 0.085294118
0.99607843 0.50441176 0.096078431
0.99607843 0.5245098 0.10980392
0.42352941 0.2627451 0.16470588
0.42745098 0.26789216 0.16470588
0.43137255 0.27254902 0.16470588
0.43480392 0.27647059 0.16470588
0.43823529 0.28039216 0.16470588
0.44313725 0.28235294 0.16470588
0.44607843 0.28382353 0.16470588
0.45637255 0.28431373 0.16470588
0.46470588 0.28039216 0.16470588
0.47303922 0.27916667 0.16470588
0.47941176 0.27598039 0.16078431
0.49313725 0.27622549 0.16078431
0.5245098 0.28039216 0.15980392
0.56666667 0.28872549 0.15637255
0.60931373 0.29901961 0.15147059
0.65367647 0.30931373 0.14754902
0.70196078 0.31764706 0.14117647
0.75147059 0.33431373 0.13284314
0.81176471 0.36617647 0.11862745
0.87352941 0.40220588 0.10441176
0.92745098 0.43823529 0.090196078
0.96960784 0.46985294 0.080147059
0.99068627 0.49705882 0.076470588
0.99607843 0.51862745 0.090441176
0.99607843 0.54509804 0.11372549
0.42352941 0.2754902 0.16470588
0.42745098 0.2776348 0.16470588
0.4310049 0.28284314 0.16470588
0.43480392 0.28633578 0.16470588
0.4372549 0.28872549 0.16470588
0.43970588 0.29068627 0.16470588
0.44607843 0.29031863 0.16421569
0.45245098 0.29019608 0.16078431
0.4627451 0.29019608 0.16078431
0.47303922 0.28676471 0.16078431
0.48247549 0.28284314 0.16078431
0.490625 0.27941176 0.16078431
0.52990196 0.28897059 0.15686275
0.57101716 0.29901961 0.1528799
0.61176471 0.30931373 0.14865196
0.65833333 0.31960784 0.14491422
0.70588235 0.33039216 0.1372549
0.75735294 0.3504902 0.12696078
0.81764706 0.38394608 0.11139706
0.87640931 0.41862745 0.094178922
0.93529412 0.45 0.079656863
0.96917892 0.48082108 0.074019608
0.99019608 0.50870098 0.067647059
0.99852941 0.53480392 0.084313725
0.99607843 0.56568627 0.11764706
0.42745098 0.29215686 0.16470588
0.42745098 0.29215686 0.16470588
0.42843137 0.29313725 0.16470588
0.43137255 0.29705882 0.16470588
0.43529412 0.3004902 0.16470588
0.43970588 0.3004902 0.16421569
0.44387255 0.29705882 0.16078431
0.45134804 0.29705882 0.16078431
0.4627451 0.29705882 0.16078431
0.47303922 0.29705882 0.16078431
0.48406863 0.29779412 0.16078431
0.50392157 0.30379902 0.15698529
0.54019608 0.30735294 0.15343137
0.57708333 0.3127451 0.14901961
0.61176471 0.31960784 0.14534314
0.66164216 0.33137255 0.13970588
0.70980392 0.34803922 0.13039216
0.76090686 0.36470588 0.12303922
0.82083333 0.39877451 0.10857843
0.88272059 0.43615196 0.091421569
0.93872549 0.46666667 0.067647059
0.96580882 0.49754902 0.066789216
0.99019608 0.5247549 0.062990196
0.99669118 0.55183824 0.084313725
0.99607843 0.58039216 0.11176471
0.42745098 0.30735294 0.16470588
0.42745098 0.30735294 0.16470588
0.42745098 0.3067402 0.16470588
0.43137255 0.30735294 0.16470588
0.43529412 0.31127451 0.16470588
0.43952206 0.31096814 0.16078431
0.44313725 0.30441176 0.16078431
0.44852941 0.30196078 0.16023284
0.45882353 0.30196078 0.15931373
0.47395833 0.30735294 0.15778186
0.4939951 0.31973039 0.15686275
0.51813725 0.32971814 0.15324755
0.5504902 0.32916667 0.1502451
0.58314951 0.32843137 0.14724265
0.61213235 0.32634804 0.14178922
0.66709559 0.34852941 0.13431373
0.72156863 0.37156863 0.12401961
0.76813725 0.38970588 0.11372549
0.82303922 0.41973039 0.098529412
0.88333333 0.45765931 0.077941176
0.9372549 0.49117647 0.053431373
0.96568627 0.51764706 0.057843137
0.98627451 0.54215686 0.06127451
0.99607843 0.56666667 0.07745098
0.99607843 0.58578431 0.091176471
0.42352941 0.3254902 0.16470588
0.42745098 0.3254902 0.16470588
0.42745098 0.32156863 0.16470588
0.43137255 0.32156863 0.16470588
0.43333333 0.3254902 0.16078431
0.43921569 0.3254902 0.16078431
0.44313725 0.31862745 0.16078431
0.44852941 0.3122549 0.15686275
0.45882353 0.31372549 0.15686275
0.48333333 0.32794118 0.15441176
0.50392157 0.34215686 0.15294118
0.52843137 0.35245098 0.1495098
0.56078431 0.35294118 0.14705882
0.59362745 0.35294118 0.14117647
0.62745098 0.35980392 0.13431373
0.67401961 0.37941176 0.12401961
0.72941176 0.40392157 0.11372549
0.78088235 0.42696078 0.10098039
0.83235294 0.45294118 0.084313725
0.88382353 0.48088235 0.06372549
0.93529412 0.51176471 0.037254902
0.96568627 0.53823529 0.043627451
0.98627451 0.55882353 0.053921569
0.99607843 0.57941176 0.064215686
1 0.59215686 0.070588235
0.42352941 0.33970588 0.16078431
0.42352941 0.34123775 0.16078431
0.42745098 0.34215686 0.16078431
0.43088235 0.34001225 0.16078431
0.43333333 0.34215686 0.16078431
0.43921569 0.34215686 0.15833333
0.44607843 0.34215686 0.15686275
0.45245098 0.34368873 0.15686275
0.46911765 0.34705882 0.15686275
0.490625 0.35490196 0.15294118
0.51421569 0.36519608 0.15012255
0.53823529 0.37352941 0.14901961
0.56911765 0.37671569 0.14387255
0.60422794 0.3846201 0.13694853
0.64411765 0.39705882 0.12794118
0.68860294 0.41213235 0.11856618
0.73578431 0.43235294 0.10735294
0.78817402 0.45931373 0.088235294
0.83982843 0.4877451 0.067647059
0.88805147 0.50833333 0.043321078
0.93651961 0.53235294 0.018627451
0.96176471 0.55637255 0.02567402
0.98235294 0.5754902 0.037254902
0.99908088 0.59215686 0.04754902
1 0.59852941 0.05
0.41960784 0.35490196 0.15686275
0.42352941 0.35980392 0.15686275
0.4245098 0.36372549 0.15686275
0.42745098 0.36017157 0.15686275
0.43137255 0.35686275 0.15686275
0.43970588 0.36421569 0.15686275
0.45 0.3745098 0.15686275
0.46029412 0.3814951 0.15686275
0.4754902 0.3872549 0.15686275
0.49963235 0.39178922 0.15294118
0.52058824 0.39215686 0.14901961
0.54497549 0.39509804 0.14509804
0.57941176 0.40735294 0.13823529
0.61813725 0.42046569 0.12892157
0.65588235 0.43333333 0.11862745
0.69276961 0.44031863 0.10735294
0.73823529 0.45882353 0.093137255
0.79644608 0.49362745 0.070955882
0.85196078 0.52426471 0.046078431
0.89705882 0.54448529 0.02254902
0.93676471 0.56176471 0.0083333333
0.96176471 0.5754902 0.0090686275
0.98333333 0.59215686 0.018137255
0.99718137 0.61029412 0.037622549
0.99901961 0.61470588 0.052941176
0.41960784 0.40147059 0.15343137
0.42205882 0.40392157 0.15343137
0.42365196 0.40539216 0.15343137
0.42745098 0.40238971 0.15343137
0.43308824 0.40098039 0.15686275
0.44319853 0.40245098 0.15686275
0.45392157 0.4127451 0.15686275
0.46421569 0.41911765 0.15686275
0.48186275 0.4254902 0.15343137
0.50508578 0.43155637 0.14920343
0.52830882 0.43333333 0.14546569
0.55490196 0.43633578 0.14123775
0.58970588 0.44509804 0.13357843
0.62542892 0.45827206 0.125
0.66617647 0.47156863 0.11470588
0.70343137 0.48265931 0.10098039
0.75196078 0.50343137 0.078921569
0.81029412 0.53480392 0.048529412
0.86323529 0.56384804 0.02254902
0.90091912 0.57843137 0.011887255
0.93357843 0.59264706 0.017156863
0.95876225 0.60300245 0.014767157
0.98272059 0.61372549 0.0049019608
0.99607843 0.62922794 0.033639706
0.99607843 0.64558824 0.080392157
0.41568627 0.46078431 0.15294118
0.41887255 0.45759804 0.15098039
0.42352941 0.45490196 0.15098039
0.42720588 0.45318627 0.15269608
0.43333333 0.45294118 0.15294118
0.44362745 0.45318627 0.15294118
0.45392157 0.45833333 0.15294118
0.46887255 0.46348039 0.15220588
0.48823529 0.46862745 0.14901961
0.51078431 0.47377451 0.14583333
0.53431373 0.47843137 0.14068627
0.56519608 0.48210784 0.13553922
0.6 0.48921569 0.12843137
0.63504902 0.49852941 0.12107843
0.67647059 0.51372549 0.10931373
0.725 0.5370098 0.093137255
0.77254902 0.55882353 0.070588235
0.82205882 0.57941176 0.036519608
0.86960784 0.59754902 0.012254902
0.9004902 0.60931373 0.017156863
0.92941176 0.61960784 0.023529412
0.95588235 0.62990196 0.021323529
0.97647059 0.63872549 0.017647059
0.99362745 0.65196078 0.036029412
0.99607843 0.67254902 0.094117647
0.41176471 0.51666667 0.14901961
0.41550245 0.51127451 0.14852941
0.41960784 0.50036765 0.14509804
0.42653186 0.5 0.14810049
0.43333333 0.5002451 0.14901961
0.44362745 0.50006127 0.14852941
0.45392157 0.50392157 0.14852941
0.47352941 0.5096201 0.14852941
0.49411765 0.51617647 0.14509804
0.51519608 0.51862745 0.14117647
0.54068627 0.52487745 0.13627451
0.57542892 0.53137255 0.12990196
0.61004902 0.5377451 0.12352941
0.64564951 0.54803922 0.11715686
0.6872549 0.56139706 0.10343137
0.73155637 0.57745098 0.084620098
0.78039216 0.59803922 0.062745098
0.8254902 0.61832108 0.045404412
0.86666667 0.63125 0.032230392
0.9004902 0.6411152 0.031862745
0.92745098 0.6504902 0.031862745
0.95343137 0.65680147 0.031372549
0.9745098 0.66323529 0.021568627
0.99491422 0.66960784 0.012438725
1 0.67205882 0.021078431
0.41078431 0.57156863 0.14509804
0.41421569 0.56127451 0.14509804
0.41666667 0.54779412 0.14411765
0.42303922 0.54375 0.14215686
0.43333333 0.54656863 0.14509804
0.43970588 0.54803922 0.14509804
0.45612745 0.54877451 0.14436275
0.47647059 0.55735294 0.14509804
0.49803922 0.56372549 0.14509804
0.52046569 0.56764706 0.14117647
0.55098039 0.5754902 0.13627451
0.58186275 0.58284314 0.12683824
0.61715686 0.58921569 0.12009804
0.65980392 0.60257353 0.11323529
0.70098039 0.61372549 0.1
0.74007353 0.62107843 0.079411765
0.78039216 0.63529412 0.065686275
0.8254902 0.65232843 0.062254902
0.86666667 0.66470588 0.048039216
0.9004902 0.675 0.039215686
0.92598039 0.67990196 0.043627451
0.95 0.68468137 0.051348039
0.97426471 0.69117647 0.057843137
0.99252451 0.69901961 0.066176471
0.99607843 0.69901961 0.068627451
0.41715686 0.62303922 0.14901961
0.42107843 0.61666667 0.14993873
0.42598039 0.60784314 0.1504902
0.43627451 0.60490196 0.15441176
0.44264706 0.60490196 0.15441176
0.4504902 0.60226716 0.1504902
0.46372549 0.60281863 0.14987745
0.484375 0.61035539 0.15208333
0.50196078 0.61519608 0.14264706
0.52738971 0.62156863 0.14209559
0.56127451 0.62696078 0.13982843
0.59362745 0.63431373 0.13284314
0.62573529 0.64068627 0.12352941
0.66881127 0.65343137 0.12598039
0.71017157 0.66188725 0.12242647
0.74852941 0.66862745 0.11176471
0.78823529 0.67647059 0.1
0.82941176 0.68829657 0.083394608
0.86776961 0.69889706 0.072794118
0.9004902 0.70588235 0.063112745
0.9254902 0.71102941 0.086519608
0.9504902 0.71832108 0.10784314
0.9745098 0.725 0.12156863
0.98823529 0.72598039 0.12647059
0.99068627 0.72598039 0.12647059
0.42352941 0.67843137 0.15294118
0.42990196 0.6745098 0.15539216
0.44019608 0.66568627 0.16470588
0.4504902 0.6627451 0.16862745
0.45686275 0.66666667 0.16862745
0.46715686 0.66666667 0.16862745
0.48039216 0.66666667 0.16470588
0.4995098 0.66666667 0.16323529
0.51764706 0.66666667 0.16470588
0.54460784 0.66911765 0.16862745
0.57941176 0.6754902 0.16862745
0.61372549 0.68186275 0.16862745
0.64509804 0.68627451 0.16470588
0.67990196 0.69460784 0.16078431
0.71764706 0.70490196 0.15686275
0.75735294 0.71127451 0.14901961
0.79607843 0.71764706 0.14117647
0.83333333 0.72794118 0.12598039
0.86960784 0.73333333 0.12352941
0.9004902 0.7372549 0.1372549
0.92745098 0.74313725 0.15098039
0.95392157 0.7495098 0.16960784
0.97843137 0.75980392 0.1872549
0.98431373 0.76078431 0.19068627
0.98823529 0.75686275 0.18823529
0.43970588 0.72892157 0.16519608
0.44356618 0.725 0.17058824
0.45294118 0.71752451 0.17843137
0.46323529 0.71421569 0.18498775
0.4754902 0.72009804 0.18529412
0.48382353 0.72628676 0.18480392
0.49705882 0.72659314 0.18321078
0.52156863 0.71905637 0.19074755
0.54215686 0.71176471 0.19803922
0.5661152 0.71121324 0.2028799
0.6 0.72058824 0.20588235
0.63088235 0.72696078 0.20588235
0.66176471 0.73137255 0.20196078
0.69411765 0.73578431 0.19803922
0.72855392 0.7442402 0.19117647
0.76519608 0.74944853 0.17843137
0.80245098 0.75637255 0.18235294
0.8372549 0.76029412 0.1872549
0.86960784 0.76421569 0.19460784
0.9004902 0.76813725 0.20882353
0.92867647 0.77401961 0.21985294
0.95392157 0.78008578 0.23449755
0.97598039 0.78321078 0.24558824
0.98823529 0.7901348 0.26807598
0.99068627 0.79166667 0.27696078
0.4872549 0.76470588 0.21764706
0.48370098 0.76372549 0.21421569
0.47818627 0.76078431 0.20686275
0.47916667 0.76078431 0.20208333
0.49705882 0.76372549 0.20980392
0.51862745 0.76384804 0.22107843
0.53627451 0.76470588 0.22843137
0.55196078 0.76041667 0.2317402
0.56862745 0.75686275 0.23529412
0.59007353 0.75686275 0.23884804
0.62058824 0.76176471 0.24313725
0.65147059 0.76470588 0.24215686
0.67843137 0.77205882 0.23676471
0.70833333 0.77683824 0.23406863
0.74240196 0.77941176 0.23235294
0.77794118 0.78051471 0.23333333
0.80882353 0.7872549 0.24215686
0.84154412 0.79080882 0.25147059
0.87352941 0.79583333 0.2627451
0.90441176 0.80159314 0.27598039
0.92941176 0.80294118 0.28529412
0.95392157 0.80294118 0.28860294
0.97377451 0.80661765 0.30196078
0.98578431 0.81519608 0.33186275
0.99607843 0.8254902 0.36176471
0.53872549 0.80196078 0.2754902
0.53841912 0.79852941 0.27175245
0.52953431 0.79840686 0.2627451
0.52947304 0.79503676 0.25245098
0.53872549 0.79460784 0.25661765
0.55980392 0.79509804 0.26911765
0.57659314 0.79852941 0.27647059
0.59166667 0.79460784 0.27990196
0.60588235 0.79460784 0.27990196
0.61881127 0.79834559 0.28020833
0.64117647 0.80196078 0.28039216
0.67205882 0.79852941 0.28039216
0.70416667 0.80269608 0.27990196
0.73284314 0.80643382 0.28382353
0.75686275 0.80686275 0.28762255
0.78823529 0.81029412 0.29656863
0.81911765 0.81421569 0.30686275
0.84871324 0.82058824 0.31323529
0.87745098 0.82254902 0.32267157
0.90441176 0.82254902 0.33039216
0.92941176 0.82647059 0.3370098
0.95392157 0.82647059 0.34313725
0.97071078 0.83284314 0.36286765
0.98578431 0.83970588 0.38743873
0.99215686 0.84215686 0.39852941
0.59607843 0.8372549 0.33137255
0.59607843 0.8372549 0.33137255
0.59215686 0.83480392 0.32794118
0.59411765 0.82598039 0.31421569
0.60098039 0.82156863 0.31176471
0.60833333 0.8254902 0.31617647
0.61666667 0.82892157 0.32303922
0.62965686 0.82867647 0.3254902
0.64901961 0.82745098 0.3254902
0.66568627 0.8254902 0.32745098
0.68284314 0.82598039 0.33137255
0.70833333 0.82573529 0.33529412
0.73921569 0.82745098 0.3372549
0.76372549 0.83137255 0.34509804
0.78578431 0.83333333 0.34901961
0.80955882 0.8372549 0.35441176
0.83333333 0.84313725 0.3627451
0.85465686 0.84705882 0.36862745
0.87696078 0.84460784 0.37107843
0.90098039 0.84656863 0.37622549
0.92745098 0.84705882 0.38627451
0.95 0.85098039 0.39681373
0.97058824 0.85392157 0.4122549
0.98186275 0.85882353 0.42696078
0.98627451 0.85882353 0.43333333
0.66176471 0.85980392 0.37843137
0.66176471 0.85980392 0.37843137
0.65919118 0.85845588 0.37843137
0.6622549 0.8528799 0.37156863
0.66789216 0.85196078 0.36715686
0.67352941 0.85196078 0.37058824
0.67659314 0.85196078 0.37107843
0.68676471 0.85196078 0.37469363
0.7004902 0.84852941 0.375
0.71734069 0.84803922 0.375
0.73382353 0.84803922 0.37977941
0.75091912 0.85153186 0.38627451
0.7745098 0.85220588 0.39656863
0.79852941 0.85680147 0.40735294
0.81911765 0.85980392 0.41078431
0.83921569 0.86158088 0.41029412
0.85588235 0.86372549 0.41029412
0.87254902 0.86372549 0.40980392
0.88921569 0.86372549 0.41384804
0.90931373 0.86372549 0.42107843
0.93161765 0.86740196 0.42745098
0.95435049 0.86807598 0.4377451
0.97156863 0.87156863 0.45147059
0.97775735 0.8754902 0.46047794
0.98039216 0.8754902 0.46421569
0.73039216 0.87745098 0.42352941
0.73039216 0.87647059 0.42352941
0.72745098 0.87647059 0.42254902
0.73039216 0.87647059 0.42254902
0.73284314 0.87254902 0.41862745
0.73835784 0.87254902 0.41862745
0.74142157 0.87254902 0.41862745
0.74852941 0.87254902 0.42254902
0.75882353 0.87254902 0.42352941
0.77009804 0.87193627 0.42536765
0.78529412 0.87254902 0.42818627
0.80245098 0.87254902 0.43517157
0.81862745 0.87647059 0.44460784
0.83578431 0.88039216 0.45882353
0.84705882 0.88137255 0.45906863
0.8622549 0.88321078 0.45845588
0.87647059 0.88137255 0.45490196
0.89313725 0.88137255 0.45392157
0.90980392 0.88431373 0.45588235
0.92647059 0.88431373 0.46262255
0.94019608 0.88431373 0.46862745
0.95784314 0.88823529 0.47892157
0.96936275 0.89142157 0.4870098
0.97352941 0.89215686 0.49264706
0.97647059 0.89313725 0.49509804
0.79852941 0.89705882 0.47009804
0.79761029 0.89705882 0.46862745
0.7942402 0.89558824 0.46617647
0.79705882 0.89705882 0.46862745
0.7997549 0.89583333 0.46740196
0.80147059 0.89313725 0.46617647
0.80490196 0.89313725 0.46617647
0.81029412 0.89313725 0.46917892
0.82058824 0.89313725 0.47254902
0.82696078 0.89313725 0.47346814
0.83970588 0.89460784 0.47855392
0.85 0.89705882 0.48186275
0.8627451 0.89705882 0.48946078
0.87107843 0.89705882 0.49068627
0.87794118 0.8995098 0.49252451
0.88823529 0.90006127 0.49607843
0.90098039 0.90098039 0.5
0.91427696 0.90098039 0.4966299
0.93002451 0.90159314 0.50208333
0.94215686 0.90343137 0.50392157
0.94852941 0.90416667 0.50710784
0.96127451 0.90520833 0.51470588
0.96654412 0.90735294 0.51813725
0.96862745 0.90735294 0.52058824
0.97107843 0.90735294 0.52058824
0.85882353 0.91372549 0.50980392
0.85245098 0.91372549 0.50588235
0.84705882 0.90980392 0.50196078
0.8504902 0.90980392 0.50196078
0.85294118 0.91372549 0.50588235
0.8622549 0.91372549 0.51323529
0.85588235 0.91078431 0.50588235
0.86176471 0.91127451 0.50735294
0.87058824 0.91372549 0.51372549
0.87696078 0.91372549 0.51617647
0.89019608 0.91764706 0.5245098
0.89019608 0.91372549 0.52156863
0.89411765 0.91176471 0.51960784
0.89068627 0.90980392 0.51323529
0.89705882 0.90980392 0.5127451
0.90735294 0.91127451 0.51911765
0.92156863 0.91372549 0.52941176
0.93431373 0.92009804 0.53970588
0.94215686 0.91764706 0.5372549
0.94852941 0.91764706 0.5372549
0.95490196 0.91764706 0.5372549
0.96078431 0.91764706 0.54117647
0.96372549 0.91764706 0.54117647
0.96470588 0.91764706 0.53970588
0.96470588 0.91764706 0.5372549
0.42745098 0.26666667 0.16862745
0.42898284 0.26666667 0.16862745
0.43137255 0.26666667 0.16862745
0.43529412 0.26666667 0.16862745
0.43921569 0.26666667 0.16862745
0.44313725 0.26666667 0.16862745
0.44313725 0.26666667 0.16862745
0.44705882 0.26666667 0.16862745
0.45098039 0.26666667 0.16862745
0.45435049 0.26666667 0.16715686
0.4622549 0.2627451 0.16470588
0.48088235 0.2627451 0.16470588
0.51176471 0.26666667 0.16397059
0.54215686 0.26666667 0.16078431
0.57144608 0.26666667 0.16078431
0.61819853 0.27598039 0.15839461
0.67843137 0.29411765 0.15294118
0.74564951 0.31770833 0.14509804
0.81041667 0.33921569 0.13480392
0.8754902 0.3658701 0.1245098
0.93063725 0.40245098 0.11813725
0.97665441 0.44099265 0.10637255
0.99509804 0.47156863 0.10870098
0.99607843 0.49852941 0.11617647
1 0.5254902 0.12254902
0.42745098 0.26666667 0.16862745
0.42745098 0.26666667 0.16862745
0.43137255 0.26666667 0.16862745
0.43529412 0.26666667 0.16862745
0.43921569 0.26666667 0.16862745
0.44313725 0.26819853 0.16862745
0.44313725 0.26819853 0.16862745
0.44705882 0.26666667 0.16862745
0.45098039 0.26666667 0.16715686
0.45585938 0.26666667 0.16505055
0.46507353 0.26666667 0.16470588
0.48511029 0.26666667 0.16470588
0.51568627 0.26911765 0.16320466
0.54509804 0.27058824 0.16078431
0.57598039 0.27242647 0.15968137
0.6221201 0.28082108 0.15631127
0.68235294 0.2971201 0.15147059
0.74679841 0.31770833 0.14509804
0.81156556 0.33982843 0.13480392
0.8754902 0.36667433 0.1245098
0.93109681 0.40490196 0.11541054
0.97977175 0.44412531 0.10256587
0.99607843 0.47356005 0.10565257
0.99628523 0.50063572 0.11617647
1 0.5254902 0.12254902
0.42745098 0.26629902 0.16862745
0.42745098 0.26666667 0.16862745
0.43137255 0.26666667 0.16862745
0.43529412 0.26720282 0.16862745
0.43921569 0.27003676 0.16862745
0.44313725 0.27058824 0.16862745
0.44607843 0.27058824 0.1682598
0.44852941 0.27058824 0.16654412
0.45490196 0.27058824 0.16470588
0.46141238 0.27058824 0.16470588
0.47254902 0.27058824 0.16470588
0.49007353 0.27058824 0.16470588
0.52040441 0.27156863 0.1620098
