site/assets/luts/sha256-c33ad38b2786500152248245dd47d337df87ec7a8ea3d7348b0b32c1e2a1fff7.cube
# LUTr-Schema-Version: 2
# LUTr-ID: sha256-c33ad38b2786500152248245dd47d337df87ec7a8ea3d7348b0b32c1e2a1fff7
# LUTr-Title: polaroid px-100uv+ cold +
# LUTr-Collection: Natron HaldCLUT
# LUTr-Collection-ID: natron-haldclut-presets
# LUTr-Source: https://github.com/NatronGitHub/clut
# LUTr-Retrieved: 2026-07-27
# LUTr-Source-File: submissions/natron-haldclut-presets/instant_consumer/polaroid_px-100uv+_cold_+.png
# LUTr-Source-Format: HALD-PNG
# LUTr-Source-SHA256: c33ad38b2786500152248245dd47d337df87ec7a8ea3d7348b0b32c1e2a1fff7
# LUTr-License: CC-BY-SA-4.0
# LUTr-License-URL: https://github.com/NatronGitHub/clut#license
# LUTr-License-Basis: repo-license-file
# LUTr-Transform-Class: film-emulation
# LUTr-Tags: creative, film, film-emulation, hald-clut, natron, png, cool, cube
# LUTr-Input-Color-Space: srgb
# LUTr-Input-Gamut: rec709
# LUTr-Input-Transfer: srgb
# LUTr-Output-Color-Space: srgb
# LUTr-Output-Gamut: rec709
# LUTr-Output-Transfer: srgb
# LUTr-Color-Space-Confidence: assumed-display-referred
# LUTr-Domain-Normalized: true
# LUTr-Shaper: none
# LUTr-Original-Grid: 64x64x64
# LUTr-Conversion-Grid: 25x25x25
# LUTr-Conversion-Interpolation: trilinear
# LUTr-Conversion-Method: HALD-PNG LUT image decoded at 16-bit and sampled to 25x25x25 3D CUBE
# LUTr-Conversion-Tool: LUTr scripts/convert-all-to-cube.mjs 2.0.0
# LUTr-Conversion-Date: 2026-07-27
# LUTr-Note: Preserve this metadata and the upstream license notices when redistributing.
TITLE "polaroid px-100uv+ cold +"
LUT_3D_SIZE 25
DOMAIN_MIN 0 0 0
DOMAIN_MAX 1 1 1
0.23529412 0.30196078 0.30980392
0.23137255 0.30196078 0.30980392
0.23235294 0.30294118 0.31078431
0.24264706 0.30980392 0.32107843
0.25294118 0.31764706 0.32745098
0.25490196 0.31764706 0.32941176
0.25098039 0.31764706 0.3254902
0.26323529 0.32843137 0.33627451
0.28627451 0.34509804 0.35294118
0.3004902 0.35686275 0.36470588
0.30588235 0.36078431 0.36862745
0.30980392 0.36470588 0.37254902
0.3372549 0.38823529 0.39215686
0.3622549 0.40882353 0.4127451
0.38627451 0.42941176 0.43333333
0.40686275 0.44460784 0.44852941
0.42352941 0.45882353 0.4627451
0.44019608 0.47156863 0.4754902
0.45588235 0.48333333 0.4872549
0.47352941 0.50098039 0.50147059
0.49803922 0.52156863 0.51764706
0.51862745 0.54215686 0.53431373
0.53921569 0.5627451 0.55098039
0.55980392 0.58333333 0.56617647
0.57254902 0.59215686 0.57647059
0.2377451 0.30833333 0.31617647
0.2377451 0.30741422 0.31617647
0.23921569 0.30833333 0.31617647
0.24295343 0.30980392 0.32107843
0.25098039 0.31568627 0.3254902
0.25128676 0.31764706 0.32579657
0.25343137 0.31948529 0.32794118
0.26568627 0.32996324 0.33780637
0.28480392 0.34509804 0.35294118
0.3004902 0.35539216 0.36323529
0.30686275 0.36176471 0.36960784
0.31930147 0.371875 0.37843137
0.3372549 0.3875 0.39338235
0.36176471 0.40637255 0.4127451
0.38627451 0.42585784 0.43039216
0.40686275 0.44307598 0.44699755
0.42352941 0.45882353 0.46029412
0.44019608 0.46911765 0.47303922
0.45686275 0.48431373 0.48786765
0.47959559 0.50704657 0.50490196
0.50441176 0.52794118 0.52401961
0.52892157 0.55030637 0.54068627
0.5495098 0.57193627 0.55735294
0.56917892 0.58878676 0.57254902
0.57647059 0.59607843 0.57647059
0.24411765 0.31078431 0.31862745
0.24411765 0.31262255 0.32156863
0.24705882 0.31372549 0.32156863
0.24791667 0.31372549 0.32242647
0.25294118 0.31764706 0.32745098
0.25588235 0.3189951 0.32953431
0.2627451 0.3254902 0.33406863
0.27303922 0.33480392 0.34362745
0.2872549 0.34607843 0.35392157
0.3004902 0.35931373 0.36715686
0.31176471 0.36666667 0.3745098
0.32598039 0.37953431 0.38480392
0.34166667 0.39068627 0.39803922
0.36176471 0.40490196 0.4127451
0.38455882 0.4254902 0.42941176
0.40539216 0.44215686 0.44607843
0.42352941 0.45490196 0.45882353
0.44019608 0.47156863 0.47303922
0.46078431 0.48921569 0.48897059
0.48492647 0.50980392 0.50882353
0.51176471 0.53578431 0.52941176
0.53835784 0.55882353 0.54705882
0.55980392 0.58235294 0.56470588
0.57463235 0.5942402 0.57683824
0.57647059 0.59607843 0.57745098
0.2504902 0.31715686 0.325
0.253125 0.31764706 0.3254902
0.25098039 0.31715686 0.3254902
0.25098039 0.31715686 0.3254902
0.25465686 0.31764706 0.32941176
0.25931373 0.32205882 0.33376225
0.2692402 0.33198529 0.34019608
0.27941176 0.33872549 0.34656863
0.29019608 0.34901961 0.35686275
0.30441176 0.35931373 0.36715686
0.3182598 0.37303922 0.38088235
0.33278186 0.38382353 0.39160539
0.34877451 0.39754902 0.40196078
0.36476716 0.40833333 0.41268382
0.38235294 0.42291667 0.42941176
0.40294118 0.4408701 0.44460784
0.42352941 0.45490196 0.45882353
0.44019608 0.47156863 0.47518382
0.46433824 0.49215686 0.49215686
0.48915441 0.51617647 0.5122549
0.51568627 0.54093137 0.53284314
0.54264706 0.5661152 0.55343137
0.5692402 0.58970588 0.57144608
0.58008578 0.59969363 0.58039216
0.58039216 0.6 0.58039216
0.26078431 0.32352941 0.33137255
0.26078431 0.32352941 0.33137255
0.26078431 0.32303922 0.33137255
0.25686275 0.31985294 0.33137255
0.25686275 0.31960784 0.33137255
0.26323529 0.32598039 0.3375
0.27352941 0.33284314 0.34411765
0.27990196 0.34264706 0.3504902
0.29411765 0.35294118 0.36078431
0.30759804 0.36323529 0.37107843
0.32303922 0.37745098 0.38382353
0.33848039 0.38946078 0.39558824
0.35392157 0.40098039 0.40784314
0.36911765 0.4122549 0.41813725
0.38284314 0.42254902 0.42990196
0.40294118 0.43946078 0.44460784
0.42352941 0.45490196 0.45882353
0.44411765 0.4754902 0.4754902
0.46862745 0.49803922 0.49558824
0.49313725 0.52058824 0.51470588
0.52058824 0.54509804 0.53333333
0.54656863 0.56960784 0.55392157
0.57058824 0.59019608 0.5745098
0.58504902 0.60392157 0.58431373
0.58627451 0.60588235 0.58431373
0.27107843 0.33382353 0.34166667
0.27107843 0.33382353 0.34166667
0.27107843 0.32990196 0.34166667
0.27107843 0.32990196 0.34166667
0.27107843 0.33039216 0.34166667
0.27107843 0.33382353 0.34166667
0.27365196 0.33639706 0.3442402
0.27990196 0.34264706 0.3504902
0.29411765 0.35294118 0.36078431
0.31096814 0.36715686 0.375
0.32781863 0.38137255 0.38921569
0.34417892 0.39209559 0.39993873
0.35906863 0.40588235 0.41029412
0.37310049 0.41617647 0.42058824
0.38762255 0.42683824 0.43088235
0.40294118 0.43854167 0.44460784
0.42352941 0.45539216 0.45882353
0.44675245 0.47941176 0.47696078
0.47254902 0.5 0.49607843
0.4966299 0.5245098 0.51666667
0.52181373 0.54705882 0.5372549
0.54656863 0.56960784 0.55392157
0.57058824 0.59313725 0.5745098
0.58970588 0.60802696 0.58627451
0.59264706 0.6122549 0.59215686
0.28431373 0.34411765 0.35196078
0.28431373 0.34411765 0.35196078
0.28431373 0.34093137 0.35196078
0.28529412 0.3439951 0.35196078
0.28529412 0.34411765 0.35196078
0.28137255 0.34411765 0.35196078
0.28137255 0.34019608 0.3497549
0.2810049 0.34264706 0.3504902
0.29803922 0.35686275 0.36470588
0.31580882 0.37071078 0.37855392
0.33357843 0.38455882 0.39240196
0.34840686 0.39558824 0.40343137
0.36421569 0.40882353 0.41519608
0.37990196 0.42009804 0.42696078
0.39338235 0.43039216 0.4372549
0.40870098 0.44362745 0.44754902
0.42647059 0.45882353 0.46176471
0.44803922 0.47941176 0.47941176
0.47254902 0.50098039 0.49607843
0.49705882 0.5245098 0.51666667
0.52352941 0.54901961 0.5372549
0.54914216 0.56997549 0.55772059
0.57426471 0.59411765 0.5745098
0.59473039 0.61323529 0.59264706
0.60294118 0.62254902 0.59901961
0.29558824 0.3504902 0.35833333
0.29558824 0.3504902 0.36170343
0.29595588 0.35441176 0.3622549
0.29920343 0.35441176 0.3622549
0.29828431 0.35441176 0.3622549
0.29558824 0.35441176 0.3622549
0.29375 0.35441176 0.3622549
0.29852941 0.35680147 0.36464461
0.30882353 0.36617647 0.37156863
0.32401961 0.37647059 0.38431373
0.34068627 0.39068627 0.39852941
0.35735294 0.403125 0.40882353
0.37132353 0.41372549 0.42156863
0.38627451 0.4254902 0.43186275
0.4004902 0.43578431 0.44215686
0.415625 0.44908088 0.45300245
0.43284314 0.4627451 0.46666667
0.45196078 0.48088235 0.47996324
0.47463235 0.50392157 0.5
0.5004902 0.5245098 0.51844363
0.5254902 0.54901961 0.5372549
0.5504902 0.57352941 0.55784314
0.57781863 0.59803922 0.57843137
0.6004902 0.61954657 0.59601716
0.61323529 0.63284314 0.60784314
0.30588235 0.36078431 0.36862745
0.30588235 0.36078431 0.36862745
0.30980392 0.36176471 0.37254902
0.30980392 0.36470588 0.37598039
0.31372549 0.36470588 0.37647059
0.31372549 0.36519608 0.37647059
0.31372549 0.36862745 0.37647059
0.31911765 0.37254902 0.38039216
0.3254902 0.37647059 0.38431373
0.33578431 0.38676471 0.39460784
0.35 0.39705882 0.40490196
0.36421569 0.40735294 0.41519608
0.37843137 0.41764706 0.4254902
0.39313725 0.43186275 0.43578431
0.40980392 0.44215686 0.44607843
0.425 0.45637255 0.46029412
0.43921569 0.47058824 0.47058824
0.45735294 0.4872549 0.48480392
0.47745098 0.50392157 0.50294118
0.50098039 0.5245098 0.52058824
0.52745098 0.54901961 0.54117647
0.55392157 0.57401961 0.56176471
0.58137255 0.60098039 0.58235294
0.60686275 0.62254902 0.60147059
0.62352941 0.63921569 0.61568627
0.31617647 0.36862745 0.37647059
0.31770833 0.37107843 0.37892157
0.32071078 0.37389706 0.38284314
0.32616422 0.375 0.38627451
0.32916667 0.37892157 0.38995098
0.33039216 0.38137255 0.39068627
0.33333333 0.38284314 0.39068627
0.33823529 0.38768382 0.39460784
0.34607843 0.39313725 0.40098039
0.35300245 0.39797794 0.40582108
0.36029412 0.40343137 0.41127451
0.37058824 0.41127451 0.41911765
0.38553922 0.42156863 0.42941176
0.3995098 0.43449755 0.44001225
0.41654412 0.44852941 0.45355392
0.43284314 0.4627451 0.46666667
0.4495098 0.47696078 0.47843137
0.46464461 0.49209559 0.49209559
0.48284314 0.50747549 0.5057598
0.50471814 0.52696078 0.52089461
0.52745098 0.54901961 0.54117647
0.55441176 0.57401961 0.56176471
0.58198529 0.60098039 0.58235294
0.60833333 0.62647059 0.60294118
0.62990196 0.64558824 0.61960784
0.32843137 0.37843137 0.38627451
0.33137255 0.38198529 0.38982843
0.33602941 0.38553922 0.39338235
0.34178922 0.38921569 0.39705882
0.34460784 0.39313725 0.40098039
0.34742647 0.39448529 0.40490196
0.35098039 0.39779412 0.40490196
0.35637255 0.40134804 0.40919118
0.3627451 0.40882353 0.41372549
0.37058824 0.4127451 0.41948529
0.37769608 0.41666667 0.4245098
0.38137255 0.42022059 0.42794118
0.39068627 0.42598039 0.43333333
0.40931373 0.44105392 0.44767157
0.42647059 0.45490196 0.46102941
0.44166667 0.47058824 0.47303922
0.45588235 0.48333333 0.4872549
0.47254902 0.49754902 0.49754902
0.48823529 0.51102941 0.50857843
0.50588235 0.52843137 0.5245098
0.52990196 0.5495098 0.54117647
0.55796569 0.57487745 0.56188725
0.58529412 0.60269608 0.58333333
0.6122549 0.62855392 0.6057598
0.63137255 0.64803922 0.61960784
0.35588235 0.40294118 0.40686275
0.35539216 0.39901961 0.40686275
0.35588235 0.3995098 0.40735294
0.35931373 0.4033701 0.41078431
0.3620098 0.40710784 0.41323529
0.36378676 0.40735294 0.41519608
0.36801471 0.41115196 0.4189951
0.37334559 0.41519608 0.42273284
0.37990196 0.42254902 0.42696078
0.38756127 0.4254902 0.43302696
0.39252451 0.43051471 0.43566176
0.39859069 0.4338848 0.43872549
0.40490196 0.44019608 0.44632353
0.42003676 0.45140931 0.45539216
0.43676471 0.46519608 0.46911765
0.45196078 0.47959559 0.48333333
0.46617647 0.49362745 0.49362745
0.48284314 0.50655637 0.50422794
0.49558824 0.51813725 0.51470588
0.5122549 0.53192402 0.52843137
0.53504902 0.55269608 0.54509804
0.56176471 0.58094363 0.56568627
0.58921569 0.6057598 0.58627451
0.61599265 0.63382353 0.60686275
0.63529412 0.65098039 0.62352941
0.38627451 0.4254902 0.43137255
0.38235294 0.42352941 0.42745098
0.37990196 0.41960784 0.42745098
0.37843137 0.41960784 0.4254902
0.37745098 0.41960784 0.4254902
0.38039216 0.42156863 0.42573529
0.38235294 0.42303922 0.42941176
0.3877451 0.42696078 0.43333333
0.39607843 0.43333333 0.4372549
0.40637255 0.44166667 0.44632353
0.4127451 0.44558824 0.45147059
0.41911765 0.45269608 0.45661765
0.42745098 0.45980392 0.46372549
0.4377451 0.46715686 0.47107843
0.45 0.47892157 0.47941176
0.46372549 0.48970588 0.48970588
0.47647059 0.50392157 0.50392157
0.49313725 0.51544118 0.51421569
0.50735294 0.52892157 0.5245098
0.5247549 0.54607843 0.53872549
0.54607843 0.56470588 0.55490196
0.56813725 0.5875 0.57156863
0.59558824 0.61323529 0.59215686
0.62132353 0.63897059 0.6127451
0.64117647 0.65686275 0.62745098
0.4127451 0.44803922 0.45147059
0.40882353 0.44411765 0.44803922
0.40526961 0.44313725 0.44669118
0.40189951 0.44019608 0.44411765
0.39926471 0.43627451 0.44019608
0.39699755 0.43535539 0.43970588
0.39656863 0.43492647 0.43970588
0.40196078 0.43970588 0.44362745
0.4122549 0.44754902 0.45147059
0.42254902 0.45441176 0.45802696
0.42941176 0.46335784 0.46458333
0.43970588 0.47107843 0.47150735
0.44607843 0.47720588 0.47916667
0.45637255 0.48382353 0.4872549
0.46666667 0.49411765 0.49375
0.47677696 0.50392157 0.5004902
0.49068627 0.51421569 0.51029412
0.50343137 0.52696078 0.52303922
0.52058824 0.54362745 0.53578431
0.54074755 0.56078431 0.54944853
0.56127451 0.57916667 0.56519608
0.58186275 0.59803922 0.58186275
0.60245098 0.62205882 0.59852941
0.62824755 0.64626225 0.61862745
0.64754902 0.66323529 0.63186275
0.43333333 0.46470588 0.46568627
0.43088235 0.46286765 0.46507353
0.42941176 0.46078431 0.46397059
0.4254902 0.45821078 0.46176471
0.42303922 0.45686275 0.45931373
0.41764706 0.45294118 0.4564951
0.41372549 0.44901961 0.45073529
0.41727941 0.45147059 0.45539216
0.42941176 0.46176471 0.46470588
0.43970588 0.47144608 0.47205882
0.45 0.48063725 0.48063725
0.4564951 0.4877451 0.48786765
0.46519608 0.49411765 0.49460784
0.47303922 0.50134804 0.50134804
0.48333333 0.51078431 0.50784314
0.49362745 0.51813725 0.51605392
0.50392157 0.52745098 0.52352941
0.51764706 0.54056373 0.53333333
0.53651961 0.55784314 0.54901961
0.55490196 0.57487745 0.5627451
0.5745098 0.59264706 0.5754902
0.59522059 0.61176471 0.59215686
0.61666667 0.63235294 0.60882353
0.6372549 0.65294118 0.62438725
0.65784314 0.67352941 0.63921569
0.45245098 0.47990196 0.47990196
0.45 0.4783701 0.47990196
0.45 0.47745098 0.47928922
0.44754902 0.47745098 0.47745098
0.44681373 0.47745098 0.47745098
0.44362745 0.475 0.47714461
0.44362745 0.475 0.475
0.44209559 0.475 0.47408088
0.45 0.47990196 0.47990196
0.45637255 0.4877451 0.48627451
0.46666667 0.49595588 0.49375
0.47567402 0.503125 0.50079657
0.48333333 0.51004902 0.50808824
0.49019608 0.51715686 0.5153799
0.50392157 0.52745098 0.52352941
0.51421569 0.5377451 0.53143382
0.52598039 0.54803922 0.54019608
0.53480392 0.55741422 0.54656863
0.54852941 0.57107843 0.55637255
0.56697304 0.58872549 0.57175245
0.58578431 0.60539216 0.58578431
0.60655637 0.62598039 0.60245098
0.62843137 0.64656863 0.61911765
0.64901961 0.66623775 0.63431373
0.66813725 0.68382353 0.64852941
0.46666667 0.49411765 0.49411765
0.47058824 0.49411765 0.49411765
0.47156863 0.49803922 0.49803922
0.4745098 0.50196078 0.49803922
0.4745098 0.50392157 0.5
0.4745098 0.50588235 0.50196078
0.4745098 0.50588235 0.49803922
0.4745098 0.50196078 0.49803922
0.4745098 0.50196078 0.49803922
0.47843137 0.50588235 0.50196078
0.4872549 0.51372549 0.50980392
0.49754902 0.52107843 0.51715686
0.50392157 0.52941176 0.52352941
0.51421569 0.5377451 0.53333333
0.52745098 0.54803922 0.54019608
0.53872549 0.5622549 0.5504902
0.54901961 0.56862745 0.55686275
0.55539216 0.57647059 0.56323529
0.5627451 0.58529412 0.56960784
0.57941176 0.59901961 0.57990196
0.6 0.61568627 0.59607843
0.62058824 0.64019608 0.6127451
0.64411765 0.66078431 0.62941176
0.66568627 0.68137255 0.64607843
0.68235294 0.69803922 0.65882353
0.5 0.52107843 0.51715686
0.50091912 0.52352941 0.51807598
0.50245098 0.52598039 0.52107843
0.50539216 0.53020833 0.52254902
0.50857843 0.53284314 0.525
0.50931373 0.5341299 0.525
0.50539216 0.53284314 0.525
0.50447304 0.52984069 0.52254902
0.50147059 0.52647059 0.52254902
0.50238971 0.52647059 0.5216299
0.50784314 0.53137255 0.52683824
0.51813725 0.53952206 0.53400735
0.52696078 0.54803922 0.54166667
0.53903186 0.56096814 0.5504902
0.55257353 0.57254902 0.56078431
0.56323529 0.584375 0.57015931
0.56960784 0.59313725 0.575
0.57598039 0.59705882 0.5783701
0.58235294 0.60196078 0.58345588
0.59234069 0.61194853 0.59019608
0.6127451 0.63112745 0.60637255
0.63480392 0.653125 0.62303922
0.65784314 0.675 0.64068627
0.67990196 0.69650735 0.65882353
0.69656863 0.7122549 0.67303922
0.5372549 0.55980392 0.54705882
0.5372549 0.55980392 0.54803922
0.5372549 0.55980392 0.54803922
0.5372549 0.55980392 0.54803922
0.54019608 0.56372549 0.5495098
0.54019608 0.56372549 0.55098039
0.53627451 0.56053922 0.54730392
0.53235294 0.55772059 0.54595588
0.52843137 0.55196078 0.54313725
0.52598039 0.54742647 0.54068627
0.52843137 0.5502451 0.54313725
0.53872549 0.55833333 0.5504902
0.55147059 0.57254902 0.56078431
0.56421569 0.58419118 0.57107843
0.57745098 0.59705882 0.58137255
0.58664216 0.60625 0.58737745
0.59411765 0.61372549 0.59019608
0.59865196 0.6182598 0.59656863
0.60392157 0.62328431 0.59901961
0.61323529 0.63284314 0.60539216
0.62843137 0.64509804 0.61715686
0.64914216 0.66605392 0.63419118
0.67279412 0.68995098 0.65392157
0.69509804 0.71372549 0.67120098
0.71176471 0.72745098 0.68333333
0.5745098 0.59460784 0.575
0.5745098 0.59460784 0.575
0.5745098 0.59460784 0.575
0.5745098 0.59460784 0.575
0.57107843 0.59460784 0.575
0.57107843 0.5911152 0.575
0.56715686 0.58811275 0.57156863
0.56323529 0.58529412 0.56979167
0.55931373 0.57941176 0.56764706
0.55667892 0.57647059 0.56372549
0.55502451 0.57463235 0.56335784
0.56623775 0.58284314 0.57107843
0.57720588 0.59681373 0.58137255
0.59117647 0.60778186 0.59166667
0.60196078 0.62107843 0.59803922
0.61207108 0.63008578 0.60686275
0.61862745 0.6377451 0.61078431
0.62469363 0.64411765 0.61715686
0.63125 0.6504902 0.62218137
0.64117647 0.65735294 0.62647059
0.6497549 0.66740196 0.63627451
0.66666667 0.68627451 0.65055147
0.69031863 0.70686275 0.66764706
0.71176471 0.72794118 0.6846201
0.72843137 0.74411765 0.69754902
0.60980392 0.62941176 0.60392157
0.60980392 0.62941176 0.60392157
0.60980392 0.62941176 0.60392157
0.60980392 0.62941176 0.60196078
0.60784314 0.62843137 0.60196078
0.60563725 0.6252451 0.6
0.6004902 0.62156863 0.59803922
0.59730392 0.61691176 0.59534314
0.59411765 0.61372549 0.59411765
0.59215686 0.61176471 0.59411765
0.59607843 0.6122549 0.59411765
0.5995098 0.61740196 0.59779412
0.60784314 0.6254902 0.60392157
0.61813725 0.63578431 0.6122549
0.62843137 0.64607843 0.61960784
0.63872549 0.65637255 0.62892157
0.64901961 0.66470588 0.63529412
0.65539216 0.67107843 0.63921569
0.66176471 0.67892157 0.64558824
0.66862745 0.6877451 0.65073529
0.67843137 0.69411765 0.65686275
0.69289216 0.70857843 0.66764706
0.71176471 0.72745098 0.68431373
0.73088235 0.74656863 0.6995098
0.74509804 0.75882353 0.70980392
0.64509804 0.66421569 0.63235294
0.64509804 0.66421569 0.63235294
0.64509804 0.66421569 0.63235294
0.64466912 0.66421569 0.62935049
0.64289216 0.6625 0.62892157
0.64025735 0.65680147 0.62800245
0.63676471 0.65343137 0.62463235
0.63333333 0.65116422 0.62107843
0.63333333 0.64901961 0.62107843
0.63333333 0.64901961 0.62352941
0.63688725 0.65257353 0.625
0.6372549 0.65294118 0.62800245
0.64289216 0.65857843 0.63063725
0.64944853 0.6651348 0.63676471
0.65931373 0.675 0.6432598
0.66960784 0.68529412 0.64981618
0.67990196 0.69509804 0.65980392
0.68627451 0.70196078 0.66372549
0.69264706 0.70833333 0.66862745
0.6995098 0.7151348 0.67506127
0.70931373 0.725 0.68161765
0.72003676 0.73529412 0.69166667
0.73639706 0.74901961 0.70196078
0.75098039 0.76323529 0.71354167
0.76127451 0.77352941 0.72205882
0.67941176 0.69901961 0.65686275
0.68125 0.69901961 0.65870098
0.68235294 0.69901961 0.65980392
0.67977941 0.69901961 0.65723039
0.67892157 0.69656863 0.65637255
0.6745098 0.69117647 0.65281863
0.67156863 0.6879902 0.65196078
0.67058824 0.6872549 0.65196078
0.67058824 0.6872549 0.65196078
0.6745098 0.69019608 0.65441176
0.6745098 0.69019608 0.65588235
0.67843137 0.69375 0.65588235
0.68088235 0.69460784 0.65980392
0.68639706 0.6995098 0.66384804
0.69093137 0.70588235 0.66838235
0.7004902 0.71470588 0.67401961
0.70784314 0.72254902 0.68039216
0.71715686 0.73039216 0.68786765
0.72352941 0.73848039 0.69289216
0.73039216 0.74558824 0.6995098
0.74019608 0.75245098 0.70588235
0.74754902 0.76188725 0.71188725
0.75563725 0.76960784 0.71862745
0.76813725 0.77990196 0.72598039
0.77843137 0.79019608 0.73627451
0.7127451 0.72990196 0.68137255
0.71421569 0.72990196 0.68284314
0.71458333 0.73382353 0.68529412
0.71568627 0.73382353 0.68529412
0.7129902 0.73063725 0.68284314
0.71029412 0.72598039 0.68137255
0.70784314 0.72352941 0.67892157
0.70784314 0.72205882 0.67892157
0.71029412 0.72352941 0.68137255
0.71176471 0.72598039 0.68284314
0.71421569 0.72745098 0.68529412
0.71568627 0.72990196 0.68676471
0.71813725 0.73186275 0.68921569
0.72205882 0.7341299 0.69099265
0.72536765 0.7377451 0.6942402
0.73137255 0.74313725 0.69852941
0.7377451 0.75196078 0.70490196
0.74803922 0.75980392 0.71127451
0.75441176 0.76617647 0.71703431
0.75949755 0.77285539 0.72058824
0.76372549 0.77671569 0.7245098
0.76795343 0.77971814 0.72714461
0.7745098 0.78627451 0.73382353
0.78480392 0.79509804 0.74019608
0.79362745 0.80539216 0.74803922
0.7372549 0.75294118 0.70196078
0.7372549 0.75294118 0.70196078
0.74117647 0.75686275 0.70588235
0.74509804 0.76078431 0.70931373
0.74313725 0.75882353 0.70588235
0.7372549 0.75294118 0.70196078
0.7372549 0.75 0.70196078
0.7372549 0.74901961 0.70196078
0.7372549 0.75294118 0.70196078
0.74117647 0.75539216 0.70588235
0.74509804 0.75686275 0.70686275
0.74509804 0.75686275 0.70980392
0.74509804 0.75686275 0.70980392
0.74901961 0.76078431 0.70980392
0.75196078 0.76372549 0.71372549
0.75686275 0.76862745 0.71764706
0.76470588 0.77647059 0.7254902
0.77352941 0.78676471 0.73186275
0.78039216 0.79215686 0.7372549
0.78039216 0.79166667 0.7372549
0.78039216 0.79215686 0.7372549
0.78431373 0.79607843 0.74117647
0.79117647 0.8 0.74411765
0.79754902 0.80931373 0.7504902
0.80784314 0.81568627 0.75686275
0.2377451 0.30833333 0.31617647
0.2377451 0.30680147 0.31464461
0.23872549 0.30833333 0.31617647
0.24656863 0.31354167 0.32352941
0.25416667 0.31887255 0.32867647
0.25735294 0.32156863 0.33186275
0.26029412 0.32401961 0.33186275
0.27205882 0.3338848 0.34172794
0.29264706 0.34901961 0.35686275
0.30686275 0.36231618 0.37015931
0.3122549 0.36531863 0.37316176
0.32303922 0.3745098 0.38235294
0.34362745 0.39068627 0.39852941
0.36813725 0.4127451 0.41666667
0.39019608 0.43186275 0.43615196
0.41078431 0.44761029 0.45153186
0.42990196 0.4627451 0.46519608
0.44656863 0.4754902 0.47849265
0.46323529 0.49068627 0.49362745
0.48382353 0.51127451 0.5091299
0.50563725 0.53186275 0.5247549
0.52892157 0.55245098 0.54068627
0.5495098 0.57009804 0.55735294
0.56917892 0.58878676 0.57254902
0.57647059 0.59607843 0.57647059
0.23921569 0.30925245 0.31709559
0.23887102 0.30833333 0.31617647
0.24120711 0.30939032 0.31761642
0.24821538 0.31354167 0.3236443
0.25539216 0.31914828 0.32867647
0.25735294 0.32156863 0.33186275
0.26090686 0.32470895 0.33370098
0.27359069 0.3350337 0.34383425
0.29172794 0.35055147 0.35839461
0.30686275 0.36176471 0.36981464
0.31323529 0.36790748 0.37575061
0.32433364 0.37744332 0.38461244
0.34362745 0.39310662 0.39898897
0.36599265 0.41127451 0.41648284
0.38982843 0.42964154 0.43394608
0.41023284 0.44761029 0.45022978
0.42745098 0.46127451 0.46519608
0.44656863 0.4754902 0.47849265
0.46323529 0.49137561 0.49385723
0.48596814 0.51127451 0.5091299
0.50879289 0.53278186 0.52671569
0.53003217 0.5533701 0.54342831
0.55251225 0.57395833 0.55902267
0.56975337 0.58970588 0.57346814
0.57647059 0.59607843 0.57647059
0.24411765 0.31078431 0.31862745
0.24411765 0.31262255 0.32156863
0.24705882 0.31372549 0.32172181
0.24960172 0.31372549 0.32415748
0.25416667 0.31856618 0.32867647
0.2591299 0.32192096 0.33204657
0.2676777 0.32904412 0.33909314
0.2790288 0.33933824 0.34901961
0.29301471 0.35183824 0.35968137
0.30709252 0.36323529 0.37107843
0.31752451 0.37159926 0.3794424
0.32931985 0.38051471 0.38835784
0.34754902 0.39479167 0.40140931
0.36622243 0.41096814 0.41551777
0.3885723 0.42821691 0.4330576
0.40931373 0.44552696 0.44921875
0.42598039 0.46127451 0.4627451
0.44656863 0.47571998 0.47849265
0.46715686 0.49460784 0.4939951
0.48806679 0.51519608 0.51132047
