site/assets/luts/sha256-3bcef7bc32404876a4469119b6714b8ba936fa5357e81b80d23a6ea2acfe5ecd.cube
# LUTr-Schema-Version: 2
# LUTr-ID: sha256-3bcef7bc32404876a4469119b6714b8ba936fa5357e81b80d23a6ea2acfe5ecd
# LUTr-Title: blue mono
# LUTr-Collection: Natron HaldCLUT
# LUTr-Collection-ID: natron-haldclut-presets
# LUTr-Source: https://github.com/NatronGitHub/clut
# LUTr-Retrieved: 2026-07-27
# LUTr-Source-File: submissions/natron-haldclut-presets/various/blue_mono.png
# LUTr-Source-Format: HALD-PNG
# LUTr-Source-SHA256: 3bcef7bc32404876a4469119b6714b8ba936fa5357e81b80d23a6ea2acfe5ecd
# LUTr-License: CC-BY-SA-4.0
# LUTr-License-URL: https://github.com/NatronGitHub/clut#license
# LUTr-License-Basis: repo-license-file
# LUTr-Transform-Class: film-emulation
# LUTr-Tags: creative, film, film-emulation, hald-clut, natron, png, black-and-white, cool, cube
# LUTr-Input-Color-Space: srgb
# LUTr-Input-Gamut: rec709
# LUTr-Input-Transfer: srgb
# LUTr-Output-Color-Space: srgb
# LUTr-Output-Gamut: rec709
# LUTr-Output-Transfer: srgb
# LUTr-Color-Space-Confidence: assumed-display-referred
# LUTr-Domain-Normalized: true
# LUTr-Shaper: none
# LUTr-Original-Grid: 64x64x64
# LUTr-Conversion-Grid: 25x25x25
# LUTr-Conversion-Interpolation: trilinear
# LUTr-Conversion-Method: HALD-PNG LUT image decoded at 16-bit and sampled to 25x25x25 3D CUBE
# LUTr-Conversion-Tool: LUTr scripts/convert-all-to-cube.mjs 2.0.0
# LUTr-Conversion-Date: 2026-07-27
# LUTr-Note: Preserve this metadata and the upstream license notices when redistributing.
TITLE "blue mono"
LUT_3D_SIZE 9
DOMAIN_MIN 0 0 0
DOMAIN_MAX 1 1 1
0.023529412 0.035294118 0.10980392
0.054411765 0.085784314 0.2372549
0.085294118 0.13921569 0.36470588
0.12254902 0.19558824 0.47647059
0.17254902 0.26666667 0.5745098
0.22647059 0.34166667 0.67892157
0.27647059 0.41470588 0.75490196
0.33186275 0.48970588 0.83284314
0.44313725 0.6627451 0.90196078
0.035294118 0.050980392 0.14509804
0.054411765 0.085784314 0.2377451
0.085294118 0.13884804 0.36078431
0.12647059 0.20079657 0.48560049
0.18014706 0.2745098 0.58627451
0.23431373 0.35324755 0.68235294
0.29080882 0.43382353 0.7627451
0.35098039 0.52401961 0.84068627
0.44705882 0.67009804 0.90196078
0.035294118 0.047058824 0.13627451
0.062254902 0.093504902 0.26066176
0.093137255 0.14632353 0.37965686
0.13186275 0.20490196 0.5
0.1877451 0.28431373 0.59803922
0.2439951 0.36703431 0.69068627
0.30392157 0.45392157 0.77132353
0.3627451 0.5439951 0.84803922
0.46568627 0.7 0.9127451
0.039215686 0.058823529 0.16617647
0.062254902 0.09754902 0.26519608
0.097058824 0.15098039 0.38431373
0.14123775 0.21666667 0.50876225
0.19607843 0.29215686 0.61617647
0.25 0.37156863 0.70582108
0.30392157 0.45392157 0.78517157
0.38039216 0.56960784 0.85441176
0.4745098 0.70980392 0.91764706
0.043137255 0.064705882 0.18235294
0.064460784 0.10147059 0.27279412
0.10098039 0.1627451 0.40588235
0.15196078 0.23235294 0.52230392
0.20686275 0.30490196 0.63333333
0.25637255 0.37818627 0.71936275
0.31078431 0.46470588 0.79656863
0.3995098 0.59656863 0.86004902
0.48235294 0.71960784 0.91960784
0.043137255 0.062745098 0.18284314
0.062745098 0.10539216 0.28088235
0.10490196 0.17561275 0.43578431
0.15784314 0.24656863 0.54761029
0.2125 0.31838235 0.6504902
0.26476716 0.39172794 0.73290441
0.32781863 0.4877451 0.80625
0.41862745 0.62334559 0.87303922
0.50343137 0.74901961 0.93088235
0.047058824 0.070588235 0.19803922
0.070220588 0.11409314 0.30882353
0.10563725 0.1754902 0.43529412
0.15392157 0.24656863 0.55208333
0.21568627 0.32745098 0.65686275
0.26960784 0.40110294 0.74227941
0.34338235 0.50759804 0.81862745
0.42990196 0.64215686 0.88811275
0.51372549 0.76176471 0.9372549
0.050980392 0.077941176 0.21519608
0.078370098 0.125 0.33529412
0.11703431 0.18627451 0.45894608
0.16176471 0.25441176 0.56060049
0.21789216 0.32965686 0.65735294
0.27352941 0.40441176 0.74803922
0.35196078 0.52156863 0.8254902
0.44068627 0.65686275 0.89460784
0.51372549 0.76421569 0.9372549
0.047058824 0.074509804 0.20392157
0.081862745 0.12843137 0.33529412
0.11960784 0.18921569 0.45882353
0.17352941 0.26372549 0.57058824
0.22352941 0.3372549 0.66862745
0.27352941 0.40441176 0.74803922
0.35196078 0.52254902 0.82647059
0.44411765 0.65686275 0.89460784
0.50980392 0.75686275 0.93333333
0.031372549 0.050980392 0.14117647
0.058333333 0.093137255 0.25294118
0.089215686 0.14313725 0.37647059
0.12794118 0.20490196 0.48823529
0.17647059 0.27230392 0.58627451
0.23382353 0.35294118 0.68627451
0.28431373 0.4254902 0.76666667
0.34705882 0.51966912 0.83976716
0.44264706 0.66911765 0.90539216
0.035294118 0.054901961 0.14901961
0.058333333 0.093512561 0.25674786
0.091467525 0.14667586 0.37990196
0.13151808 0.20880055 0.49604013
0.18382353 0.28186275 0.59754902
0.24011183 0.36125153 0.69384957
0.29908088 0.445481 0.78154105
0.36573989 0.54656863 0.84454657
0.45091912 0.67794118 0.90588235
0.035661765 0.054779412 0.15318627
0.062254902 0.093627451 0.26470588
0.096721814 0.15085784 0.3877451
0.13739277 0.21488971 0.50776654
0.19142157 0.29142157 0.60931373
0.24791667 0.37299326 0.70502451
0.30772059 0.45784314 0.78321078
0.38442096 0.57305453 0.85228248
0.46568627 0.69705882 0.9127451
0.035477941 0.052757353 0.15245098
0.066176471 0.10463388 0.27778033
0.099862132 0.15704657 0.39661458
0.14596354 0.22578125 0.5164905
0.19926471 0.30186887 0.62386642
0.25385263 0.38021599 0.71555607
0.31030944 0.46176471 0.79019608
0.38954504 0.57873775 0.85964308
0.4745098 0.70980392 0.91764706
0.041421569 0.062745098 0.17867647
0.070098039 0.1125 0.29188113
0.10441176 0.16838235 0.41764706
0.15392157 0.23921569 0.53014706
0.20588235 0.31066176 0.63517157
0.25784314 0.3877451 0.7245098
0.31568627 0.46942402 0.79803922
0.40364583 0.6004902 0.86590074
0.48995098 0.73112745 0.9252451
0.047058824 0.071875 0.20147059
0.070098039 0.11619945 0.3031633
0.10747549 0.178125 0.43890931
0.16176471 0.25104167 0.55373775
0.21553309 0.32533701 0.65563725
0.2664905 0.40030637 0.73474265
0.3272212 0.48345588 0.80735294
0.41717984 0.61960784 0.8754902
0.50998775 0.75618873 0.93511029
0.050980392 0.074509804 0.21531863
0.077573529 0.1214614 0.32058824
0.11338848 0.18578431 0.45119485
0.16519608 0.25569853 0.56456801
0.21960784 0.33180147 0.66446078
0.27352941 0.40819547 0.74620098
0.3395527 0.50294118 0.81936275
0.43022365 0.64263174 0.89215686
0.50379902 0.7504902 0.93382353
0.050980392 0.071078431 0.22009804
0.081862745 0.12805607 0.34227175
0.12352941 0.19292279 0.46634498
0.16976869 0.26214767 0.57440257
0.22374387 0.33704044 0.66841299
0.27745098 0.41439951 0.75192249
0.35196078 0.52291667 0.82683824
0.44068627 0.65691636 0.89896599
0.52156863 0.77598039 0.94509804
0.050980392 0.074509804 0.22745098
0.081862745 0.12843137 0.34313725
0.12438725 0.19411765 0.47009804
0.17873775 0.2713848 0.58756127
0.22745098 0.34117647 0.6745098
0.28088235 0.41568627 0.75165441
0.35588235 0.52904412 0.82941176
0.44852941 0.66813725 0.89901961
0.52107843 0.77205882 0.94460784
0.035294118 0.057843137 0.15588235
0.062254902 0.097426471 0.26372549
0.093137255 0.14705882 0.38112745
0.13578431 0.2127451 0.49718137
0.18333333 0.28039216 0.60098039
0.24215686 0.36519608 0.69963235
0.29828431 0.44485294 0.78529412
0.36139706 0.53909314 0.84705882
0.45882353 0.69313725 0.91372549
0.030514706 0.050980392 0.13664216
0.062254902 0.097533701 0.260769
0.097028186 0.15490196 0.39212623
0.1381587 0.220144 0.51087623
0.19099265 0.29405637 0.61360294
0.24607843 0.37460172 0.70926777
0.30870098 0.46127451 0.79019608
0.38039216 0.56868873 0.85185355
0.46311275 0.69705882 0.91286765
0.039215686 0.058823529 0.16666667
0.065931373 0.10404412 0.2783701
0.10091912 0.16158088 0.40367647
0.14200368 0.22717525 0.52337623
0.19583333 0.30294118 0.62769608
0.25367647 0.38272059 0.71559436
0.31568627 0.47052696 0.79338235
0.40496324 0.60171569 0.86017157
0.48039216 0.71544118 0.92058824
0.042156863 0.062745098 0.17941176
0.069730392 0.10905331 0.29571078
0.10098039 0.1627451 0.41862745
0.15068934 0.23742341 0.53731618
0.20300245 0.31268382 0.64080882
0.25899203 0.39163603 0.72428002
0.31568627 0.46960784 0.79457721
0.404856 0.59963235 0.86395527
0.50269608 0.74522059 0.93235294
0.044607843 0.066666667 0.19362745
0.074019608 0.11666667 0.30931373
0.10784314 0.17352941 0.43480392
0.16145833 0.24895833 0.54730392
0.21151961 0.32230392 0.65245098
0.26550245 0.39748775 0.73155637
0.31960784 0.47610294 0.8004902
0.40716912 0.60355392 0.87113971
0.50784314 0.75392157 0.93480392
0.050980392 0.074509804 0.21115196
0.075490196 0.12058824 0.3189951
0.1135723 0.18235294 0.44705882
0.16761642 0.25795037 0.5666973
0.21930147 0.33161765 0.66133578
0.27222733 0.40741422 0.73981311
0.33293505 0.49280025 0.81145833
0.43025429 0.63823529 0.88443627
0.51617647 0.76715686 0.94117647
0.054901961 0.082352941 0.22745098
0.082506127 0.12852328 0.33235294
0.11960784 0.19019608 0.45882353
0.17352941 0.26372549 0.5760723
0.22585784 0.33958333 0.67058824
0.28137255 0.41844363 0.74757966
0.33995098 0.50098039 0.82291667
0.43688725 0.64886642 0.8919424
0.50882353 0.75661765 0.9372549
0.057843137 0.085294118 0.2435049
0.085784314 0.13304228 0.34978554
0.12429534 0.19831495 0.47395833
0.17882966 0.271875 0.59002757
0.23180147 0.34877451 0.67996324
0.29223346 0.43383885 0.75994179
0.35435049 0.525 0.83042279
0.45170037 0.66959252 0.89901961
0.54460784 0.8064951 0.95992647
0.061764706 0.093137255 0.26862745
0.085784314 0.13627451 0.36176471
0.12843137 0.20563725 0.48553922
0.18921569 0.28578431 0.61372549
0.24215686 0.3622549 0.6877451
0.29705882 0.4432598 0.76311275
0.36593137 0.54411765 0.83651961
0.45931373 0.6807598 0.90196078
0.54117647 0.80294118 0.95686275
0.041666667 0.062745098 0.17647059
0.066176471 0.10147059 0.28039216
0.097058824 0.15281863 0.39276961
0.14515931 0.2278799 0.51568627
0.19607843 0.29534314 0.61691176
0.25245098 0.37303922 0.71029412
0.31176471 0.46139706 0.79693627
0.38823529 0.57745098 0.86617647
0.4745098 0.71372549 0.92156863
0.039215686 0.062745098 0.16862745
0.066176471 0.10490196 0.2786152
0.10098039 0.1627451 0.40373775
0.14460784 0.22977175 0.52186734
0.2 0.30563725 0.6245098
0.25765931 0.38402267 0.71806832
0.31568627 0.46934743 0.80062806
0.39158241 0.58192402 0.86372549
0.4745098 0.70980392 0.91764706
0.043137255 0.066666667 0.18394608
0.070098039 0.11087623 0.29117647
0.10490196 0.17058824 0.42227328
0.14908088 0.23941483 0.5416973
0.20318627 0.3129902 0.64099265
0.26139706 0.39379596 0.72889093
0.32352941 0.48155637 0.80477941
0.40931373 0.60917586 0.87348346
0.49901961 0.74117647 0.93431373
0.048590686 0.070588235 0.2
0.074019608 0.11323529 0.31109835
0.10784314 0.17414216 0.43705576
0.15749847 0.24878983 0.55677849
0.20983456 0.32429534 0.65585172
0.26568627 0.40317096 0.73849571
0.32921262 0.49166667 0.80977328
0.41734835 0.62058824 0.87892923
0.50588235 0.75147059 0.93578431
0.047058824 0.068627451 0.20122549
0.074019608 0.11994485 0.32843137
0.11568627 0.18216912 0.45416667
0.16914828 0.25879289 0.57254902
0.21960784 0.33333333 0.66531863
0.26960784 0.40640319 0.74188113
0.33290441 0.49699755 0.81433824
0.42362132 0.63039216 0.88455882
0.52009804 0.77107843 0.94362745
0.050061275 0.073590686 0.21231618
0.077941176 0.1245098 0.33792126
0.11983762 0.18944547 0.46481311
0.17522978 0.26464461 0.58535539
0.2254902 0.33921569 0.67012868
0.27352941 0.41055453 0.74650735
0.35458027 0.52872243 0.82231924
0.44541207 0.6622549 0.8963848
0.52996324 0.79025735 0.9504902
0.054901961 0.080882353 0.22377451
0.088373162 0.1363511 0.34590993
0.12662377 0.19865196 0.47386642
0.18137255 0.27333027 0.59365809
0.23308824 0.34877451 0.68210784
0.28811275 0.4307598 0.75934436
0.35995711 0.53648897 0.83250613
0.4569087 0.6810049 0.90294118
0.53394608 0.79607843 0.95294118
0.058823529 0.090196078 0.24901961
0.089705882 0.14411765 0.36508885
0.12833946 0.20793505 0.48953738
0.18529412 0.28197763 0.60115656
0.24313725 0.3622549 0.6963848
0.3036152 0.45177696 0.77267923
0.36956189 0.54986213 0.84381127
0.46481311 0.69275429 0.90949755
0.54540441 0.80833333 0.95735294
0.060294118 0.095588235 0.26421569
0.089705882 0.14803922 0.37843137
0.13198529 0.21556373 0.50196078
0.19166667 0.28970588 0.61072304
0.25098039 0.3745098 0.70122549
0.31219363 0.46568627 0.77640931
0.37794118 0.56323529 0.85147059
0.46813725 0.69852941 0.91292892
0.54901961 0.81176471 0.96078431
0.037254902 0.052941176 0.15490196
0.069852941 0.10882353 0.28406863
0.10098039 0.16470588 0.41176471
0.15 0.23235294 0.52622549
0.20686275 0.30294118 0.62941176
0.26176471 0.38088235 0.72328431
0.32352941 0.47352941 0.80686275
0.40343137 0.59632353 0.8752451
0.48431373 0.72352941 0.92156863
0.043137255 0.062745098 0.17990196
0.070098039 0.10882353 0.2879902
0.10373775 0.16795343 0.41568627
0.15 0.23841912 0.5377451
0.20784314 0.3125 0.64007353
0.26568627 0.39151348 0.72981005
0.32352941 0.47732843 0.81023284
0.4049326 0.59957108 0.8752451
0.48602941 0.72352941 0.92156863
0.047058824 0.070098039 0.19558824
0.074019608 0.1127451 0.30147059
0.10882353 0.17561275 0.43039216
0.15784314 0.24895833 0.55300245
0.21176471 0.325 0.65269608
0.26960784 0.40140931 0.73866422
0.33137255 0.48995098 0.81764706
0.41666667 0.61740196 0.88321078
0.49803922 0.74117647 0.92941176
0.050980392 0.066666667 0.19607843
0.077941176 0.12058824 0.32352941
0.11568627 0.18504902 0.4536152
0.16522672 0.25741422 0.56228554
0.21629902 0.33394608 0.66237745
0.27352941 0.41302083 0.75027574
0.33921569 0.50735294 0.82346814
0.42426471 0.63284314 0.8872549
0.50980392 0.75808824 0.9372549
0.053921569 0.073529412 0.21764706
0.079901961 0.12463235 0.34289216
0.12279412 0.19264706 0.46985294
0.17352941 0.26593137 0.58247549
0.2245098 0.34264706 0.6745098
0.27745098 0.42009804 0.75269608
0.34705882 0.52156863 0.83014706
0.43198529 0.64509804 0.89117647
0.51764706 0.76862745 0.94117647
0.054901961 0.082352941 0.23480392
0.081862745 0.13308824 0.3614277
0.1283701 0.20165441 0.48897059
0.18060662 0.27261029 0.59828431
0.2317402 0.35073529 0.68210784
0.28137255 0.42552083 0.75931373
0.35827206 0.53817402 0.82990196
0.44715074 0.66617647 0.89509804
0.51911765 0.77083333 0.94117647
0.058823529 0.090196078 0.25294118
0.093198529 0.14497549 0.36905637
0.13823529 0.21568627 0.50098039
0.18921569 0.28756127 0.61176471
0.24068627 0.36102941 0.69754902
0.29313725 0.44123775 0.77279412
0.37242647 0.55980392 0.84129902
0.46421569 0.69093137 0.90294118
0.55294118 0.81911765 0.96078431
0.054901961 0.086519608 0.24289216
0.095343137 0.15196078 0.37405025
0.13921569 0.21911765 0.50784314
0.19313725 0.29436275 0.61626838
0.25490196 0.37659314 0.71678922
0.31145833 0.46544118 0.7861826
0.38137255 0.57064951 0.85294118
0.47405025 0.7041973 0.91449142
0.5495098 0.81446078 0.96078431
0.058823529 0.094117647 0.26078431
0.093627451 0.15196078 0.38602941
0.13921569 0.21764706 0.50637255
0.19705882 0.29754902 0.61642157
0.25588235 0.37941176 0.71862745
0.32058824 0.47892157 0.79313725
0.38529412 0.575 0.86078431
0.48186275 0.71593137 0.92034314
0.56666667 0.83529412 0.97058824
0.043137255 0.064215686 0.18186275
0.070098039 0.1127451 0.29754902
0.10490196 0.17205882 0.42683824
0.15 0.23719363 0.54160539
0.21176471 0.31446078 0.64583333
0.26960784 0.38872549 0.73235294
0.32352941 0.46960784 0.80686275
0.40949755 0.60245098 0.8754902
0.50588235 0.74901961 0.93333333
0.043137255 0.064215686 0.18431373
0.070098039 0.1127451 0.30726869
0.10586703 0.1745098 0.43106618
0.15392157 0.24685968 0.55507812
0.21632966 0.32401961 0.65686275
0.27352941 0.39725797 0.7400046
0.32931985 0.47745098 0.81372549
0.42081036 0.61783088 0.87914369
0.5158701 0.76666667 0.9372549
0.050980392 0.074142157 0.20747549
0.074019608 0.11680453 0.3189951
0.11651348 0.18511029 0.44252451
0.16609988 0.25874694 0.56708027
0.22089461 0.33553922 0.66801471
0.27653186 0.40727635 0.74604779
0.33455882 0.48575368 0.82156863
0.42905944 0.63374694 0.88664216
0.51372549 0.7622549 0.9372549
0.054901961 0.075980392 0.21868873
0.081058517 0.12762714 0.34313725
0.12169118 0.19388787 0.46689645
0.17015931 0.26594669 0.57655484
0.22398897 0.34359681 0.67328431
0.28137255 0.42197457 0.75622702
0.34503676 0.51239277 0.82872243
0.43664982 0.64821538 0.89343597
0.51464461 0.76470588 0.94117647
0.054901961 0.082352941 0.23529412
0.083333333 0.13520221 0.36338848
0.12745098 0.20251225 0.48609069
0.17622549 0.27503064 0.59362745
0.22916667 0.35134804 0.6807598
0.28529412 0.42990196 0.76323529
0.35465686 0.53063725 0.83333333
0.44730392 0.66642157 0.89901961
0.53137255 0.7877451 0.95171569
0.054901961 0.08627451 0.24460784
0.085784314 0.14097733 0.38425245
0.13137255 0.21173407 0.50487132
0.18529412 0.28668045 0.60974265
0.23529412 0.3622549 0.69362745
0.28976716 0.44117647 0.77338388
0.36819853 0.55395221 0.84172794
0.45876225 0.68498009 0.90294118
0.54209559 0.80484069 0.95686275
0.062745098 0.10196078 0.27696078
0.093397672 0.15232843 0.39558824
0.14093137 0.2247549 0.51936275
0.19327512 0.29833027 0.61971507
0.24166667 0.3716299 0.70637255
0.28999694 0.44640012 0.7834712
0.38204657 0.57726716 0.8515625
0.47303922 0.70637255 0.91286765
0.55 0.8127451 0.95784314
0.066360294 0.10735294 0.2877451
0.10100337 0.15980392 0.40517004
0.14742647 0.22941176 0.52558211
0.20104933 0.30546109 0.62794884
0.25579044 0.38324142 0.72352941
0.3080193 0.46764706 0.79509804
0.395144 0.59375 0.86309743
0.48790594 0.72736673 0.92600337
0.55882353 0.82696078 0.96488971
0.062745098 0.10735294 0.28627451
0.10116422 0.16109069 0.41519608
0.14852941 0.23051471 0.52303922
0.20490196 0.30778186 0.63088235
0.25955882 0.3877451 0.72745098
0.32058824 0.48284314 0.79957108
0.39656863 0.59607843 0.86862745
0.49166667 0.72922794 0.92647059
0.58039216 0.85490196 0.98039216
0.050980392 0.070588235 0.2
0.074019608 0.11678922 0.31176471
0.10563725 0.17843137 0.43602941
0.15882353 0.25147059 0.5627451
0.22205882 0.33333333 0.66323529
0.27352941 0.40294118 0.73835784
0.32352941 0.46887255 0.81004902
0.41862745 0.61127451 0.88039216
0.49901961 0.73039216 0.93333333
0.047058824 0.070588235 0.19865196
0.074019608 0.12058824 0.31956189
0.11265319 0.18299632 0.44378064
0.16531863 0.25574449 0.56666667
0.22352941 0.33511029 0.66642157
0.27745098 0.411106 0.74773284
0.3361826 0.49068627 0.82120098
0.43639706 0.63431373 0.89085478
0.5067402 0.74460784 0.93811275
0.050980392 0.078431373 0.22034314
0.081770833 0.12843137 0.3359375
0.1245098 0.19411765 0.4620098
0.17472426 0.26783088 0.58400735
0.22941176 0.34656863 0.67647059
0.28492647 0.42028186 0.75526961
0.34877451 0.51004902 0.82941176
0.44473039 0.65428922 0.89635417
0.51691176 0.76470588 0.94436275
0.054901961 0.08627451 0.23419118
0.085784314 0.13627451 0.35375306
0.12889093 0.20196078 0.48296569
0.17930453 0.27817096 0.598269
0.23474265 0.35520833 0.68431373
0.28921569 0.43224571 0.76519608
0.36262255 0.53713235 0.83740809
0.45338542 0.67224265 0.90294118
0.53002451 0.78921569 0.95
0.056372549 0.08627451 0.23872549
0.093198529 0.1463848 0.36838235
0.13308824 0.21372549 0.49852941
0.18137255 0.28578431 0.60857843
0.23921569 0.36495098 0.69362745
0.29344363 0.44289216 0.7747549
0.37156863 0.55551471 0.84362745
0.46421569 0.68897059 0.90686275
0.54362745 0.80686275 0.95882353
0.062745098 0.098406863 0.26666667
0.090609681 0.15196078 0.39117647
0.13529412 0.22068015 0.51626838
0.18921569 0.29532782 0.62009804
0.24381127 0.37469363 0.70802696
0.30375306 0.45968137 0.78739277
0.38370098 0.57683824 0.85330882
0.47414216 0.70428922 0.91115196
0.55931373 0.82487745 0.96678922
0.070588235 0.11397059 0.30392157
0.098529412 0.16375613 0.4176777
0.14313725 0.22677696 0.52199755
0.19715074 0.30401348 0.62585784
0.24987745 0.38247549 0.71666667
0.30919118 0.4692402 0.79534314
0.39509804 0.59313725 0.86305147
0.48768382 0.72742034 0.92426471
0.55686275 0.82352941 0.96470588
0.070220588 0.11764706 0.31066176
0.10539216 0.16766238 0.43033088
0.15232843 0.2372549 0.53535539
0.20571385 0.31341912 0.63492647
0.25906863 0.3908701 0.72751225
0.31666667 0.47892157 0.80133272
0.39901961 0.59705882 0.86862745
0.49914216 0.74324449 0.93382353
0.57561275 0.85012255 0.97254902
0.06372549 0.11764706 0.30392157
0.10931373 0.17254902 0.44215686
0.15882353 0.24436275 0.54534314
0.2127451 0.32107843 0.64473039
0.2627451 0.39460784 0.73137255
0.3245098 0.48676471 0.80392157
0.40073529 0.60196078 0.87034314
0.4995098 0.7439951 0.93125
0.58529412 0.85980392 0.97745098
0.050980392 0.078431373 0.20833333
0.074938725 0.12457108 0.32401961
0.11568627 0.18664216 0.44742647
0.1713848 0.26372549 0.57107843
0.22352941 0.33921569 0.66862745
0.27745098 0.41862745 0.7495098
0.3432598 0.50943627 0.82205882
0.43284314 0.63823529 0.88817402
0.51372549 0.75784314 0.94509804
0.050980392 0.074509804 0.20441176
0.078370098 0.12843137 0.33491881
0.11971507 0.19051777 0.45882353
0.17352941 0.26372549 0.57974112
0.22570466 0.33943015 0.67083333
0.27598039 0.41617647 0.74803922
0.34143689 0.51115196 0.82244179
0.44541207 0.66083793 0.89552696
0.51807598 0.76862745 0.94859069
0.048406863 0.078921569 0.22487745
0.085784314 0.13632047 0.36199449
0.13072917 0.20196078 0.48731618
0.18137255 0.27340686 0.59166667
0.23137255 0.34852941 0.67665441
0.28137255 0.42424939 0.75526961
0.35661765 0.53342525 0.83259804
0.45958946 0.68039216 0.90723039
0.53762255 0.80343137 0.95723039
0.055208333 0.090196078 0.24215686
0.093895527 0.14675245 0.37042739
0.13627451 0.20779718 0.49834559
0.18547794 0.28105852 0.60343137
0.23921569 0.35897672 0.68553922
0.29332874 0.44001225 0.76672794
0.37241115 0.55747549 0.8439951
0.46813725 0.69611673 0.91143536
0.54558824 0.81617647 0.96127451
0.062745098 0.096078431 0.25735294
0.097977941 0.15612745 0.38848039
0.14056373 0.22156863 0.51593137
0.19206495 0.29255515 0.61804534
0.24705882 0.37071078 0.70318627
0.30490196 0.45759804 0.78210784
0.38186275 0.57107843 0.85294118
0.47426471 0.70637255 0.91470588
0.5629902 0.83602941 0.96911765
0.073223039 0.11243873 0.29852941
0.09754902 0.1598269 0.40245098
0.13933824 0.2254902 0.52388174
0.19705882 0.30213695 0.63088235
0.25382966 0.37941176 0.72254902
0.31666667 0.47506893 0.79516697
0.39509804 0.59215686 0.86078431
0.48556219 0.72140778 0.92270987
0.54932598 0.81384804 0.9627451
0.074509804 0.11335784 0.3067402
0.10147059 0.16507353 0.41862745
0.14512868 0.23259804 0.53164828
0.20490196 0.30989583 0.63515625
0.2588848 0.38890931 0.73161765
0.3245098 0.48515625 0.80294118
0.40294118 0.60137868 0.86875
0.49963235 0.74448529 0.93443627
0.57634804 0.85085784 0.98039216
0.077941176 0.12892157 0.33670343
0.10974265 0.17640931 0.4372549
0.15657169 0.24413297 0.55038297
0.21479013 0.3214614 0.64754902
0.26666667 0.39806985 0.73927696
0.32661612 0.49162837 0.81078431
0.41262255 0.62156863 0.88066789
0.51078431 0.7622549 0.94258578
0.57647059 0.84705882 0.97647059
0.074509804 0.12941176 0.32990196
0.11715686 0.1872549 0.4495098
0.16409314 0.25208333 0.56568627
0.22058824 0.32677696 0.65833333
0.26691176 0.4 0.73946078
0.33431373 0.5004902 0.81470588
0.42696078 0.64068627 0.88835784
0.51470588 0.76617647 0.94558824
0.57990196 0.85098039 0.97647059
0.054901961 0.082352941 0.22352941
0.077941176 0.12843137 0.33137255
0.11960784 0.18921569 0.45392157
0.175 0.26617647 0.57990196
0.2254902 0.3372549 0.67254902
0.28137255 0.42254902 0.74803922
0.35196078 0.53039216 0.82941176
0.44411765 0.66470588 0.89509804
0.5254902 0.78823529 0.95294118
0.054901961 0.08627451 0.23480392
0.085294118 0.13584559 0.36176471
0.12696078 0.19754902 0.47401961
0.17745098 0.26764706 0.58382353
0.22916667 0.34485294 0.67990196
0.27775735 0.41881127 0.7495098
0.34803922 0.52169118 0.8254902
0.44852941 0.66905637 0.89901961
0.5254902 0.7877451 0.95294118
0.054901961 0.08627451 0.24117647
0.089705882 0.14056373 0.38578431
0.13455882 0.20196078 0.50122549
0.18284314 0.27401961 0.59460784
0.23480392 0.35098039 0.68235294
0.28713235 0.43039216 0.75588235
0.35882353 0.5372549 0.83333333
0.46029412 0.68088235 0.90686275
0.5372549 0.80686275 0.95980392
0.060294118 0.091666667 0.26029412
0.099693627 0.14803922 0.38627451
0.14203431 0.20980392 0.51372549
0.19221814 0.2848652 0.60827206
0.24313725 0.36397059 0.68823529
0.29705882 0.44607843 0.76856618
0.37156863 0.55747549 0.84791667
0.47058824 0.69871324 0.91470588
0.54754902 0.81568627 0.96323529
0.066666667 0.098039216 0.27647059
0.10147059 0.16176471 0.41127451
0.1495098 0.22745098 0.5254902
0.1997549 0.29828431 0.625
0.25098039 0.3745098 0.70784314
0.30808824 0.4625 0.78602941
0.37941176 0.56764706 0.86078431
0.47818627 0.7120098 0.91862745
0.5627451 0.83529412 0.97058824
0.070588235 0.10735294 0.29558824
0.10147059 0.17028186 0.42420343
0.14767157 0.23296569 0.52647059
0.20245098 0.30686275 0.63480392
0.25759804 0.38235294 0.72818627
0.31721814 0.47555147 0.79901961
0.4004902 0.59852941 0.86862745
0.50471814 0.75196078 0.93921569
0.57009804 0.84460784 0.97401961
0.070588235 0.11372549 0.30686275
0.10539216 0.16862745 0.42156863
0.14803922 0.23406863 0.53504902
0.20919118 0.31360294 0.6432598
0.26323529 0.39264706 0.7377451
0.33235294 0.49669118 0.80686275
0.41568627 0.62132353 0.87647059
0.51090686 0.75882353 0.94166667
0.57647059 0.85392157 0.97647059
0.074509804 0.12205882 0.32598039
0.11666667 0.18333333 0.43817402
0.16666667 0.25208333 0.55343137
0.2245098 0.32892157 0.66256127
0.27083333 0.40220588 0.74338235
0.33645833 0.50441176 0.81470588
0.42647059 0.64056373 0.88823529
0.515625 0.77009804 0.94564951
0.58480392 0.85931373 0.98039216
0.078431373 0.12941176 0.3372549
0.12058824 0.1872549 0.45294118
0.16666667 0.25588235 0.56862745
0.23235294 0.33431373 0.67254902
0.28235294 0.41764706 0.74509804
0.34411765 0.51568627 0.81617647
0.43431373 0.65490196 0.89215686
0.52303922 0.77843137 0.9495098
0.60784314 0.89019608 0.99215686
