site/assets/luts/sha256-57b39e5b4cb84ba54ecd3712c434b1d9969af3e82cbfe1eb7d3f892489345c31.cube
# LUTr-Schema-Version: 2
# LUTr-ID: sha256-57b39e5b4cb84ba54ecd3712c434b1d9969af3e82cbfe1eb7d3f892489345c31
# LUTr-Title: fuji ilford delta 3200 +
# LUTr-Collection: Natron HaldCLUT
# LUTr-Collection-ID: natron-haldclut-presets
# LUTr-Source: https://github.com/NatronGitHub/clut
# LUTr-Retrieved: 2026-07-27
# LUTr-Source-File: submissions/natron-haldclut-presets/negative_old/fuji_ilford_delta_3200_+.png
# LUTr-Source-Format: HALD-PNG
# LUTr-Source-SHA256: 57b39e5b4cb84ba54ecd3712c434b1d9969af3e82cbfe1eb7d3f892489345c31
# LUTr-License: CC-BY-SA-4.0
# LUTr-License-URL: https://github.com/NatronGitHub/clut#license
# LUTr-License-Basis: repo-license-file
# LUTr-Transform-Class: film-emulation
# LUTr-Tags: creative, film, film-emulation, hald-clut, natron, png, cube
# LUTr-Input-Color-Space: srgb
# LUTr-Input-Gamut: rec709
# LUTr-Input-Transfer: srgb
# LUTr-Output-Color-Space: srgb
# LUTr-Output-Gamut: rec709
# LUTr-Output-Transfer: srgb
# LUTr-Color-Space-Confidence: assumed-display-referred
# LUTr-Domain-Normalized: true
# LUTr-Shaper: none
# LUTr-Original-Grid: 64x64x64
# LUTr-Conversion-Grid: 25x25x25
# LUTr-Conversion-Interpolation: trilinear
# LUTr-Conversion-Method: HALD-PNG LUT image decoded at 16-bit and sampled to 25x25x25 3D CUBE
# LUTr-Conversion-Tool: LUTr scripts/convert-all-to-cube.mjs 2.0.0
# LUTr-Conversion-Date: 2026-07-27
# LUTr-Note: Preserve this metadata and the upstream license notices when redistributing.
TITLE "fuji ilford delta 3200 +"
LUT_3D_SIZE 9
DOMAIN_MIN 0 0 0
DOMAIN_MAX 1 1 1
0.10980392 0.10980392 0.10980392
0.10588235 0.10588235 0.10588235
0.1127451 0.1127451 0.1127451
0.14754902 0.14754902 0.14754902
0.18431373 0.18431373 0.18431373
0.25294118 0.25294118 0.25294118
0.36372549 0.36372549 0.36372549
0.47647059 0.47647059 0.47647059
0.58823529 0.58823529 0.58823529
0.11715686 0.11715686 0.11715686
0.11715686 0.11715686 0.11715686
0.12058824 0.12058824 0.12058824
0.1627451 0.1627451 0.1627451
0.20563725 0.20563725 0.20563725
0.27696078 0.27696078 0.27696078
0.36715686 0.36715686 0.36715686
0.4838848 0.4838848 0.4838848
0.61127451 0.61127451 0.61127451
0.11764706 0.11764706 0.11764706
0.14007353 0.14007353 0.14007353
0.15220588 0.15220588 0.15220588
0.18823529 0.18823529 0.18823529
0.2495098 0.2495098 0.2495098
0.31960784 0.31960784 0.31960784
0.39779412 0.39779412 0.39779412
0.50294118 0.50294118 0.50294118
0.63823529 0.63823529 0.63823529
0.19313725 0.19313725 0.19313725
0.20165441 0.20165441 0.20165441
0.21813725 0.21813725 0.21813725
0.24656863 0.24656863 0.24656863
0.29901961 0.29901961 0.29901961
0.36470588 0.36470588 0.36470588
0.44987745 0.44987745 0.44987745
0.55802696 0.55802696 0.55802696
0.67156863 0.67156863 0.67156863
0.28431373 0.28431373 0.28431373
0.29558824 0.29558824 0.29558824
0.3 0.3 0.3
0.3245098 0.3245098 0.3245098
0.36176471 0.36176471 0.36176471
0.42401961 0.42401961 0.42401961
0.51666667 0.51666667 0.51666667
0.62107843 0.62107843 0.62107843
0.71764706 0.71764706 0.71764706
0.38627451 0.38627451 0.38627451
0.39393382 0.39393382 0.39393382
0.40196078 0.40196078 0.40196078
0.42401961 0.42401961 0.42401961
0.46151961 0.46151961 0.46151961
0.51078431 0.51078431 0.51078431
0.5935049 0.5935049 0.5935049
0.68676471 0.68676471 0.68676471
0.7754902 0.7754902 0.7754902
0.54313725 0.54313725 0.54313725
0.54313725 0.54313725 0.54313725
0.55294118 0.55294118 0.55294118
0.57205882 0.57205882 0.57205882
0.60245098 0.60245098 0.60245098
0.63431373 0.63431373 0.63431373
0.68014706 0.68014706 0.68014706
0.74816176 0.74816176 0.74816176
0.8254902 0.8254902 0.8254902
0.72401961 0.72401961 0.72401961
0.71666667 0.71666667 0.71666667
0.72046569 0.72046569 0.72046569
0.73431373 0.73431373 0.73431373
0.74926471 0.74926471 0.74926471
0.76685049 0.76685049 0.76685049
0.79901961 0.79901961 0.79901961
0.83382353 0.83382353 0.83382353
0.87941176 0.87941176 0.87941176
0.85098039 0.85098039 0.85098039
0.8622549 0.8622549 0.8622549
0.86960784 0.86960784 0.86960784
0.86666667 0.86666667 0.86666667
0.86862745 0.86862745 0.86862745
0.88382353 0.88382353 0.88382353
0.90980392 0.90980392 0.90980392
0.92598039 0.92598039 0.92598039
0.93333333 0.93333333 0.93333333
0.10980392 0.10980392 0.10980392
0.10588235 0.10588235 0.10588235
0.11531863 0.11531863 0.11531863
0.15753676 0.15753676 0.15753676
0.20784314 0.20784314 0.20784314
0.27714461 0.27714461 0.27714461
0.36372549 0.36372549 0.36372549
0.48382353 0.48382353 0.48382353
0.60343137 0.60343137 0.60343137
0.11415441 0.11415441 0.11415441
0.1202742 0.1202742 0.1202742
0.13921569 0.13921569 0.13921569
0.17401961 0.17401961 0.17401961
0.22254902 0.22254902 0.22254902
0.29607843 0.29607843 0.29607843
0.37575061 0.37575061 0.37575061
0.48714001 0.48714001 0.48714001
0.60594363 0.60594363 0.60594363
0.14178922 0.14178922 0.14178922
0.15484069 0.15484069 0.15484069
0.17696078 0.17696078 0.17696078
0.21237745 0.21237745 0.21237745
0.26519608 0.26519608 0.26519608
0.32810968 0.32810968 0.32810968
0.40465686 0.40465686 0.40465686
0.5185049 0.5185049 0.5185049
0.64803922 0.64803922 0.64803922
0.21488971 0.21488971 0.21488971
0.22624847 0.22624847 0.22624847
0.23872549 0.23872549 0.23872549
0.26568627 0.26568627 0.26568627
0.31421569 0.31421569 0.31421569
0.37990196 0.37990196 0.37990196
0.45868566 0.45868566 0.45868566
0.56366422 0.56366422 0.56366422
0.68088235 0.68088235 0.68088235
0.30735294 0.30735294 0.30735294
0.31323529 0.31323529 0.31323529
0.31862745 0.31862745 0.31862745
0.34117647 0.34117647 0.34117647
0.37401961 0.37401961 0.37401961
0.44053309 0.44053309 0.44053309
0.52800245 0.52800245 0.52800245
0.62846201 0.62846201 0.62846201
0.72328431 0.72328431 0.72328431
0.40520833 0.40520833 0.40520833
0.41043964 0.41043964 0.41043964
0.42401961 0.42401961 0.42401961
0.44313725 0.44313725 0.44313725
0.47401961 0.47401961 0.47401961
0.51597733 0.51597733 0.51597733
0.59545037 0.59545037 0.59545037
0.69052543 0.69052543 0.69052543
0.76862745 0.76862745 0.76862745
0.55355392 0.55355392 0.55355392
0.55854779 0.55854779 0.55854779
0.56433824 0.56433824 0.56433824
0.58333333 0.58333333 0.58333333
0.61066176 0.61066176 0.61066176
0.6404565 0.6404565 0.6404565
0.67941176 0.67941176 0.67941176
0.74590993 0.74590993 0.74590993
0.82941176 0.82941176 0.82941176
0.73186275 0.73186275 0.73186275
0.7248315 0.7248315 0.7248315
0.72054228 0.72054228 0.72054228
0.73186275 0.73186275 0.73186275
0.75686275 0.75686275 0.75686275
0.77552849 0.77552849 0.77552849
0.80680147 0.80680147 0.80680147
0.84901961 0.84901961 0.84901961
0.88333333 0.88333333 0.88333333
0.85833333 0.85833333 0.85833333
0.86617647 0.86617647 0.86617647
0.86740196 0.86740196 0.86740196
0.87401961 0.87401961 0.87401961
0.87818627 0.87818627 0.87818627
0.8841299 0.8841299 0.8841299
0.90686275 0.90686275 0.90686275
0.92156863 0.92156863 0.92156863
0.92598039 0.92598039 0.92598039
0.10196078 0.10196078 0.10196078
0.12401961 0.12401961 0.12401961
0.13553922 0.13553922 0.13553922
0.17647059 0.17647059 0.17647059
0.23039216 0.23039216 0.23039216
0.30392157 0.30392157 0.30392157
0.39485294 0.39485294 0.39485294
0.50686275 0.50686275 0.50686275
0.61176471 0.61176471 0.61176471
0.12794118 0.12794118 0.12794118
0.14088542 0.14088542 0.14088542
0.16617647 0.16617647 0.16617647
0.19215686 0.19215686 0.19215686
0.25735294 0.25735294 0.25735294
0.31930147 0.31930147 0.31930147
0.40940564 0.40940564 0.40940564
0.5189951 0.5189951 0.5189951
0.62990196 0.62990196 0.62990196
0.15784314 0.15784314 0.15784314
0.16954657 0.16954657 0.16954657
0.2 0.2 0.2
0.24264706 0.24264706 0.24264706
0.29571078 0.29571078 0.29571078
0.35784314 0.35784314 0.35784314
0.44001225 0.44001225 0.44001225
0.5439951 0.5439951 0.5439951
0.66151961 0.66151961 0.66151961
0.22879902 0.22879902 0.22879902
0.25160846 0.25160846 0.25160846
0.26519608 0.26519608 0.26519608
0.3004902 0.3004902 0.3004902
0.34509804 0.34509804 0.34509804
0.41078431 0.41078431 0.41078431
0.48777574 0.48777574 0.48777574
0.59290748 0.59290748 0.59290748
0.70772059 0.70772059 0.70772059
0.33431373 0.33431373 0.33431373
0.35520833 0.35520833 0.35520833
0.35392157 0.35392157 0.35392157
0.37205882 0.37205882 0.37205882
0.40784314 0.40784314 0.40784314
0.465625 0.465625 0.465625
0.55098039 0.55098039 0.55098039
0.64754902 0.64754902 0.64754902
0.73676471 0.73676471 0.73676471
0.44522059 0.44522059 0.44522059
0.45098039 0.45098039 0.45098039
0.46038603 0.46038603 0.46038603
0.47696078 0.47696078 0.47696078
0.50490196 0.50490196 0.50490196
0.54339767 0.54339767 0.54339767
0.60882353 0.60882353 0.60882353
0.70654105 0.70654105 0.70654105
0.79558824 0.79558824 0.79558824
0.57941176 0.57941176 0.57941176
0.58823529 0.58823529 0.58823529
0.59773284 0.59773284 0.59773284
0.60968137 0.60968137 0.60968137
0.63627451 0.63627451 0.63627451
0.66323529 0.66323529 0.66323529
0.69270833 0.69270833 0.69270833
0.77071078 0.77071078 0.77071078
0.84117647 0.84117647 0.84117647
0.74227941 0.74227941 0.74227941
0.74264706 0.74264706 0.74264706
0.74231005 0.74231005 0.74231005
0.74878983 0.74878983 0.74878983
0.77009804 0.77009804 0.77009804
0.78769914 0.78769914 0.78769914
0.81727941 0.81727941 0.81727941
0.86078431 0.86078431 0.86078431
0.89068627 0.89068627 0.89068627
0.88137255 0.88137255 0.88137255
0.86960784 0.86960784 0.86960784
0.88578431 0.88578431 0.88578431
0.87659314 0.87659314 0.87659314
0.8877451 0.8877451 0.8877451
0.88737745 0.88737745 0.88737745
0.91446078 0.91446078 0.91446078
0.92683824 0.92683824 0.92683824
0.93627451 0.93627451 0.93627451
0.14117647 0.14117647 0.14117647
0.15490196 0.15490196 0.15490196
0.18823529 0.18823529 0.18823529
0.22303922 0.22303922 0.22303922
0.26127451 0.26127451 0.26127451
0.33088235 0.33088235 0.33088235
0.41752451 0.41752451 0.41752451
0.53008578 0.53008578 0.53008578
0.65196078 0.65196078 0.65196078
0.16666667 0.16666667 0.16666667
0.18008578 0.18008578 0.18008578
0.21127451 0.21127451 0.21127451
0.24196538 0.24196538 0.24196538
0.27999387 0.27999387 0.27999387
0.35006893 0.35006893 0.35006893
0.44546569 0.44546569 0.44546569
0.5526731 0.5526731 0.5526731
0.66795343 0.66795343 0.66795343
0.18970588 0.18970588 0.18970588
0.21127451 0.21127451 0.21127451
0.24436275 0.24436275 0.24436275
0.2748315 0.2748315 0.2748315
0.32205882 0.32205882 0.32205882
0.39313725 0.39313725 0.39313725
0.48186275 0.48186275 0.48186275
0.57909007 0.57909007 0.57909007
0.66911765 0.66911765 0.66911765
0.25386029 0.25386029 0.25386029
0.26158088 0.26158088 0.26158088
0.2995098 0.2995098 0.2995098
0.34780944 0.34780944 0.34780944
0.38262868 0.38262868 0.38262868
0.44705882 0.44705882 0.44705882
0.53431373 0.53431373 0.53431373
0.63246783 0.63246783 0.63246783
0.7216299 0.7216299 0.7216299
0.35416667 0.35416667 0.35416667
0.37990196 0.37990196 0.37990196
0.39068627 0.39068627 0.39068627
0.42454044 0.42454044 0.42454044
0.46176471 0.46176471 0.46176471
0.51492034 0.51492034 0.51492034
0.59362745 0.59362745 0.59362745
0.67833946 0.67833946 0.67833946
0.76053922 0.76053922 0.76053922
0.48431373 0.48431373 0.48431373
0.50606618 0.50606618 0.50606618
0.51407782 0.51407782 0.51407782
0.53088235 0.53088235 0.53088235
0.55272672 0.55272672 0.55272672
0.5872549 0.5872549 0.5872549
0.65147059 0.65147059 0.65147059
0.73304228 0.73304228 0.73304228
0.80147059 0.80147059 0.80147059
0.63272059 0.63272059 0.63272059
0.63604473 0.63604473 0.63604473
0.63835784 0.63835784 0.63835784
0.6528799 0.6528799 0.6528799
0.66188725 0.66188725 0.66188725
0.68981311 0.68981311 0.68981311
0.725 0.725 0.725
0.78596814 0.78596814 0.78596814
0.84865196 0.84865196 0.84865196
0.76519608 0.76519608 0.76519608
0.76911765 0.76911765 0.76911765
0.77696078 0.77696078 0.77696078
0.78432138 0.78432138 0.78432138
0.7885723 0.7885723 0.7885723
0.80238971 0.80238971 0.80238971
0.82598039 0.82598039 0.82598039
0.85683977 0.85683977 0.85683977
0.89852941 0.89852941 0.89852941
0.89264706 0.89264706 0.89264706
0.88235294 0.88235294 0.88235294
0.87843137 0.87843137 0.87843137
0.89019608 0.89019608 0.89019608
0.89411765 0.89411765 0.89411765
0.89264706 0.89264706 0.89264706
0.9067402 0.9067402 0.9067402
0.928125 0.928125 0.928125
0.9504902 0.9504902 0.9504902
0.20588235 0.20588235 0.20588235
0.21176471 0.21176471 0.21176471
0.24362745 0.24362745 0.24362745
0.27769608 0.27769608 0.27769608
0.30196078 0.30196078 0.30196078
0.35931373 0.35931373 0.35931373
0.44803922 0.44803922 0.44803922
0.56078431 0.56078431 0.56078431
0.68627451 0.68627451 0.68627451
0.23455882 0.23455882 0.23455882
0.23480392 0.23480392 0.23480392
0.26127451 0.26127451 0.26127451
0.3010723 0.3010723 0.3010723
0.33480392 0.33480392 0.33480392
0.37401961 0.37401961 0.37401961
0.47107843 0.47107843 0.47107843
0.58011642 0.58011642 0.58011642
0.67794118 0.67794118 0.67794118
0.25980392 0.25980392 0.25980392
0.27843137 0.27843137 0.27843137
0.30784314 0.30784314 0.30784314
0.34558824 0.34558824 0.34558824
0.3754902 0.3754902 0.3754902
0.42647059 0.42647059 0.42647059
0.51409314 0.51409314 0.51409314
0.61207108 0.61207108 0.61207108
0.70784314 0.70784314 0.70784314
0.29705882 0.29705882 0.29705882
0.32598039 0.32598039 0.32598039
0.35441176 0.35441176 0.35441176
0.40588235 0.40588235 0.40588235
0.44068627 0.44068627 0.44068627
0.49656863 0.49656863 0.49656863
0.57058824 0.57058824 0.57058824
0.6620098 0.6620098 0.6620098
0.74558824 0.74558824 0.74558824
0.37843137 0.37843137 0.37843137
0.38982843 0.38982843 0.38982843
0.41176471 0.41176471 0.41176471
0.47512255 0.47512255 0.47512255
0.5254902 0.5254902 0.5254902
0.57879902 0.57879902 0.57879902
0.64166667 0.64166667 0.64166667
0.71323529 0.71323529 0.71323529
0.78235294 0.78235294 0.78235294
0.50147059 0.50147059 0.50147059
0.51920956 0.51920956 0.51920956
0.53431373 0.53431373 0.53431373
0.57622549 0.57622549 0.57622549
0.61580882 0.61580882 0.61580882
0.64708946 0.64708946 0.64708946
0.69258578 0.69258578 0.69258578
0.76412377 0.76412377 0.76412377
0.81593137 0.81593137 0.81593137
0.65147059 0.65147059 0.65147059
0.66109069 0.66109069 0.66109069
0.68186275 0.68186275 0.68186275
0.69607843 0.69607843 0.69607843
0.70637255 0.70637255 0.70637255
0.72990196 0.72990196 0.72990196
0.75637255 0.75637255 0.75637255
0.80882353 0.80882353 0.80882353
0.86862745 0.86862745 0.86862745
0.78995098 0.78995098 0.78995098
0.78995098 0.78995098 0.78995098
0.79534314 0.79534314 0.79534314
0.80891544 0.80891544 0.80891544
0.81519608 0.81519608 0.81519608
0.82588848 0.82588848 0.82588848
0.84754902 0.84754902 0.84754902
0.8705576 0.8705576 0.8705576
0.91053922 0.91053922 0.91053922
0.88627451 0.88627451 0.88627451
0.88431373 0.88431373 0.88431373
0.88676471 0.88676471 0.88676471
0.88357843 0.88357843 0.88357843
0.9 0.9 0.9
0.90735294 0.90735294 0.90735294
0.91568627 0.91568627 0.91568627
0.93382353 0.93382353 0.93382353
0.94117647 0.94117647 0.94117647
0.29068627 0.29068627 0.29068627
0.29803922 0.29803922 0.29803922
0.32928922 0.32928922 0.32928922
0.36127451 0.36127451 0.36127451
0.40710784 0.40710784 0.40710784
0.44901961 0.44901961 0.44901961
0.47794118 0.47794118 0.47794118
0.5903799 0.5903799 0.5903799
0.70588235 0.70588235 0.70588235
0.3096201 0.3096201 0.3096201
0.31350337 0.31350337 0.31350337
0.34742647 0.34742647 0.34742647
0.38295803 0.38295803 0.38295803
0.42711397 0.42711397 0.42711397
0.46316636 0.46316636 0.46316636
0.4973652 0.4973652 0.4973652
0.6062117 0.6062117 0.6062117
0.72107843 0.72107843 0.72107843
0.34607843 0.34607843 0.34607843
0.35629596 0.35629596 0.35629596
0.37708333 0.37708333 0.37708333
0.42257966 0.42257966 0.42257966
0.46819853 0.46819853 0.46819853
0.50343137 0.50343137 0.50343137
0.5432598 0.5432598 0.5432598
0.64508272 0.64508272 0.64508272
0.74803922 0.74803922 0.74803922
0.37303922 0.37303922 0.37303922
0.39380362 0.39380362 0.39380362
0.4245098 0.4245098 0.4245098
0.47428002 0.47428002 0.47428002
0.51985294 0.51985294 0.51985294
0.55475643 0.55475643 0.55475643
0.60395221 0.60395221 0.60395221
0.69019608 0.69019608 0.69019608
0.77647059 0.77647059 0.77647059
0.42401961 0.42401961 0.42401961
0.44583333 0.44583333 0.44583333
0.47028186 0.47028186 0.47028186
0.51663603 0.51663603 0.51663603
0.5872549 0.5872549 0.5872549
0.63259804 0.63259804 0.63259804
0.67401961 0.67401961 0.67401961
0.7377451 0.7377451 0.7377451
0.80343137 0.80343137 0.80343137
0.51813725 0.51813725 0.51813725
0.52402727 0.52402727 0.52402727
0.55539216 0.55539216 0.55539216
0.60929075 0.60929075 0.60929075
0.65389093 0.65389093 0.65389093
0.69454657 0.69454657 0.69454657
0.73619792 0.73619792 0.73619792
0.79104626 0.79104626 0.79104626
0.83823529 0.83823529 0.83823529
0.64803922 0.64803922 0.64803922
0.65137868 0.65137868 0.65137868
0.68137255 0.68137255 0.68137255
0.70772059 0.70772059 0.70772059
0.73860294 0.73860294 0.73860294
0.77058824 0.77058824 0.77058824
0.79656863 0.79656863 0.79656863
0.83734681 0.83734681 0.83734681
0.87193627 0.87193627 0.87193627
0.78970588 0.78970588 0.78970588
0.79046415 0.79046415 0.79046415
0.80356924 0.80356924 0.80356924
0.8213848 0.8213848 0.8213848
0.84264706 0.84264706 0.84264706
0.85274203 0.85274203 0.85274203
0.86580882 0.86580882 0.86580882
0.88556219 0.88556219 0.88556219
0.91599265 0.91599265 0.91599265
0.88627451 0.88627451 0.88627451
0.89883578 0.89883578 0.89883578
0.90012255 0.90012255 0.90012255
0.89166667 0.89166667 0.89166667
0.91176471 0.91176471 0.91176471
0.91372549 0.91372549 0.91372549
0.92365196 0.92365196 0.92365196
0.94479167 0.94479167 0.94479167
0.94509804 0.94509804 0.94509804
0.39607843 0.39607843 0.39607843
0.4122549 0.4122549 0.4122549
0.44215686 0.44215686 0.44215686
0.47794118 0.47794118 0.47794118
0.51813725 0.51813725 0.51813725
0.57438725 0.57438725 0.57438725
0.60588235 0.60588235 0.60588235
0.64142157 0.64142157 0.64142157
0.72941176 0.72941176 0.72941176
0.41875 0.41875 0.41875
0.4345435 0.4345435 0.4345435
0.45759804 0.45759804 0.45759804
0.49068627 0.49068627 0.49068627
0.54834559 0.54834559 0.54834559
0.59803922 0.59803922 0.59803922
0.61629902 0.61629902 0.61629902
0.64710478 0.64710478 0.64710478
0.74019608 0.74019608 0.74019608
0.45882353 0.45882353 0.45882353
0.4682598 0.4682598 0.4682598
0.50784314 0.50784314 0.50784314
0.53872549 0.53872549 0.53872549
0.58051471 0.58051471 0.58051471
0.63333333 0.63333333 0.63333333
0.64926471 0.64926471 0.64926471
0.66516544 0.66516544 0.66516544
0.7629902 0.7629902 0.7629902
0.49117647 0.49117647 0.49117647
0.50761336 0.50761336 0.50761336
0.55094975 0.55094975 0.55094975
0.58921569 0.58921569 0.58921569
0.62101716 0.62101716 0.62101716
0.66960784 0.66960784 0.66960784
0.6890625 0.6890625 0.6890625
0.71934743 0.71934743 0.71934743
0.79460784 0.79460784 0.79460784
0.51372549 0.51372549 0.51372549
0.52340686 0.52340686 0.52340686
0.57095588 0.57095588 0.57095588
0.61862745 0.61862745 0.61862745
0.66789216 0.66789216 0.66789216
0.70759804 0.70759804 0.70759804
0.72671569 0.72671569 0.72671569
0.76709559 0.76709559 0.76709559
0.82794118 0.82794118 0.82794118
0.58137255 0.58137255 0.58137255
0.59701287 0.59701287 0.59701287
0.62352941 0.62352941 0.62352941
0.65441176 0.65441176 0.65441176
0.69178922 0.69178922 0.69178922
0.7442402 0.7442402 0.7442402
0.78210784 0.78210784 0.78210784
0.82303922 0.82303922 0.82303922
0.86127451 0.86127451 0.86127451
0.66372549 0.66372549 0.66372549
0.67156863 0.67156863 0.67156863
0.68848039 0.68848039 0.68848039
0.70723039 0.70723039 0.70723039
0.75294118 0.75294118 0.75294118
0.78872549 0.78872549 0.78872549
0.83137255 0.83137255 0.83137255
0.85744485 0.85744485 0.85744485
0.89215686 0.89215686 0.89215686
0.79105392 0.79105392 0.79105392
0.79019608 0.79019608 0.79019608
0.79408701 0.79408701 0.79408701
0.81997549 0.81997549 0.81997549
0.84656863 0.84656863 0.84656863
0.8643076 0.8643076 0.8643076
0.88921569 0.88921569 0.88921569
0.90821078 0.90821078 0.90821078
0.92990196 0.92990196 0.92990196
0.90196078 0.90196078 0.90196078
0.90196078 0.90196078 0.90196078
0.90563725 0.90563725 0.90563725
0.90588235 0.90588235 0.90588235
0.90784314 0.90784314 0.90784314
0.92193627 0.92193627 0.92193627
0.93431373 0.93431373 0.93431373
0.94509804 0.94509804 0.94509804
0.94901961 0.94901961 0.94901961
0.56421569 0.56421569 0.56421569
0.58376225 0.58376225 0.58376225
0.59852941 0.59852941 0.59852941
0.63658088 0.63658088 0.63658088
0.6752451 0.6752451 0.6752451
0.72107843 0.72107843 0.72107843
0.75453431 0.75453431 0.75453431
0.76715686 0.76715686 0.76715686
0.77794118 0.77794118 0.77794118
0.58676471 0.58676471 0.58676471
0.60588235 0.60588235 0.60588235
0.62107843 0.62107843 0.62107843
0.65034467 0.65034467 0.65034467
0.68844975 0.68844975 0.68844975
0.73439798 0.73439798 0.73439798
0.76205576 0.76205576 0.76205576
0.7745098 0.7745098 0.7745098
0.78186275 0.78186275 0.78186275
0.62242647 0.62242647 0.62242647
0.62544424 0.62544424 0.62544424
0.64754902 0.64754902 0.64754902
0.67843137 0.67843137 0.67843137
0.70496324 0.70496324 0.70496324
0.74941789 0.74941789 0.74941789
0.77833946 0.77833946 0.77833946
0.79264706 0.79264706 0.79264706
0.78921569 0.78921569 0.78921569
0.65196078 0.65196078 0.65196078
0.66023284 0.66023284 0.66023284
0.68284314 0.68284314 0.68284314
0.70882353 0.70882353 0.70882353
0.7356924 0.7356924 0.7356924
0.77127757 0.77127757 0.77127757
0.79756434 0.79756434 0.79756434
0.81960784 0.81960784 0.81960784
0.81960784 0.81960784 0.81960784
0.66764706 0.66764706 0.66764706
0.68085172 0.68085172 0.68085172
0.69522059 0.69522059 0.69522059
0.72959559 0.72959559 0.72959559
0.76531863 0.76531863 0.76531863
0.79093137 0.79093137 0.79093137
0.81875 0.81875 0.81875
0.83045343 0.83045343 0.83045343
0.84240196 0.84240196 0.84240196
0.6596201 0.6596201 0.6596201
0.67922794 0.67922794 0.67922794
0.69600184 0.69600184 0.69600184
0.72941176 0.72941176 0.72941176
0.76666667 0.76666667 0.76666667
0.81580116 0.81580116 0.81580116
0.84652267 0.84652267 0.84652267
0.86675092 0.86675092 0.86675092
0.87775735 0.87775735 0.87775735
0.73284314 0.73284314 0.73284314
0.7453125 0.7453125 0.7453125
0.75588235 0.75588235 0.75588235
0.77009804 0.77009804 0.77009804
0.79705882 0.79705882 0.79705882
0.83088235 0.83088235 0.83088235
0.87732843 0.87732843 0.87732843
0.89564951 0.89564951 0.89564951
0.91519608 0.91519608 0.91519608
0.82598039 0.82598039 0.82598039
0.82598039 0.82598039 0.82598039
0.81824449 0.81824449 0.81824449
0.83567708 0.83567708 0.83567708
0.8622549 0.8622549 0.8622549
0.88903186 0.88903186 0.88903186
0.90772059 0.90772059 0.90772059
0.92604167 0.92604167 0.92604167
0.94558824 0.94558824 0.94558824
0.89411765 0.89411765 0.89411765
0.90539216 0.90539216 0.90539216
0.90208333 0.90208333 0.90208333
0.90851716 0.90851716 0.90851716
0.92598039 0.92598039 0.92598039
0.92941176 0.92941176 0.92941176
0.9372549 0.9372549 0.9372549
0.94558824 0.94558824 0.94558824
0.96078431 0.96078431 0.96078431
0.76078431 0.76078431 0.76078431
0.76470588 0.76470588 0.76470588
0.78039216 0.78039216 0.78039216
0.78823529 0.78823529 0.78823529
0.81568627 0.81568627 0.81568627
0.84068627 0.84068627 0.84068627
0.86666667 0.86666667 0.86666667
0.88284314 0.88284314 0.88284314
0.88627451 0.88627451 0.88627451
0.76470588 0.76470588 0.76470588
0.78425245 0.78425245 0.78425245
0.77904412 0.77904412 0.77904412
0.79822304 0.79822304 0.79822304
0.82328431 0.82328431 0.82328431
0.84068627 0.84068627 0.84068627
0.85980392 0.85980392 0.85980392
0.89068627 0.89068627 0.89068627
0.88627451 0.88627451 0.88627451
0.77941176 0.77941176 0.77941176
0.78039216 0.78039216 0.78039216
0.79044118 0.79044118 0.79044118
0.81776961 0.81776961 0.81776961
0.83284314 0.83284314 0.83284314
0.84816176 0.84816176 0.84816176
0.86446078 0.86446078 0.86446078
0.88970588 0.88970588 0.88970588
0.89411765 0.89411765 0.89411765
0.80784314 0.80784314 0.80784314
0.80900735 0.80900735 0.80900735
0.8189951 0.8189951 0.8189951
0.82113971 0.82113971 0.82113971
0.82401961 0.82401961 0.82401961
0.85882353 0.85882353 0.85882353
0.86372549 0.86372549 0.86372549
0.88676471 0.88676471 0.88676471
0.90833333 0.90833333 0.90833333
0.81176471 0.81176471 0.81176471
0.81568627 0.81568627 0.81568627
0.8245098 0.8245098 0.8245098
0.82671569 0.82671569 0.82671569
0.84803922 0.84803922 0.84803922
0.86544118 0.86544118 0.86544118
0.8877451 0.8877451 0.8877451
0.90220588 0.90220588 0.90220588
0.91764706 0.91764706 0.91764706
0.79607843 0.79607843 0.79607843
0.78743873 0.78743873 0.78743873
0.79607843 0.79607843 0.79607843
0.83627451 0.83627451 0.83627451
0.85808824 0.85808824 0.85808824
0.88382353 0.88382353 0.88382353
0.8995098 0.8995098 0.8995098
0.91158088 0.91158088 0.91158088
0.9254902 0.9254902 0.9254902
0.81666667 0.81666667 0.81666667
0.82156863 0.82156863 0.82156863
0.81862745 0.81862745 0.81862745
0.83088235 0.83088235 0.83088235
0.86127451 0.86127451 0.86127451
0.88088235 0.88088235 0.88088235
0.91078431 0.91078431 0.91078431
0.93088235 0.93088235 0.93088235
0.94607843 0.94607843 0.94607843
0.86715686 0.86715686 0.86715686
0.87493873 0.87493873 0.87493873
0.87941176 0.87941176 0.87941176
0.88333333 0.88333333 0.88333333
0.88480392 0.88480392 0.88480392
0.91176471 0.91176471 0.91176471
0.92941176 0.92941176 0.92941176
0.94509804 0.94509804 0.94509804
0.95294118 0.95294118 0.95294118
0.89019608 0.89019608 0.89019608
0.90147059 0.90147059 0.90147059
0.90882353 0.90882353 0.90882353
0.91617647 0.91617647 0.91617647
0.9254902 0.9254902 0.9254902
0.9254902 0.9254902 0.9254902
0.93823529 0.93823529 0.93823529
0.94901961 0.94901961 0.94901961
0.95686275 0.95686275 0.95686275
