site/assets/luts/sha256-5686df75187ba07d9f659df55803ca50098111f80be99f7affed3eb877396d56.cube
# LUTr-Schema-Version: 2
# LUTr-ID: sha256-5686df75187ba07d9f659df55803ca50098111f80be99f7affed3eb877396d56
# LUTr-Title: kodak tri-x 400 ++
# LUTr-Collection: Natron HaldCLUT
# LUTr-Collection-ID: natron-haldclut-presets
# LUTr-Source: https://github.com/NatronGitHub/clut
# LUTr-Retrieved: 2026-07-27
# LUTr-Source-File: submissions/natron-haldclut-presets/negative_new/kodak_tri-x_400_++.png
# LUTr-Source-Format: HALD-PNG
# LUTr-Source-SHA256: 5686df75187ba07d9f659df55803ca50098111f80be99f7affed3eb877396d56
# LUTr-License: CC-BY-SA-4.0
# LUTr-License-URL: https://github.com/NatronGitHub/clut#license
# LUTr-License-Basis: repo-license-file
# LUTr-Transform-Class: film-emulation
# LUTr-Tags: creative, film, film-emulation, hald-clut, natron, png, cube
# LUTr-Input-Color-Space: srgb
# LUTr-Input-Gamut: rec709
# LUTr-Input-Transfer: srgb
# LUTr-Output-Color-Space: srgb
# LUTr-Output-Gamut: rec709
# LUTr-Output-Transfer: srgb
# LUTr-Color-Space-Confidence: assumed-display-referred
# LUTr-Domain-Normalized: true
# LUTr-Shaper: none
# LUTr-Original-Grid: 64x64x64
# LUTr-Conversion-Grid: 25x25x25
# LUTr-Conversion-Interpolation: trilinear
# LUTr-Conversion-Method: HALD-PNG LUT image decoded at 16-bit and sampled to 25x25x25 3D CUBE
# LUTr-Conversion-Tool: LUTr scripts/convert-all-to-cube.mjs 2.0.0
# LUTr-Conversion-Date: 2026-07-27
# LUTr-Note: Preserve this metadata and the upstream license notices when redistributing.
TITLE "kodak tri-x 400 ++"
LUT_3D_SIZE 25
DOMAIN_MIN 0 0 0
DOMAIN_MAX 1 1 1
0.14509804 0.14509804 0.14509804
0.14509804 0.14509804 0.14509804
0.14509804 0.14509804 0.14509804
0.14509804 0.14509804 0.14509804
0.14509804 0.14509804 0.14509804
0.14901961 0.14901961 0.14901961
0.14901961 0.14901961 0.14901961
0.14901961 0.14901961 0.14901961
0.14509804 0.14509804 0.14509804
0.14509804 0.14509804 0.14509804
0.15392157 0.15392157 0.15392157
0.16078431 0.16078431 0.16078431
0.17058824 0.17058824 0.17058824
0.17647059 0.17647059 0.17647059
0.19019608 0.19019608 0.19019608
0.20539216 0.20539216 0.20539216
0.21960784 0.21960784 0.21960784
0.23235294 0.23235294 0.23235294
0.24803922 0.24803922 0.24803922
0.2622549 0.2622549 0.2622549
0.28823529 0.28823529 0.28823529
0.31078431 0.31078431 0.31078431
0.34509804 0.34509804 0.34509804
0.3877451 0.3877451 0.3877451
0.42745098 0.42745098 0.42745098
0.14509804 0.14509804 0.14509804
0.14509804 0.14509804 0.14509804
0.14509804 0.14509804 0.14509804
0.14509804 0.14509804 0.14509804
0.14509804 0.14509804 0.14509804
0.14901961 0.14901961 0.14901961
0.14901961 0.14901961 0.14901961
0.14901961 0.14901961 0.14901961
0.15147059 0.15147059 0.15147059
0.15539216 0.15539216 0.15539216
0.16029412 0.16029412 0.16029412
0.17058824 0.17058824 0.17058824
0.17696078 0.17696078 0.17696078
0.18596814 0.18596814 0.18596814
0.19754902 0.19754902 0.19754902
0.21323529 0.21323529 0.21323529
0.22598039 0.22598039 0.22598039
0.24264706 0.24264706 0.24264706
0.25894608 0.25894608 0.25894608
0.27598039 0.27598039 0.27598039
0.2997549 0.2997549 0.2997549
0.32401961 0.32401961 0.32401961
0.3560049 0.3560049 0.3560049
0.39264706 0.39264706 0.39264706
0.42745098 0.42745098 0.42745098
0.14509804 0.14509804 0.14509804
0.14509804 0.14509804 0.14509804
0.14509804 0.14509804 0.14509804
0.14509804 0.14509804 0.14509804
0.14558824 0.14558824 0.14558824
0.14914216 0.14914216 0.14914216
0.15294118 0.15294118 0.15294118
0.15723039 0.15723039 0.15723039
0.16176471 0.16176471 0.16176471
0.16568627 0.16568627 0.16568627
0.17034314 0.17034314 0.17034314
0.17610294 0.17610294 0.17610294
0.18480392 0.18480392 0.18480392
0.19754902 0.19754902 0.19754902
0.21102941 0.21102941 0.21102941
0.22536765 0.22536765 0.22536765
0.23627451 0.23627451 0.23627451
0.25294118 0.25294118 0.25294118
0.26985294 0.26985294 0.26985294
0.29117647 0.29117647 0.29117647
0.31470588 0.31470588 0.31470588
0.33970588 0.33970588 0.33970588
0.37132353 0.37132353 0.37132353
0.40539216 0.40539216 0.40539216
0.43627451 0.43627451 0.43627451
0.14901961 0.14901961 0.14901961
0.14871324 0.14871324 0.14871324
0.14509804 0.14509804 0.14509804
0.14509804 0.14509804 0.14509804
0.14877451 0.14877451 0.14877451
0.15637255 0.15637255 0.15637255
0.16029412 0.16029412 0.16029412
0.16568627 0.16568627 0.16568627
0.17205882 0.17205882 0.17205882
0.17598039 0.17598039 0.17598039
0.17732843 0.17732843 0.17732843
0.18333333 0.18333333 0.18333333
0.19362745 0.19362745 0.19362745
0.20827206 0.20827206 0.20827206
0.22205882 0.22205882 0.22205882
0.23235294 0.23235294 0.23235294
0.24313725 0.24313725 0.24313725
0.25949755 0.25949755 0.25949755
0.28382353 0.28382353 0.28382353
0.30741422 0.30741422 0.30741422
0.32892157 0.32892157 0.32892157
0.35392157 0.35392157 0.35392157
0.38823529 0.38823529 0.38823529
0.41960784 0.41960784 0.41960784
0.44264706 0.44264706 0.44264706
0.14901961 0.14901961 0.14901961
0.14901961 0.14901961 0.14901961
0.14901961 0.14901961 0.14901961
0.15098039 0.15098039 0.15098039
0.15882353 0.15882353 0.15882353
0.16495098 0.16495098 0.16495098
0.17058824 0.17058824 0.17058824
0.17598039 0.17598039 0.17598039
0.18235294 0.18235294 0.18235294
0.18627451 0.18627451 0.18627451
0.19068627 0.19068627 0.19068627
0.1995098 0.1995098 0.1995098
0.2127451 0.2127451 0.2127451
0.22794118 0.22794118 0.22794118
0.23823529 0.23823529 0.23823529
0.24852941 0.24852941 0.24852941
0.25686275 0.25686275 0.25686275
0.2747549 0.2747549 0.2747549
0.29803922 0.29803922 0.29803922
0.32230392 0.32230392 0.32230392
0.34411765 0.34411765 0.34411765
0.37009804 0.37009804 0.37009804
0.3995098 0.3995098 0.3995098
0.42990196 0.42990196 0.42990196
0.45686275 0.45686275 0.45686275
0.15294118 0.15294118 0.15294118
0.15294118 0.15294118 0.15294118
0.15306373 0.15306373 0.15306373
0.16078431 0.16078431 0.16078431
0.16887255 0.16887255 0.16887255
0.17696078 0.17696078 0.17696078
0.18125 0.18125 0.18125
0.18872549 0.18872549 0.18872549
0.19313725 0.19313725 0.19313725
0.1995098 0.1995098 0.1995098
0.21115196 0.21115196 0.21115196
0.22444853 0.22444853 0.22444853
0.23848039 0.23848039 0.23848039
0.25294118 0.25294118 0.25294118
0.26323529 0.26323529 0.26323529
0.27352941 0.27352941 0.27352941
0.28382353 0.28382353 0.28382353
0.3004902 0.3004902 0.3004902
0.32095588 0.32095588 0.32095588
0.33817402 0.33817402 0.33817402
0.35955882 0.35955882 0.35955882
0.38584559 0.38584559 0.38584559
0.41323529 0.41323529 0.41323529
0.44460784 0.44460784 0.44460784
0.47598039 0.47598039 0.47598039
0.1627451 0.1627451 0.1627451
0.15919118 0.15919118 0.15919118
0.16078431 0.16078431 0.16078431
0.17107843 0.17107843 0.17107843
0.17892157 0.17892157 0.17892157
0.18762255 0.18762255 0.18762255
0.19411765 0.19411765 0.19411765
0.20012255 0.20012255 0.20012255
0.20980392 0.20980392 0.20980392
0.22009804 0.22009804 0.22009804
0.23504902 0.23504902 0.23504902
0.25110294 0.25110294 0.25110294
0.2627451 0.2627451 0.2627451
0.27732843 0.27732843 0.27732843
0.29093137 0.29093137 0.29093137
0.30147059 0.30147059 0.30147059
0.31176471 0.31176471 0.31176471
0.32781863 0.32781863 0.32781863
0.34803922 0.34803922 0.34803922
0.36605392 0.36605392 0.36605392
0.38529412 0.38529412 0.38529412
0.40968137 0.40968137 0.40968137
0.44313725 0.44313725 0.44313725
0.47830882 0.47830882 0.47830882
0.50980392 0.50980392 0.50980392
0.17941176 0.17941176 0.17941176
0.17941176 0.17941176 0.17941176
0.17941176 0.17941176 0.17941176
0.18529412 0.18529412 0.18529412
0.19166667 0.19166667 0.19166667
0.19803922 0.19803922 0.19803922
0.20539216 0.20539216 0.20539216
0.21525735 0.21525735 0.21525735
0.22647059 0.22647059 0.22647059
0.24313725 0.24313725 0.24313725
0.25882353 0.25882353 0.25882353
0.27303922 0.27303922 0.27303922
0.2872549 0.2872549 0.2872549
0.30147059 0.30147059 0.30147059
0.31507353 0.31507353 0.31507353
0.32745098 0.32745098 0.32745098
0.3377451 0.3377451 0.3377451
0.35686275 0.35686275 0.35686275
0.38039216 0.38039216 0.38039216
0.40471814 0.40471814 0.40471814
0.4254902 0.4254902 0.4254902
0.45618873 0.45618873 0.45618873
0.49031863 0.49031863 0.49031863
0.52401961 0.52401961 0.52401961
0.55245098 0.55245098 0.55245098
0.2 0.2 0.2
0.2 0.2 0.2
0.19607843 0.19607843 0.19607843
0.1995098 0.1995098 0.1995098
0.20588235 0.20588235 0.20588235
0.2122549 0.2122549 0.2122549
0.22254902 0.22254902 0.22254902
0.23284314 0.23284314 0.23284314
0.24705882 0.24705882 0.24705882
0.26372549 0.26372549 0.26372549
0.28039216 0.28039216 0.28039216
0.29705882 0.29705882 0.29705882
0.31176471 0.31176471 0.31176471
0.32598039 0.32598039 0.32598039
0.34019608 0.34019608 0.34019608
0.35833333 0.35833333 0.35833333
0.37647059 0.37647059 0.37647059
0.39705882 0.39705882 0.39705882
0.42156863 0.42156863 0.42156863
0.44607843 0.44607843 0.44607843
0.46862745 0.46862745 0.46862745
0.5 0.5 0.5
0.53431373 0.53431373 0.53431373
0.56911765 0.56911765 0.56911765
0.6 0.6 0.6
0.22058824 0.22058824 0.22058824
0.21813725 0.21813725 0.21813725
0.21666667 0.21666667 0.21666667
0.21292892 0.21292892 0.21292892
0.21862745 0.21862745 0.21862745
0.23069853 0.23069853 0.23069853
0.24313725 0.24313725 0.24313725
0.25343137 0.25343137 0.25343137
0.26911765 0.26911765 0.26911765
0.28578431 0.28578431 0.28578431
0.30281863 0.30281863 0.30281863
0.32028186 0.32028186 0.32028186
0.33676471 0.33676471 0.33676471
0.35716912 0.35716912 0.35716912
0.37647059 0.37647059 0.37647059
0.3995098 0.3995098 0.3995098
0.41764706 0.41764706 0.41764706
0.43731618 0.43731618 0.43731618
0.4627451 0.4627451 0.4627451
0.4872549 0.4872549 0.4872549
0.5129902 0.5129902 0.5129902
0.54491422 0.54491422 0.54491422
0.57941176 0.57941176 0.57941176
0.61421569 0.61421569 0.61421569
0.64264706 0.64264706 0.64264706
0.25 0.25 0.25
0.24816176 0.24816176 0.24816176
0.24607843 0.24607843 0.24607843
0.24215686 0.24215686 0.24215686
0.23970588 0.23970588 0.23970588
0.24938725 0.24938725 0.24938725
0.25882353 0.25882353 0.25882353
0.27156863 0.27156863 0.27156863
0.28823529 0.28823529 0.28823529
0.30637255 0.30637255 0.30637255
0.3254902 0.3254902 0.3254902
0.34313725 0.34313725 0.34313725
0.36568627 0.36568627 0.36568627
0.39362745 0.39362745 0.39362745
0.42083333 0.42083333 0.42083333
0.44215686 0.44215686 0.44215686
0.45784314 0.45784314 0.45784314
0.4754902 0.4754902 0.4754902
0.50098039 0.50098039 0.50098039
0.52794118 0.52794118 0.52794118
0.55490196 0.55490196 0.55490196
0.58970588 0.58970588 0.58970588
0.61985294 0.61985294 0.61985294
0.64901961 0.64901961 0.64901961
0.66862745 0.66862745 0.66862745
0.28088235 0.28088235 0.28088235
0.28088235 0.28088235 0.28088235
0.27696078 0.27696078 0.27696078
0.27303922 0.27303922 0.27303922
0.26740196 0.26740196 0.26740196
0.26617647 0.26617647 0.26617647
0.27647059 0.27647059 0.27647059
0.29068627 0.29068627 0.29068627
0.30882353 0.30882353 0.30882353
0.32941176 0.32941176 0.32941176
0.34865196 0.34865196 0.34865196
0.36666667 0.36666667 0.36666667
0.39656863 0.39656863 0.39656863
0.43480392 0.43480392 0.43480392
0.4622549 0.4622549 0.4622549
0.47971814 0.47971814 0.47971814
0.49607843 0.49607843 0.49607843
0.51323529 0.51323529 0.51323529
0.53860294 0.53860294 0.53860294
0.56911765 0.56911765 0.56911765
0.59607843 0.59607843 0.59607843
0.62696078 0.62696078 0.62696078
0.65747549 0.65747549 0.65747549
0.68284314 0.68284314 0.68284314
0.6995098 0.6995098 0.6995098
0.31176471 0.31176471 0.31176471
0.31176471 0.31176471 0.31176471
0.30784314 0.30784314 0.30784314
0.30392157 0.30392157 0.30392157
0.29803922 0.29803922 0.29803922
0.29166667 0.29166667 0.29166667
0.29264706 0.29264706 0.29264706
0.3127451 0.3127451 0.3127451
0.33333333 0.33333333 0.33333333
0.35269608 0.35269608 0.35269608
0.37058824 0.37058824 0.37058824
0.39289216 0.39289216 0.39289216
0.42647059 0.42647059 0.42647059
0.4622549 0.4622549 0.4622549
0.49313725 0.49313725 0.49313725
0.51323529 0.51323529 0.51323529
0.52745098 0.52745098 0.52745098
0.54803922 0.54803922 0.54803922
0.5754902 0.5754902 0.5754902
0.60857843 0.60857843 0.60857843
0.6372549 0.6372549 0.6372549
0.66813725 0.66813725 0.66813725
0.69705882 0.69705882 0.69705882
0.72598039 0.72598039 0.72598039
0.74901961 0.74901961 0.74901961
0.34313725 0.34313725 0.34313725
0.34332108 0.34332108 0.34332108
0.34215686 0.34215686 0.34215686
0.33921569 0.33921569 0.33921569
0.33333333 0.33333333 0.33333333
0.32745098 0.32745098 0.32745098
0.32352941 0.32352941 0.32352941
0.3377451 0.3377451 0.3377451
0.35833333 0.35833333 0.35833333
0.3786152 0.3786152 0.3786152
0.39558824 0.39558824 0.39558824
0.41960784 0.41960784 0.41960784
0.45392157 0.45392157 0.45392157
0.48823529 0.48823529 0.48823529
0.51568627 0.51568627 0.51568627
0.53988971 0.53988971 0.53988971
0.55833333 0.55833333 0.55833333
0.58578431 0.58578431 0.58578431
0.61801471 0.61801471 0.61801471
0.65147059 0.65147059 0.65147059
0.67843137 0.67843137 0.67843137
0.70925245 0.70925245 0.70925245
0.73627451 0.73627451 0.73627451
0.76305147 0.76305147 0.76305147
0.78529412 0.78529412 0.78529412
0.38823529 0.38823529 0.38823529
0.38933824 0.38933824 0.38933824
0.38431373 0.38431373 0.38431373
0.38333333 0.38333333 0.38333333
0.37794118 0.37794118 0.37794118
0.37205882 0.37205882 0.37205882
0.36568627 0.36568627 0.36568627
0.36752451 0.36752451 0.36752451
0.38529412 0.38529412 0.38529412
0.40588235 0.40588235 0.40588235
0.42720588 0.42720588 0.42720588
0.45355392 0.45355392 0.45355392
0.48137255 0.48137255 0.48137255
0.5122549 0.5122549 0.5122549
0.53946078 0.53946078 0.53946078
0.56617647 0.56617647 0.56617647
0.59607843 0.59607843 0.59607843
0.62879902 0.62879902 0.62879902
0.66176471 0.66176471 0.66176471
0.69264706 0.69264706 0.69264706
0.71813725 0.71813725 0.71813725
0.74362745 0.74362745 0.74362745
0.77058824 0.77058824 0.77058824
0.79215686 0.79215686 0.79215686
0.80588235 0.80588235 0.80588235
0.43627451 0.43627451 0.43627451
0.43872549 0.43872549 0.43872549
0.43382353 0.43382353 0.43382353
0.43088235 0.43088235 0.43088235
0.42622549 0.42622549 0.42622549
0.41862745 0.41862745 0.41862745
0.40833333 0.40833333 0.40833333
0.40140931 0.40140931 0.40140931
0.41078431 0.41078431 0.41078431
0.43584559 0.43584559 0.43584559
0.4622549 0.4622549 0.4622549
0.48921569 0.48921569 0.48921569
0.51617647 0.51617647 0.51617647
0.54313725 0.54313725 0.54313725
0.57218137 0.57218137 0.57218137
0.60098039 0.60098039 0.60098039
0.62941176 0.62941176 0.62941176
0.66758578 0.66758578 0.66758578
0.7004902 0.7004902 0.7004902
0.725 0.725 0.725
0.7495098 0.7495098 0.7495098
0.77401961 0.77401961 0.77401961
0.79644608 0.79644608 0.79644608
0.81617647 0.81617647 0.81617647
0.82647059 0.82647059 0.82647059
0.50196078 0.50196078 0.50196078
0.49558824 0.49558824 0.49558824
0.48921569 0.48921569 0.48921569
0.48284314 0.48284314 0.48284314
0.47647059 0.47647059 0.47647059
0.46666667 0.46666667 0.46666667
0.45980392 0.45980392 0.45980392
0.4495098 0.4495098 0.4495098
0.44705882 0.44705882 0.44705882
0.47401961 0.47401961 0.47401961
0.49705882 0.49705882 0.49705882
0.52058824 0.52058824 0.52058824
0.54705882 0.54705882 0.54705882
0.57794118 0.57794118 0.57794118
0.60882353 0.60882353 0.60882353
0.63578431 0.63578431 0.63578431
0.6627451 0.6627451 0.6627451
0.7 0.7 0.7
0.73137255 0.73137255 0.73137255
0.75588235 0.75588235 0.75588235
0.77843137 0.77843137 0.77843137
0.80098039 0.80098039 0.80098039
0.82156863 0.82156863 0.82156863
0.83823529 0.83823529 0.83823529
0.84705882 0.84705882 0.84705882
0.56372549 0.56372549 0.56372549
0.55735294 0.55735294 0.55735294
0.54852941 0.54852941 0.54852941
0.5403799 0.5403799 0.5403799
0.53308824 0.53308824 0.53308824
0.52794118 0.52794118 0.52794118
0.52156863 0.52156863 0.52156863
0.51427696 0.51427696 0.51427696
0.51127451 0.51127451 0.51127451
0.51911765 0.51911765 0.51911765
0.54117647 0.54117647 0.54117647
0.56421569 0.56421569 0.56421569
0.58627451 0.58627451 0.58627451
0.61488971 0.61488971 0.61488971
0.64362745 0.64362745 0.64362745
0.67058824 0.67058824 0.67058824
0.69754902 0.69754902 0.69754902
0.72843137 0.72843137 0.72843137
0.7564951 0.7564951 0.7564951
0.78253676 0.78253676 0.78253676
0.80490196 0.80490196 0.80490196
0.8254902 0.8254902 0.8254902
0.84607843 0.84607843 0.84607843
0.86372549 0.86372549 0.86372549
0.86764706 0.86764706 0.86764706
0.62156863 0.62156863 0.62156863
0.61519608 0.61519608 0.61519608
0.60808824 0.60808824 0.60808824
0.59852941 0.59852941 0.59852941
0.59215686 0.59215686 0.59215686
0.58627451 0.58627451 0.58627451
0.58333333 0.58333333 0.58333333
0.57843137 0.57843137 0.57843137
0.5745098 0.5745098 0.5745098
0.57389706 0.57389706 0.57389706
0.5872549 0.5872549 0.5872549
0.61041667 0.61041667 0.61041667
0.63137255 0.63137255 0.63137255
0.65232843 0.65232843 0.65232843
0.67647059 0.67647059 0.67647059
0.70208333 0.70208333 0.70208333
0.72843137 0.72843137 0.72843137
0.75539216 0.75539216 0.75539216
0.78235294 0.78235294 0.78235294
0.80845588 0.80845588 0.80845588
0.83039216 0.83039216 0.83039216
0.85392157 0.85392157 0.85392157
0.87156863 0.87156863 0.87156863
0.88578431 0.88578431 0.88578431
0.89215686 0.89215686 0.89215686
0.67941176 0.67941176 0.67941176
0.67334559 0.67334559 0.67334559
0.66666667 0.66666667 0.66666667
0.66029412 0.66029412 0.66029412
0.65392157 0.65392157 0.65392157
0.64803922 0.64803922 0.64803922
0.64509804 0.64509804 0.64509804
0.64019608 0.64019608 0.64019608
0.63627451 0.63627451 0.63627451
0.63235294 0.63235294 0.63235294
0.64129902 0.64129902 0.64129902
0.65931373 0.65931373 0.65931373
0.67647059 0.67647059 0.67647059
0.69699755 0.69699755 0.69699755
0.71372549 0.71372549 0.71372549
0.73480392 0.73480392 0.73480392
0.75931373 0.75931373 0.75931373
0.78627451 0.78627451 0.78627451
0.80968137 0.80968137 0.80968137
0.83327206 0.83327206 0.83327206
0.85563725 0.85563725 0.85563725
0.8745098 0.8745098 0.8745098
0.89252451 0.89252451 0.89252451
0.90637255 0.90637255 0.90637255
0.9127451 0.9127451 0.9127451
0.73529412 0.73529412 0.73529412
0.73333333 0.73333333 0.73333333
0.72843137 0.72843137 0.72843137
0.72205882 0.72205882 0.72205882
0.71568627 0.71568627 0.71568627
0.70980392 0.70980392 0.70980392
0.70637255 0.70637255 0.70637255
0.70122549 0.70122549 0.70122549
0.69607843 0.69607843 0.69607843
0.69411765 0.69411765 0.69411765
0.69901961 0.69901961 0.69901961
0.71102941 0.71102941 0.71102941
0.72745098 0.72745098 0.72745098
0.74362745 0.74362745 0.74362745
0.75735294 0.75735294 0.75735294
0.77279412 0.77279412 0.77279412
0.79215686 0.79215686 0.79215686
0.81789216 0.81789216 0.81789216
0.8372549 0.8372549 0.8372549
0.85784314 0.85784314 0.85784314
0.87647059 0.87647059 0.87647059
0.89509804 0.89509804 0.89509804
0.9122549 0.9122549 0.9122549
0.92696078 0.92696078 0.92696078
0.9372549 0.9372549 0.9372549
0.79068627 0.79068627 0.79068627
0.79068627 0.79068627 0.79068627
0.7872549 0.7872549 0.7872549
0.78333333 0.78333333 0.78333333
0.7754902 0.7754902 0.7754902
0.77150735 0.77150735 0.77150735
0.76470588 0.76470588 0.76470588
0.75931373 0.75931373 0.75931373
0.75539216 0.75539216 0.75539216
0.75196078 0.75196078 0.75196078
0.75686275 0.75686275 0.75686275
0.76672794 0.76672794 0.76672794
0.77647059 0.77647059 0.77647059
0.7872549 0.7872549 0.7872549
0.80098039 0.80098039 0.80098039
0.81519608 0.81519608 0.81519608
0.83284314 0.83284314 0.83284314
0.84705882 0.84705882 0.84705882
0.86127451 0.86127451 0.86127451
0.87892157 0.87892157 0.87892157
0.89534314 0.89534314 0.89534314
0.91170343 0.91170343 0.91170343
0.92806373 0.92806373 0.92806373
0.94099265 0.94099265 0.94099265
0.9495098 0.9495098 0.9495098
0.83921569 0.83921569 0.83921569
0.84215686 0.84215686 0.84215686
0.84215686 0.84215686 0.84215686
0.84129902 0.84129902 0.84129902
0.83578431 0.83578431 0.83578431
0.82904412 0.82904412 0.82904412
0.81960784 0.81960784 0.81960784
0.81433824 0.81433824 0.81433824
0.81078431 0.81078431 0.81078431
0.81041667 0.81041667 0.81041667
0.81789216 0.81789216 0.81789216
0.82242647 0.82242647 0.82242647
0.82598039 0.82598039 0.82598039
0.83186275 0.83186275 0.83186275
0.84215686 0.84215686 0.84215686
0.85453431 0.85453431 0.85453431
0.86764706 0.86764706 0.86764706
0.87794118 0.87794118 0.87794118
0.89215686 0.89215686 0.89215686
0.90980392 0.90980392 0.90980392
0.91960784 0.91960784 0.91960784
0.92806373 0.92806373 0.92806373
0.94289216 0.94289216 0.94289216
0.95343137 0.95343137 0.95343137
0.95588235 0.95588235 0.95588235
0.88431373 0.88431373 0.88431373
0.88284314 0.88284314 0.88284314
0.88137255 0.88137255 0.88137255
0.87794118 0.87794118 0.87794118
0.87965686 0.87965686 0.87965686
0.87745098 0.87745098 0.87745098
0.87107843 0.87107843 0.87107843
0.87009804 0.87009804 0.87009804
0.86764706 0.86764706 0.86764706
0.86917892 0.86917892 0.86917892
0.87254902 0.87254902 0.87254902
0.87254902 0.87254902 0.87254902
0.87254902 0.87254902 0.87254902
0.87665441 0.87665441 0.87665441
0.88333333 0.88333333 0.88333333
0.89362745 0.89362745 0.89362745
0.90245098 0.90245098 0.90245098
0.9127451 0.9127451 0.9127451
0.92401961 0.92401961 0.92401961
0.9372549 0.9372549 0.9372549
0.94019608 0.94019608 0.94019608
0.94852941 0.94852941 0.94852941
0.95882353 0.95882353 0.95882353
0.96617647 0.96617647 0.96617647
0.96617647 0.96617647 0.96617647
0.90588235 0.90588235 0.90588235
0.90196078 0.90196078 0.90196078
0.89803922 0.89803922 0.89803922
0.90147059 0.90147059 0.90147059
0.91176471 0.91176471 0.91176471
0.925 0.925 0.925
0.91470588 0.91470588 0.91470588
0.91127451 0.91127451 0.91127451
0.91764706 0.91764706 0.91764706
0.91519608 0.91519608 0.91519608
0.90980392 0.90980392 0.90980392
0.90980392 0.90980392 0.90980392
0.90980392 0.90980392 0.90980392
0.91029412 0.91029412 0.91029412
0.91764706 0.91764706 0.91764706
0.92696078 0.92696078 0.92696078
0.93333333 0.93333333 0.93333333
0.94362745 0.94362745 0.94362745
0.95686275 0.95686275 0.95686275
0.95686275 0.95686275 0.95686275
0.95686275 0.95686275 0.95686275
0.96519608 0.96519608 0.96519608
0.97156863 0.97156863 0.97156863
0.97254902 0.97254902 0.97254902
0.97254902 0.97254902 0.97254902
0.14509804 0.14509804 0.14509804
0.14509804 0.14509804 0.14509804
0.14509804 0.14509804 0.14509804
0.14509804 0.14509804 0.14509804
0.14705882 0.14705882 0.14705882
0.14901961 0.14901961 0.14901961
0.14901961 0.14901961 0.14901961
0.14901961 0.14901961 0.14901961
0.14901961 0.14901961 0.14901961
0.15147059 0.15147059 0.15147059
0.15747549 0.15747549 0.15747549
0.16666667 0.16666667 0.16666667
0.17377451 0.17377451 0.17377451
0.18333333 0.18333333 0.18333333
0.19473039 0.19473039 0.19473039
0.20839461 0.20839461 0.20839461
0.21960784 0.21960784 0.21960784
0.22990196 0.22990196 0.22990196
0.24901961 0.24901961 0.24901961
0.26599265 0.26599265 0.26599265
0.28946078 0.28946078 0.28946078
0.31109069 0.31109069 0.31109069
0.34215686 0.34215686 0.34215686
0.38235294 0.38235294 0.38235294
0.41960784 0.41960784 0.41960784
0.14509804 0.14509804 0.14509804
0.14509804 0.14509804 0.14509804
0.14509804 0.14509804 0.14509804
0.14509804 0.14509804 0.14509804
0.14632353 0.14632353 0.14632353
0.14901961 0.14901961 0.14901961
0.14901961 0.14901961 0.14901961
0.15124081 0.15124081 0.15124081
0.15238971 0.15238971 0.15238971
0.15692402 0.15692402 0.15692402
0.16398591 0.16398591 0.16398591
0.17150735 0.17150735 0.17150735
0.1796875 0.1796875 0.1796875
0.1883655 0.1883655 0.1883655
0.20110294 0.20110294 0.20110294
0.21568627 0.21568627 0.21568627
0.22898284 0.22898284 0.22898284
0.24172794 0.24172794 0.24172794
0.25931373 0.25931373 0.25931373
0.27628676 0.27628676 0.27628676
0.2997549 0.2997549 0.2997549
0.32542126 0.32542126 0.32542126
0.35738358 0.35738358 0.35738358
0.39060202 0.39060202 0.39060202
0.42261029 0.42261029 0.42261029
0.14509804 0.14509804 0.14509804
0.14509804 0.14509804 0.14509804
0.14509804 0.14509804 0.14509804
0.14509804 0.14509804 0.14509804
0.14650735 0.14650735 0.14650735
0.14914216 0.14914216 0.14914216
0.15367647 0.15367647 0.15367647
0.15761336 0.15761336 0.15761336
0.16176471 0.16176471 0.16176471
0.16721814 0.16721814 0.16721814
0.17325368 0.17325368 0.17325368
0.17901348 0.17901348 0.17901348
0.1872549 0.1872549 0.1872549
0.20018382 0.20018382 0.20018382
0.21176471 0.21176471 0.21176471
0.22598039 0.22598039 0.22598039
