site/assets/luts/sha256-dcbba1046ff781048fb2681108288adf8e9eff93b377379b1a2423d3d85f7073.cube
# LUTr-Schema-Version: 2
# LUTr-ID: sha256-dcbba1046ff781048fb2681108288adf8e9eff93b377379b1a2423d3d85f7073
# LUTr-Title: golden fade
# LUTr-Collection: Natron HaldCLUT
# LUTr-Collection-ID: natron-haldclut-presets
# LUTr-Source: https://github.com/NatronGitHub/clut
# LUTr-Retrieved: 2026-07-27
# LUTr-Source-File: submissions/natron-haldclut-presets/various/golden_fade.png
# LUTr-Source-Format: HALD-PNG
# LUTr-Source-SHA256: dcbba1046ff781048fb2681108288adf8e9eff93b377379b1a2423d3d85f7073
# LUTr-License: CC-BY-SA-4.0
# LUTr-License-URL: https://github.com/NatronGitHub/clut#license
# LUTr-License-Basis: repo-license-file
# LUTr-Transform-Class: film-emulation
# LUTr-Tags: creative, film, film-emulation, hald-clut, natron, png, cube
# LUTr-Input-Color-Space: srgb
# LUTr-Input-Gamut: rec709
# LUTr-Input-Transfer: srgb
# LUTr-Output-Color-Space: srgb
# LUTr-Output-Gamut: rec709
# LUTr-Output-Transfer: srgb
# LUTr-Color-Space-Confidence: assumed-display-referred
# LUTr-Domain-Normalized: true
# LUTr-Shaper: none
# LUTr-Original-Grid: 64x64x64
# LUTr-Conversion-Grid: 25x25x25
# LUTr-Conversion-Interpolation: trilinear
# LUTr-Conversion-Method: HALD-PNG LUT image decoded at 16-bit and sampled to 25x25x25 3D CUBE
# LUTr-Conversion-Tool: LUTr scripts/convert-all-to-cube.mjs 2.0.0
# LUTr-Conversion-Date: 2026-07-27
# LUTr-Note: Preserve this metadata and the upstream license notices when redistributing.
TITLE "golden fade"
LUT_3D_SIZE 9
DOMAIN_MIN 0 0 0
DOMAIN_MAX 1 1 1
0.30196078 0.14901961 0.30980392
0.4127451 0.1627451 0.325
0.48627451 0.12745098 0.32745098
0.61323529 0.15784314 0.34754902
0.72156863 0.20784314 0.37058824
0.77058824 0.16127451 0.3622549
0.86960784 0.26666667 0.39803922
0.91813725 0.29411765 0.41176471
0.96862745 0.3372549 0.44313725
0.35441176 0.24558824 0.33872549
0.47898284 0.26427696 0.35980392
0.58529412 0.2872549 0.37303922
0.66832108 0.26666667 0.38020833
0.76740196 0.32401961 0.3995098
0.83529412 0.33970588 0.41078431
0.89007353 0.37291667 0.42242647
0.93333333 0.39221814 0.43523284
0.95637255 0.41078431 0.45
0.39117647 0.36176471 0.36862745
0.52536765 0.35955882 0.38933824
0.63553922 0.38259804 0.39926471
0.72855392 0.40661765 0.41531863
0.82009804 0.47107843 0.43578431
0.86286765 0.45061275 0.43786765
0.91960784 0.49387255 0.46176471
0.95428922 0.51752451 0.47953431
0.95588235 0.55980392 0.47941176
0.43186275 0.47696078 0.39264706
0.59136029 0.51519608 0.42873775
0.69546569 0.53676471 0.43223039
0.78480392 0.56764706 0.45196078
0.85931373 0.59607843 0.47573529
0.91464461 0.62156863 0.48327206
0.95392157 0.64546569 0.49509804
0.97126225 0.66550245 0.52205882
0.97892157 0.70931373 0.53823529
0.46862745 0.59215686 0.41764706
0.65490196 0.64264706 0.46078431
0.75784314 0.66960784 0.47794118
0.81813725 0.68039216 0.47916667
0.88529412 0.70882353 0.50196078
0.94313725 0.73921569 0.52401961
0.95588235 0.74215686 0.5127451
0.97843137 0.76911765 0.5377451
0.9745098 0.80196078 0.56078431
0.50931373 0.70343137 0.44509804
0.69803922 0.7372549 0.47009804
0.79840686 0.76519608 0.49522059
0.84558824 0.7754902 0.50104167
0.90661765 0.79926471 0.52696078
0.93627451 0.80588235 0.52150735
0.96470588 0.82855392 0.5504902
0.95686275 0.83609069 0.54705882
0.95294118 0.84754902 0.55588235
0.54019608 0.80588235 0.47254902
0.75428922 0.84215686 0.51421569
0.82352941 0.84901961 0.51691176
0.88186275 0.86568627 0.53468137
0.93186275 0.8872549 0.55
0.96286765 0.89705882 0.56997549
0.96176471 0.89485294 0.56446078
0.96433824 0.91997549 0.59019608
0.9627451 0.92156863 0.60294118
0.68137255 0.92598039 0.53088235
0.80294118 0.92647059 0.53823529
0.86519608 0.9377451 0.55392157
0.91930147 0.95165441 0.57567402
0.97107843 0.96176471 0.60269608
0.96470588 0.96488971 0.60098039
0.97512255 0.97512255 0.61360294
0.96470588 0.96470588 0.64068627
0.98039216 0.98039216 0.69117647
0.70588235 0.98823529 0.57254902
0.8622549 0.96862745 0.59215686
0.90882353 0.96862745 0.6
0.95392157 0.96715686 0.61421569
0.99019608 0.99019608 0.62941176
0.97254902 0.97254902 0.65490196
0.96372549 0.96372549 0.65490196
0.96470588 0.96470588 0.67107843
0.95686275 0.95686275 0.67843137
0.16862745 0.071568627 0.32156863
0.39417892 0.12947304 0.3598652
0.49607843 0.13039216 0.37156863
0.59001225 0.12432598 0.37254902
0.70318627 0.16911765 0.39681373
0.78823529 0.17794118 0.41096814
0.85294118 0.17941176 0.42009804
0.90686275 0.18664216 0.43137255
0.95343137 0.23627451 0.45441176
0.33572304 0.21078431 0.37457108
0.45043658 0.2042356 0.38583793
0.54940257 0.20520833 0.39080882
0.66926317 0.25686275 0.41552543
0.75 0.25753676 0.42297794
0.83567708 0.31067708 0.44446232
0.88851103 0.31655944 0.45294118
0.93020833 0.31646752 0.46138174
0.97022059 0.36917892 0.48792892
0.39705882 0.35833333 0.41176471
0.5370864 0.36721814 0.42823223
0.65677083 0.42098652 0.44525123
0.74019608 0.41680453 0.45503983
0.81727941 0.44031863 0.46819853
0.87758885 0.46855086 0.48423713
0.93045343 0.50333946 0.49754902
0.97489277 0.5446538 0.51830576
0.97561275 0.54901961 0.52401961
0.43376225 0.49068627 0.44528186
0.59491422 0.52285539 0.46191023
0.71272978 0.5495098 0.47892157
0.79492188 0.57765012 0.49197304
0.87018995 0.60392157 0.50891544
0.91323529 0.62431066 0.51697304
0.95 0.64203431 0.53088235
0.97254902 0.66648284 0.5432981
0.98216912 0.71029412 0.57254902
0.46691176 0.60784314 0.46764706
0.66099877 0.64463848 0.49166667
0.75588235 0.66960784 0.50637255
0.83823529 0.70009191 0.52518382
0.8997549 0.72316176 0.53933824
0.94068627 0.7393076 0.5479473
0.96905637 0.75496324 0.55796569
0.97254902 0.77058824 0.56966912
0.97254902 0.79191176 0.58529412
0.52591912 0.72120098 0.49883578
0.69738817 0.74901961 0.51797641
0.79852941 0.77334559 0.53319547
0.86256127 0.79479167 0.54723499
0.91436887 0.81127451 0.56259191
0.95814185 0.82470895 0.57433364
0.97254902 0.84224877 0.58615196
0.97254902 0.8591299 0.60055147
0.97205882 0.8653799 0.6122549
0.57218137 0.82438725 0.52267157
0.76078431 0.85477941 0.55036765
0.83912377 0.86433824 0.56415441
0.89577206 0.87959559 0.57749694
0.94019608 0.88921569 0.59044118
0.97224265 0.90182292 0.60396752
0.97634804 0.91197917 0.61593137
0.97254902 0.92308517 0.63138787
0.97205882 0.93002451 0.64056373
0.62996324 0.92328431 0.56397059
0.81917892 0.94521293 0.59134498
0.88432904 0.95298713 0.6064951
0.93057598 0.96481311 0.6157935
0.96642157 0.9721201 0.6291973
0.97647059 0.97647059 0.6407935
0.97512255 0.97522978 0.65217525
0.9765242 0.97303922 0.6754902
0.97303922 0.97261029 0.68768382
0.71029412 0.98823529 0.61078431
0.87009804 0.98823529 0.63431373
0.92303922 0.98039216 0.64901961
0.9653799 0.98020833 0.66047794
0.97671569 0.98039216 0.66838235
0.97647059 0.97647059 0.68578431
0.97598039 0.97598039 0.70098039
0.97598039 0.97598039 0.70582108
0.97254902 0.97254902 0.7245098
0.21078431 0.082352941 0.37254902
0.38541667 0.10539216 0.39411765
0.50269608 0.1254902 0.4129902
0.61372549 0.15 0.42892157
0.71666667 0.16519608 0.44264706
0.79448529 0.16801471 0.45330882
0.86372549 0.18921569 0.46666667
0.92156863 0.20747549 0.48186275
0.98333333 0.23137255 0.5
0.34705882 0.21862745 0.42156863
0.47879902 0.24710478 0.43987439
0.57034314 0.22613358 0.44411765
0.66911765 0.23549326 0.45609681
0.76697304 0.27248775 0.47310049
0.84678309 0.30994179 0.49237132
0.89197304 0.30330882 0.49754902
0.95147059 0.36596201 0.52164522
0.99301471 0.43897059 0.55857843
0.40882353 0.36666667 0.45808824
0.55854779 0.39273897 0.47827819
0.65998775 0.40410539 0.48982843
0.75808824 0.43373162 0.50294118
0.82904412 0.45379902 0.51580882
0.8888174 0.47509191 0.52840074
0.93596814 0.50196078 0.54289216
0.9736826 0.5205576 0.55456495
0.98529412 0.55661765 0.5747549
0.43137255 0.49803922 0.48982843
0.6254902 0.54056373 0.51507353
0.73112745 0.5692402 0.52916667
0.81026348 0.59120711 0.54125306
0.87879902 0.61476716 0.55588235
0.92879902 0.63835784 0.57017463
0.96752451 0.65367647 0.58005515
0.98426777 0.67953431 0.59264706
0.98039216 0.7 0.60539216
0.47254902 0.61764706 0.51813725
0.66470588 0.6526348 0.53768382
0.76678922 0.67732843 0.55098039
0.84571078 0.70637255 0.5692402
0.91029412 0.73578431 0.58872549
0.95447304 0.75098039 0.60091912
0.98002451 0.76752451 0.60808824
0.98431373 0.78541667 0.61973039
0.98039216 0.80147059 0.63529412
0.53762255 0.73026961 0.54509804
0.71930147 0.76256127 0.56813725
0.81148897 0.78409926 0.58293505
0.87990196 0.80980392 0.60232843
0.93284314 0.83033088 0.61856618
0.97473958 0.83909314 0.62801777
0.98651961 0.85738358 0.63872549
0.98333333 0.86746324 0.64791667
0.98039216 0.87745098 0.65894608
0.58504902 0.83602941 0.57426471
0.77267157 0.86531863 0.60278799
0.85073529 0.87720588 0.61488971
0.90695466 0.89105392 0.62662377
0.95343137 0.90465686 0.64105392
0.98624387 0.9301777 0.66029412
0.98431373 0.92745098 0.66666667
0.98431373 0.93504902 0.68137255
0.98823529 0.96691176 0.70710784
0.68296569 0.94375 0.62009804
0.83356311 0.95617341 0.63893995
0.89276961 0.96519608 0.65291054
0.93987439 0.97637868 0.66608456
0.97843137 0.98780637 0.67720588
0.98688725 0.9845435 0.69108456
0.98431373 0.98431373 0.70474877
0.98333333 0.9810815 0.71689645
0.98039216 0.98039216 0.725
0.72352941 0.99607843 0.65784314
0.86875 0.99215686 0.68480392
0.93455882 0.98823529 0.69681373
0.97794118 0.98823529 0.70882353
0.98039216 0.98823529 0.68921569
0.98431373 0.98431373 0.7310049
0.98431373 0.98431373 0.74803922
0.98431373 0.98431373 0.75490196
0.98039216 0.98039216 0.7754902
0.1995098 0.079901961 0.41568627
0.39362745 0.10802696 0.43988971
0.5127451 0.13137255 0.45637255
0.64810049 0.17800245 0.48333333
0.7495098 0.20808824 0.50098039
0.81078431 0.19362745 0.50441176
0.8754902 0.19448529 0.51470588
0.93020833 0.23137255 0.53302696
0.99215686 0.23137255 0.54362745
0.32469363 0.21182598 0.46170343
0.48686428 0.24252451 0.485072
0.59479167 0.26099877 0.49522059
0.68400735 0.24712776 0.50214461
0.77215074 0.26553309 0.51519608
0.86176471 0.34100031 0.54159773
0.90605086 0.31954657 0.54669118
0.9627451 0.37556679 0.56704963
0.9877451 0.3622549 0.57346814
0.41960784 0.37634804 0.50539216
0.56092218 0.38244485 0.5207261
0.67711397 0.42686887 0.53946078
0.76335784 0.43535539 0.54970895
0.83897059 0.46035539 0.5651348
0.89986213 0.49558824 0.58039216
0.94754902 0.52423407 0.5939951
0.98975184 0.56066176 0.60931373
0.98933824 0.55870098 0.61764706
0.47984069 0.51121324 0.53627451
0.62482384 0.54479167 0.55765931
0.73529412 0.57598039 0.5692402
0.81672794 0.59656863 0.58682598
0.88602941 0.62447917 0.60416667
0.93053768 0.64264706 0.61421569
0.97113971 0.66490502 0.62732843
0.99362745 0.69276195 0.64202665
0.99607843 0.74313725 0.67493873
0.51323529 0.63063725 0.5625
0.6877451 0.6622549 0.58195466
0.77579657 0.68333333 0.59620098
0.85392157 0.7122549 0.615625
0.9127451 0.73627451 0.63504902
0.95560662 0.76001838 0.64362745
0.98529412 0.77512255 0.65545343
0.98823529 0.79460784 0.66746324
0.99460784 0.82892157 0.69803922
0.55759804 0.74405637 0.59160539
0.72683058 0.77174479 0.61158088
0.82136949 0.7933364 0.62708333
0.88480392 0.81470588 0.64409467
0.93949142 0.83382353 0.6620098
0.97401961 0.84812347 0.6745098
0.99109988 0.86384804 0.68411458
0.98823529 0.8776348 0.69675245
0.99215686 0.89803922 0.71862745
0.64019608 0.86004902 0.62867647
0.78284314 0.86822917 0.64518995
0.85845588 0.88363971 0.66106005
0.91715686 0.90882353 0.67752757
0.95772059 0.90863971 0.6870098
0.98970588 0.92352941 0.69898897
0.99215686 0.9377451 0.71421569
0.99197304 0.94446998 0.72507659
0.98823529 0.95698529 0.74203431
0.6963848 0.95055147 0.66593137
0.84142157 0.96176471 0.68560049
0.90061275 0.97303922 0.69911152
0.95196078 0.98302696 0.71519608
0.98627451 0.99215686 0.72352941
0.99215686 0.99215686 0.73615962
0.98823529 0.98786765 0.74701287
0.98823529 0.98823529 0.76243873
0.98823529 0.98823529 0.7754902
0.73872549 1 0.70441176
0.87273284 0.99607843 0.72745098
0.9377451 0.99215686 0.73688725
0.97647059 0.99215686 0.74754902
0.9870098 0.99215686 0.73039216
0.98976716 0.99068627 0.7598652
0.98823529 0.98578431 0.77745098
0.98823529 0.98823529 0.8
0.98823529 0.98823529 0.81568627
0.23529412 0.088235294 0.4627451
0.41764706 0.13039216 0.49166667
0.52941176 0.14166667 0.50539216
0.62941176 0.14362745 0.51421569
0.73333333 0.16862745 0.53039216
0.81348039 0.1747549 0.54460784
0.88676471 0.23039216 0.56519608
0.94191176 0.25882353 0.58284314
0.99019608 0.24705882 0.59019608
0.36789216 0.23308824 0.51176471
0.47521446 0.21623775 0.52037377
0.57971814 0.22120098 0.53063725
0.69681373 0.26559436 0.5513174
0.7810049 0.2747549 0.56090686
0.86332721 0.33406863 0.5854473
0.91415441 0.34142157 0.59485294
0.96988358 0.38854167 0.61648284
0.99387255 0.42647059 0.63970588
0.42745098 0.38284314 0.55
0.56862745 0.39803922 0.56672794
0.67818627 0.4245098 0.58088235
0.77401961 0.45692402 0.59669118
0.84558824 0.46691176 0.60686275
0.90606618 0.50514706 0.62567402
0.95526961 0.52990196 0.63823529
0.98627451 0.53535539 0.64583333
0.99411765 0.58431373 0.67156863
0.43676471 0.51029412 0.57696078
0.63177083 0.5504902 0.60033701
0.73529412 0.57273284 0.61372549
0.81988358 0.60094975 0.63039216
0.88872549 0.62745098 0.64693627
0.93780637 0.64898897 0.65612745
0.98382353 0.67175245 0.6754902
0.99215686 0.69264706 0.68284314
0.99926471 0.74681373 0.71862745
0.53235294 0.64117647 0.60784314
0.69080882 0.67401961 0.62720588
0.78676471 0.69534314 0.64460784
0.85784314 0.7185049 0.66102941
0.91176471 0.73921569 0.67156863
0.95808824 0.76421569 0.6870098
0.98897059 0.78259804 0.70343137
0.99215686 0.80196078 0.71090686
0.99117647 0.8254902 0.73039216
0.55539216 0.74656863 0.63333333
0.74142157 0.78308824 0.6620098
0.82634804 0.80073529 0.67009804
0.88872549 0.81890319 0.68431373
0.93835784 0.83382353 0.69987745
0.97962623 0.85101103 0.71351103
0.99215686 0.86776961 0.72671569
0.99215686 0.88170956 0.73897059
0.99019608 0.89313725 0.74852941
0.59705882 0.84705882 0.66323529
0.79240196 0.88296569 0.69473039
0.87487745 0.90723039 0.71470588
0.92444853 0.91862745 0.72089461
0.96715686 0.92009804 0.73431373
0.99411765 0.92463235 0.74381127
0.99215686 0.93566176 0.75441176
0.99215686 0.94871324 0.76985294
0.99215686 0.96568627 0.78921569
0.74681373 0.96372549 0.71936275
0.8471201 0.96740196 0.73339461
0.90833333 0.97218137 0.74705882
0.96283701 0.98743873 0.76731005
0.98431373 0.99264706 0.76691176
0.99338235 0.98658088 0.7745098
0.99215686 0.98259804 0.78351716
0.99215686 0.98651961 0.79852941
0.99215686 0.98480392 0.81004902
0.74117647 1 0.74705882
0.85514706 0.99215686 0.7625
0.94558824 0.99215686 0.78431373
0.96593137 0.99215686 0.7752451
0.98333333 0.99509804 0.77058824
0.99215686 0.98553922 0.7745098
0.98872549 0.98186275 0.78333333
0.99215686 0.98823529 0.80416667
0.99215686 0.98823529 0.81960784
0.27794118 0.094117647 0.51127451
0.40098039 0.11501225 0.52824755
0.51973039 0.12806373 0.54203431
0.63627451 0.15741422 0.55925245
0.73259804 0.16053922 0.57009804
0.82401961 0.21176471 0.59117647
0.88578431 0.21372549 0.60392157
0.93431373 0.22156863 0.61501225
0.97892157 0.24166667 0.62892157
0.36960784 0.2372549 0.5557598
0.48511029 0.22824755 0.56474418
0.60727635 0.26392463 0.58350184
0.6942402 0.25531556 0.58650429
0.80474877 0.32950368 0.61691176
0.86960784 0.34539675 0.62958793
0.9092065 0.32173713 0.63161765
0.96568627 0.37784161 0.65245098
0.99448529 0.43670343 0.68333333
0.40036765 0.3745098 0.58848039
0.57207414 0.39443934 0.60922181
0.68667279 0.43627451 0.62377451
0.78578431 0.47814032 0.64257047
0.85594363 0.50251225 0.65778186
0.90286458 0.49401042 0.66262255
0.96014093 0.55055147 0.68722426
0.98445159 0.54411765 0.69068627
0.98823529 0.56213235 0.70147059
0.48235294 0.52261029 0.62395833
0.63032322 0.55741422 0.64283088
0.74705882 0.58621324 0.66130515
0.82303922 0.60533088 0.67359069
0.88480392 0.63210784 0.68627451
0.94209559 0.66055453 0.70343137
0.97598039 0.67855392 0.71649816
0.98823529 0.69884344 0.72567402
0.98823529 0.71715686 0.7372549
0.51862745 0.64313725 0.6504902
0.7 0.68186275 0.67754289
0.79307598 0.70373775 0.68970588
0.85784314 0.72279412 0.70193015
0.91176471 0.73982843 0.71262255
0.96075368 0.76467525 0.7299326
0.98823529 0.7872549 0.74368873
0.99215686 0.80459559 0.75278799
0.98823529 0.81887255 0.76666667
0.56176471 0.7504902 0.67794118
0.72585018 0.78138021 0.7004902
0.82696078 0.80441176 0.71384804
0.88872549 0.82044271 0.72935049
0.94191176 0.83924632 0.74289216
0.98094363 0.85631127 0.75608915
0.99215686 0.87205882 0.77078738
0.99852941 0.89179687 0.78736979
0.98823529 0.89313725 0.79264706
0.62745098 0.85686275 0.71053922
0.8041973 0.8930913 0.73760723
0.8703125 0.89558824 0.74754902
0.92199755 0.90859375 0.76037071
0.96764706 0.92328431 0.77555147
0.99215686 0.92794118 0.78431373
0.99607843 0.96136642 0.81127451
0.99166667 0.9542739 0.81409314
0.98713235 0.96176471 0.82205882
0.68878676 0.95140931 0.74797794
0.84832261 0.97589614 0.78235294
0.90562194 0.97696078 0.78534007
0.94766391 0.97419577 0.79282322
0.9745098 0.96568627 0.79362745
0.98823529 0.95636489 0.79921109
0.99215686 0.96862745 0.81323529
0.99215686 0.97491575 0.82532935
0.99215686 0.98088235 0.83854167
0.74509804 1 0.79362745
0.85716912 0.99215686 0.79509804
0.93541667 0.98921569 0.81654412
0.95594363 0.98186275 0.80441176
0.97377451 0.97769608 0.79754902
0.98731618 0.96715686 0.80294118
0.98823529 0.96715686 0.81029412
0.99215686 0.98069853 0.83284314
0.99607843 0.99607843 0.85245098
0.30294118 0.099019608 0.55098039
0.40943627 0.1185049 0.5692402
0.53921569 0.15318627 0.58921569
0.63872549 0.16090686 0.59779412
0.73529412 0.17156863 0.6127451
0.81678922 0.18039216 0.62303922
0.88333333 0.20294118 0.64117647
0.93296569 0.22144608 0.65637255
0.97156863 0.26176471 0.67156863
0.37708333 0.24117647 0.59644608
0.49301471 0.23615196 0.60772059
0.61617647 0.27882966 0.62683824
0.70588235 0.28088235 0.63664216
0.79460784 0.30955882 0.6495098
0.86962316 0.34960172 0.66960784
0.9236826 0.37542892 0.68409926
0.9653799 0.38849571 0.69601716
0.98676471 0.39816176 0.70845588
0.38897059 0.37303922 0.62941176
0.59166667 0.43152574 0.65183824
0.68897059 0.43137255 0.66495098
0.78278186 0.47331495 0.68137255
0.85502451 0.50110294 0.69607843
0.90392157 0.50036765 0.70232843
0.95373775 0.53823529 0.72181373
0.99044118 0.57965686 0.74093137
0.99289216 0.62965686 0.76936275
0.44730392 0.5182598 0.66139706
0.64603248 0.55883885 0.68272059
0.75134804 0.58958333 0.7004902
0.83088235 0.61761642 0.71674326
0.88553922 0.63529412 0.7254902
0.93480392 0.65833333 0.73861826
0.97490809 0.68137255 0.75297181
0.99595588 0.71213235 0.77501532
0.98039216 0.71960784 0.77806373
0.57303922 0.65294118 0.69656863
0.70343137 0.67794118 0.70882353
0.79080882 0.70134804 0.72487745
0.86207108 0.73204657 0.74473039
0.9122549 0.74803922 0.75588235
0.96084559 0.76740196 0.76801471
0.98137255 0.78627451 0.78039216
0.98431373 0.80416667 0.79381127
0.98039216 0.82107843 0.80686275
0.56813725 0.75294118 0.71727941
0.74653799 0.78662684 0.73664216
0.83026961 0.80854779 0.75833333
0.89264706 0.82855392 0.775
0.94068627 0.840625 0.78529412
0.98140319 0.85931373 0.7995098
0.98762255 0.86804534 0.81127451
0.9872549 0.88275123 0.82205882
0.9872549 0.90686275 0.84460784
0.62941176 0.85465686 0.75073529
0.79065564 0.87809436 0.77405025
0.87261029 0.89901961 0.79001225
0.92490809 0.91507353 0.80588235
0.96593137 0.92046569 0.81482843
0.98777574 0.93201593 0.82867647
0.99117647 0.9348652 0.84001225
0.98431373 0.94215686 0.8484375
0.98039216 0.95367647 0.85882353
0.71495098 0.95796569 0.79669118
0.85381434 0.9682598 0.81973039
0.90867034 0.97781863 0.82634804
0.93578431 0.95490196 0.8245098
0.96666667 0.94534314 0.82322304
0.98431373 0.9463848 0.83333333
0.98688725 0.94938725 0.8361826
0.98727022 0.95778186 0.85234375
0.98860294 0.97303922 0.86666667
0.74901961 0.99607843 0.83235294
0.87647059 0.99215686 0.85245098
0.94093137 0.9875 0.8620098
0.95588235 0.97254902 0.84522059
0.96617647 0.96078431 0.82598039
0.9814951 0.95294118 0.8317402
0.98431373 0.95686275 0.83529412
0.98860294 0.97561275 0.85625
0.99509804 0.99509804 0.87745098
0.29803922 0.098039216 0.58872549
0.41372549 0.12113971 0.60392157
0.53382353 0.14362745 0.62303922
0.64056373 0.15906863 0.63645833
0.73504902 0.17205882 0.65122549
0.81207108 0.18216912 0.66109069
0.87647059 0.2127451 0.67990196
0.92947304 0.23186275 0.69509804
0.96421569 0.24705882 0.70637255
0.38137255 0.24166667 0.63443627
0.49271599 0.23598346 0.64216452
0.60056679 0.24756434 0.65464154
0.70637255 0.27886029 0.66999081
0.79120711 0.30496324 0.68627451
0.85704657 0.33435202 0.70124847
0.92178309 0.3948989 0.72527574
0.95238971 0.37573529 0.72762714
0.98676471 0.4651348 0.77175245
0.42757353 0.38811275 0.67058824
0.5807598 0.40292586 0.68953738
0.68998162 0.43884804 0.70183824
0.77740502 0.45669424 0.71568627
0.85036765 0.503125 0.73455882
0.89949449 0.51242341 0.74370404
0.94117647 0.52058824 0.74947917
0.97964154 0.57238051 0.77323836
0.97242647 0.57058824 0.77855392
0.44503676 0.52248775 0.69852941
0.64611673 0.55863971 0.71901042
0.75098039 0.58529412 0.73566176
0.83402267 0.62009804 0.75833333
0.88783701 0.6372549 0.76764706
0.92910539 0.65821844 0.77334559
0.96568627 0.68039216 0.78468137
0.97598039 0.7004902 0.7995098
0.97647059 0.73002451 0.82303922
0.52156863 0.64460784 0.72794118
0.69139093 0.67083333 0.74362745
0.78547794 0.69718137 0.75876225
0.86363358 0.73333333 0.78146446
0.91360294 0.74705882 0.79375
0.95229779 0.76421569 0.80245098
0.9723652 0.78590686 0.81470588
0.97254902 0.80220588 0.82622549
0.96862745 0.81372549 0.83970588
0.57616422 0.75030637 0.75637255
0.74525888 0.78431373 0.77843137
0.82296262 0.80343137 0.78921569
0.88627451 0.82254902 0.80588235
0.93455882 0.8356924 0.81976103
0.97126991 0.85421262 0.83402267
0.97254902 0.86354167 0.84157475
0.97248775 0.87398131 0.84728094
0.97254902 0.88952206 0.85833333
0.62083333 0.85098039 0.78664216
0.80085784 0.87352941 0.81017157
0.86568627 0.8935049 0.82435662
0.92107843 0.91787684 0.84056373
0.95490196 0.90906863 0.84791667
0.98051471 0.93333333 0.86190257
0.97254902 0.92711397 0.85818015
0.97254902 0.93748468 0.8587163
0.97254902 0.9495098 0.85490196
0.6877451 0.94307598 0.82542892
0.84215686 0.96047028 0.8479856
0.9004902 0.9721201 0.85807292
0.93204657 0.95882353 0.85132506
0.96253064 0.94929534 0.84901961
0.97947304 0.95900735 0.85788143
0.97254902 0.94558824 0.84705882
0.97254902 0.95735294 0.85490196
0.97996324 0.96911765 0.86231618
0.76078431 0.99215686 0.86666667
0.87794118 0.98431373 0.86280637
0.92941176 0.97647059 0.85882353
0.94362745 0.96617647 0.85098039
0.9627451 0.96078431 0.84313725
0.97254902 0.95686275 0.84313725
0.97205882 0.95428922 0.83921569
0.97598039 0.9651348 0.85140931
0.97598039 0.97254902 0.85882353
0.30196078 0.10196078 0.61960784
0.41764706 0.12107843 0.62745098
0.53431373 0.14509804 0.64215686
0.63480392 0.15294118 0.66519608
0.72745098 0.17058824 0.67843137
0.80686275 0.18284314 0.69558824
0.87254902 0.21568627 0.70686275
0.92205882 0.23137255 0.71764706
0.95294118 0.23921569 0.7372549
0.38137255 0.24509804 0.66323529
0.50196078 0.25 0.66917892
0.60232843 0.2564951 0.68039216
0.69442402 0.26268382 0.69589461
0.78112745 0.29852941 0.71470588
0.84675245 0.32028186 0.72224265
0.90257353 0.35784314 0.74522059
0.95153186 0.39362745 0.75582108
0.96372549 0.40147059 0.77303922
0.44411765 0.39509804 0.70098039
0.58431373 0.43235294 0.71617647
0.68235294 0.43039216 0.73137255
0.76764706 0.44901961 0.74264706
0.83970588 0.49852941 0.75931373
0.88823529 0.49963235 0.76482843
0.94044118 0.54509804 0.78235294
0.96470588 0.5504902 0.78713235
0.96176471 0.5745098 0.81176471
0.48676471 0.52892157 0.73186275
0.64215686 0.5622549 0.73970588
0.74019608 0.58529412 0.75441176
0.82248775 0.60741422 0.76715686
0.87941176 0.63529412 0.79264706
0.9254902 0.65931373 0.80882353
0.95845588 0.68137255 0.80637255
0.95686275 0.69393382 0.82647059
0.95539216 0.71421569 0.84166667
0.51960784 0.64117647 0.75490196
0.70220588 0.67426471 0.7622549
0.79313725 0.70539216 0.79852941
0.84607843 0.72083333 0.80441176
0.89803922 0.74117647 0.82254902
0.95441176 0.76348039 0.8379902
0.97009804 0.78235294 0.84215686
0.96127451 0.80073529 0.84705882
0.97254902 0.83529412 0.85882353
0.56519608 0.74215686 0.78333333
0.74068627 0.77303922 0.80147059
0.83272059 0.80735294 0.82794118
0.88719363 0.82101716 0.83731618
0.92107843 0.82794118 0.84460784
0.97101716 0.85147059 0.85974265
0.96372549 0.85539216 0.84705882
0.96470588 0.8713848 0.85098039
0.97254902 0.90637255 0.85490196
0.60490196 0.82843137 0.8127451
0.79705882 0.87401961 0.84105392
0.86176471 0.89607843 0.84411765
0.92169118 0.91727941 0.85943627
0.95441176 0.90637255 0.85980392
0.96470588 0.90833333 0.85098039
0.96470588 0.92352941 0.85098039
0.97254902 0.96360294 0.85490196
0.96470588 0.93823529 0.85098039
0.64803922 0.90441176 0.8372549
0.83088235 0.93290441 0.85833333
0.90085784 0.95294118 0.86311275
0.93235294 0.95324755 0.85275735
0.95490196 0.95686275 0.84877451
0.96078431 0.95557598 0.84705882
0.96078431 0.94914216 0.84705882
0.96078431 0.96035539 0.84754902
0.97205882 0.97205882 0.85490196
0.69019608 0.96470588 0.85490196
0.8622549 0.96911765 0.85539216
0.91176471 0.96764706 0.85098039
0.94362745 0.96470588 0.85098039
0.96078431 0.96470588 0.85098039
0.96323529 0.96078431 0.84705882
0.95980392 0.95686275 0.84313725
0.96421569 0.96029412 0.84705882
0.95686275 0.95294118 0.84313725
