site/assets/luts/sha256-327f1e31fa32dec572221b801017137ae9b2404964bd47ae1e3bdb5730843519.cube
# LUTr-Schema-Version: 2
# LUTr-ID: sha256-327f1e31fa32dec572221b801017137ae9b2404964bd47ae1e3bdb5730843519
# LUTr-Title: kodak portra 800 ++
# LUTr-Collection: Natron HaldCLUT
# LUTr-Collection-ID: natron-haldclut-presets
# LUTr-Source: https://github.com/NatronGitHub/clut
# LUTr-Retrieved: 2026-07-27
# LUTr-Source-File: submissions/natron-haldclut-presets/negative_new/kodak_portra_800_++.png
# LUTr-Source-Format: HALD-PNG
# LUTr-Source-SHA256: 327f1e31fa32dec572221b801017137ae9b2404964bd47ae1e3bdb5730843519
# LUTr-License: CC-BY-SA-4.0
# LUTr-License-URL: https://github.com/NatronGitHub/clut#license
# LUTr-License-Basis: repo-license-file
# LUTr-Transform-Class: film-emulation
# LUTr-Tags: creative, film, film-emulation, hald-clut, natron, png, cube
# LUTr-Input-Color-Space: srgb
# LUTr-Input-Gamut: rec709
# LUTr-Input-Transfer: srgb
# LUTr-Output-Color-Space: srgb
# LUTr-Output-Gamut: rec709
# LUTr-Output-Transfer: srgb
# LUTr-Color-Space-Confidence: assumed-display-referred
# LUTr-Domain-Normalized: true
# LUTr-Shaper: none
# LUTr-Original-Grid: 64x64x64
# LUTr-Conversion-Grid: 25x25x25
# LUTr-Conversion-Interpolation: trilinear
# LUTr-Conversion-Method: HALD-PNG LUT image decoded at 16-bit and sampled to 25x25x25 3D CUBE
# LUTr-Conversion-Tool: LUTr scripts/convert-all-to-cube.mjs 2.0.0
# LUTr-Conversion-Date: 2026-07-27
# LUTr-Note: Preserve this metadata and the upstream license notices when redistributing.
TITLE "kodak portra 800 ++"
LUT_3D_SIZE 25
DOMAIN_MIN 0 0 0
DOMAIN_MAX 1 1 1
0.047058824 0.12941176 0.17254902
0.075490196 0.13333333 0.17892157
0.10490196 0.13333333 0.18137255
0.13235294 0.12990196 0.18431373
0.1627451 0.12941176 0.18039216
0.20196078 0.1377451 0.18039216
0.24313725 0.14803922 0.18039216
0.28284314 0.15833333 0.18039216
0.32941176 0.16470588 0.17647059
0.38872549 0.15441176 0.17647059
0.44803922 0.14411765 0.17254902
0.50343137 0.13382353 0.16911765
0.5745098 0.14313725 0.17254902
0.64215686 0.1495098 0.17254902
0.70392157 0.15588235 0.17254902
0.76568627 0.16078431 0.17107843
0.82352941 0.16078431 0.16470588
0.87647059 0.16715686 0.15833333
0.91764706 0.18235294 0.14705882
0.9627451 0.1995098 0.13039216
1 0.21568627 0.11764706
1 0.23627451 0.10931373
1 0.26078431 0.099019608
1 0.28137255 0.084803922
1 0.30196078 0.066666667
0.057352941 0.14362745 0.17892157
0.07064951 0.14362745 0.18039216
0.098529412 0.14362745 0.18431373
0.128125 0.14215686 0.18431373
0.15882353 0.14289216 0.18431373
0.19822304 0.14626225 0.18253676
0.24068627 0.15147059 0.18039216
0.28039216 0.16078431 0.17738971
0.3254902 0.16715686 0.17647059
0.3872549 0.15833333 0.17647059
0.44509804 0.15208333 0.17254902
0.503125 0.15392157 0.17254902
0.5745098 0.15588235 0.17573529
0.6463848 0.16194853 0.17647059
0.71139706 0.1689951 0.17647059
0.76813725 0.16960784 0.17107843
0.82352941 0.16960784 0.16470588
0.87800245 0.17542892 0.15588235
0.92046569 0.19620098 0.1435049
0.9627451 0.21568627 0.12775735
0.98970588 0.23112745 0.12083333
0.99785539 0.24656863 0.11568627
1 0.26715686 0.10539216
1 0.29166667 0.090257353
1 0.30833333 0.070588235
0.062745098 0.15490196 0.18431373
0.065196078 0.15490196 0.18039216
0.088235294 0.15416667 0.18357843
0.12009804 0.15747549 0.18431373
0.15392157 0.1622549 0.18823529
0.19313725 0.16311275 0.18786765
0.23529412 0.16568627 0.18210784
0.27647059 0.16568627 0.17647059
0.32058824 0.16960784 0.17254902
0.38235294 0.16629902 0.175
0.44338235 0.17156863 0.17647059
0.50294118 0.17536765 0.17647059
0.5745098 0.17843137 0.17892157
0.64644608 0.17892157 0.18039216
0.71176471 0.18529412 0.17647059
0.76813725 0.19448529 0.16335784
0.82254902 0.19803922 0.15588235
0.875 0.20539216 0.14705882
0.92573529 0.21470588 0.13431373
0.96678922 0.23137255 0.12193627
0.98137255 0.24656863 0.12156863
0.99264706 0.26164216 0.12156863
1 0.28137255 0.11176471
1 0.30196078 0.091176471
1 0.31764706 0.075490196
0.066666667 0.16813725 0.18088235
0.066666667 0.16813725 0.18039216
0.081862745 0.17156863 0.18137255
0.1127451 0.1754902 0.18817402
0.14362745 0.18137255 0.19191176
0.18327206 0.18333333 0.19123775
0.22794118 0.18333333 0.18517157
0.26911765 0.18314951 0.17892157
0.31372549 0.18284314 0.17254902
0.37579657 0.18707108 0.17647059
0.4377451 0.19473039 0.17647059
0.49908088 0.19852941 0.17647059
0.57058824 0.19901961 0.18039216
0.63921569 0.2033701 0.17647059
0.70698529 0.21066176 0.16617647
0.76813725 0.21991422 0.15196078
0.81960784 0.22598039 0.14558824
0.87107843 0.23253676 0.13890931
0.92647059 0.24166667 0.125
0.96378676 0.25245098 0.11464461
0.97671569 0.26911765 0.11617647
0.98921569 0.28229167 0.11813725
0.99901961 0.29901961 0.10490196
1 0.31911765 0.084497549
1 0.32794118 0.07254902
0.060784314 0.19019608 0.18823529
0.062009804 0.19019608 0.1870098
0.075 0.18921569 0.18676471
0.10245098 0.19558824 0.19191176
0.13333333 0.2 0.19607843
0.1747549 0.20392157 0.19215686
0.21764706 0.20588235 0.18823529
0.26348039 0.20735294 0.18284314
0.31372549 0.21372549 0.17647059
0.36911765 0.21372549 0.17647059
0.42941176 0.21617647 0.17647059
0.49289216 0.22132353 0.17647059
0.56078431 0.22745098 0.17254902
0.62843137 0.23382353 0.1622549
0.69705882 0.24019608 0.15196078
0.76838235 0.24583333 0.14166667
0.81960784 0.25294118 0.13529412
0.86911765 0.26323529 0.12892157
0.92058824 0.27352941 0.12058824
0.95784314 0.28553922 0.11029412
0.97156863 0.29803922 0.10490196
0.98480392 0.3122549 0.10147059
0.99313725 0.32647059 0.085784314
0.99877451 0.34338235 0.062990196
1 0.35882353 0.045098039
0.054901961 0.21323529 0.19656863
0.06127451 0.2127451 0.19393382
0.071568627 0.20882353 0.19215686
0.092156863 0.21268382 0.19215686
0.125 0.21838235 0.19215686
0.16268382 0.225 0.19215686
0.20637255 0.2314951 0.18823529
0.25588235 0.23823529 0.18284314
0.31372549 0.24852941 0.17598039
0.36911765 0.24509804 0.17598039
0.4254902 0.24215686 0.17512255
0.4872549 0.25245098 0.16862745
0.55490196 0.2622549 0.1625
0.62303922 0.26905637 0.15588235
0.69203431 0.2754902 0.14558824
0.76127451 0.28167892 0.13547794
0.81519608 0.2877451 0.12941176
0.86323529 0.29803922 0.125
0.91470588 0.30833333 0.11617647
0.95196078 0.31862745 0.10588235
0.96642157 0.33088235 0.099264706
0.97745098 0.34313725 0.083884804
0.98737745 0.35735294 0.06372549
0.99607843 0.36893382 0.043137255
1 0.38186275 0.022058824
0.045098039 0.2372549 0.20294118
0.055392157 0.23627451 0.19938725
0.065441176 0.23308824 0.19583333
0.078921569 0.22941176 0.19215686
0.11470588 0.23921569 0.19215686
0.15539216 0.24852941 0.19215686
0.19313725 0.25882353 0.18823529
0.25196078 0.27058824 0.17990196
0.31372549 0.28627451 0.16960784
0.36764706 0.28627451 0.16960784
0.42843137 0.2870098 0.16789216
0.49019608 0.29362745 0.1622549
0.55490196 0.3 0.15588235
0.62254902 0.30637255 0.14852941
0.68897059 0.31372549 0.13897059
0.75098039 0.31973039 0.12892157
0.80784314 0.3254902 0.12254902
0.85931373 0.33223039 0.11617647
0.90784314 0.33921569 0.10980392
0.94816176 0.3495098 0.096936275
0.96764706 0.36372549 0.07745098
0.98431373 0.37794118 0.057230392
0.99411765 0.38823529 0.039215686
0.99901961 0.39889706 0.02254902
1 0.40882353 0.011764706
0.020588235 0.26568627 0.20931373
0.034803922 0.26323529 0.20686275
0.049019608 0.26470588 0.20441176
0.064215686 0.26470588 0.20147059
0.1004902 0.26911765 0.19754902
0.13988971 0.2754902 0.19558824
0.17892157 0.28578431 0.19031863
0.24117647 0.30147059 0.18039216
0.30686275 0.31813725 0.16617647
0.37009804 0.32990196 0.1598652
0.42941176 0.33345588 0.15931373
0.49117647 0.33890931 0.15539216
0.55563725 0.34313725 0.1495098
0.61862745 0.3473652 0.13921569
0.68223039 0.35392157 0.12892157
0.74368873 0.36029412 0.11954657
0.79852941 0.3627451 0.11470588
0.85147059 0.37003676 0.10441176
0.90147059 0.3754902 0.089828431
0.94197304 0.38578431 0.07254902
0.97058824 0.39730392 0.053186275
0.99411765 0.40882353 0.030085784
0.99938725 0.41911765 0.01875
1 0.42886029 0.015686275
0.99852941 0.43578431 0.015686275
0.0039215686 0.29803922 0.21568627
0.016666667 0.3004902 0.21568627
0.032352941 0.30294118 0.21470588
0.049509804 0.30588235 0.21176471
0.084313725 0.30588235 0.20392157
0.12303922 0.30980392 0.1995098
0.16078431 0.3127451 0.19215686
0.22205882 0.32843137 0.18676471
0.28627451 0.34901961 0.17254902
0.35294118 0.36568627 0.15980392
0.42647059 0.37745098 0.14803922
0.49117647 0.38431373 0.14509804
0.55686275 0.39215686 0.13529412
0.61470588 0.39215686 0.12892157
0.67647059 0.39509804 0.11862745
0.73676471 0.40147059 0.10833333
0.79215686 0.40392157 0.098039216
0.84362745 0.40784314 0.079901961
0.89019608 0.4127451 0.061764706
0.92794118 0.42303922 0.048039216
0.96470588 0.42941176 0.025490196
1 0.43970588 0.0044117647
1 0.45 0.0078431373
0.99607843 0.45637255 0.011764706
0.99607843 0.4627451 0.011764706
0.0039215686 0.33529412 0.21568627
0.0087622549 0.3401348 0.21960784
0.010661765 0.3435049 0.22316176
0.029411765 0.34332108 0.21862745
0.066911765 0.34387255 0.2122549
0.1026348 0.34460784 0.20373775
0.1377451 0.34644608 0.19669118
0.2 0.35931373 0.18921569
0.26176471 0.37598039 0.18039216
0.32990196 0.39656863 0.16917892
0.40686275 0.41568627 0.14705882
0.48792892 0.43284314 0.12530637
0.55490196 0.44166667 0.11470588
0.61470588 0.44362745 0.10490196
0.67071078 0.44362745 0.10134804
0.72647059 0.44509804 0.093198529
0.78186275 0.44509804 0.075
0.83333333 0.44509804 0.051409314
0.87990196 0.45 0.030882353
0.91764706 0.45784314 0.019301471
0.95441176 0.46544118 0.0085784314
0.98627451 0.4745098 0.0039215686
0.99546569 0.48333333 0.0074754902
0.99607843 0.48878676 0.0078431373
0.99607843 0.49362745 0.0093137255
0.0039215686 0.37647059 0.21960784
0.0068627451 0.38039216 0.22205882
0.0078431373 0.38039216 0.22352941
0.014338235 0.37941176 0.22267157
0.041176471 0.37941176 0.21617647
0.073039216 0.37941176 0.20870098
0.11519608 0.38357843 0.20318627
0.17487745 0.39264706 0.19889706
0.24019608 0.40686275 0.18921569
0.30477941 0.42745098 0.17647059
0.38063725 0.44803922 0.15465686
0.46764706 0.47254902 0.12046569
0.5495098 0.49264706 0.093137255
0.61335784 0.49865196 0.082965686
0.66862745 0.49436275 0.075735294
0.72009804 0.49509804 0.062254902
0.77156863 0.49117647 0.048039216
0.82303922 0.4872549 0.024509804
0.87034314 0.4870098 0.0039215686
0.90698529 0.49276961 0.0068627451
0.94215686 0.49901961 0.0078431373
0.97242647 0.5067402 0.0042892157
0.98627451 0.51740196 0.0078431373
0.99117647 0.52487745 0.0078431373
0.99215686 0.52941176 0.0039215686
0.0039215686 0.41764706 0.21960784
0.0039215686 0.41795343 0.22205882
0.0078431373 0.41764706 0.22267157
0.0082720588 0.41421569 0.21960784
0.014460784 0.41372549 0.21764706
0.035232843 0.41372549 0.21170343
0.082965686 0.41813725 0.20759804
0.14754902 0.42745098 0.20373775
0.21323529 0.44117647 0.1995098
0.275 0.45833333 0.18314951
0.34754902 0.47892157 0.16127451
0.43627451 0.50343137 0.12696078
0.525 0.53186275 0.091911765
0.6033701 0.5504902 0.05502451
0.66090686 0.54914216 0.031740196
0.70980392 0.54656863 0.025306373
0.76127451 0.54264706 0.020588235
0.81488971 0.53872549 0.009497549
0.86666667 0.53137255 0.0039215686
0.90392157 0.53137255 0.0039215686
0.93529412 0.53529412 0.0039215686
0.95833333 0.54019608 0.0039215686
0.97598039 0.5504902 0.0069852941
0.98609069 0.56029412 0.006372549
0.99215686 0.56666667 0.0039215686
0.0039215686 0.45882353 0.21960784
0.0039215686 0.45882353 0.21960784
0.0039215686 0.45441176 0.21960784
0.0039215686 0.45098039 0.21960784
0.0039215686 0.44803922 0.21568627
0.0026960784 0.44730392 0.21176471
0.05 0.45392157 0.21029412
0.11813725 0.46421569 0.20710784
0.18235294 0.47647059 0.2
0.24926471 0.49191176 0.18333333
0.31813725 0.50980392 0.16421569
0.40367647 0.53431373 0.13627451
0.48627451 0.55784314 0.10294118
0.57083333 0.57965686 0.049754902
0.64754902 0.59901961 0.0049019608
0.70073529 0.59730392 0.0066176471
0.75490196 0.59215686 0.0078431373
0.80759804 0.58504902 0.0078431373
0.8622549 0.57990196 0.0039215686
0.9002451 0.57843137 0.0039215686
0.93529412 0.57843137 0.0029411765
0.95784314 0.58088235 0.0039215686
0.97303922 0.5872549 0.0039215686
0.98578431 0.59558824 0.0039215686
0.99019608 0.60196078 0.0039215686
0.0039215686 0.5 0.21960784
0.0039215686 0.5 0.21960784
0.0037990196 0.49607843 0.21960784
0.00042892157 0.49215686 0.21960784
0 0.48872549 0.21789216
0.00049019608 0.49215686 0.2161152
0.025735294 0.49509804 0.21311275
0.087561275 0.50508578 0.21047794
0.15539216 0.51568627 0.2004902
0.21979167 0.52990196 0.18627451
0.29215686 0.54105392 0.17242647
0.36721814 0.56127451 0.15140931
0.44558824 0.58357843 0.12107843
0.53088235 0.60588235 0.078431373
0.60980392 0.62647059 0.032965686
0.67794118 0.63302696 0.0086397059
0.73970588 0.63333333 0.0078431373
0.80098039 0.63363971 0.0052083333
0.85833333 0.62990196 0.0039215686
0.89607843 0.62990196 0.0039215686
0.93088235 0.62598039 0.0039215686
0.95784314 0.62941176 0.0039215686
0.97843137 0.62990196 0.0039215686
0.98578431 0.63511029 0.0039215686
0.98823529 0.6372549 0.0039215686
0 0.54509804 0.21960784
0.00098039216 0.54117647 0.21960784
0 0.5372549 0.21960784
0 0.53639706 0.21960784
0 0.53627451 0.22107843
0.0034313725 0.5372549 0.21960784
0.017647059 0.5372549 0.21960784
0.060661765 0.54264706 0.21531863
0.1245098 0.55686275 0.20686275
0.19448529 0.56715686 0.19656863
0.2747549 0.57843137 0.18602941
0.3439951 0.59252451 0.16862745
0.41421569 0.60980392 0.14901961
0.49276961 0.63039216 0.11617647
0.57254902 0.65098039 0.064705882
0.64852941 0.66519608 0.018504902
0.71568627 0.66764706 0.0049019608
0.78958333 0.67585784 0.0039215686
0.85490196 0.68137255 0.0031862745
0.89264706 0.68137255 0.00012254902
0.9245098 0.67745098 0.0024509804
0.95784314 0.67745098 0.0039215686
0.97843137 0.68039216 0.0039215686
0.98431373 0.68235294 0.0039215686
0.98529412 0.68235294 0.0039215686
0 0.58627451 0.21568627
0 0.58474265 0.21960784
0 0.58382353 0.22352941
0 0.58382353 0.22352941
0.0019607843 0.58382353 0.22352941
0.0080269608 0.58382353 0.22352941
0.014705882 0.58272059 0.22352941
0.038235294 0.58327206 0.22107843
0.093627451 0.59264706 0.21568627
0.16960784 0.60386029 0.20686275
0.25588235 0.61470588 0.19264706
0.33106618 0.62745098 0.17873775
0.39779412 0.64240196 0.16151961
0.46501225 0.65765931 0.13890931
0.54313725 0.67696078 0.086887255
0.62003676 0.69215686 0.027879902
0.69509804 0.70245098 0.0024509804
0.77892157 0.72058824 0.0039215686
0.85343137 0.73639706 0
0.88872549 0.73155637 0
0.92279412 0.72745098 0.0039215686
0.95655637 0.725 0.0039215686
0.97941176 0.72745098 0.0039215686
0.98431373 0.72892157 0.0039215686
0.98431373 0.72892157 0.0039215686
0 0.63137255 0.22352941
0 0.63137255 0.22352941
0 0.63137255 0.22745098
0 0.63137255 0.22745098
0.0039215686 0.63333333 0.22745098
0.011764706 0.63137255 0.22745098
0.014705882 0.62745098 0.22745098
0.02254902 0.62352941 0.22598039
0.058823529 0.62745098 0.21960784
0.14754902 0.64166667 0.21323529
0.23921569 0.65196078 0.19901961
0.31470588 0.6622549 0.18480392
0.38235294 0.67647059 0.16666667
0.45441176 0.69117647 0.14362745
0.52647059 0.70784314 0.099019608
0.60245098 0.72058824 0.045098039
0.6745098 0.73333333 0.0078431373
0.75931373 0.75147059 0.0078431373
0.83627451 0.76862745 0.0039215686
0.87696078 0.76862745 0.0039215686
0.91764706 0.76862745 0.0039215686
0.95441176 0.77254902 0.0039215686
0.97941176 0.77254902 0.0029411765
0.98431373 0.77254902 0.0039215686
0.98431373 0.77254902 0.0039215686
0.0039215686 0.67892157 0.2377451
0.003002451 0.68039216 0.23137255
0 0.68039216 0.22745098
0 0.68020833 0.22745098
0.0071078431 0.68039216 0.22990196
0.011764706 0.6786152 0.23382353
0.015318627 0.67316176 0.23382353
0.016237745 0.66862745 0.22990196
0.031372549 0.66715686 0.22990196
0.13033088 0.67892157 0.21623775
0.22107843 0.68921569 0.20257353
0.29969363 0.69705882 0.18872549
0.37205882 0.71127451 0.17230392
0.44411765 0.7254902 0.15275735
0.51617647 0.73688725 0.12647059
0.58578431 0.75 0.084803922
0.65392157 0.76029412 0.041176471
0.72990196 0.77359069 0.016605392
0.80539216 0.78921569 0.0078431373
0.85324755 0.79313725 0.0041053922
0.89583333 0.79828431 0.0039215686
0.94460784 0.80765931 0.0039215686
0.97843137 0.81090686 0.00098039216
0.98915441 0.81127451 0.00055147059
0.99068627 0.81372549 0.0014705882
0.0078431373 0.72647059 0.25196078
0.0042892157 0.72647059 0.24620098
0.0031862745 0.72622549 0.23651961
0.0035539216 0.72634804 0.23308824
0.0078431373 0.72647059 0.24117647
0.011764706 0.72634804 0.24558824
0.011764706 0.72254902 0.24828431
0.010784314 0.7182598 0.24473039
0.032352941 0.71470588 0.24019608
0.12683824 0.725 0.22990196
0.21764706 0.73333333 0.22058824
0.3060049 0.73590686 0.21029412
0.37107843 0.74313725 0.20098039
0.43823529 0.75637255 0.19019608
0.50196078 0.76593137 0.16446078
0.56973039 0.77598039 0.12352941
0.6372549 0.78627451 0.078431373
0.70294118 0.79656863 0.032352941
0.7754902 0.81078431 0.0068627451
0.82610294 0.81727941 0.0029411765
0.87696078 0.8245098 0.0039215686
0.92990196 0.83786765 0.0039215686
0.98014706 0.84901961 0
0.99607843 0.85098039 0
0.99313725 0.85098039 0
0.0078431373 0.77058824 0.27303922
0.0078431373 0.77058824 0.26930147
0.0073529412 0.77058824 0.26862745
0.0073529412 0.77058824 0.26519608
0.0078431373 0.77230392 0.26544118
0.0087622549 0.77058824 0.26960784
0.011764706 0.77022059 0.2692402
0.0026348039 0.76648284 0.26047794
0.031372549 0.76617647 0.25392157
0.12990196 0.77058824 0.24969363
0.22794118 0.77107843 0.24473039
0.31023284 0.7745098 0.23780637
0.37990196 0.77867647 0.22818627
0.44166667 0.7872549 0.2185049
0.50343137 0.79460784 0.20747549
0.56176471 0.80392157 0.16813725
0.62352941 0.81421569 0.11960784
0.68578431 0.8245098 0.068137255
0.74816176 0.83492647 0.01372549
0.80245098 0.84209559 0.0034313725
0.85784314 0.85196078 0.0090686275
0.9127451 0.8622549 0.010784314
0.96470588 0.87634804 0.0078431373
0.98921569 0.88137255 0.0047181373
0.98529412 0.87794118 0.0073529412
0.017647059 0.81372549 0.30392157
0.0078431373 0.81568627 0.30073529
0.012254902 0.81568627 0.30539216
0.011764706 0.81568627 0.3
0.010784314 0.81568627 0.29607843
0.0041666667 0.81568627 0.29215686
0.010294118 0.81421569 0.29117647
0.031862745 0.81176471 0.28676471
0.080392157 0.81176471 0.28627451
0.16004902 0.81176471 0.28235294
0.24754902 0.81176471 0.27745098
0.32965686 0.81176471 0.26911765
0.39705882 0.81470588 0.25980392
0.45784314 0.82181373 0.25490196
0.51764706 0.82892157 0.25147059
0.57401961 0.83602941 0.22941176
0.63333333 0.84509804 0.18235294
0.69117647 0.85539216 0.13602941
0.74607843 0.86176471 0.098529412
0.79387255 0.86838235 0.066176471
0.84215686 0.87352941 0.050980392
0.89044118 0.88259804 0.042401961
0.93529412 0.88970588 0.026960784
0.95882353 0.89215686 0.019607843
0.95882353 0.89215686 0.019607843
0.03627451 0.85686275 0.33872549
0.0052696078 0.85686275 0.33057598
0.0098039216 0.85686275 0.33088235
0.0082720588 0.85686275 0.33088235
0.021323529 0.85686275 0.32745098
0.02120098 0.85680147 0.32352941
0.057965686 0.85637255 0.31887255
0.13039216 0.85294118 0.31960784
0.18578431 0.84901961 0.32352941
0.24822304 0.85294118 0.325
0.29987745 0.85159314 0.31862745
0.36678922 0.84901961 0.31133578
0.43259804 0.85465686 0.30392157
0.48578431 0.86035539 0.29957108
0.5372549 0.86458333 0.2935049
0.58872549 0.86991422 0.28333333
0.64019608 0.87598039 0.25833333
0.69117647 0.88382353 0.22775735
0.74215686 0.89166667 0.19362745
0.7901348 0.89901961 0.1588848
0.83529412 0.90318627 0.12034314
0.87990196 0.90735294 0.062254902
0.92414216 0.91115196 0.017647059
0.94656863 0.91519608 0.010968137
0.95735294 0.91519608 0.019117647
0.055882353 0.89803922 0.36960784
0.070220588 0.89803922 0.37218137
0.086764706 0.89803922 0.3745098
0.10625 0.89803922 0.37647059
0.14068627 0.89460784 0.37990196
0.17708333 0.89117647 0.38235294
0.21078431 0.89117647 0.37769608
0.2495098 0.89019608 0.37745098
0.30196078 0.89019608 0.38039216
0.34901961 0.89019608 0.37892157
0.3872549 0.8872549 0.37181373
0.42671569 0.8872549 0.3622549
0.46911765 0.89068627 0.36078431
0.51617647 0.89509804 0.35784314
0.56764706 0.89901961 0.35686275
0.61801471 0.90294118 0.35502451
0.66372549 0.90980392 0.33627451
0.70943627 0.91531863 0.30931373
0.75098039 0.92254902 0.28553922
0.78921569 0.92610294 0.25367647
0.83137255 0.93088235 0.20147059
0.87352941 0.93443627 0.14203431
0.91470588 0.93897059 0.075735294
0.94914216 0.93921569 0.038602941
0.9745098 0.94215686 0.011764706
0.24656863 0.92990196 0.44705882
0.29117647 0.93382353 0.45343137
0.30073529 0.93382353 0.45490196
0.32303922 0.93382353 0.45245098
0.32990196 0.92990196 0.45759804
0.33872549 0.92598039 0.45704657
0.35232843 0.92352941 0.45490196
0.38186275 0.92598039 0.45882353
0.42794118 0.92598039 0.45882353
0.45251225 0.92352941 0.45882353
0.47855392 0.92205882 0.45392157
0.503125 0.91942402 0.44491422
0.54044118 0.9247549 0.45245098
0.56893382 0.92598039 0.44442402
0.60919118 0.92892157 0.44142157
0.65343137 0.93382353 0.44166667
0.69460784 0.9377451 0.42892157
0.73131127 0.94319853 0.40980392
0.76911765 0.94803922 0.38823529
0.8 0.94932598 0.36060049
0.83210784 0.95465686 0.33455882
0.8723652 0.95980392 0.28449755
0.90833333 0.95980392 0.23529412
0.94258578 0.96372549 0.18633578
0.97352941 0.96372549 0.11568627
0.42352941 0.95686275 0.52156863
0.44264706 0.96078431 0.52794118
0.44313725 0.96078431 0.5254902
0.45735294 0.96078431 0.53284314
0.46470588 0.95882353 0.53137255
0.45931373 0.95294118 0.52107843
0.4754902 0.95294118 0.52156863
0.50245098 0.95833333 0.53088235
0.52156863 0.95686275 0.52941176
0.53823529 0.95686275 0.52941176
0.55588235 0.95196078 0.52647059
0.57107843 0.94901961 0.51764706
0.60980392 0.95686275 0.53137255
0.63235294 0.95637255 0.52107843
0.65196078 0.95294118 0.50980392
0.68284314 0.95686275 0.50980392
0.71372549 0.96078431 0.50196078
0.74705882 0.96470588 0.49166667
0.78333333 0.96960784 0.47941176
0.81029412 0.97254902 0.45196078
0.8372549 0.97647059 0.43529412
0.86813725 0.98039216 0.40980392
0.89901961 0.98039216 0.36862745
0.93529412 0.98431373 0.32892157
0.96078431 0.98431373 0.29019608
0.057352941 0.13578431 0.18921569
0.077941176 0.13633578 0.19068627
0.10490196 0.13517157 0.19031863
0.13235294 0.13204657 0.18707108
0.15882353 0.12745098 0.18161765
0.20067402 0.13351716 0.18284314
0.24313725 0.14166667 0.18615196
0.28431373 0.1471201 0.18676471
0.33186275 0.1504902 0.18676471
0.38872549 0.14957108 0.18676471
0.44803922 0.14473039 0.18529412
0.50900735 0.13988971 0.18529412
0.57843137 0.14313725 0.18284314
0.6463848 0.15343137 0.18106618
0.71029412 0.1622549 0.17708333
0.76813725 0.16323529 0.17199755
0.82745098 0.16323529 0.16470588
0.88039216 0.16715686 0.15833333
0.92058824 0.18235294 0.14865196
0.9627451 0.19920343 0.14234069
0.99681373 0.21323529 0.13504902
1 0.23627451 0.12598039
1 0.25833333 0.11568627
1 0.28137255 0.10392157
1 0.29558824 0.09754902
0.062193627 0.14754902 0.19068627
0.074571078 0.1464231 0.19279259
0.098529412 0.14362745 0.19252451
0.12598039 0.14227175 0.18859528
0.15591299 0.14289216 0.18584559
0.19803922 0.14607843 0.18584559
0.24183517 0.14773284 0.18676471
0.28339461 0.15314798 0.18676471
0.32849265 0.15833333 0.18676471
0.3872549 0.1562883 0.18676471
0.44509804 0.15484069 0.18699449
0.50900735 0.15537684 0.18529412
0.57843137 0.15661765 0.18284314
0.64871324 0.16354167 0.18039216
0.71176471 0.17032782 0.17915135
0.76960784 0.17087163 0.17199755
0.82745098 0.16960784 0.16470588
0.88004749 0.17542892 0.15588235
0.92156863 0.19471507 0.14718137
0.9604856 0.21194853 0.14008119
0.98820466 0.22870711 0.13235294
0.99614737 0.24656863 0.1236443
1 0.26715686 0.11323529
1 0.28808977 0.10296415
1 0.3028799 0.09754902
0.066666667 0.15845588 0.19252451
0.069806985 0.15784314 0.19183517
0.088970588 0.1567402 0.19252451
0.11911765 0.15856311 0.19068627
0.15067402 0.1627451 0.19105392
0.19313725 0.1627451 0.1904565
0.23658088 0.1627451 0.18728554
0.27941176 0.1627451 0.18460478
0.32303922 0.16384804 0.18284314
0.38235294 0.1665288 0.18506434
0.44411765 0.17156863 0.18648897
0.50628064 0.1745098 0.18475797
0.57634804 0.17751225 0.18284314
0.64656863 0.17843137 0.18039216
0.71470588 0.1833027 0.18011642
