site/assets/luts/sha256-32e54838ea9891ab1ec4b4783d88f993481e0c7a65b9e87751c0d8d092f039b8.cube
# LUTr-Schema-Version: 2
# LUTr-ID: sha256-32e54838ea9891ab1ec4b4783d88f993481e0c7a65b9e87751c0d8d092f039b8
# LUTr-Title: fuji fp-3000b negative -
# LUTr-Collection: Natron HaldCLUT
# LUTr-Collection-ID: natron-haldclut-presets
# LUTr-Source: https://github.com/NatronGitHub/clut
# LUTr-Retrieved: 2026-07-27
# LUTr-Source-File: submissions/natron-haldclut-presets/instant_pro/fuji_fp-3000b_negative_-.png
# LUTr-Source-Format: HALD-PNG
# LUTr-Source-SHA256: 32e54838ea9891ab1ec4b4783d88f993481e0c7a65b9e87751c0d8d092f039b8
# LUTr-License: CC-BY-SA-4.0
# LUTr-License-URL: https://github.com/NatronGitHub/clut#license
# LUTr-License-Basis: repo-license-file
# LUTr-Transform-Class: film-emulation
# LUTr-Tags: creative, film, film-emulation, hald-clut, natron, png, cube
# LUTr-Input-Color-Space: srgb
# LUTr-Input-Gamut: rec709
# LUTr-Input-Transfer: srgb
# LUTr-Output-Color-Space: srgb
# LUTr-Output-Gamut: rec709
# LUTr-Output-Transfer: srgb
# LUTr-Color-Space-Confidence: assumed-display-referred
# LUTr-Domain-Normalized: true
# LUTr-Shaper: none
# LUTr-Original-Grid: 64x64x64
# LUTr-Conversion-Grid: 25x25x25
# LUTr-Conversion-Interpolation: trilinear
# LUTr-Conversion-Method: HALD-PNG LUT image decoded at 16-bit and sampled to 25x25x25 3D CUBE
# LUTr-Conversion-Tool: LUTr scripts/convert-all-to-cube.mjs 2.0.0
# LUTr-Conversion-Date: 2026-07-27
# LUTr-Note: Preserve this metadata and the upstream license notices when redistributing.
TITLE "fuji fp-3000b negative -"
LUT_3D_SIZE 5
DOMAIN_MIN 0 0 0
DOMAIN_MAX 1 1 1
0.062745098 0.062745098 0.062745098
0.11176471 0.11176471 0.11176471
0.2627451 0.2627451 0.2627451
0.47745098 0.47745098 0.47745098
0.6745098 0.6745098 0.6745098
0.13921569 0.13921569 0.13921569
0.18333333 0.18333333 0.18333333
0.33970588 0.33970588 0.33970588
0.51568627 0.51568627 0.51568627
0.69705882 0.69705882 0.69705882
0.37058824 0.37058824 0.37058824
0.38333333 0.38333333 0.38333333
0.46666667 0.46666667 0.46666667
0.61813725 0.61813725 0.61813725
0.7627451 0.7627451 0.7627451
0.62843137 0.62843137 0.62843137
0.61960784 0.61960784 0.61960784
0.64460784 0.64460784 0.64460784
0.73259804 0.73259804 0.73259804
0.84509804 0.84509804 0.84509804
0.8627451 0.8627451 0.8627451
0.8627451 0.8627451 0.8627451
0.8627451 0.8627451 0.8627451
0.89803922 0.89803922 0.89803922
0.94117647 0.94117647 0.94117647
0.14705882 0.14705882 0.14705882
0.1875 0.1875 0.1875
0.34117647 0.34117647 0.34117647
0.50784314 0.50784314 0.50784314
0.68921569 0.68921569 0.68921569
0.23529412 0.23529412 0.23529412
0.26488971 0.26488971 0.26488971
0.38541667 0.38541667 0.38541667
0.54509804 0.54509804 0.54509804
0.70882353 0.70882353 0.70882353
0.46078431 0.46078431 0.46078431
0.44754902 0.44754902 0.44754902
0.50882353 0.50882353 0.50882353
0.6372549 0.6372549 0.6372549
0.7627451 0.7627451 0.7627451
0.66544118 0.66544118 0.66544118
0.65153186 0.65153186 0.65153186
0.67071078 0.67071078 0.67071078
0.74356618 0.74356618 0.74356618
0.85196078 0.85196078 0.85196078
0.87843137 0.87843137 0.87843137
0.8754902 0.8754902 0.8754902
0.86960784 0.86960784 0.86960784
0.89411765 0.89411765 0.89411765
0.94901961 0.94901961 0.94901961
0.39215686 0.39215686 0.39215686
0.43431373 0.43431373 0.43431373
0.5254902 0.5254902 0.5254902
0.59656863 0.59656863 0.59656863
0.73529412 0.73529412 0.73529412
0.41078431 0.41078431 0.41078431
0.46004902 0.46004902 0.46004902
0.53627451 0.53627451 0.53627451
0.63235294 0.63235294 0.63235294
0.73872549 0.73872549 0.73872549
0.54705882 0.54705882 0.54705882
0.55098039 0.55098039 0.55098039
0.59019608 0.59019608 0.59019608
0.68823529 0.68823529 0.68823529
0.78627451 0.78627451 0.78627451
0.73823529 0.73823529 0.73823529
0.73321078 0.73321078 0.73321078
0.73088235 0.73088235 0.73088235
0.78039216 0.78039216 0.78039216
0.8622549 0.8622549 0.8622549
0.88823529 0.88823529 0.88823529
0.90588235 0.90588235 0.90588235
0.90392157 0.90392157 0.90392157
0.9127451 0.9127451 0.9127451
0.93333333 0.93333333 0.93333333
0.65098039 0.65098039 0.65098039
0.68137255 0.68137255 0.68137255
0.73431373 0.73431373 0.73431373
0.77156863 0.77156863 0.77156863
0.8245098 0.8245098 0.8245098
0.6745098 0.6745098 0.6745098
0.69142157 0.69142157 0.69142157
0.74607843 0.74607843 0.74607843
0.77230392 0.77230392 0.77230392
0.8252451 0.8252451 0.8252451
0.66666667 0.66666667 0.66666667
0.69313725 0.69313725 0.69313725
0.74607843 0.74607843 0.74607843
0.80294118 0.80294118 0.80294118
0.85784314 0.85784314 0.85784314
0.7754902 0.7754902 0.7754902
0.78314951 0.78314951 0.78314951
0.80686275 0.80686275 0.80686275
0.84215686 0.84215686 0.84215686
0.89215686 0.89215686 0.89215686
0.9372549 0.9372549 0.9372549
0.93823529 0.93823529 0.93823529
0.93970588 0.93970588 0.93970588
0.93529412 0.93529412 0.93529412
0.95392157 0.95392157 0.95392157
0.89019608 0.89019608 0.89019608
0.89313725 0.89313725 0.89313725
0.90588235 0.90588235 0.90588235
0.9254902 0.9254902 0.9254902
0.93333333 0.93333333 0.93333333
0.88529412 0.88529412 0.88529412
0.89705882 0.89705882 0.89705882
0.91372549 0.91372549 0.91372549
0.9254902 0.9254902 0.9254902
0.94901961 0.94901961 0.94901961
0.89019608 0.89019608 0.89019608
0.89607843 0.89607843 0.89607843
0.90686275 0.90686275 0.90686275
0.92745098 0.92745098 0.92745098
0.9627451 0.9627451 0.9627451
0.89803922 0.89803922 0.89803922
0.90196078 0.90196078 0.90196078
0.90245098 0.90245098 0.90245098
0.94387255 0.94387255 0.94387255
0.96960784 0.96960784 0.96960784
0.95294118 0.95294118 0.95294118
0.94509804 0.94509804 0.94509804
0.94901961 0.94901961 0.94901961
0.97254902 0.97254902 0.97254902
0.98823529 0.98823529 0.98823529
