site/assets/luts/sha256-570e3a7f574d669129b97a27b7c76ac9bfc38c0ffb543437824514076f75e2eb.cube
# LUTr-Schema-Version: 2
# LUTr-ID: sha256-570e3a7f574d669129b97a27b7c76ac9bfc38c0ffb543437824514076f75e2eb
# LUTr-Title: summer
# LUTr-Collection: Natron HaldCLUT
# LUTr-Collection-ID: natron-haldclut-presets
# LUTr-Source: https://github.com/NatronGitHub/clut
# LUTr-Retrieved: 2026-07-27
# LUTr-Source-File: submissions/natron-haldclut-presets/various/summer.png
# LUTr-Source-Format: HALD-PNG
# LUTr-Source-SHA256: 570e3a7f574d669129b97a27b7c76ac9bfc38c0ffb543437824514076f75e2eb
# LUTr-License: CC-BY-SA-4.0
# LUTr-License-URL: https://github.com/NatronGitHub/clut#license
# LUTr-License-Basis: repo-license-file
# LUTr-Transform-Class: film-emulation
# LUTr-Tags: creative, film, film-emulation, hald-clut, natron, png, cube
# LUTr-Input-Color-Space: srgb
# LUTr-Input-Gamut: rec709
# LUTr-Input-Transfer: srgb
# LUTr-Output-Color-Space: srgb
# LUTr-Output-Gamut: rec709
# LUTr-Output-Transfer: srgb
# LUTr-Color-Space-Confidence: assumed-display-referred
# LUTr-Domain-Normalized: true
# LUTr-Shaper: none
# LUTr-Original-Grid: 64x64x64
# LUTr-Conversion-Grid: 25x25x25
# LUTr-Conversion-Interpolation: trilinear
# LUTr-Conversion-Method: HALD-PNG LUT image decoded at 16-bit and sampled to 25x25x25 3D CUBE
# LUTr-Conversion-Tool: LUTr scripts/convert-all-to-cube.mjs 2.0.0
# LUTr-Conversion-Date: 2026-07-27
# LUTr-Note: Preserve this metadata and the upstream license notices when redistributing.
TITLE "summer"
LUT_3D_SIZE 9
DOMAIN_MIN 0 0 0
DOMAIN_MAX 1 1 1
0.24705882 0.0039215686 0.24313725
0.34362745 0.012254902 0.27794118
0.43627451 0.02745098 0.26764706
0.525 0.014215686 0.2495098
0.61764706 0.023529412 0.25490196
0.71029412 0.010294118 0.25098039
0.80294118 0.016666667 0.26666667
0.89558824 0.020098039 0.28578431
0.98039216 0.0039215686 0.25098039
0.25882353 0.12352941 0.28970588
0.3466299 0.12009804 0.29019608
0.43627451 0.12009804 0.27536765
0.52892157 0.12352941 0.25882353
0.61764706 0.12401961 0.2627451
0.71029412 0.12352941 0.26617647
0.8064951 0.12352941 0.27022059
0.89901961 0.12395833 0.27107843
0.95588235 0.12352941 0.2754902
0.26666667 0.25098039 0.28235294
0.34362745 0.24705882 0.28235294
0.43627451 0.23921569 0.28014706
0.52892157 0.24313725 0.26813725
0.61764706 0.24313725 0.26666667
0.71421569 0.24313725 0.27843137
0.81078431 0.24705882 0.28235294
0.90343137 0.24313725 0.27696078
0.98137255 0.24313725 0.26568627
0.26813725 0.37843137 0.27058824
0.33970588 0.37481618 0.27058824
0.43235294 0.37058824 0.2745098
0.525 0.36666667 0.26721814
0.61764706 0.37058824 0.26029412
0.71421569 0.37058824 0.27205882
0.81470588 0.37058824 0.29865196
0.90343137 0.36666667 0.3096201
0.98039216 0.36519608 0.30196078
0.25686275 0.50196078 0.25294118
0.3377451 0.50588235 0.25882353
0.43235294 0.50196078 0.26421569
0.52181373 0.49803922 0.25955882
0.61764706 0.49411765 0.25
0.71421569 0.49411765 0.26887255
0.8127451 0.49068627 0.30392157
0.90343137 0.49411765 0.29166667
0.98235294 0.49411765 0.26470588
0.26813725 0.62941176 0.25637255
0.34754902 0.63333333 0.25882353
0.43235294 0.6254902 0.25882353
0.525 0.6254902 0.26758578
0.61372549 0.62156863 0.26813725
0.71029412 0.62156863 0.26029412
0.80686275 0.62156863 0.27696078
0.89558824 0.62303922 0.26403186
0.975 0.61764706 0.26029412
0.25294118 0.74803922 0.25
0.34362745 0.74803922 0.25490196
0.43235294 0.74509804 0.25
0.52107843 0.74509804 0.27732843
0.61372549 0.74509804 0.28872549
0.71029412 0.74117647 0.26519608
0.80269608 0.74509804 0.24877451
0.8877451 0.74509804 0.26801471
0.96078431 0.74117647 0.28235294
0.27892157 0.86470588 0.25490196
0.34754902 0.86470588 0.25882353
0.44019608 0.85637255 0.27009804
0.52910539 0.86862745 0.29656863
0.61397059 0.87205882 0.29607843
0.71029412 0.86715686 0.26648284
0.80257353 0.86470588 0.27892157
0.89172794 0.86470588 0.2745098
0.96911765 0.86470588 0.27058824
0.29803922 0.98039216 0.25490196
0.34754902 0.97303922 0.26617647
0.44411765 0.96078431 0.28921569
0.54068627 0.96862745 0.30588235
0.6254902 0.97254902 0.28823529
0.7127451 0.98284314 0.25784314
0.80294118 0.97254902 0.29901961
0.8995098 0.96470588 0.29705882
0.99607843 0.98823529 0.25098039
0.28186275 0.054411765 0.31617647
0.34761029 0.019178922 0.3127451
0.43627451 0.03002451 0.3127451
0.52677696 0.033517157 0.30882353
0.61764706 0.039215686 0.3127451
0.70637255 0.034803922 0.3127451
0.80294118 0.033946078 0.3127451
0.89908088 0.015196078 0.30790441
0.92990196 0.024019608 0.30882353
0.26231618 0.12401961 0.31666667
0.34362745 0.12052696 0.31672028
0.43627451 0.12267157 0.31666667
0.52892157 0.12379749 0.3127451
0.61764706 0.1278799 0.31446078
0.71029412 0.12395833 0.3127451
0.80686275 0.13137255 0.31666667
0.89901961 0.12745098 0.31268382
0.95680147 0.12745098 0.3127451
0.26666667 0.24705882 0.31666667
0.34362745 0.24394914 0.31666667
0.43627451 0.23921569 0.31666667
0.52892157 0.23929228 0.31666667
0.62156863 0.24313725 0.31666667
0.71421569 0.24313725 0.31666667
0.81078431 0.25098039 0.31715686
0.89961703 0.24705882 0.31666667
0.97303922 0.24313725 0.3127451
0.27058824 0.37843137 0.3127451
0.33970588 0.3745098 0.3127451
0.43235294 0.36727941 0.3127451
0.525 0.3627451 0.3127451
0.62156863 0.3627451 0.3127451
0.71568627 0.3627451 0.31666667
0.81078431 0.36698836 0.31715686
0.90324755 0.37056526 0.31715686
0.98676471 0.36666667 0.31323529
0.26617647 0.50588235 0.30490196
0.33578431 0.50588235 0.30882353
0.43039216 0.5004902 0.3127451
0.52401961 0.49420956 0.30882353
0.61764706 0.48848039 0.30882353
0.71029412 0.49126838 0.31078431
0.81078431 0.49019608 0.31734069
0.89929534 0.49411765 0.31666667
0.97426471 0.49019608 0.3129902
0.2745098 0.62941176 0.31029412
0.34754902 0.63333333 0.31029412
0.43235294 0.62647059 0.30882353
0.525 0.62156863 0.3127451
0.61764706 0.61593137 0.30900735
0.71029412 0.61372549 0.30882353
0.80686275 0.61764706 0.31178002
0.89558824 0.6178079 0.3127451
0.96323529 0.61390931 0.30882353
0.27046569 0.74509804 0.30882353
0.34754902 0.74901961 0.30882353
0.43627451 0.7486826 0.30870098
0.525 0.74901961 0.30926777
0.61372549 0.74252451 0.31060049
0.70975797 0.74117647 0.30882353
0.80208333 0.74117647 0.30845588
0.89074755 0.74509804 0.31049326
0.96421569 0.74117647 0.31813725
0.28946078 0.86470588 0.30882353
0.35539216 0.86814491 0.30882353
0.44031863 0.86770833 0.30882353
0.52704504 0.86862745 0.3088848
0.61372549 0.86862745 0.30539216
0.70811121 0.86862745 0.30882353
0.80294118 0.86470588 0.31049326
0.8921492 0.86470588 0.3127451
0.96905637 0.86029412 0.31617647
0.27892157 0.97254902 0.30931373
0.35147059 0.96084559 0.3127451
0.44411765 0.95980392 0.31666667
0.53431373 0.975 0.31323529
0.62156863 0.97034314 0.3127451
0.71403186 0.97009804 0.30900735
0.80637255 0.97990196 0.31813725
0.89166667 0.9716299 0.30925245
0.95735294 0.9372549 0.3127451
0.29411765 0.066666667 0.37843137
0.34754902 0.034436275 0.37843137
0.43235294 0.039215686 0.37843137
0.525 0.047058824 0.3745098
0.61372549 0.050980392 0.3745098
0.71029412 0.050980392 0.37781863
0.80392157 0.047058824 0.37818627
0.89558824 0.03872549 0.3745098
0.96372549 0.024509804 0.3745098
0.27843137 0.12794118 0.37843137
0.34362745 0.12401961 0.37855392
0.43235294 0.12288603 0.37843137
0.525 0.12648591 0.37637868
0.61764706 0.12879902 0.37536765
0.71029412 0.13186275 0.37561275
0.80392157 0.13507966 0.37843137
0.89558824 0.13529412 0.3745098
0.96862745 0.12745098 0.3745098
0.2745098 0.24705882 0.3745098
0.34362745 0.24313725 0.3745098
0.43235294 0.23921569 0.3745098
0.525 0.23921569 0.37521446
0.61801471 0.23982843 0.37843137
0.71421569 0.24705882 0.37843137
0.80686275 0.25490196 0.37843137
0.89558824 0.25070466 0.37545956
0.96838235 0.24705882 0.3745098
0.2745098 0.37512255 0.37058824
0.34019608 0.37147672 0.37192096
0.42843137 0.36666667 0.3745098
0.525 0.35882353 0.3745098
0.61764706 0.35882353 0.3745098
0.71421569 0.36666667 0.3745098
0.81078431 0.37058824 0.3745098
0.8995098 0.36698836 0.37487745
0.97352941 0.36666667 0.3745098
0.27598039 0.50588235 0.36666667
0.34319853 0.50196078 0.37058824
0.42843137 0.49803922 0.3745098
0.525 0.4875 0.3745098
0.61764706 0.48235294 0.37058824
0.71029412 0.49019608 0.36813725
0.81078431 0.49019608 0.37058824
0.8995098 0.49019608 0.3745098
0.96323529 0.48627451 0.37058824
0.27843137 0.6254902 0.37058824
0.34658395 0.62642463 0.37058824
0.43627451 0.62573529 0.37058824
0.525 0.61819853 0.37058824
0.62156863 0.61372549 0.37058824
0.71029412 0.60980392 0.36666667
0.80686275 0.60980392 0.37058824
0.8995098 0.61372549 0.37340686
0.96678922 0.60980392 0.37058824
0.27058824 0.74117647 0.37058824
0.34362745 0.74574142 0.37058824
0.43627451 0.74901961 0.37058824
0.525 0.74546569 0.37058824
0.61764706 0.74154412 0.36985294
0.70903799 0.73979779 0.37058824
0.79957108 0.74117647 0.37058824
0.89586397 0.7372549 0.37058824
0.97941176 0.73823529 0.37058824
0.26752451 0.86078431 0.37058824
0.34889706 0.86433824 0.37058824
0.44019608 0.86862745 0.37058824
0.52892157 0.86862745 0.37058824
0.61678922 0.86470588 0.37058824
0.71029412 0.86470588 0.36666667
0.80294118 0.86078431 0.37058824
0.89558824 0.85761336 0.37058824
0.97647059 0.86078431 0.37193627
0.26470588 0.97843137 0.37058824
0.34754902 0.96384804 0.37058824
0.44019608 0.96862745 0.37058824
0.52892157 0.975 0.3745098
0.6254902 0.95735294 0.37058824
0.71421569 0.96286765 0.37058824
0.80686275 0.96960784 0.37058824
0.89558824 0.96213235 0.37365196
0.98333333 0.97843137 0.37058824
0.30196078 0.036764706 0.44019608
0.34362745 0.028737745 0.44019608
0.43235294 0.044240196 0.4372549
0.525 0.050980392 0.43235294
0.61764706 0.056862745 0.43504902
0.71029412 0.058823529 0.43627451
0.80294118 0.046078431 0.43627451
0.89558824 0.027144608 0.43627451
0.96764706 0.014215686 0.43235294
0.29019608 0.12745098 0.43627451
0.34175092 0.12352941 0.44019608
0.42869179 0.12648591 0.43627451
0.525 0.12352941 0.43235294
0.61764706 0.12745098 0.43627451
0.70784314 0.13314951 0.43627451
0.79901961 0.13151042 0.43627451
0.89166667 0.12745098 0.43627451
0.96617647 0.12598039 0.43627451
0.27990196 0.25098039 0.43235294
0.34276961 0.24362745 0.43627451
0.42613358 0.24065564 0.43627451
0.52107843 0.23921569 0.43627451
0.61372549 0.24093137 0.43627451
0.70784314 0.25006127 0.43627451
0.80232843 0.25098039 0.43627451
0.89460784 0.24964767 0.43627451
0.96862745 0.24705882 0.43627451
0.27843137 0.3745098 0.42843137
0.34362745 0.37058824 0.43235294
0.4245098 0.36372549 0.43589154
0.52107843 0.35882353 0.43627451
0.61372549 0.36320466 0.43627451
0.71029412 0.37150735 0.43290441
0.80386029 0.3745098 0.43290441
0.8995098 0.36666667 0.43462776
0.96862745 0.36366422 0.43235294
0.28235294 0.50465686 0.42843137
0.34362745 0.50196078 0.42971814
0.43088235 0.49411765 0.43235294
0.525 0.48627451 0.43308824
0.61764706 0.48946078 0.43235294
0.71029412 0.49365809 0.43235294
0.80686275 0.49803922 0.43235294
0.8995098 0.49191176 0.43235294
0.96470588 0.48627451 0.42916667
0.29019608 0.6254902 0.42843137
0.35147059 0.6254902 0.42990196
0.4373315 0.62254902 0.43105086
0.52892157 0.61856618 0.43235294
0.62156863 0.61764706 0.43235294
0.71029412 0.61764706 0.43122702
0.80294118 0.61764706 0.43235294
0.89895833 0.61709559 0.43235294
0.96323529 0.61372549 0.43235294
0.28443627 0.74117647 0.43235294
0.34946385 0.74117647 0.43235294
0.43627451 0.74509804 0.43051471
0.52892157 0.74509804 0.42843137
0.61764706 0.74509804 0.42843137
0.71029412 0.74117647 0.42843137
0.80137868 0.73992034 0.43235294
0.88961397 0.7372549 0.43235294
0.97254902 0.7372549 0.43235294
0.25704657 0.86470588 0.43106618
0.34362745 0.86078431 0.43235294
0.44019608 0.86470588 0.42990196
0.52892157 0.86832108 0.42990196
0.61804534 0.86078431 0.43235294
0.71060049 0.86078431 0.43235294
0.80557598 0.86060049 0.43235294
0.89558824 0.85900735 0.43235294
0.96991422 0.85686275 0.43235294
0.27107843 0.975 0.43235294
0.34754902 0.96911765 0.43235294
0.44019608 0.97071078 0.4317402
0.53376225 0.95925245 0.43235294
0.6254902 0.95294118 0.43627451
0.71813725 0.95349265 0.43572304
0.80870098 0.96397059 0.43235294
0.89558824 0.96470588 0.43235294
0.96617647 0.95441176 0.43627451
0.3 0.017647059 0.49803922
0.33970588 0.019117647 0.49754902
0.43235294 0.038235294 0.49509804
0.525 0.050245098 0.49019608
0.61764706 0.050980392 0.49411765
0.71029412 0.049019608 0.49803922
0.80490196 0.039215686 0.49803922
0.89558824 0.015441176 0.49411765
0.93921569 0.015686275 0.49803922
0.27303922 0.12745098 0.49436275
0.33970588 0.12352941 0.49803922
0.42843137 0.12745098 0.49785539
0.52107843 0.12833946 0.49411765
0.61372549 0.12781863 0.49411765
0.70655637 0.13186275 0.49411765
0.79920343 0.13094363 0.49411765
0.89166667 0.12352941 0.49411765
0.95073529 0.12745098 0.49411765
0.26960784 0.24362745 0.49411765
0.33970588 0.24313725 0.49411765
0.4245098 0.24754902 0.49411765
0.51715686 0.24705882 0.49411765
0.60980392 0.25 0.49411765
0.70245098 0.25410539 0.49411765
0.79901961 0.25098039 0.49411765
0.89203431 0.25098039 0.49411765
0.97598039 0.25098039 0.49411765
0.28235294 0.37058824 0.49019608
0.34411765 0.37058824 0.49019608
0.4245098 0.36770833 0.49411765
0.51715686 0.36470588 0.49411765
0.60980392 0.37095588 0.49411765
0.70245098 0.37843137 0.49411765
0.79901961 0.3745098 0.49411765
0.89558824 0.37058824 0.49289216
0.97647059 0.37058824 0.49093137
0.27843137 0.50196078 0.48627451
0.34019608 0.49803922 0.49019608
0.43235294 0.49411765 0.49313725
0.52107843 0.49019608 0.49411765
0.61372549 0.49460784 0.49166667
0.70637255 0.49840686 0.49313725
0.79901961 0.49803922 0.49093137
0.89558824 0.49387255 0.49019608
0.96960784 0.49019608 0.49019608
0.28382353 0.62279412 0.49019608
0.34754902 0.6254902 0.48823529
0.43627451 0.62156863 0.49019608
0.525 0.62156863 0.49019608
0.61764706 0.6254902 0.49019608
0.70637255 0.62156863 0.49019608
0.79901961 0.62156863 0.49019608
0.89886642 0.62156863 0.49019608
0.98431373 0.61764706 0.49411765
0.29558824 0.74117647 0.49019608
0.35759804 0.74246324 0.49019608
0.44019608 0.74509804 0.48676471
0.52573529 0.74509804 0.48627451
0.61764706 0.74509804 0.4872549
0.71029412 0.74117647 0.49227941
0.80294118 0.74117647 0.49019608
0.89577206 0.74117647 0.49154412
0.97941176 0.74117647 0.49411765
0.26617647 0.86470588 0.49436275
0.35098039 0.86470588 0.49019608
0.44019608 0.86862745 0.49019608
0.52892157 0.86813725 0.49019608
0.62156863 0.86078431 0.49154412
0.71421569 0.8614277 0.49411765
0.80686275 0.86470588 0.49411765
0.89558824 0.86228554 0.49411765
0.96838235 0.86470588 0.49411765
0.27647059 0.95294118 0.49215686
0.34387255 0.97377451 0.49362745
0.44019608 0.96715686 0.49019608
0.53676471 0.95563725 0.49411765
0.62941176 0.95 0.49803922
0.72009804 0.95686275 0.49803922
0.81078431 0.97303922 0.49411765
0.8995098 0.97426471 0.49632353
0.96862745 0.97647059 0.49803922
0.25637255 0.0093137255 0.55588235
0.33756127 0.0088235294 0.55196078
0.43088235 0.035784314 0.55588235
0.52107843 0.050980392 0.55588235
0.61372549 0.029901961 0.55588235
0.71176471 0.030453431 0.55588235
0.80404412 0.025980392 0.55588235
0.89148284 0.023529412 0.55588235
0.95441176 0.031372549 0.55588235
0.25245098 0.125 0.55588235
0.33970588 0.12352941 0.55588235
0.42843137 0.13137255 0.55588235
0.51715686 0.13155637 0.55588235
0.60980392 0.12383578 0.55726103
0.70655637 0.12745098 0.55588235
0.80294118 0.12745098 0.55588235
0.89166667 0.12745098 0.55588235
0.96439951 0.13137255 0.55588235
0.26458333 0.24705882 0.55588235
0.33916973 0.2462163 0.55588235
0.42677696 0.25490196 0.55588235
0.51715686 0.25029105 0.55588235
0.60980392 0.24705882 0.55980392
0.70637255 0.24836091 0.55833333
0.79901961 0.24705882 0.55588235
0.89558824 0.24705882 0.55196078
0.97647059 0.25098039 0.55588235
0.27303922 0.36666667 0.55196078
0.34393382 0.37058824 0.55343137
0.42843137 0.3745098 0.55588235
0.51323529 0.36836703 0.55196078
0.60615809 0.36789216 0.55588235
0.70245098 0.37303922 0.55588235
0.79509804 0.37022059 0.55196078
0.89166667 0.36666667 0.55196078
0.97107843 0.36966912 0.55196078
0.26911765 0.49803922 0.54803922
0.34255515 0.49803922 0.55196078
0.43235294 0.49534314 0.55588235
0.51789216 0.49411765 0.55223652
0.60980392 0.49473039 0.55196078
0.70245098 0.49534314 0.55196078
0.79509804 0.49754902 0.55018382
0.8877451 0.49019608 0.54803922
0.96789216 0.49019608 0.55196078
0.27058824 0.62003676 0.5495098
0.34265472 0.62511489 0.54803922
0.43333333 0.62179841 0.55196078
0.52107843 0.62156863 0.55196078
0.60980392 0.62156863 0.54803922
0.70189951 0.61860447 0.55196078
0.79362745 0.61709559 0.55196078
0.89166667 0.61764706 0.54803922
0.97254902 0.61764706 0.55196078
0.27843137 0.74117647 0.55196078
0.34754902 0.74278493 0.54808517
0.43627451 0.74901961 0.54788603
0.52199755 0.74509804 0.54803922
0.6122549 0.74387255 0.54803922
0.70245098 0.7372549 0.55196078
0.79509804 0.73517157 0.55588235
0.89162071 0.7372549 0.55588235
0.96495098 0.74080882 0.55588235
0.26636029 0.86470588 0.55588235
0.34362745 0.86078431 0.5521829
0.43627451 0.86470588 0.55196078
0.52451746 0.86587776 0.55245098
0.61700368 0.86029412 0.55245098
0.70667892 0.85508578 0.55588235
0.79932598 0.85686275 0.55646446
0.89166667 0.85686275 0.55980392
0.96862745 0.86078431 0.55980392
0.2754902 0.95588235 0.55196078
0.34362745 0.96501225 0.55324755
0.43627451 0.97046569 0.55588235
0.52892157 0.97401961 0.55980392
0.62156863 0.95294118 0.55980392
0.71421569 0.94901961 0.55980392
0.80686275 0.9557598 0.55980392
0.89773284 0.96078431 0.55980392
0.95539216 0.96470588 0.55980392
0.28921569 0.033333333 0.61764706
0.34362745 0.015686275 0.61764706
0.42843137 0.053921569 0.62156863
0.51715686 0.056372549 0.61875
0.61372549 0.02254902 0.61764706
0.71029412 0.021078431 0.61764706
0.80686275 0.012745098 0.61666667
0.89252451 0.015686275 0.61629902
0.97745098 0.02745098 0.61764706
0.27058824 0.12745098 0.61372549
0.33982843 0.12352941 0.61764706
0.4245098 0.12987132 0.62156863
0.52107843 0.13529412 0.62156863
0.61764706 0.12751225 0.61764706
0.71029412 0.12745098 0.61764706
0.79911152 0.12352941 0.61593137
0.89166667 0.12352941 0.61372549
0.97303922 0.12781863 0.61764706
0.26593137 0.25098039 0.61764706
0.33627451 0.25098039 0.61764706
0.42843137 0.25355392 0.61764706
0.52107843 0.24705882 0.62046569
0.61397059 0.24313725 0.62156863
0.70637255 0.24313725 0.61948529
0.79601716 0.24148284 0.61372549
0.8877451 0.24313725 0.61372549
0.96862745 0.24313725 0.61764706
0.2627451 0.37058824 0.61372549
0.34362745 0.3745098 0.62156863
0.43235294 0.37487745 0.62018995
0.51813725 0.36421569 0.61764706
0.60980392 0.3627451 0.61764706
0.7011489 0.3627451 0.61519608
0.79117647 0.3627451 0.61372549
0.88382353 0.3627451 0.61372549
0.95441176 0.3627451 0.61372549
0.25343137 0.49411765 0.61372549
0.34362745 0.49803922 0.61764706
0.43272059 0.49803922 0.62156863
0.52107843 0.49411765 0.61734069
0.60980392 0.48627451 0.6125
0.69852941 0.48627451 0.6096201
0.79117647 0.49019608 0.60943627
0.88756127 0.49019608 0.60980392
0.96078431 0.49019608 0.60980392
0.26482843 0.61764706 0.61372549
0.33970588 0.62130821 0.61372549
0.43235294 0.62156863 0.61372549
0.51715686 0.61689645 0.61072304
0.60588235 0.6127451 0.60980392
0.69644608 0.6127451 0.60980392
0.7872549 0.60980392 0.60980392
0.88382353 0.61239277 0.60980392
0.96188725 0.61372549 0.61372549
0.28651961 0.74117647 0.61764706
0.34362745 0.74117647 0.61372549
0.42916667 0.74117647 0.60980392
0.51862745 0.73890931 0.60588235
0.60588235 0.7372549 0.60980392
0.69852941 0.73324142 0.6138174
0.79117647 0.72941176 0.61709559
0.8877451 0.73333333 0.61663603
0.97352941 0.74117647 0.61764706
0.27414216 0.86470588 0.61764706
0.33970588 0.85686275 0.61764706
0.43235294 0.86007966 0.61571691
0.525 0.86207108 0.61421569
0.61372549 0.8526348 0.61764706
0.70294118 0.84901961 0.61813725
0.79558824 0.85294118 0.62071078
0.89171262 0.85686275 0.62144608
0.97941176 0.86470588 0.62144608
0.25490196 0.9754902 0.61764706
0.33970588 0.95208333 0.62120098
0.43627451 0.95122549 0.62156863
0.52892157 0.95588235 0.62156863
0.62156863 0.94656863 0.62156863
0.71421569 0.9432598 0.6254902
0.80612745 0.94901961 0.62377451
0.90257353 0.96911765 0.61764706
0.94901961 0.97745098 0.61764706
0.25196078 0.0088235294 0.675
0.34362745 0.012254902 0.675
0.42843137 0.038235294 0.6754902
0.51715686 0.062438725 0.67371324
0.61372549 0.044607843 0.67598039
0.71029412 0.022732843 0.6754902
0.80686275 0.019730392 0.66715686
0.89558824 0.020098039 0.66372549
0.96862745 0.035784314 0.6754902
0.27156863 0.13137255 0.67156863
0.34363511 0.1275046 0.6754902
0.42843137 0.13137255 0.67849265
0.52481618 0.13186275 0.675
0.62064951 0.13599877 0.67723652
0.71029412 0.12587316 0.6754902
0.80294118 0.12352941 0.67156863
0.89258578 0.12352941 0.6754902
0.96770833 0.12401961 0.67941176
0.25196078 0.25196078 0.6754902
0.33970588 0.25490196 0.6754902
0.43235294 0.25098039 0.6754902
0.525 0.24705882 0.6754902
0.61807598 0.24019608 0.67254902
0.70637255 0.24015012 0.67285539
0.79607843 0.23921569 0.6754902
0.89166667 0.24276961 0.67941176
0.97267157 0.23933824 0.68333333
0.27303922 0.3745098 0.67156863
0.3464231 0.37843137 0.67285539
0.43627451 0.3745098 0.6754902
0.525 0.3627451 0.67903646
0.61265319 0.35343137 0.6752451
0.69852941 0.35314032 0.67107843
0.79117647 0.35882353 0.67156863
0.8877451 0.36278339 0.6754902
0.96470588 0.36666667 0.6754902
0.28235294 0.49411765 0.67377451
0.35147059 0.49803922 0.67941176
0.43762255 0.49411765 0.67867647
0.525 0.48627451 0.6754902
0.60980392 0.47830882 0.67156863
0.69705882 0.47803309 0.66764706
0.79117647 0.48235294 0.66764706
0.88780637 0.49019608 0.67156863
0.96666667 0.49019608 0.67156863
0.29411765 0.62156863 0.6754902
0.34758732 0.61372549 0.6754902
0.43484988 0.61458333 0.6754902
0.52107843 0.60735294 0.67156863
0.60980392 0.60572917 0.67156863
0.69460784 0.60569087 0.67156863
0.7872549 0.60588235 0.66796875
0.88382353 0.60849418 0.67156863
0.96862745 0.61372549 0.6754902
0.29852941 0.74411765 0.67941176
0.33970588 0.74117647 0.67941176
0.42855392 0.7372549 0.67328431
0.52107843 0.73370098 0.67156863
0.60980392 0.73333333 0.6754902
0.69852941 0.72941176 0.6754902
0.7872549 0.7254902 0.6754902
0.88382353 0.72941176 0.675
0.96862745 0.7372549 0.67401961
0.28535539 0.86078431 0.67941176
0.34019608 0.85256587 0.68333333
0.43235294 0.85958946 0.68333333
0.525 0.86078431 0.67914369
0.61464461 0.84831495 0.68161765
0.70637255 0.85294118 0.67941176
0.79509804 0.84906556 0.67941176
0.8877451 0.84944853 0.6754902
0.97254902 0.85686275 0.67506127
0.25882353 0.96470588 0.68333333
0.33970588 0.94166667 0.68333333
0.43529412 0.92941176 0.68333333
0.52892157 0.93676471 0.68333333
0.62156863 0.9372549 0.68333333
0.71421569 0.95471814 0.68333333
0.80294118 0.9560049 0.68333333
0.89558824 0.96078431 0.6754902
0.95735294 0.96078431 0.6754902
0.24705882 0.0039215686 0.74117647
0.33970588 0.012254902 0.7254902
0.42843137 0.037254902 0.71078431
0.51715686 0.058823529 0.70196078
0.61372549 0.019607843 0.72941176
0.71029412 0.025 0.71078431
0.80686275 0.02745098 0.68235294
0.8995098 0.02745098 0.70245098
0.98823529 0.0078431373 0.73333333
0.30490196 0.13137255 0.71372549
0.34454657 0.12745098 0.72849265
0.43321078 0.13137255 0.7185049
0.52469363 0.12794118 0.71764706
0.61568627 0.12352941 0.72965686
0.70637255 0.12352941 0.72530637
0.80294118 0.12352941 0.70453431
0.89417892 0.12401961 0.71366422
0.96372549 0.12352941 0.725
0.26078431 0.25882353 0.6872549
0.34754902 0.25490196 0.70943627
0.43627451 0.24705882 0.71764706
0.525 0.24129902 0.70980392
0.61372549 0.23578431 0.70686275
0.6995098 0.23921569 0.71078431
0.79534314 0.23921569 0.71372549
0.89558824 0.23921569 0.72561275
0.98529412 0.24411765 0.74117647
0.2745098 0.37843137 0.70441176
0.34754902 0.3745098 0.70441176
0.44019608 0.36764706 0.7127451
0.525 0.35882353 0.71617647
0.6125 0.35098039 0.70441176
0.69852941 0.35098039 0.69803922
0.79117647 0.35588235 0.70404412
0.8877451 0.3627451 0.71764706
0.96862745 0.36666667 0.72941176
0.2745098 0.5 0.73529412
0.34754902 0.49803922 0.71813725
0.44117647 0.49019608 0.71372549
0.52107843 0.49093137 0.73406863
0.61176471 0.4745098 0.71666667
0.69852941 0.4745098 0.70710784
0.79117647 0.47843137 0.70833333
0.89166667 0.48627451 0.71764706
0.98235294 0.49411765 0.72941176
0.29558824 0.62156863 0.72009804
0.34932598 0.61764706 0.71617647
0.4372549 0.60980392 0.72058824
0.525 0.60680147 0.72702206
0.61176471 0.60196078 0.72230392
0.69552696 0.60196078 0.71519608
0.79117647 0.60588235 0.71764706
0.8877451 0.60980392 0.72156863
0.975 0.61372549 0.72156863
0.30490196 0.74509804 0.70686275
0.34362745 0.74117647 0.70980392
0.43235294 0.7372549 0.71764706
0.52254902 0.73333333 0.7254902
0.61372549 0.73578431 0.73382353
0.70245098 0.72941176 0.72610294
0.79117647 0.72941176 0.72156863
0.88382353 0.72941176 0.72107843
0.96470588 0.73333333 0.70588235
0.28186275 0.86470588 0.72156863
0.34362745 0.86078431 0.72156863
0.43627451 0.86470588 0.72977941
0.525 0.86078431 0.73088235
0.61813725 0.84852941 0.73333333
0.71029412 0.85686275 0.73333333
0.79816176 0.85294118 0.72585784
0.88731618 0.85245098 0.72199755
0.96862745 0.85686275 0.71813725
0.24705882 0.98823529 0.74117647
0.33970588 0.94607843 0.72598039
0.43627451 0.92941176 0.73235294
0.52892157 0.92941176 0.7372549
0.62156863 0.94117647 0.73333333
0.71421569 0.97009804 0.73872549
0.80294118 0.95490196 0.72843137
0.89558824 0.97107843 0.73284314
0.99215686 0.98823529 0.74117647
