site/assets/luts/sha256-881f1d7dafc1d93eb76a4278a3b5cd9a24f7e5967268a62b4fd027eebb938847.cube
# LUTr-Schema-Version: 2
# LUTr-ID: sha256-881f1d7dafc1d93eb76a4278a3b5cd9a24f7e5967268a62b4fd027eebb938847
# LUTr-Title: polaroid px-680 warm +
# LUTr-Collection: Natron HaldCLUT
# LUTr-Collection-ID: natron-haldclut-presets
# LUTr-Source: https://github.com/NatronGitHub/clut
# LUTr-Retrieved: 2026-07-27
# LUTr-Source-File: submissions/natron-haldclut-presets/instant_consumer/polaroid_px-680_warm_+.png
# LUTr-Source-Format: HALD-PNG
# LUTr-Source-SHA256: 881f1d7dafc1d93eb76a4278a3b5cd9a24f7e5967268a62b4fd027eebb938847
# LUTr-License: CC-BY-SA-4.0
# LUTr-License-URL: https://github.com/NatronGitHub/clut#license
# LUTr-License-Basis: repo-license-file
# LUTr-Transform-Class: film-emulation
# LUTr-Tags: creative, film, film-emulation, hald-clut, natron, png, warm, cube
# LUTr-Input-Color-Space: srgb
# LUTr-Input-Gamut: rec709
# LUTr-Input-Transfer: srgb
# LUTr-Output-Color-Space: srgb
# LUTr-Output-Gamut: rec709
# LUTr-Output-Transfer: srgb
# LUTr-Color-Space-Confidence: assumed-display-referred
# LUTr-Domain-Normalized: true
# LUTr-Shaper: none
# LUTr-Original-Grid: 64x64x64
# LUTr-Conversion-Grid: 25x25x25
# LUTr-Conversion-Interpolation: trilinear
# LUTr-Conversion-Method: HALD-PNG LUT image decoded at 16-bit and sampled to 25x25x25 3D CUBE
# LUTr-Conversion-Tool: LUTr scripts/convert-all-to-cube.mjs 2.0.0
# LUTr-Conversion-Date: 2026-07-27
# LUTr-Note: Preserve this metadata and the upstream license notices when redistributing.
TITLE "polaroid px-680 warm +"
LUT_3D_SIZE 25
DOMAIN_MIN 0 0 0
DOMAIN_MAX 1 1 1
0.31764706 0.23529412 0.1254902
0.31519608 0.23529412 0.1254902
0.31372549 0.23529412 0.1254902
0.31372549 0.23529412 0.1254902
0.31372549 0.23333333 0.12156863
0.31470588 0.23137255 0.12156863
0.33921569 0.23529412 0.1254902
0.36127451 0.24068627 0.12696078
0.37647059 0.23921569 0.1254902
0.39313725 0.23676471 0.11911765
0.42941176 0.23921569 0.11764706
0.4877451 0.24313725 0.11421569
0.54509804 0.24901961 0.11372549
0.60245098 0.25490196 0.10931373
0.65392157 0.25882353 0.10588235
0.70392157 0.26813725 0.10196078
0.74901961 0.28235294 0.098039216
0.79411765 0.29509804 0.098039216
0.83333333 0.31568627 0.10294118
0.86127451 0.34019608 0.11666667
0.88823529 0.36666667 0.12745098
0.91862745 0.39313725 0.1377451
0.9372549 0.41078431 0.14803922
0.9372549 0.41568627 0.15294118
0.94117647 0.41960784 0.15686275
0.31519608 0.24166667 0.1254902
0.31372549 0.24166667 0.1254902
0.31372549 0.24166667 0.1254902
0.31372549 0.23921569 0.1254902
0.31617647 0.23848039 0.12401961
0.3223652 0.23792892 0.12156863
0.34166667 0.24105392 0.1245098
0.36372549 0.24405637 0.1254902
0.38039216 0.24313725 0.12303922
0.3995098 0.24166667 0.12156863
0.43872549 0.24558824 0.11764706
0.49148284 0.246875 0.11421569
0.54705882 0.25098039 0.1125
0.60245098 0.25490196 0.10931373
0.6557598 0.25882353 0.10294118
0.70392157 0.26813725 0.10196078
0.74901961 0.28235294 0.098039216
0.79411765 0.30055147 0.098039216
0.83431373 0.32205882 0.1057598
0.86372549 0.34656863 0.11960784
0.89142157 0.37107843 0.12990196
0.91893382 0.39558824 0.13756127
0.9372549 0.41507353 0.14840686
0.94117647 0.42598039 0.15931373
0.94362745 0.43480392 0.16568627
0.31372549 0.24803922 0.1254902
0.31372549 0.24803922 0.1254902
0.31372549 0.24803922 0.1254902
0.31727941 0.24803922 0.1254902
0.32009804 0.24705882 0.1254902
0.32990196 0.24803922 0.12512255
0.34411765 0.24803922 0.1245098
0.36372549 0.24914216 0.1254902
0.38431373 0.24803922 0.12254902
0.4122549 0.24803922 0.12156863
0.45220588 0.25196078 0.11764706
0.5004902 0.2557598 0.11421569
0.55196078 0.25735294 0.11176471
0.60379902 0.25980392 0.10588235
0.65857843 0.25980392 0.10196078
0.70784314 0.27058824 0.098406863
0.74901961 0.29117647 0.10196078
0.79264706 0.31176471 0.10196078
0.83357843 0.33406863 0.10833333
0.86862745 0.36029412 0.12843137
0.89558824 0.38529412 0.14117647
0.91862745 0.40588235 0.14166667
0.93529412 0.42941176 0.15882353
0.94473039 0.45085784 0.18480392
0.95392157 0.46176471 0.18529412
0.31372549 0.25441176 0.1254902
0.31372549 0.25441176 0.1254902
0.31470588 0.25441176 0.1254902
0.32064951 0.25441176 0.1254902
0.3252451 0.25441176 0.1254902
0.33382353 0.25441176 0.1254902
0.34705882 0.25441176 0.12193627
0.36764706 0.25490196 0.1254902
0.38823529 0.25441176 0.1254902
0.42469363 0.25686275 0.12303922
0.46617647 0.25968137 0.11764706
0.51121324 0.26268382 0.11378676
0.55833333 0.26617647 0.10980392
0.6098652 0.26709559 0.10588235
0.66176471 0.27267157 0.10196078
0.70784314 0.28431373 0.10165441
0.74901961 0.30490196 0.10196078
0.79019608 0.32334559 0.10196078
0.83137255 0.34656863 0.1067402
0.86862745 0.37058824 0.12150735
0.89411765 0.39191176 0.13553922
0.91470588 0.41617647 0.14558824
0.9314951 0.44068627 0.1627451
0.94803922 0.46519608 0.18333333
0.96421569 0.48872549 0.1995098
0.30980392 0.2627451 0.1254902
0.3129902 0.2627451 0.1254902
0.31470588 0.26078431 0.1254902
0.32156863 0.26078431 0.12941176
0.32843137 0.26078431 0.12941176
0.3377451 0.26102941 0.1254902
0.34803922 0.2627451 0.12156863
0.36764706 0.26470588 0.12156863
0.39215686 0.2627451 0.12352941
0.43259804 0.26715686 0.12230392
0.47745098 0.27058824 0.11764706
0.52156863 0.27254902 0.11372549
0.56862745 0.27352941 0.10882353
0.61593137 0.27892157 0.10588235
0.6627451 0.29215686 0.10392157
0.70857843 0.30490196 0.10196078
0.75098039 0.32156863 0.10196078
0.79142157 0.3370098 0.099509804
0.83431373 0.35294118 0.098529412
0.86519608 0.37745098 0.11078431
0.88823529 0.40196078 0.12745098
0.91078431 0.4247549 0.14387255
0.93137255 0.44705882 0.15882353
0.94730392 0.47303922 0.18431373
0.95490196 0.48431373 0.19019608
0.30931373 0.26715686 0.1254902
0.30980392 0.27058824 0.1254902
0.31470588 0.27071078 0.12647059
0.32199755 0.27107843 0.12941176
0.33137255 0.27107843 0.12941176
0.34166667 0.27107843 0.1254902
0.34852941 0.27107843 0.12156863
0.36519608 0.27107843 0.12156863
0.4 0.275 0.12107843
0.44117647 0.28529412 0.11734069
0.48370098 0.2872549 0.11323529
0.53094363 0.2872549 0.109375
0.57867647 0.28382353 0.10588235
0.62205882 0.29607843 0.10588235
0.66703431 0.30980392 0.10588235
0.7122549 0.32401961 0.10588235
0.75294118 0.33823529 0.10196078
0.79411765 0.35245098 0.097732843
0.83517157 0.36666667 0.092892157
0.86176471 0.38731618 0.10490196
0.88602941 0.41053922 0.12181373
0.90729167 0.43284314 0.13817402
0.93137255 0.45343137 0.15196078
0.94479167 0.47205882 0.16911765
0.94509804 0.4745098 0.17205882
0.30588235 0.2745098 0.12254902
0.30980392 0.27634804 0.1254902
0.31764706 0.27843137 0.12573529
0.325 0.28394608 0.12941176
0.33137255 0.28431373 0.12794118
0.34166667 0.28394608 0.12512255
0.35196078 0.28063725 0.12156863
0.36519608 0.27953431 0.11764706
0.40392157 0.28823529 0.11470588
0.44803922 0.30061275 0.11188725
0.49019608 0.30784314 0.10661765
0.5377451 0.30784314 0.10294118
0.58529412 0.31666667 0.10196078
0.62977941 0.32303922 0.10196078
0.67352941 0.33333333 0.10196078
0.7189951 0.34460784 0.10196078
0.75686275 0.35882353 0.099019608
0.79227941 0.37193627 0.092279412
0.82818627 0.3879902 0.091176471
0.86127451 0.40784314 0.10882353
0.88431373 0.42941176 0.12843137
0.90686275 0.45 0.14166667
0.92818627 0.46764706 0.15416667
0.94117647 0.48578431 0.16911765
0.94509804 0.49117647 0.17843137
0.30196078 0.27990196 0.12156863
0.3088848 0.2877451 0.12401961
0.31764706 0.29705882 0.1254902
0.325 0.30441176 0.1254902
0.33137255 0.30563725 0.1254902
0.34166667 0.30490196 0.125
0.35196078 0.30134804 0.12156863
0.37058824 0.30300245 0.11856618
0.41176471 0.31421569 0.11617647
0.45477941 0.32058824 0.10827206
0.49656863 0.3254902 0.099877451
0.54411765 0.3372549 0.098039216
0.59093137 0.34828431 0.097303922
0.63872549 0.35784314 0.096568627
0.6817402 0.36421569 0.098039216
0.72113971 0.36666667 0.094178922
0.75294118 0.3754902 0.084803922
0.78927696 0.38970588 0.080882353
0.82254902 0.40882353 0.093995098
0.85343137 0.42941176 0.1127451
0.88161765 0.44730392 0.12867647
0.90294118 0.46127451 0.13627451
0.92352941 0.48480392 0.16090686
0.94019608 0.50392157 0.1745098
0.94901961 0.51813725 0.19362745
0.30196078 0.30980392 0.12156863
0.30833333 0.31372549 0.12401961
0.31764706 0.31862745 0.1254902
0.325 0.325 0.1254902
0.33137255 0.32745098 0.1254902
0.34166667 0.32941176 0.1254902
0.35882353 0.33235294 0.12156863
0.38088235 0.33872549 0.12156863
0.41568627 0.34509804 0.11764706
0.45686275 0.35147059 0.10980392
0.50294118 0.36176471 0.1
0.55441176 0.3754902 0.090196078
0.6 0.38627451 0.090196078
0.64509804 0.39264706 0.090196078
0.68333333 0.39607843 0.087254902
0.71813725 0.39607843 0.080882353
0.75294118 0.4 0.070588235
0.7877451 0.40882353 0.069117647
0.81862745 0.42941176 0.088235294
0.8495098 0.44607843 0.10539216
0.8745098 0.4627451 0.11960784
0.89901961 0.475 0.12941176
0.91960784 0.49215686 0.14215686
0.93627451 0.52058824 0.17696078
0.95686275 0.54509804 0.20784314
0.30196078 0.34313725 0.12156863
0.30833333 0.34460784 0.12156863
0.31580882 0.3495098 0.1254902
0.325 0.35245098 0.1254902
0.33137255 0.35245098 0.1254902
0.34215686 0.35294118 0.1254902
0.36458333 0.36323529 0.1254902
0.38970588 0.37205882 0.12156863
0.41960784 0.37990196 0.12009804
0.45839461 0.38627451 0.11464461
0.50968137 0.39938725 0.1
0.56470588 0.41323529 0.083026961
0.61029412 0.42426471 0.079901961
0.6463848 0.42726716 0.079901961
0.68235294 0.43272059 0.074142157
0.71813725 0.43333333 0.074816176
0.75294118 0.43333333 0.069117647
0.78529412 0.43633578 0.062193627
0.81580882 0.45 0.075490196
0.84558824 0.46715686 0.092463235
0.87132353 0.48137255 0.10931373
0.89509804 0.49558824 0.12205882
0.91568627 0.50882353 0.14105392
0.93143382 0.53572304 0.1745098
0.94264706 0.55294118 0.19754902
0.30098039 0.3754902 0.12058824
0.30441176 0.37794118 0.12120098
0.31372549 0.38039216 0.12156863
0.32107843 0.38333333 0.1245098
0.33137255 0.38333333 0.12156863
0.34080882 0.3872549 0.12144608
0.36102941 0.39411765 0.12058824
0.38811275 0.4004902 0.12156863
0.41960784 0.40980392 0.1245098
0.45772059 0.41715686 0.11519608
0.50882353 0.43063725 0.10171569
0.56127451 0.44460784 0.084313725
0.60686275 0.45490196 0.07745098
0.64411765 0.4622549 0.070465686
0.68235294 0.46862745 0.062009804
0.71752451 0.47058824 0.062254902
0.74901961 0.47058824 0.068627451
0.7817402 0.47058824 0.062745098
0.81372549 0.4745098 0.0625
0.84203431 0.4877451 0.075490196
0.86617647 0.50196078 0.10147059
0.88762255 0.51617647 0.11862745
0.91078431 0.52941176 0.14142157
0.92585784 0.55061275 0.17193627
0.93039216 0.55980392 0.18529412
0.29803922 0.40980392 0.11764706
0.30067402 0.41029412 0.11764706
0.31078431 0.41421569 0.1189951
0.32107843 0.41421569 0.12156863
0.32965686 0.41421569 0.11985294
0.33731618 0.41813725 0.11764706
0.35147059 0.42120098 0.11678922
0.38480392 0.43008578 0.11783088
0.41617647 0.4377451 0.11813725
0.44705882 0.44411765 0.11519608
0.49215686 0.45490196 0.10490196
0.54362745 0.46519608 0.09754902
0.58921569 0.47892157 0.087745098
0.63039216 0.48578431 0.077022059
0.675 0.49865196 0.060294118
0.71421569 0.50569853 0.055882353
0.74509804 0.50784314 0.062254902
0.7786152 0.50784314 0.065686275
0.81078431 0.51176471 0.062254902
0.83780637 0.51219363 0.069485294
0.85931373 0.52254902 0.094117647
0.88333333 0.53676471 0.11519608
0.90428922 0.54742647 0.13578431
0.9245098 0.57205882 0.17089461
0.93676471 0.59068627 0.19558824
0.29411765 0.44313725 0.11372549
0.29656863 0.44509804 0.11372549
0.30784314 0.44558824 0.11813725
0.32107843 0.44901961 0.12156863
0.32941176 0.45098039 0.12156863
0.3375 0.45098039 0.11764706
0.35441176 0.45441176 0.11960784
0.38480392 0.45955882 0.11960784
0.41568627 0.46470588 0.11764706
0.44411765 0.47107843 0.11127451
0.47745098 0.47941176 0.10539216
0.5252451 0.48970588 0.10392157
0.57352941 0.5 0.1
0.61960784 0.5122549 0.093627451
0.66470588 0.52401961 0.084803922
0.70441176 0.53553922 0.081617647
0.74117647 0.54705882 0.078431373
0.77598039 0.5502451 0.079656863
0.80784314 0.55196078 0.093137255
0.83014706 0.54901961 0.099264706
0.85294118 0.55392157 0.10980392
0.87573529 0.55906863 0.11789216
0.89803922 0.56617647 0.12696078
0.91862745 0.58676471 0.15955882
0.93529412 0.61176471 0.20392157
0.29803922 0.47598039 0.11764706
0.30067402 0.47647059 0.11764706
0.31078431 0.48088235 0.12156863
0.31764706 0.48425245 0.12199755
0.32745098 0.48823529 0.12377451
0.34264706 0.48823529 0.1254902
0.36311275 0.49080882 0.12598039
0.38872549 0.4973652 0.12990196
0.41568627 0.5 0.12598039
0.44411765 0.50343137 0.11960784
0.4745098 0.50833333 0.1182598
0.51568627 0.51519608 0.12248775
0.5625 0.52867647 0.11887255
0.60980392 0.53921569 0.11519608
0.65441176 0.55330882 0.11213235
0.69558824 0.56372549 0.10716912
0.73284314 0.57794118 0.099509804
0.77028186 0.59166667 0.093259804
0.79767157 0.59019608 0.10919118
0.82248775 0.59019608 0.12598039
0.84656863 0.59019608 0.13848039
0.87107843 0.59362745 0.14264706
0.89166667 0.5939951 0.14301471
0.90667892 0.60208333 0.16041667
0.91666667 0.62401961 0.20392157
0.30490196 0.51078431 0.12156863
0.30551471 0.51078431 0.12156863
0.31078431 0.51470588 0.1245098
0.32022059 0.52120098 0.1254902
0.33088235 0.52254902 0.12696078
0.34901961 0.52254902 0.12977941
0.36887255 0.5254902 0.13308824
0.39117647 0.53186275 0.13664216
0.41568627 0.53431373 0.13627451
0.44411765 0.53431373 0.12990196
0.4745098 0.53921569 0.12941176
0.51568627 0.54865196 0.13884804
0.55735294 0.55882353 0.14313725
0.60330882 0.57009804 0.14301471
0.64705882 0.58039216 0.13995098
0.68713235 0.59460784 0.13321078
0.72647059 0.60588235 0.12647059
0.76127451 0.61617647 0.12830882
0.79191176 0.6245098 0.13921569
0.81568627 0.6245098 0.1560049
0.84019608 0.62745098 0.16764706
0.86384804 0.62843137 0.17659314
0.88455882 0.63063725 0.18333333
0.89620098 0.63566176 0.19754902
0.9 0.64117647 0.20980392
0.30980392 0.54558824 0.1254902
0.30980392 0.54558824 0.1254902
0.31470588 0.54767157 0.12585784
0.32285539 0.55294118 0.12941176
0.33529412 0.55269608 0.13088235
0.3495098 0.55196078 0.13333333
0.36666667 0.55306373 0.13664216
0.39172794 0.55827206 0.13964461
0.41568627 0.56372549 0.14264706
0.44264706 0.56372549 0.13964461
0.4745098 0.57009804 0.13970588
0.51568627 0.58039216 0.15
0.55686275 0.59068627 0.15784314
0.59803922 0.60098039 0.16783088
0.63921569 0.61127451 0.16801471
0.67892157 0.62248775 0.16127451
0.71617647 0.63186275 0.16127451
0.75098039 0.64068627 0.16519608
0.78186275 0.65098039 0.17401961
0.81060049 0.65882353 0.18823529
0.83529412 0.66078431 0.20245098
0.85802696 0.66341912 0.2127451
0.875 0.66654412 0.22414216
0.89019608 0.6716299 0.23927696
0.89411765 0.675 0.24509804
0.31372549 0.58039216 0.12941176
0.31372549 0.58039216 0.12941176
0.31862745 0.58039216 0.12941176
0.32892157 0.58039216 0.13333333
0.33921569 0.58039216 0.1372549
0.3495098 0.57990196 0.1372549
0.36568627 0.57941176 0.1372549
0.39656863 0.58578431 0.14656863
0.41960784 0.59215686 0.15294118
0.44019608 0.59215686 0.14656863
0.47156863 0.59705882 0.15
0.51568627 0.61127451 0.16421569
0.55686275 0.62156863 0.17843137
0.59411765 0.63186275 0.18872549
0.63137255 0.64215686 0.19607843
0.66862745 0.65098039 0.19215686
0.70588235 0.65490196 0.19215686
0.73921569 0.66519608 0.19852941
0.77156863 0.67647059 0.20882353
0.80637255 0.68970588 0.22303922
0.83137255 0.69803922 0.2372549
0.85147059 0.69803922 0.24754902
0.86568627 0.70196078 0.26176471
0.88137255 0.70735294 0.27745098
0.89019608 0.70980392 0.28627451
0.32892157 0.61519608 0.14607843
0.32647059 0.61127451 0.14607843
0.3307598 0.61127451 0.14497549
0.34136029 0.61127451 0.1495098
0.35269608 0.61127451 0.15
0.3622549 0.61109069 0.15030637
0.37610294 0.61090686 0.1557598
0.40294118 0.61574755 0.16323529
0.42990196 0.61911765 0.16960784
0.44901961 0.62303922 0.16721814
0.47487745 0.62794118 0.1752451
0.51176471 0.63823529 0.18694853
0.55171569 0.64852941 0.19901961
0.58988971 0.65882353 0.2127451
0.62561275 0.66911765 0.21960784
0.66078431 0.67457108 0.22058824
0.69166667 0.67941176 0.21911765
0.72647059 0.68578431 0.22395833
0.75943627 0.69889706 0.23615196
0.79577206 0.71421569 0.25343137
0.82818627 0.72916667 0.27205882
0.84381127 0.73284314 0.28480392
0.85894608 0.73639706 0.29840686
0.875 0.74215686 0.31378676
0.88627451 0.74705882 0.32352941
0.35 0.64607843 0.17058824
0.35098039 0.64362745 0.17095588
0.35098039 0.64215686 0.16666667
0.35441176 0.64607843 0.16666667
0.36617647 0.64460784 0.16911765
0.38296569 0.64313725 0.17585784
0.4 0.64534314 0.18235294
0.41666667 0.64644608 0.1877451
0.44019608 0.65 0.19117647
0.46360294 0.65637255 0.20147059
0.48946078 0.66176471 0.20784314
0.51715686 0.66911765 0.21421569
0.54901961 0.675 0.22009804
0.58615196 0.68186275 0.22990196
0.62034314 0.69142157 0.2372549
0.65147059 0.69754902 0.24509804
0.68235294 0.70392157 0.24901961
0.7122549 0.71029412 0.25
0.74779412 0.72058824 0.26446078
0.78443627 0.73468137 0.28431373
0.81470588 0.74656863 0.30343137
0.83492647 0.75539216 0.32107843
0.85196078 0.76176471 0.33529412
0.86862745 0.77205882 0.3504902
0.88529412 0.78235294 0.36372549
0.36764706 0.67352941 0.19117647
0.36795343 0.67303922 0.19117647
0.37242647 0.67303922 0.19117647
0.37849265 0.67346814 0.19460784
0.3870098 0.67696078 0.19485294
0.4 0.67696078 0.19901961
0.41678922 0.67696078 0.20588235
0.43382353 0.68057598 0.21207108
0.45441176 0.68088235 0.22205882
0.475 0.68511029 0.22892157
0.5004902 0.69264706 0.23786765
0.52745098 0.69656863 0.24209559
0.55269608 0.70245098 0.24583333
0.58192402 0.70839461 0.2504902
0.61666667 0.71531863 0.26041667
0.64883578 0.721875 0.27058824
0.68186275 0.72794118 0.28039216
0.71305147 0.73449755 0.29019608
0.74031863 0.74117647 0.30110294
0.775 0.75147059 0.31911765
0.80441176 0.76568627 0.3375
0.825 0.77248775 0.35545343
0.84252451 0.78235294 0.37254902
0.85833333 0.79264706 0.38792892
0.87107843 0.79901961 0.39852941
0.38431373 0.70392157 0.21176471
0.39264706 0.70392157 0.21887255
0.40294118 0.70392157 0.22598039
0.41323529 0.70392157 0.23308824
0.41764706 0.70392157 0.23039216
0.42156863 0.70784314 0.2254902
0.42990196 0.70784314 0.22647059
0.45 0.70784314 0.2375
0.47058824 0.71176471 0.24705882
0.48848039 0.71421569 0.25539216
0.51078431 0.72009804 0.26372549
0.54166667 0.7252451 0.27205882
0.56862745 0.72941176 0.28039216
0.59534314 0.73578431 0.28872549
0.62254902 0.74215686 0.30196078
0.65490196 0.74852941 0.31593137
0.68823529 0.75686275 0.32745098
0.71985294 0.7620098 0.33651961
0.74411765 0.76568627 0.34215686
0.775 0.77598039 0.35637255
0.79901961 0.78627451 0.3745098
0.81813725 0.79264706 0.39068627
0.83235294 0.80147059 0.40490196
0.84656863 0.80857843 0.42058824
0.85686275 0.81372549 0.43529412
0.4254902 0.73480392 0.25735294
0.43186275 0.73480392 0.26127451
0.43823529 0.73480392 0.26875
0.44810049 0.73480392 0.27254902
0.45269608 0.73651961 0.26887255
0.45294118 0.73480392 0.26470588
0.4627451 0.7377451 0.26813725
0.47922794 0.73872549 0.2745098
0.49558824 0.73872549 0.28431373
0.5122549 0.74264706 0.29099265
0.53419118 0.74754902 0.30147059
0.56470588 0.75441176 0.31568627
0.59558824 0.76029412 0.32990196
0.62156863 0.76660539 0.34411765
0.64215686 0.77303922 0.35441176
0.66813725 0.77941176 0.36470588
0.69852941 0.78578431 0.37843137
0.72303922 0.78952206 0.38284314
0.74840686 0.79362745 0.3877451
0.77506127 0.8004902 0.39754902
0.79362745 0.80490196 0.41151961
0.80790441 0.81231618 0.42598039
0.82242647 0.81666667 0.43970588
0.8346201 0.8245098 0.45637255
0.84705882 0.82843137 0.47303922
0.47058824 0.76568627 0.30882353
0.47634804 0.76813725 0.31519608
0.48161765 0.76862745 0.31740196
0.48884804 0.76862745 0.32058824
0.48872549 0.76568627 0.31519608
0.48762255 0.75919118 0.30588235
0.50171569 0.76495098 0.31642157
0.51911765 0.76960784 0.32781863
0.53333333 0.76960784 0.33235294
0.55 0.77352941 0.34227941
0.57083333 0.78137255 0.35612745
0.59852941 0.78786765 0.36973039
0.625 0.79313725 0.38480392
0.64607843 0.79705882 0.39558824
0.66666667 0.80098039 0.40588235
0.68872549 0.80698529 0.41617647
0.71568627 0.8127451 0.42647059
0.73688725 0.81666667 0.43284314
0.75784314 0.82083333 0.43921569
0.77855392 0.82414216 0.44595588
0.79019608 0.8254902 0.45588235
0.80490196 0.82990196 0.47058824
0.82156863 0.8372549 0.49117647
0.83676471 0.84620098 0.51029412
0.84705882 0.84901961 0.5245098
0.51568627 0.79803922 0.36176471
0.52052696 0.8004902 0.36666667
0.52892157 0.80196078 0.37598039
0.53008578 0.8004902 0.37126225
0.52009804 0.78921569 0.35490196
0.52273284 0.78529412 0.3495098
0.54264706 0.79558824 0.36617647
0.56268382 0.80441176 0.38284314
0.5745098 0.80441176 0.38921569
0.59117647 0.80833333 0.39803922
0.61029412 0.81433824 0.41078431
0.63449755 0.8213848 0.42616422
0.65539216 0.82671569 0.4375
0.67420343 0.82794118 0.44705882
0.69117647 0.83088235 0.45588235
0.71023284 0.83670343 0.46672794
0.73235294 0.84215686 0.47647059
0.75202206 0.84362745 0.48431373
0.76776961 0.84754902 0.4939951
0.78480392 0.85128676 0.50116422
0.79558824 0.85147059 0.50882353
0.80851716 0.85177696 0.5192402
0.82254902 0.85784314 0.54056373
0.83676471 0.86715686 0.56323529
0.84705882 0.87352941 0.57598039
0.56078431 0.83137255 0.41568627
0.56078431 0.82745098 0.41568627
0.56568627 0.82843137 0.41960784
0.56127451 0.82401961 0.40882353
0.54901961 0.80980392 0.38823529
0.56176471 0.8122549 0.39656863
0.57843137 0.82254902 0.41372549
0.59901961 0.83137255 0.42892157
0.61176471 0.83137255 0.43529412
0.6245098 0.8377451 0.44558824
0.64509804 0.84509804 0.46078431
0.66617647 0.85147059 0.47843137
0.67647059 0.85098039 0.47843137
0.69460784 0.85098039 0.48676471
0.70784314 0.85392157 0.49313725
0.72843137 0.86029412 0.50490196
0.75294118 0.87058824 0.5254902
0.76323529 0.86666667 0.52794118
0.77745098 0.87156863 0.54313725
0.79166667 0.875 0.55343137
0.80196078 0.87254902 0.55686275
0.8122549 0.87058824 0.56078431
0.8254902 0.8745098 0.57745098
0.83676471 0.88382353 0.60294118
0.85098039 0.89019608 0.62745098
0.31764706 0.23921569 0.12794118
0.31764706 0.23829657 0.12794118
0.31764706 0.23529412 0.12732843
0.31764706 0.23529412 0.1254902
0.31617647 0.23529412 0.1254902
0.32077206 0.23529412 0.1254902
0.33884804 0.23529412 0.1254902
0.35980392 0.23976716 0.12941176
0.37647059 0.23921569 0.1254902
0.39558824 0.23529412 0.12401961
0.43872549 0.23566176 0.12401961
0.49381127 0.24050245 0.12401961
0.5502451 0.24583333 0.12009804
0.60490196 0.25116422 0.11617647
0.65784314 0.25784314 0.1122549
0.70692402 0.27113971 0.1122549
0.75147059 0.28480392 0.11078431
0.79748775 0.30147059 0.11078431
0.83431373 0.32303922 0.1189951
0.86390931 0.35 0.12745098
0.89338235 0.375 0.14019608
0.91862745 0.4 0.15471814
0.93627451 0.42401961 0.17218137
0.94417892 0.43627451 0.18082108
0.94509804 0.43872549 0.18382353
0.31764706 0.24166667 0.12941176
0.31764706 0.24166667 0.12828585
0.31764706 0.24166667 0.12794118
0.31764706 0.23940717 0.12794118
0.31764706 0.23921569 0.1254902
0.32469363 0.2377451 0.1254902
0.34166667 0.23921569 0.1254902
0.36372549 0.24256281 0.12883732
0.38039216 0.24166667 0.1254902
0.40230545 0.24166667 0.12401961
0.44509804 0.24226409 0.12401961
0.49705116 0.24607077 0.12401961
0.55147059 0.24978554 0.12009804
0.60508578 0.25215993 0.11617647
0.65899203 0.25784314 0.1122549
0.70841759 0.2722886 0.11191023
0.75294118 0.28872549 0.11078431
0.79803922 0.30688572 0.11078431
0.83431373 0.32728248 0.11660539
0.86519608 0.35129442 0.12745098
0.89338235 0.37668505 0.13897059
0.91862745 0.40214461 0.1542356
0.93627451 0.4251685 0.17046569
0.94454657 0.4411152 0.18382353
0.94754902 0.45147059 0.1911152
0.31764706 0.24803922 0.12941176
0.31764706 0.24803922 0.12941176
0.31764706 0.24803922 0.12821691
0.3182598 0.24705882 0.12794118
0.321875 0.24613971 0.12579657
0.33079044 0.24522059 0.1254902
0.34721201 0.24522059 0.1254902
0.36764706 0.24719669 0.12794118
0.38529412 0.24705882 0.1254902
0.4122549 0.24767157 0.1254902
0.45551471 0.25150123 0.12156863
0.50441176 0.254856 0.12009804
0.55551471 0.25588235 0.11838235
0.60919118 0.25980392 0.11568627
0.66176471 0.26191789 0.1122549
0.71107537 0.27696078 0.1122549
0.75539216 0.29693627 0.1122549
0.79803922 0.31568627 0.1122549
0.83431373 0.33765319 0.1189951
