site/assets/luts/sha256-9ea1784c312c13e45fcdb947bd67fff1236b50a2b8a9c23cf7bff00fa393c3c0.cube
# LUTr-Schema-Version: 2
# LUTr-ID: sha256-9ea1784c312c13e45fcdb947bd67fff1236b50a2b8a9c23cf7bff00fa393c3c0
# LUTr-Title: vibrant alien
# LUTr-Collection: Natron HaldCLUT
# LUTr-Collection-ID: natron-haldclut-presets
# LUTr-Source: https://github.com/NatronGitHub/clut
# LUTr-Retrieved: 2026-07-27
# LUTr-Source-File: submissions/natron-haldclut-presets/various/vibrant_alien.png
# LUTr-Source-Format: HALD-PNG
# LUTr-Source-SHA256: 9ea1784c312c13e45fcdb947bd67fff1236b50a2b8a9c23cf7bff00fa393c3c0
# LUTr-License: CC-BY-SA-4.0
# LUTr-License-URL: https://github.com/NatronGitHub/clut#license
# LUTr-License-Basis: repo-license-file
# LUTr-Transform-Class: film-emulation
# LUTr-Tags: creative, film, film-emulation, hald-clut, natron, png, cube
# LUTr-Input-Color-Space: srgb
# LUTr-Input-Gamut: rec709
# LUTr-Input-Transfer: srgb
# LUTr-Output-Color-Space: srgb
# LUTr-Output-Gamut: rec709
# LUTr-Output-Transfer: srgb
# LUTr-Color-Space-Confidence: assumed-display-referred
# LUTr-Domain-Normalized: true
# LUTr-Shaper: none
# LUTr-Original-Grid: 64x64x64
# LUTr-Conversion-Grid: 25x25x25
# LUTr-Conversion-Interpolation: trilinear
# LUTr-Conversion-Method: HALD-PNG LUT image decoded at 16-bit and sampled to 25x25x25 3D CUBE
# LUTr-Conversion-Tool: LUTr scripts/convert-all-to-cube.mjs 2.0.0
# LUTr-Conversion-Date: 2026-07-27
# LUTr-Note: Preserve this metadata and the upstream license notices when redistributing.
TITLE "vibrant alien"
LUT_3D_SIZE 9
DOMAIN_MIN 0 0 0
DOMAIN_MAX 1 1 1
0.0039215686 0 0.0039215686
0.07745098 0.0078431373 0.011764706
0.1754902 0 0.0039215686
0.31813725 0.0078431373 0.011764706
0.48039216 0.0078431373 0.0078431373
0.65833333 0.0039215686 0.0078431373
0.80686275 0.0078431373 0.0039215686
0.91470588 0.011764706 0.0039215686
0.98823529 0 0.0039215686
0.0083333333 0.046078431 0.0078431373
0.080882353 0.037254902 0.0039215686
0.17745098 0.039215686 0.0074754902
0.31795343 0.041176471 0.0083333333
0.47843137 0.041666667 0.0075980392
0.6622549 0.047365196 0.0075367647
0.80784314 0.046078431 0.0068627451
0.91568627 0.03817402 0.0039215686
0.97598039 0.046078431 0.0078431373
0.026470588 0.18921569 0.014705882
0.077083333 0.18823529 0.010906863
0.18039216 0.18921569 0.0125
0.31458333 0.19166667 0.0039215686
0.48627451 0.20686275 0.0039215686
0.66703431 0.19460784 0.0057598039
0.80882353 0.18897059 0.0078431373
0.91090686 0.20330882 0.0088235294
0.98039216 0.22156863 0.010784314
0.0024509804 0.50196078 0.0078431373
0.079595588 0.49068627 0.0039215686
0.1810049 0.49987745 0.0078431373
0.3127451 0.50343137 0.0078431373
0.48112745 0.49509804 0.0039215686
0.65833333 0.47941176 0.0087622549
0.81176471 0.49901961 0.0039215686
0.91470588 0.50882353 0.0078431373
0.98431373 0.5122549 0.015686275
0.0098039216 0.71764706 0.0058823529
0.081372549 0.71176471 0.0039215686
0.18039216 0.7122549 0.0098039216
0.31421569 0.70833333 0.0039215686
0.47843137 0.70588235 0.0039215686
0.65441176 0.70710784 0.0078431373
0.81176471 0.7004902 0.0049019608
0.91862745 0.70833333 0.01372549
0.98039216 0.71372549 0.011764706
0.014215686 0.80686275 0.011764706
0.080882353 0.79901961 0.009129902
0.17647059 0.80294118 0.016666667
0.31121324 0.80349265 0.0039215686
0.48112745 0.79754902 0.0078431373
0.65441176 0.80147059 0.015134804
0.80968137 0.79754902 0.0099264706
0.91519608 0.78204657 0.011764706
0.975 0.79754902 0.0078431373
0.0039215686 0.82352941 0.0078431373
0.084803922 0.82316176 0.010416667
0.17279412 0.8245098 0.0078431373
0.31458333 0.82745098 0.0078431373
0.47990196 0.82401961 0.0078431373
0.65477941 0.8245098 0.0078431373
0.81078431 0.82058824 0.015686275
0.91911765 0.81960784 0.0049019608
0.9627451 0.82058824 0.015686275
0.026960784 0.82352941 0.0078431373
0.084803922 0.82352941 0.0078431373
0.18431373 0.82352941 0.0088235294
0.31421569 0.82352941 0.0039215686
0.47230392 0.82352941 0.0058823529
0.65196078 0.82352941 0.011764706
0.81568627 0.82303922 0.011764706
0.91470588 0.81960784 0.0078431373
0.98088235 0.82352941 0.01127451
0.0039215686 0.81960784 0.0078431373
0.076960784 0.81960784 0.0073529412
0.18039216 0.81960784 0.012745098
0.31029412 0.81960784 0.0039215686
0.4745098 0.82352941 0.0039215686
0.65441176 0.82352941 0.0039215686
0.81176471 0.81960784 0.0088235294
0.92254902 0.81960784 0.0083333333
0.98431373 0.82352941 0.0078431373
0.015686275 0.0083333333 0.042647059
0.076531863 0.0034313725 0.03817402
0.18431373 0.0039215686 0.035294118
0.31813725 0.0078431373 0.038235294
0.48063725 0.0039215686 0.042156863
0.65441176 0.0021446078 0.040870098
0.81176471 0.0039215686 0.037377451
0.91519608 0.0039215686 0.033884804
0.96127451 0.0039215686 0.034803922
0.023529412 0.034803922 0.031311275
0.080882353 0.035232843 0.034313725
0.18399203 0.042156863 0.042156863
0.31390931 0.034252451 0.038235294
0.4801777 0.038235294 0.038449755
0.65457261 0.036910233 0.035891544
0.80784314 0.034420956 0.034635417
0.91557138 0.038235294 0.034857537
0.97745098 0.029901961 0.037316176
0.02745098 0.18823529 0.042156863
0.080882353 0.19627757 0.037377451
0.17809436 0.19145221 0.037254902
0.31799939 0.19852941 0.039583333
0.47843137 0.20410539 0.034497549
0.66276042 0.19852941 0.036412377
0.81528799 0.19469975 0.03872549
0.91862745 0.18685662 0.034911152
0.98382353 0.19607843 0.035171569
0.0070465686 0.50637255 0.031372549
0.077879902 0.50467984 0.034964767
0.1810049 0.49523591 0.030882353
0.31783854 0.49639246 0.034497549
0.47867647 0.49675245 0.03504902
0.6622549 0.50447304 0.034122243
0.81176471 0.48837316 0.034451593
0.91905637 0.51170343 0.034604779
0.98431373 0.496875 0.048223039
0.023529412 0.70980392 0.042156863
0.07745098 0.71568627 0.029136029
0.17745098 0.71764706 0.034313725
0.31691176 0.71544118 0.029319853
0.48602941 0.71078431 0.03247549
0.66289828 0.71348039 0.038419118
0.8161152 0.71145833 0.026960784
0.91862745 0.71418505 0.038235294
0.98431373 0.71789216 0.034313725
0.0042279412 0.80931373 0.031372549
0.080882353 0.8053079 0.038687194
0.17647059 0.8019761 0.042156863
0.31568627 0.80539216 0.031977635
0.48235294 0.80539216 0.026960784
0.65441176 0.80147059 0.030951287
0.80513174 0.79901961 0.034803922
0.91519608 0.79856771 0.034313725
0.96862745 0.80147059 0.020894608
0.0078431373 0.82352941 0.046078431
0.07745098 0.82352941 0.038128064
0.18529412 0.82352941 0.038235294
0.30997243 0.8245098 0.029595588
0.47818627 0.8245098 0.035784314
0.6558364 0.8245098 0.030882353
0.80827206 0.82352941 0.045067402
0.91384804 0.81960784 0.039476103
0.97659314 0.82095588 0.038235294
0.015686275 0.82352941 0.023529412
0.077389706 0.81966146 0.030882353
0.18311887 0.81960784 0.037484681
0.31470588 0.82352941 0.042156863
0.47840074 0.82352941 0.038020833
0.65588235 0.82352941 0.042156863
0.81568627 0.82696078 0.034681373
0.91040901 0.82352941 0.038779105
0.98523284 0.82352941 0.033884804
0.0078431373 0.82352941 0.046568627
0.073039216 0.81960784 0.034803922
0.18296569 0.81960784 0.046078431
0.31960784 0.81960784 0.038235294
0.47426471 0.81960784 0.034803922
0.65716912 0.81960784 0.034620098
0.80784314 0.81960784 0.034803922
0.91519608 0.82009804 0.042218137
0.98431373 0.82352941 0.042647059
0.011764706 0 0.13529412
0.07745098 0 0.12205882
0.18039216 0.0071078431 0.12941176
0.31127451 0.006372549 0.13333333
0.47843137 0.0034313725 0.13284314
0.65772059 0.010784314 0.1254902
0.80392157 0.0039215686 0.14093137
0.91127451 0.0042892157 0.13627451
0.98333333 0.0039215686 0.14117647
0.012377451 0.042647059 0.1372549
0.082230392 0.042218137 0.1372549
0.17647059 0.042248775 0.13627451
0.31029412 0.040594363 0.14264706
0.47843137 0.040502451 0.14442402
0.66395527 0.03739277 0.12438725
0.80738358 0.046078431 0.12653186
0.91830576 0.03705576 0.13676471
0.98345588 0.049019608 0.13235294
0.014705882 0.1872549 0.13921569
0.076960784 0.19080882 0.13247549
0.17647059 0.19779412 0.1254902
0.31421569 0.19509804 0.13207721
0.4745098 0.19105392 0.13394608
0.65952819 0.20431985 0.13026961
0.81495098 0.20667892 0.1286152
0.91914828 0.19754902 0.13235294
0.99289216 0.18651961 0.1254902
0.025980392 0.49362745 0.13578431
0.07700674 0.49949449 0.13333333
0.1765625 0.49718137 0.12757353
0.31029412 0.50255821 0.12287071
0.47843137 0.50453431 0.13137255
0.66297488 0.50003064 0.13051471
0.81495098 0.49911152 0.13106618
0.91907169 0.50471814 0.13671875
0.98823529 0.49411765 0.13823529
0.015686275 0.70833333 0.13186275
0.081372549 0.70392157 0.1372549
0.17647059 0.71115196 0.12990196
0.31593137 0.72034314 0.12775735
0.48137255 0.71764706 0.12990196
0.66243873 0.70153186 0.14368873
0.81887255 0.71666667 0.11960784
0.9151348 0.70539216 0.13627451
0.9754902 0.71715686 0.13333333
0.0078431373 0.79963235 0.13762255
0.080882353 0.79509804 0.12794118
0.17647059 0.80101103 0.13345588
0.31196385 0.80931373 0.12647059
0.48823529 0.80294118 0.13854167
0.65980392 0.79846814 0.13624387
0.81176471 0.80039828 0.13636642
0.91680453 0.80085784 0.13627451
0.98860294 0.80625 0.12806373
0.0078431373 0.82377451 0.13529412
0.080882353 0.81960784 0.13005515
0.1745098 0.82352941 0.13039216
0.32107843 0.82086397 0.14301471
0.48026961 0.82352941 0.13872549
0.65579044 0.82352941 0.12647059
0.80808824 0.8245098 0.12769608
0.91384804 0.82352941 0.13321078
0.9745098 0.81960784 0.13235294
0.026470588 0.82303922 0.13578431
0.077665441 0.81960784 0.13198529
0.18431373 0.82352941 0.13431373
0.30997243 0.82352941 0.1310049
0.48039216 0.82352941 0.13627451
0.65588235 0.82352941 0.13138787
0.8088848 0.82352941 0.13627451
0.91862745 0.82352941 0.13258272
0.97794118 0.82316176 0.12941176
0.021568627 0.81960784 0.11470588
0.079901961 0.81960784 0.13284314
0.18039216 0.82352941 0.13235294
0.31813725 0.82352941 0.13296569
0.47892157 0.82352941 0.13284314
0.65980392 0.82352941 0.14840686
0.81495098 0.82352941 0.14901961
0.91568627 0.82352941 0.14411765
0.98431373 0.81960784 0.12647059
0.019607843 0.0024509804 0.31764706
0.078737745 0.0078431373 0.31127451
0.18039216 0.011764706 0.31335784
0.31029412 0.0078431373 0.30643382
0.48480392 0.0078431373 0.31348039
0.65588235 0.0039215686 0.32058824
0.81176471 0.00098039216 0.31164216
0.91862745 0.0044117647 0.3127451
0.98431373 0.010294118 0.31911765
0.017463235 0.032169118 0.31127451
0.07745098 0.035255821 0.3071921
0.18039216 0.047058824 0.30735294
0.31029412 0.041973039 0.30742188
0.47916667 0.037408088 0.31623775
0.65452665 0.039330576 0.31697304
0.81309743 0.032000613 0.30343137
0.91911765 0.030660233 0.30735294
0.9745098 0.046078431 0.30490196
0.0057598039 0.19509804 0.30845588
0.079917279 0.19264706 0.31305147
0.18039216 0.19004289 0.30370711
0.31398591 0.20314032 0.30804228
0.48039216 0.19485294 0.30490196
0.65533088 0.20091912 0.30735294
0.81495098 0.19356618 0.30260417
0.92218137 0.19313725 0.30191483
0.98676471 0.2057598 0.30784314
0.010294118 0.48425245 0.31758578
0.078737745 0.49293811 0.31127451
0.17830882 0.49938725 0.30568321
0.31176471 0.50196078 0.31240043
0.48235294 0.49776348 0.31666667
0.66014859 0.49601716 0.3125383
0.8131587 0.49833027 0.30827206
0.91655178 0.49901961 0.30735294
0.98523284 0.49810049 0.30790441
0.0078431373 0.70514706 0.3120098
0.080882353 0.71700368 0.31577819
0.17254902 0.70606618 0.30753676
0.31421569 0.71253064 0.30536152
0.48345588 0.70980392 0.31458333
0.6622549 0.70952819 0.3127451
0.80882353 0.71666667 0.30863971
0.91127451 0.71813725 0.30848652
0.97254902 0.71642157 0.31127451
0.0063112745 0.80539216 0.30735294
0.079541973 0.80147059 0.31666667
0.17647059 0.80330882 0.31182598
0.31421569 0.80051317 0.31462163
0.48235294 0.79901961 0.31473652
0.658678 0.79881281 0.30490196
0.81568627 0.80539216 0.30343137
0.91470588 0.80147059 0.30251225
0.98284314 0.80147059 0.31035539
0.0035539216 0.8245098 0.30343137
0.08448223 0.82352941 0.31629902
0.18431373 0.82352941 0.31939338
0.31476716 0.82284007 0.31366422
0.47843137 0.82297794 0.30790441
0.65703125 0.82058824 0.30343137
0.80686275 0.82215074 0.30098039
0.91482843 0.82352941 0.30098039
0.98247549 0.81960784 0.30343137
0.019791667 0.81960784 0.30735294
0.080882353 0.82352941 0.30735294
0.18431373 0.82352941 0.30824142
0.31164982 0.82352941 0.31685815
0.47818627 0.82352941 0.30628064
0.65588235 0.82352941 0.2995098
0.81568627 0.82352941 0.30588235
0.91341912 0.82352941 0.30490196
0.97990196 0.82352941 0.3091299
0.0078431373 0.81960784 0.31127451
0.081066176 0.82352941 0.31127451
0.18431373 0.82352941 0.30453431
0.31176471 0.82352941 0.31035539
0.4745098 0.82352941 0.30490196
0.66372549 0.82352941 0.30245098
0.80882353 0.82352941 0.30551471
0.91341912 0.82352941 0.31145833
0.98676471 0.82352941 0.31666667
0.011764706 0.0078431373 0.54313725
0.071323529 0.0039215686 0.52769608
0.18186275 0.0058823529 0.52843137
0.31421569 0.0039215686 0.51691176
0.47745098 0.0078431373 0.52745098
0.64926471 0.0078431373 0.53259804
0.81323529 0.0019607843 0.52352941
0.91862745 0.0044117647 0.53137255
0.98431373 0.011764706 0.53137255
0.0098039216 0.031862745 0.53137255
0.077389706 0.040655637 0.53137255
0.17647059 0.039889706 0.52352941
0.3122549 0.043382353 0.5234375
0.47634804 0.043504902 0.53517157
0.65995711 0.037561275 0.53137255
0.80784314 0.03504902 0.52628676
0.91691176 0.039154412 0.52181373
0.98088235 0.035784314 0.52377451
0.006372549 0.2 0.52352941
0.080882353 0.19889706 0.52965686
0.18039216 0.19632353 0.52745098
0.31360294 0.18946078 0.52990196
0.47843137 0.20759804 0.52696078
0.65661765 0.20159314 0.52248775
0.81213235 0.18872549 0.52377451
0.91519608 0.18915441 0.53039216
0.98333333 0.18676471 0.53235294
0.019607843 0.50686275 0.52867647
0.080882353 0.48455882 0.52974877
0.17647059 0.47910539 0.52352941
0.31449142 0.50640319 0.52745098
0.48296569 0.49877451 0.53137255
0.65879289 0.49828431 0.52745098
0.81194853 0.50091912 0.52034314
0.91519608 0.49901961 0.52622549
0.98676471 0.49240196 0.52892157
0.0039215686 0.71764706 0.53137255
0.07745098 0.72328431 0.52879902
0.17352941 0.70612745 0.52279412
0.31421569 0.69411765 0.53002451
0.47843137 0.70441176 0.53137255
0.66176471 0.71090686 0.52316176
0.80931373 0.7120098 0.51568627
0.9122549 0.71654412 0.52352941
0.96764706 0.71372549 0.5245098
0.0071078431 0.80686275 0.52671569
0.081127451 0.8002451 0.52352941
0.17696078 0.80594363 0.52254902
0.31421569 0.80416667 0.53501838
0.48039216 0.80085784 0.53198529
0.65588235 0.80539216 0.51568627
0.81617647 0.80238971 0.51960784
0.91470588 0.80294118 0.51764706
0.98161765 0.8002451 0.52107843
0.011764706 0.81960784 0.51568627
0.084803922 0.81960784 0.52653186
0.18039216 0.82095588 0.52745098
0.31568627 0.82352941 0.52273284
0.47916667 0.82352941 0.5254902
0.6622549 0.82352941 0.52328431
0.80968137 0.81776961 0.51960784
0.91084559 0.82052696 0.51482843
0.97990196 0.82696078 0.52745098
0.0039215686 0.82352941 0.52328431
0.079166667 0.82720588 0.52674632
0.17892157 0.82003676 0.52720588
0.31176471 0.82175245 0.51969975
0.47254902 0.8252451 0.52745098
0.65441176 0.82352941 0.53201593
0.81176471 0.81960784 0.5317402
0.91473652 0.82282475 0.5203125
0.98480392 0.81960784 0.52352941
0.0078431373 0.81960784 0.52745098
0.077205882 0.82352941 0.5254902
0.17745098 0.81960784 0.52009804
0.31029412 0.81960784 0.51960784
0.46960784 0.82352941 0.52156863
0.65588235 0.82352941 0.52818627
0.81568627 0.81960784 0.54313725
0.91519608 0.81960784 0.5370098
0.98823529 0.81960784 0.52352941
0.025 0 0.73431373
0.084803922 0.0039215686 0.73823529
0.18039216 0.0039215686 0.72892157
0.31366422 0.0044730392 0.73247549
0.48235294 0.0039215686 0.7375
0.65680147 0.0039215686 0.73431373
0.81176471 0 0.72794118
0.92107843 0.0039215686 0.73823529
0.98823529 0.0039215686 0.74607843
0.0078431373 0.040686275 0.74215686
0.082498468 0.044301471 0.73823529
0.17735907 0.042769608 0.73625919
0.30948989 0.034313725 0.72647059
0.47843137 0.031617647 0.73627451
0.6622549 0.033892463 0.73976716
0.81176471 0.038235294 0.73125
0.91519608 0.035071998 0.73431373
0.97322304 0.040870098 0.73823529
0.015073529 0.21115196 0.73823529
0.080882353 0.18921569 0.73517157
0.18348652 0.2 0.73431373
0.3154565 0.19362745 0.73615196
0.48235294 0.19332108 0.74154412
0.65925245 0.19056373 0.73492647
0.80701593 0.19705882 0.73431373
0.92045037 0.19756434 0.73823529
0.99252451 0.1872549 0.73860294
0.023529412 0.51072304 0.74515931
0.080882353 0.4995098 0.73842678
0.18137255 0.50179228 0.73321078
0.3127451 0.50138634 0.73823529
0.47889093 0.49733456 0.73946078
0.65588235 0.50775888 0.73543964
0.81268382 0.50588235 0.7338848
0.91488971 0.50196078 0.73333333
0.98970588 0.49411765 0.73578431
0.017156863 0.7254902 0.73823529
0.081372549 0.71553309 0.73431373
0.17714461 0.71017157 0.7310049
0.3122549 0.70223652 0.73431373
0.47843137 0.70759804 0.73786765
0.66271446 0.71596201 0.72328431
0.81678922 0.71317402 0.72941176
0.91862745 0.71838235 0.72925858
0.98823529 0.71764706 0.72965686
0.010845588 0.79901961 0.73284314
0.080882353 0.80000766 0.73076746
0.18039216 0.79716605 0.73339461
0.31421569 0.80055147 0.73488817
0.48085172 0.79905025 0.73915441
0.65833333 0.80089614 0.73131127
0.81176471 0.79901961 0.72647059
0.91862745 0.80508578 0.73119638
0.97794118 0.79993873 0.73039216
0.0050245098 0.82414216 0.74276961
0.081372549 0.81960784 0.73874081
0.17325368 0.82426471 0.73970588
0.31813725 0.82352941 0.74154412
0.47843137 0.82352941 0.74430147
0.65833333 0.82100184 0.74174326
0.80784314 0.82352941 0.72928922
0.9143076 0.82352941 0.73112745
0.97254902 0.82745098 0.73872549
0.011764706 0.82352941 0.73645833
0.081211703 0.81960784 0.73578431
0.17794118 0.82218137 0.73782169
0.31029412 0.82303922 0.72493873
0.4745098 0.8252451 0.73195466
0.65618873 0.82352941 0.74675245
0.81176471 0.82352941 0.73431373
0.91519608 0.82352941 0.73186275
0.97794118 0.82352941 0.73039216
0.0078431373 0.81960784 0.72647059
0.080882353 0.81960784 0.73805147
0.1807598 0.81960784 0.73823529
0.31421569 0.81960784 0.73131127
0.48235294 0.82352941 0.74215686
0.6622549 0.82352941 0.74852941
0.82022059 0.81960784 0.74460784
0.91256127 0.81960784 0.73823529
0.97647059 0.81960784 0.74460784
0.037254902 0.0039215686 0.88529412
0.081372549 0.0039215686 0.89313725
0.17745098 0.00098039216 0.88995098
0.31421569 0.0072303922 0.88235294
0.47843137 0.0039215686 0.89705882
0.65772059 0.0039215686 0.88235294
0.81544118 0.0039215686 0.89019608
0.91862745 0.0039215686 0.89019608
0.9872549 0.0049019608 0.89215686
0.013112745 0.037867647 0.88137255
0.081326593 0.037683824 0.89056373
0.17288603 0.031740196 0.89237132
0.30637255 0.035661765 0.89652267
0.4745098 0.033333333 0.89313725
0.65980392 0.037745098 0.88186275
0.81470588 0.033547794 0.89810049
0.91487439 0.038878676 0.88921569
0.96715686 0.042279412 0.88627451
0.0088235294 0.18995098 0.88921569
0.081096814 0.18832721 0.89007353
0.17984069 0.19681373 0.88921569
0.31421569 0.20110294 0.8833027
0.48431373 0.19313725 0.87745098
0.65539216 0.18137255 0.88189338
0.80171569 0.18529412 0.8903799
0.91519608 0.19359681 0.89362745
0.98823529 0.19411765 0.87941176
0.011764706 0.49901961 0.89203431
0.081372549 0.49679841 0.89381127
0.1807598 0.48480392 0.88443627
0.31421569 0.48935355 0.88676471
0.47843137 0.5067402 0.88903186
0.65980392 0.49486826 0.88904718
0.81176471 0.49702819 0.89831495
0.91341912 0.50772059 0.8967065
0.99007353 0.50625 0.89558824
0.013235294 0.70882353 0.89019608
0.076960784 0.70876225 0.89215686
0.17683824 0.71102941 0.88235294
0.31237745 0.7122549 0.88235294
0.48235294 0.71078431 0.88186275
0.66133578 0.71170343 0.88155637
0.81433824 0.70980392 0.89166667
0.91881127 0.70851716 0.89883578
0.98431373 0.72352941 0.88921569
0.018995098 0.79754902 0.89080882
0.080882353 0.801394 0.88198529
0.17536765 0.80110294 0.89522059
0.31813725 0.79762561 0.88921569
0.48008578 0.80294118 0.88921569
0.66092218 0.80539216 0.89031863
0.81066176 0.8013174 0.89203431
0.91519608 0.80147059 0.88921569
0.98431373 0.80294118 0.88958333
0.011764706 0.82352941 0.89901961
0.084834559 0.81960784 0.88578431
0.18210784 0.82279412 0.88394608
0.31412377 0.82058824 0.89001225
0.48627451 0.82352941 0.88921569
0.65520833 0.82352941 0.88529412
0.81176471 0.82352941 0.88602941
0.91127451 0.82251838 0.89031863
0.97279412 0.82352941 0.88627451
0.0077205882 0.82352941 0.90294118
0.08135723 0.81960784 0.88589154
0.17720588 0.82352941 0.88982843
0.31813725 0.82352941 0.89001225
0.48431373 0.82352941 0.89099265
0.65870098 0.82513787 0.88529412
0.81176471 0.82153799 0.88661152
0.91470588 0.82342218 0.88589154
0.98382353 0.82352941 0.88137255
0.011764706 0.82352941 0.88529412
0.081372549 0.81960784 0.89313725
0.18357843 0.82058824 0.88946078
0.31813725 0.82352941 0.89019608
0.48431373 0.82352941 0.88382353
0.6622549 0.82205882 0.89129902
0.81176471 0.81960784 0.89411765
0.91519608 0.81960784 0.88590686
0.96078431 0.81960784 0.88333333
0.011764706 0.0039215686 0.96519608
0.081801471 0.0078431373 0.96911765
0.18137255 0.0078431373 0.96262255
0.31029412 0.0078431373 0.96568627
0.48063725 0.0078431373 0.96176471
0.66011029 0.0037377451 0.96697304
0.81176471 0.0044117647 0.96519608
0.91911765 0.0069240196 0.96568627
0.98431373 0.0073529412 0.96176471
0.0078431373 0.030330882 0.96960784
0.081372549 0.043022365 0.96960018
0.18002451 0.034053309 0.96568627
0.31421569 0.037477022 0.96550245
0.47843137 0.037745098 0.96348039
0.65878523 0.034129902 0.96278339
0.81165748 0.030882353 0.97647059
0.91127451 0.034742647 0.96906403
0.98431373 0.041727941 0.96519608
0.0056372549 0.20085784 0.96911765
0.080882353 0.19759498 0.97303922
0.17818627 0.1942402 0.96936275
0.31439951 0.19598652 0.96605392
0.48627451 0.19699755 0.96519608
0.65833333 0.19598652 0.96127451
0.81470588 0.18244485 0.96960784
0.91960784 0.19520527 0.96568627
0.98026961 0.20919118 0.96568627
0.012254902 0.48921569 0.96176471
0.076960784 0.4995098 0.9595818
0.17316176 0.49159007 0.96127451
0.31428462 0.49392616 0.96960784
0.47809436 0.5013174 0.96495098
0.66372549 0.49031097 0.96310509
0.81568627 0.4990962 0.96524203
0.91519608 0.49838388 0.96203278
0.98823529 0.49460784 0.96783088
0.0022058824 0.71936275 0.96911765
0.073529412 0.72352941 0.96568627
0.17647059 0.70747549 0.95741422
0.31421569 0.71568627 0.96283701
0.48541667 0.70784314 0.96127451
0.66372549 0.71593137 0.96176471
0.81568627 0.70998775 0.96519608
0.91691176 0.7083027 0.96348039
0.98627451 0.71568627 0.97132353
0.031372549 0.79362745 0.95784314
0.077611826 0.80016085 0.96942402
0.17633272 0.79901961 0.96568627
0.31949295 0.79117647 0.96145833
0.48520221 0.79754902 0.96127451
0.66372549 0.79810049 0.96366422
0.81176471 0.80257353 0.96519608
0.91546415 0.79754902 0.96364124
0.97401961 0.79754902 0.96568627
0.015196078 0.82352941 0.96176471
0.081372549 0.82352941 0.96519608
0.18039216 0.82352941 0.96139706
0.31591605 0.82352941 0.964231
0.48627451 0.82352941 0.96519608
0.66533395 0.82352941 0.96911765
0.81176471 0.81960784 0.96556373
0.91551777 0.82352941 0.96176471
0.97316176 0.82352941 0.9682598
0.011764706 0.82352941 0.96219363
0.081311275 0.82352941 0.96519608
0.17745098 0.82352941 0.96176471
0.31809896 0.82352941 0.96552543
0.47821691 0.82352941 0.97717525
0.66617647 0.81991422 0.97085631
0.81176471 0.81977635 0.9682598
0.91911765 0.82352941 0.97304687
0.98823529 0.82352941 0.97303922
0.0044117647 0.81960784 0.97254902
0.077879902 0.81960784 0.96519608
0.17745098 0.82352941 0.95735294
0.31421569 0.82352941 0.96519608
0.48627451 0.82352941 0.97303922
0.65980392 0.82352941 0.97303922
0.81176471 0.82352941 0.97340686
0.91519608 0.82352941 0.96519608
0.98088235 0.82352941 0.96911765
0.011764706 0.011764706 0.99607843
0.084803922 0.0078431373 0.99607843
0.18039216 0.0039215686 0.99215686
0.31421569 0.0014705882 0.99607843
0.48627451 0.0039215686 0.99607843
0.66764706 0.0014705882 0.98823529
0.81862745 0.0049019608 0.99901961
0.91519608 0.0078431373 0.99215686
0.98823529 0 0.99215686
0.015196078 0.033823529 0.99264706
0.080882353 0.037254902 0.99607843
0.18137255 0.042647059 0.99215686
0.31421569 0.045772059 0.98792892
0.48235294 0.039460784 0.99215686
0.66372549 0.032536765 0.98872549
0.81262255 0.042279412 0.99607843
0.91127451 0.037806373 0.99215686
0.98431373 0.033823529 0.99215686
0.0039215686 0.2 0.99215686
0.076960784 0.19056373 0.99558824
0.18014706 0.19215686 0.99607843
0.31531863 0.20110294 0.99607843
0.48480392 0.19558824 0.99509804
0.65588235 0.18921569 0.98786765
0.81568627 0.19705882 0.98455882
0.91911765 0.19865196 0.98823529
0.98039216 0.20392157 0.99313725
0.022058824 0.50294118 0.99607843
0.076960784 0.49264706 0.98694853
0.17647059 0.5064951 0.99571078
0.31905637 0.48927696 0.98878676
0.48088235 0.51176471 0.98823529
0.66709559 0.48964461 0.98676471
0.81666667 0.50784314 0.98431373
0.91911765 0.50343137 0.99215686
0.96862745 0.48088235 0.99215686
0.0098039216 0.70784314 0.99607843
0.080882353 0.70588235 0.99607843
0.17647059 0.70980392 0.99215686
0.3122549 0.71764706 0.98431373
0.48627451 0.70588235 0.99117647
0.66372549 0.71446078 0.98357843
0.8122549 0.71568627 0.99019608
0.91127451 0.70784314 0.98406863
0.98235294 0.70980392 0.99607843
0.015686275 0.79754902 0.99215686
0.080882353 0.79901961 0.99607843
0.17745098 0.80294118 0.98884804
0.31421569 0.79117647 0.98431373
0.48431373 0.79754902 0.98823529
0.65680147 0.80147059 0.98823529
0.81384804 0.79620098 0.98970588
0.91488971 0.79754902 0.98431373
0.99068627 0.81176471 1
0.0078431373 0.8245098 0.98431373
0.080882353 0.82745098 0.99595588
0.18039216 0.8245098 0.99534314
0.31421569 0.82352941 0.99607843
0.48235294 0.82352941 0.99215686
0.6622549 0.81960784 0.98823529
0.81176471 0.81985294 0.99583333
0.91519608 0.82352941 0.98823529
0.98431373 0.82352941 0.99607843
0.01127451 0.81960784 0.99607843
0.081372549 0.82352941 0.99215686
0.18051471 0.82352941 0.98566176
0.31207108 0.81960784 0.99607843
0.48627451 0.82352941 0.99607843
0.66011029 0.82352941 0.99607843
0.81556373 0.82058824 0.99607843
0.91862745 0.82745098 0.99258578
0.98431373 0.82352941 1
0.011764706 0.81960784 0.99607843
0.080882353 0.82352941 0.98823529
0.18137255 0.82352941 0.98823529
0.30784314 0.81960784 0.99215686
0.48627451 0.82352941 0.99411765
0.6622549 0.82352941 0.99852941
0.81176471 0.82352941 0.99313725
0.91862745 0.82352941 0.9995098
0.99215686 0.82352941 1
