site/assets/luts/sha256-934877b7e436022220435d7b0ac6009d270750d7254ca0ebf6996a05105d880d.cube
# LUTr-Schema-Version: 2
# LUTr-ID: sha256-934877b7e436022220435d7b0ac6009d270750d7254ca0ebf6996a05105d880d
# LUTr-Title: ilford hps 800
# LUTr-Collection: Natron HaldCLUT
# LUTr-Collection-ID: natron-haldclut-presets
# LUTr-Source: https://github.com/NatronGitHub/clut
# LUTr-Retrieved: 2026-07-27
# LUTr-Source-File: submissions/natron-haldclut-presets/bw/ilford_hps_800.png
# LUTr-Source-Format: HALD-PNG
# LUTr-Source-SHA256: 934877b7e436022220435d7b0ac6009d270750d7254ca0ebf6996a05105d880d
# LUTr-License: CC-BY-SA-4.0
# LUTr-License-URL: https://github.com/NatronGitHub/clut#license
# LUTr-License-Basis: repo-license-file
# LUTr-Transform-Class: film-emulation
# LUTr-Tags: creative, film, film-emulation, hald-clut, natron, png, cube
# LUTr-Input-Color-Space: srgb
# LUTr-Input-Gamut: rec709
# LUTr-Input-Transfer: srgb
# LUTr-Output-Color-Space: srgb
# LUTr-Output-Gamut: rec709
# LUTr-Output-Transfer: srgb
# LUTr-Color-Space-Confidence: assumed-display-referred
# LUTr-Domain-Normalized: true
# LUTr-Shaper: none
# LUTr-Original-Grid: 64x64x64
# LUTr-Conversion-Grid: 25x25x25
# LUTr-Conversion-Interpolation: trilinear
# LUTr-Conversion-Method: HALD-PNG LUT image decoded at 16-bit and sampled to 25x25x25 3D CUBE
# LUTr-Conversion-Tool: LUTr scripts/convert-all-to-cube.mjs 2.0.0
# LUTr-Conversion-Date: 2026-07-27
# LUTr-Note: Preserve this metadata and the upstream license notices when redistributing.
TITLE "ilford hps 800"
LUT_3D_SIZE 9
DOMAIN_MIN 0 0 0
DOMAIN_MAX 1 1 1
0.011764706 0.011764706 0.011764706
0.015686275 0.015686275 0.015686275
0.020588235 0.020588235 0.020588235
0.048039216 0.048039216 0.048039216
0.090196078 0.090196078 0.090196078
0.10637255 0.10637255 0.10637255
0.19215686 0.19215686 0.19215686
0.29558824 0.29558824 0.29558824
0.43529412 0.43529412 0.43529412
0.019607843 0.019607843 0.019607843
0.042218137 0.042218137 0.042218137
0.053431373 0.053431373 0.053431373
0.090379902 0.090379902 0.090379902
0.13431373 0.13431373 0.13431373
0.18529412 0.18529412 0.18529412
0.25943627 0.25943627 0.25943627
0.35343137 0.35343137 0.35343137
0.4622549 0.4622549 0.4622549
0.099019608 0.099019608 0.099019608
0.092156863 0.092156863 0.092156863
0.10588235 0.10588235 0.10588235
0.14411765 0.14411765 0.14411765
0.19803922 0.19803922 0.19803922
0.24840686 0.24840686 0.24840686
0.32254902 0.32254902 0.32254902
0.42303922 0.42303922 0.42303922
0.51568627 0.51568627 0.51568627
0.17598039 0.17598039 0.17598039
0.16599265 0.16599265 0.16599265
0.18002451 0.18002451 0.18002451
0.2254902 0.2254902 0.2254902
0.26691176 0.26691176 0.26691176
0.30441176 0.30441176 0.30441176
0.37401961 0.37401961 0.37401961
0.47058824 0.47058824 0.47058824
0.55539216 0.55539216 0.55539216
0.27254902 0.27254902 0.27254902
0.26862745 0.26862745 0.26862745
0.27401961 0.27401961 0.27401961
0.30637255 0.30637255 0.30637255
0.34803922 0.34803922 0.34803922
0.39436275 0.39436275 0.39436275
0.43921569 0.43921569 0.43921569
0.51151961 0.51151961 0.51151961
0.59607843 0.59607843 0.59607843
0.37843137 0.37843137 0.37843137
0.37843137 0.37843137 0.37843137
0.39019608 0.39019608 0.39019608
0.42009804 0.42009804 0.42009804
0.45882353 0.45882353 0.45882353
0.49454657 0.49454657 0.49454657
0.53578431 0.53578431 0.53578431
0.59019608 0.59019608 0.59019608
0.65784314 0.65784314 0.65784314
0.49803922 0.49803922 0.49803922
0.49803922 0.49803922 0.49803922
0.51666667 0.51666667 0.51666667
0.53970588 0.53970588 0.53970588
0.56813725 0.56813725 0.56813725
0.59362745 0.59362745 0.59362745
0.63137255 0.63137255 0.63137255
0.6745098 0.6745098 0.6745098
0.72058824 0.72058824 0.72058824
0.63382353 0.63382353 0.63382353
0.62990196 0.62990196 0.62990196
0.64411765 0.64411765 0.64411765
0.67107843 0.67107843 0.67107843
0.68823529 0.68823529 0.68823529
0.70520833 0.70520833 0.70520833
0.73578431 0.73578431 0.73578431
0.76758578 0.76758578 0.76758578
0.80539216 0.80539216 0.80539216
0.77647059 0.77647059 0.77647059
0.75343137 0.75343137 0.75343137
0.76764706 0.76764706 0.76764706
0.78823529 0.78823529 0.78823529
0.78823529 0.78823529 0.78823529
0.81323529 0.81323529 0.81323529
0.83529412 0.83529412 0.83529412
0.85931373 0.85931373 0.85931373
0.89803922 0.89803922 0.89803922
0.026960784 0.026960784 0.026960784
0.030392157 0.030392157 0.030392157
0.045220588 0.045220588 0.045220588
0.081678922 0.081678922 0.081678922
0.12426471 0.12426471 0.12426471
0.17598039 0.17598039 0.17598039
0.2567402 0.2567402 0.2567402
0.36133578 0.36133578 0.36133578
0.46617647 0.46617647 0.46617647
0.060845588 0.060845588 0.060845588
0.062193627 0.062193627 0.062193627
0.08426777 0.08426777 0.08426777
0.12126225 0.12126225 0.12126225
0.1671875 0.1671875 0.1671875
0.22077206 0.22077206 0.22077206
0.29042586 0.29042586 0.29042586
0.38872549 0.38872549 0.38872549
0.48529412 0.48529412 0.48529412
0.11911765 0.11911765 0.11911765
0.12303922 0.12303922 0.12303922
0.14166667 0.14166667 0.14166667
0.17588848 0.17588848 0.17588848
0.22371324 0.22371324 0.22371324
0.27892157 0.27892157 0.27892157
0.34877451 0.34877451 0.34877451
0.43431373 0.43431373 0.43431373
0.52316176 0.52316176 0.52316176
0.19509804 0.19509804 0.19509804
0.19509804 0.19509804 0.19509804
0.2136489 0.2136489 0.2136489
0.24430147 0.24430147 0.24430147
0.28480392 0.28480392 0.28480392
0.33646599 0.33646599 0.33646599
0.39943321 0.39943321 0.39943321
0.48447457 0.48447457 0.48447457
0.56305147 0.56305147 0.56305147
0.27647059 0.27647059 0.27647059
0.28161765 0.28161765 0.28161765
0.29834559 0.29834559 0.29834559
0.32401961 0.32401961 0.32401961
0.35833333 0.35833333 0.35833333
0.41087623 0.41087623 0.41087623
0.46813725 0.46813725 0.46813725
0.54515931 0.54515931 0.54515931
0.61323529 0.61323529 0.61323529
0.38970588 0.38970588 0.38970588
0.39689798 0.39689798 0.39689798
0.40723039 0.40723039 0.40723039
0.43382353 0.43382353 0.43382353
0.46648284 0.46648284 0.46648284
0.50735294 0.50735294 0.50735294
0.55134804 0.55134804 0.55134804
0.6127451 0.6127451 0.6127451
0.67303922 0.67303922 0.67303922
0.51323529 0.51323529 0.51323529
0.5183364 0.5183364 0.5183364
0.525 0.525 0.525
0.54620098 0.54620098 0.54620098
0.57702206 0.57702206 0.57702206
0.60404412 0.60404412 0.60404412
0.64656863 0.64656863 0.64656863
0.69362745 0.69362745 0.69362745
0.73970588 0.73970588 0.73970588
0.64901961 0.64901961 0.64901961
0.64853707 0.64853707 0.64853707
0.65718444 0.65718444 0.65718444
0.675 0.675 0.675
0.69365809 0.69365809 0.69365809
0.70839461 0.70839461 0.70839461
0.73622855 0.73622855 0.73622855
0.78186275 0.78186275 0.78186275
0.82101716 0.82101716 0.82101716
0.77303922 0.77303922 0.77303922
0.75686275 0.75686275 0.75686275
0.77892157 0.77892157 0.77892157
0.78235294 0.78235294 0.78235294
0.79583333 0.79583333 0.79583333
0.81323529 0.81323529 0.81323529
0.83235294 0.83235294 0.83235294
0.86366422 0.86366422 0.86366422
0.91029412 0.91029412 0.91029412
0.057843137 0.057843137 0.057843137
0.053921569 0.053921569 0.053921569
0.076470588 0.076470588 0.076470588
0.097671569 0.097671569 0.097671569
0.16862745 0.16862745 0.16862745
0.24411765 0.24411765 0.24411765
0.31544118 0.31544118 0.31544118
0.40882353 0.40882353 0.40882353
0.49313725 0.49313725 0.49313725
0.099142157 0.099142157 0.099142157
0.10304841 0.10304841 0.10304841
0.12941176 0.12941176 0.12941176
0.15735294 0.15735294 0.15735294
0.20153186 0.20153186 0.20153186
0.26139706 0.26139706 0.26139706
0.34623162 0.34623162 0.34623162
0.43405331 0.43405331 0.43405331
0.50833333 0.50833333 0.50833333
0.15784314 0.15784314 0.15784314
0.16424632 0.16424632 0.16424632
0.18823529 0.18823529 0.18823529
0.22095588 0.22095588 0.22095588
0.25294118 0.25294118 0.25294118
0.31764706 0.31764706 0.31764706
0.38633578 0.38633578 0.38633578
0.4622549 0.4622549 0.4622549
0.53995098 0.53995098 0.53995098
0.22708333 0.22708333 0.22708333
0.23370098 0.23370098 0.23370098
0.24935662 0.24935662 0.24935662
0.2873315 0.2873315 0.2873315
0.32622549 0.32622549 0.32622549
0.37941176 0.37941176 0.37941176
0.44420956 0.44420956 0.44420956
0.5149663 0.5149663 0.5149663
0.57941176 0.57941176 0.57941176
0.31372549 0.31372549 0.31372549
0.32573529 0.32573529 0.32573529
0.34693627 0.34693627 0.34693627
0.37015931 0.37015931 0.37015931
0.40122549 0.40122549 0.40122549
0.44834559 0.44834559 0.44834559
0.50735294 0.50735294 0.50735294
0.58039216 0.58039216 0.58039216
0.64068627 0.64068627 0.64068627
0.42058824 0.42058824 0.42058824
0.43783701 0.43783701 0.43783701
0.45171569 0.45171569 0.45171569
0.46986826 0.46986826 0.46986826
0.49558824 0.49558824 0.49558824
0.53117341 0.53117341 0.53117341
0.58066789 0.58066789 0.58066789
0.64938725 0.64938725 0.64938725
0.70686275 0.70686275 0.70686275
0.54313725 0.54313725 0.54313725
0.55554534 0.55554534 0.55554534
0.56348039 0.56348039 0.56348039
0.57539828 0.57539828 0.57539828
0.60098039 0.60098039 0.60098039
0.63088235 0.63088235 0.63088235
0.66348039 0.66348039 0.66348039
0.7252451 0.7252451 0.7252451
0.76642157 0.76642157 0.76642157
0.67071078 0.67071078 0.67071078
0.67510723 0.67510723 0.67510723
0.6872549 0.6872549 0.6872549
0.69754902 0.69754902 0.69754902
0.70667892 0.70667892 0.70667892
0.73578431 0.73578431 0.73578431
0.76161152 0.76161152 0.76161152
0.79825368 0.79825368 0.79825368
0.84056373 0.84056373 0.84056373
0.79411765 0.79411765 0.79411765
0.78578431 0.78578431 0.78578431
0.79779412 0.79779412 0.79779412
0.79607843 0.79607843 0.79607843
0.81960784 0.81960784 0.81960784
0.83823529 0.83823529 0.83823529
0.8502451 0.8502451 0.8502451
0.875 0.875 0.875
0.89901961 0.89901961 0.89901961
0.090196078 0.090196078 0.090196078
0.098713235 0.098713235 0.098713235
0.11666667 0.11666667 0.11666667
0.16421569 0.16421569 0.16421569
0.22769608 0.22769608 0.22769608
0.27359069 0.27359069 0.27359069
0.34656863 0.34656863 0.34656863
0.43921569 0.43921569 0.43921569
0.53578431 0.53578431 0.53578431
0.13872549 0.13872549 0.13872549
0.15418964 0.15418964 0.15418964
0.17892157 0.17892157 0.17892157
0.21421569 0.21421569 0.21421569
0.25882353 0.25882353 0.25882353
0.31060049 0.31060049 0.31060049
0.38137255 0.38137255 0.38137255
0.46835938 0.46835938 0.46835938
0.54969363 0.54969363 0.54969363
0.20441176 0.20441176 0.20441176
0.21813725 0.21813725 0.21813725
0.24509804 0.24509804 0.24509804
0.27990196 0.27990196 0.27990196
0.31470588 0.31470588 0.31470588
0.36311275 0.36311275 0.36311275
0.42907475 0.42907475 0.42907475
0.50254289 0.50254289 0.50254289
0.57585784 0.57585784 0.57585784
0.275 0.275 0.275
0.28627451 0.28627451 0.28627451
0.31470588 0.31470588 0.31470588
0.34224112 0.34224112 0.34224112
0.38039216 0.38039216 0.38039216
0.42577359 0.42577359 0.42577359
0.48664216 0.48664216 0.48664216
0.55588235 0.55588235 0.55588235
0.62604167 0.62604167 0.62604167
0.36960784 0.36960784 0.36960784
0.38308824 0.38308824 0.38308824
0.40245098 0.40245098 0.40245098
0.42346814 0.42346814 0.42346814
0.45367647 0.45367647 0.45367647
0.49757966 0.49757966 0.49757966
0.55343137 0.55343137 0.55343137
0.61911765 0.61911765 0.61911765
0.67696078 0.67696078 0.67696078
0.47205882 0.47205882 0.47205882
0.48430607 0.48430607 0.48430607
0.50130208 0.50130208 0.50130208
0.51764706 0.51764706 0.51764706
0.54215686 0.54215686 0.54215686
0.57583487 0.57583487 0.57583487
0.62395833 0.62395833 0.62395833
0.68780637 0.68780637 0.68780637
0.74172794 0.74172794 0.74172794
0.58860294 0.58860294 0.58860294
0.5979473 0.5979473 0.5979473
0.60775123 0.60775123 0.60775123
0.61712623 0.61712623 0.61712623
0.63480392 0.63480392 0.63480392
0.66568627 0.66568627 0.66568627
0.69984681 0.69984681 0.69984681
0.75433517 0.75433517 0.75433517
0.79203431 0.79203431 0.79203431
0.71292892 0.71292892 0.71292892
0.71421569 0.71421569 0.71421569
0.72598039 0.72598039 0.72598039
0.7254902 0.7254902 0.7254902
0.73186275 0.73186275 0.73186275
0.75821844 0.75821844 0.75821844
0.78529412 0.78529412 0.78529412
0.81574755 0.81574755 0.81574755
0.85459559 0.85459559 0.85459559
0.81960784 0.81960784 0.81960784
0.81176471 0.81176471 0.81176471
0.81813725 0.81813725 0.81813725
0.81329657 0.81329657 0.81329657
0.82279412 0.82279412 0.82279412
0.82352941 0.82352941 0.82352941
0.86617647 0.86617647 0.86617647
0.89068627 0.89068627 0.89068627
0.92401961 0.92401961 0.92401961
0.11372549 0.11372549 0.11372549
0.15808824 0.15808824 0.15808824
0.18823529 0.18823529 0.18823529
0.22843137 0.22843137 0.22843137
0.29411765 0.29411765 0.29411765
0.34264706 0.34264706 0.34264706
0.40441176 0.40441176 0.40441176
0.48406863 0.48406863 0.48406863
0.58627451 0.58627451 0.58627451
0.19264706 0.19264706 0.19264706
0.21571691 0.21571691 0.21571691
0.24509804 0.24509804 0.24509804
0.27598039 0.27598039 0.27598039
0.32267157 0.32267157 0.32267157
0.37107843 0.37107843 0.37107843
0.43370098 0.43370098 0.43370098
0.51813725 0.51813725 0.51813725
0.59411765 0.59411765 0.59411765
0.2745098 0.2745098 0.2745098
0.28927696 0.28927696 0.28927696
0.31115196 0.31115196 0.31115196
0.34166667 0.34166667 0.34166667
0.37867647 0.37867647 0.37867647
0.42058824 0.42058824 0.42058824
0.47867647 0.47867647 0.47867647
0.5533701 0.5533701 0.5533701
0.62352941 0.62352941 0.62352941
0.35318627 0.35318627 0.35318627
0.36185662 0.36185662 0.36185662
0.38069853 0.38069853 0.38069853
0.40735294 0.40735294 0.40735294
0.44178922 0.44178922 0.44178922
0.48235294 0.48235294 0.48235294
0.54240196 0.54240196 0.54240196
0.60474877 0.60474877 0.60474877
0.66715686 0.66715686 0.66715686
0.4372549 0.4372549 0.4372549
0.45073529 0.45073529 0.45073529
0.46544118 0.46544118 0.46544118
0.48284314 0.48284314 0.48284314
0.51176471 0.51176471 0.51176471
0.5504902 0.5504902 0.5504902
0.59387255 0.59387255 0.59387255
0.64718137 0.64718137 0.64718137
0.69705882 0.69705882 0.69705882
0.53308824 0.53308824 0.53308824
0.54053309 0.54053309 0.54053309
0.55735294 0.55735294 0.55735294
0.5754902 0.5754902 0.5754902
0.59460784 0.59460784 0.59460784
0.62821691 0.62821691 0.62821691
0.6745098 0.6745098 0.6745098
0.72729779 0.72729779 0.72729779
0.76568627 0.76568627 0.76568627
0.62843137 0.62843137 0.62843137
0.63584559 0.63584559 0.63584559
0.65294118 0.65294118 0.65294118
0.66887255 0.66887255 0.66887255
0.68651961 0.68651961 0.68651961
0.71176471 0.71176471 0.71176471
0.75012255 0.75012255 0.75012255
0.78890931 0.78890931 0.78890931
0.81960784 0.81960784 0.81960784
0.74093137 0.74093137 0.74093137
0.74417892 0.74417892 0.74417892
0.7526348 0.7526348 0.7526348
0.76436887 0.76436887 0.76436887
0.77990196 0.77990196 0.77990196
0.79436275 0.79436275 0.79436275
0.82401961 0.82401961 0.82401961
0.85098039 0.85098039 0.85098039
0.88529412 0.88529412 0.88529412
0.8372549 0.8372549 0.8372549
0.83333333 0.83333333 0.83333333
0.84117647 0.84117647 0.84117647
0.85490196 0.85490196 0.85490196
0.85882353 0.85882353 0.85882353
0.87205882 0.87205882 0.87205882
0.89607843 0.89607843 0.89607843
0.9120098 0.9120098 0.9120098
0.94117647 0.94117647 0.94117647
0.21617647 0.21617647 0.21617647
0.24558824 0.24558824 0.24558824
0.27009804 0.27009804 0.27009804
0.30098039 0.30098039 0.30098039
0.35661765 0.35661765 0.35661765
0.40496324 0.40496324 0.40496324
0.47977941 0.47977941 0.47977941
0.55471814 0.55471814 0.55471814
0.63039216 0.63039216 0.63039216
0.29215686 0.29215686 0.29215686
0.3036152 0.3036152 0.3036152
0.32107843 0.32107843 0.32107843
0.34705882 0.34705882 0.34705882
0.3995098 0.3995098 0.3995098
0.44529718 0.44529718 0.44529718
0.50245098 0.50245098 0.50245098
0.57630974 0.57630974 0.57630974
0.63676471 0.63676471 0.63676471
0.36115196 0.36115196 0.36115196
0.37089461 0.37089461 0.37089461
0.38943015 0.38943015 0.38943015
0.4127451 0.4127451 0.4127451
0.45073529 0.45073529 0.45073529
0.49365809 0.49365809 0.49365809
0.54592525 0.54592525 0.54592525
0.60324755 0.60324755 0.60324755
0.65931373 0.65931373 0.65931373
0.43529412 0.43529412 0.43529412
0.44382659 0.44382659 0.44382659
0.45969669 0.45969669 0.45969669
0.47996324 0.47996324 0.47996324
0.51176471 0.51176471 0.51176471
0.54803922 0.54803922 0.54803922
0.59636949 0.59636949 0.59636949
0.65104167 0.65104167 0.65104167
0.70104167 0.70104167 0.70104167
0.51544118 0.51544118 0.51544118
0.52239583 0.52239583 0.52239583
0.53743873 0.53743873 0.53743873
0.55196078 0.55196078 0.55196078
0.58014706 0.58014706 0.58014706
0.61541054 0.61541054 0.61541054
0.65490196 0.65490196 0.65490196
0.70588235 0.70588235 0.70588235
0.7504902 0.7504902 0.7504902
0.59466912 0.59466912 0.59466912
0.60331648 0.60331648 0.60331648
0.62267157 0.62267157 0.62267157
0.63298866 0.63298866 0.63298866
0.65398284 0.65398284 0.65398284
0.68670343 0.68670343 0.68670343
0.72340686 0.72340686 0.72340686
0.76488205 0.76488205 0.76488205
0.79901961 0.79901961 0.79901961
0.67977941 0.67977941 0.67977941
0.68788297 0.68788297 0.68788297
0.703125 0.703125 0.703125
0.71421569 0.71421569 0.71421569
0.73210784 0.73210784 0.73210784
0.75738358 0.75738358 0.75738358
0.78627451 0.78627451 0.78627451
0.81979167 0.81979167 0.81979167
0.8504902 0.8504902 0.8504902
0.76942402 0.76942402 0.76942402
0.77910539 0.77910539 0.77910539
0.7865962 0.7865962 0.7865962
0.79761795 0.79761795 0.79761795
0.82098652 0.82098652 0.82098652
0.83137255 0.83137255 0.83137255
0.8584712 0.8584712 0.8584712
0.88134957 0.88134957 0.88134957
0.90655637 0.90655637 0.90655637
0.86029412 0.86029412 0.86029412
0.86421569 0.86421569 0.86421569
0.86421569 0.86421569 0.86421569
0.85919118 0.85919118 0.85919118
0.8877451 0.8877451 0.8877451
0.89411765 0.89411765 0.89411765
0.90980392 0.90980392 0.90980392
0.91942402 0.91942402 0.91942402
0.9372549 0.9372549 0.9372549
0.3254902 0.3254902 0.3254902
0.33970588 0.33970588 0.33970588
0.37058824 0.37058824 0.37058824
0.4060049 0.4060049 0.4060049
0.45196078 0.45196078 0.45196078
0.48186275 0.48186275 0.48186275
0.54117647 0.54117647 0.54117647
0.61519608 0.61519608 0.61519608
0.6754902 0.6754902 0.6754902
0.37843137 0.37843137 0.37843137
0.39330576 0.39330576 0.39330576
0.41473652 0.41473652 0.41473652
0.44036458 0.44036458 0.44036458
0.48541667 0.48541667 0.48541667
0.52144608 0.52144608 0.52144608
0.56786152 0.56786152 0.56786152
0.64166667 0.64166667 0.64166667
0.68811275 0.68811275 0.68811275
0.44730392 0.44730392 0.44730392
0.45968137 0.45968137 0.45968137
0.4786152 0.4786152 0.4786152
0.50539216 0.50539216 0.50539216
0.53541667 0.53541667 0.53541667
0.57181373 0.57181373 0.57181373
0.61507353 0.61507353 0.61507353
0.6685049 0.6685049 0.6685049
0.70686275 0.70686275 0.70686275
0.51764706 0.51764706 0.51764706
0.52915135 0.52915135 0.52915135
0.54693627 0.54693627 0.54693627
0.56862745 0.56862745 0.56862745
0.59381127 0.59381127 0.59381127
0.62287071 0.62287071 0.62287071
0.66338848 0.66338848 0.66338848
0.7136489 0.7136489 0.7136489
0.74914216 0.74914216 0.74914216
0.58872549 0.58872549 0.58872549
0.59767157 0.59767157 0.59767157
0.61409314 0.61409314 0.61409314
0.63131127 0.63131127 0.63131127
0.6502451 0.6502451 0.6502451
0.67794118 0.67794118 0.67794118
0.70882353 0.70882353 0.70882353
0.75257353 0.75257353 0.75257353
0.7877451 0.7877451 0.7877451
0.66519608 0.66519608 0.66519608
0.67550551 0.67550551 0.67550551
0.6872549 0.6872549 0.6872549
0.69463848 0.69463848 0.69463848
0.7127451 0.7127451 0.7127451
0.74278493 0.74278493 0.74278493
0.7745098 0.7745098 0.7745098
0.80448836 0.80448836 0.80448836
0.83590686 0.83590686 0.83590686
0.74926471 0.74926471 0.74926471
0.75456495 0.75456495 0.75456495
0.75784314 0.75784314 0.75784314
0.76403186 0.76403186 0.76403186
0.78443627 0.78443627 0.78443627
0.80931373 0.80931373 0.80931373
0.83529412 0.83529412 0.83529412
0.85897672 0.85897672 0.85897672
0.88039216 0.88039216 0.88039216
0.82254902 0.82254902 0.82254902
0.83071385 0.83071385 0.83071385
0.83431373 0.83431373 0.83431373
0.84015012 0.84015012 0.84015012
0.85557598 0.85557598 0.85557598
0.87063419 0.87063419 0.87063419
0.88918505 0.88918505 0.88918505
0.9073989 0.9073989 0.9073989
0.92340686 0.92340686 0.92340686
0.89215686 0.89215686 0.89215686
0.89901961 0.89901961 0.89901961
0.90686275 0.90686275 0.90686275
0.9057598 0.9057598 0.9057598
0.91470588 0.91470588 0.91470588
0.91507353 0.91507353 0.91507353
0.92647059 0.92647059 0.92647059
0.93480392 0.93480392 0.93480392
0.94117647 0.94117647 0.94117647
0.44460784 0.44460784 0.44460784
0.44852941 0.44852941 0.44852941
0.47806373 0.47806373 0.47806373
0.51764706 0.51764706 0.51764706
0.54509804 0.54509804 0.54509804
0.57598039 0.57598039 0.57598039
0.61127451 0.61127451 0.61127451
0.68480392 0.68480392 0.68480392
0.71029412 0.71029412 0.71029412
0.49068627 0.49068627 0.49068627
0.49815411 0.49815411 0.49815411
0.5134038 0.5134038 0.5134038
0.5411152 0.5411152 0.5411152
0.57156863 0.57156863 0.57156863
0.60588235 0.60588235 0.60588235
0.64214154 0.64214154 0.64214154
0.70686275 0.70686275 0.70686275
0.72935049 0.72935049 0.72935049
0.54460784 0.54460784 0.54460784
0.55626532 0.55626532 0.55626532
0.57634804 0.57634804 0.57634804
0.5995098 0.5995098 0.5995098
0.61697304 0.61697304 0.61697304
0.64820772 0.64820772 0.64820772
0.68673407 0.68673407 0.68673407
0.73382353 0.73382353 0.73382353
0.76776961 0.76776961 0.76776961
0.60637255 0.60637255 0.60637255
0.61534161 0.61534161 0.61534161
0.63374694 0.63374694 0.63374694
0.65412071 0.65412071 0.65412071
0.66700368 0.66700368 0.66700368
0.69754902 0.69754902 0.69754902
0.73645833 0.73645833 0.73645833
0.77095588 0.77095588 0.77095588
0.80343137 0.80343137 0.80343137
0.67598039 0.67598039 0.67598039
0.67990196 0.67990196 0.67990196
0.69295343 0.69295343 0.69295343
0.70949755 0.70949755 0.70949755
0.72463235 0.72463235 0.72463235
0.7479473 0.7479473 0.7479473
0.77647059 0.77647059 0.77647059
0.80539216 0.80539216 0.80539216
0.83602941 0.83602941 0.83602941
0.73903186 0.73903186 0.73903186
0.75251225 0.75251225 0.75251225
0.76484375 0.76484375 0.76484375
0.77126225 0.77126225 0.77126225
0.78367034 0.78367034 0.78367034
0.80392157 0.80392157 0.80392157
0.83003983 0.83003983 0.83003983
0.85343137 0.85343137 0.85343137
0.86991422 0.86991422 0.86991422
0.81470588 0.81470588 0.81470588
0.81862745 0.81862745 0.81862745
0.82953431 0.82953431 0.82953431
0.83431373 0.83431373 0.83431373
0.84515931 0.84515931 0.84515931
0.85416667 0.85416667 0.85416667
0.87622549 0.87622549 0.87622549
0.89335172 0.89335172 0.89335172
0.91127451 0.91127451 0.91127451
0.87640931 0.87640931 0.87640931
0.88376991 0.88376991 0.88376991
0.88999694 0.88999694 0.88999694
0.89139859 0.89139859 0.89139859
0.89604779 0.89604779 0.89604779
0.90708487 0.90708487 0.90708487
0.91960784 0.91960784 0.91960784
0.93431373 0.93431373 0.93431373
0.9495098 0.9495098 0.9495098
0.93039216 0.93039216 0.93039216
0.93339461 0.93339461 0.93339461
0.93357843 0.93357843 0.93357843
0.94117647 0.94117647 0.94117647
0.95147059 0.95147059 0.95147059
0.94381127 0.94381127 0.94381127
0.95735294 0.95735294 0.95735294
0.96035539 0.96035539 0.96035539
0.95294118 0.95294118 0.95294118
0.5372549 0.5372549 0.5372549
0.54509804 0.54509804 0.54509804
0.57843137 0.57843137 0.57843137
0.61029412 0.61029412 0.61029412
0.64901961 0.64901961 0.64901961
0.68480392 0.68480392 0.68480392
0.69607843 0.69607843 0.69607843
0.74509804 0.74509804 0.74509804
0.74509804 0.74509804 0.74509804
0.5754902 0.5754902 0.5754902
0.57984069 0.57984069 0.57984069
0.60330882 0.60330882 0.60330882
0.62910539 0.62910539 0.62910539
0.65661765 0.65661765 0.65661765
0.69754902 0.69754902 0.69754902
0.72169118 0.72169118 0.72169118
0.76029412 0.76029412 0.76029412
0.76372549 0.76372549 0.76372549
0.6254902 0.6254902 0.6254902
0.63676471 0.63676471 0.63676471
0.66372549 0.66372549 0.66372549
0.68039216 0.68039216 0.68039216
0.69117647 0.69117647 0.69117647
0.72205882 0.72205882 0.72205882
0.75098039 0.75098039 0.75098039
0.79178922 0.79178922 0.79178922
0.8254902 0.8254902 0.8254902
0.68333333 0.68333333 0.68333333
0.69246324 0.69246324 0.69246324
0.70833333 0.70833333 0.70833333
0.71378676 0.71378676 0.71378676
0.73627451 0.73627451 0.73627451
0.76231618 0.76231618 0.76231618
0.79068627 0.79068627 0.79068627
0.81096814 0.81096814 0.81096814
0.85343137 0.85343137 0.85343137
0.75098039 0.75098039 0.75098039
0.75857843 0.75857843 0.75857843
0.76176471 0.76176471 0.76176471
0.76911765 0.76911765 0.76911765
0.79313725 0.79313725 0.79313725
0.80343137 0.80343137 0.80343137
0.8245098 0.8245098 0.8245098
0.85147059 0.85147059 0.85147059
0.88039216 0.88039216 0.88039216
0.81078431 0.81078431 0.81078431
0.81862745 0.81862745 0.81862745
0.82647059 0.82647059 0.82647059
0.82886029 0.82886029 0.82886029
0.83676471 0.83676471 0.83676471
0.83529412 0.83529412 0.83529412
0.85735294 0.85735294 0.85735294
0.88823529 0.88823529 0.88823529
0.90735294 0.90735294 0.90735294
0.87254902 0.87254902 0.87254902
0.87647059 0.87647059 0.87647059
0.8754902 0.8754902 0.8754902
0.86801471 0.86801471 0.86801471
0.86764706 0.86764706 0.86764706
0.86617647 0.86617647 0.86617647
0.89313725 0.89313725 0.89313725
0.91911765 0.91911765 0.91911765
0.94215686 0.94215686 0.94215686
0.92205882 0.92205882 0.92205882
0.92205882 0.92205882 0.92205882
0.92647059 0.92647059 0.92647059
0.91470588 0.91470588 0.91470588
0.91470588 0.91470588 0.91470588
0.92254902 0.92254902 0.92254902
0.94301471 0.94301471 0.94301471
0.95692402 0.95692402 0.95692402
0.96862745 0.96862745 0.96862745
0.98039216 0.98039216 0.98039216
0.95637255 0.95637255 0.95637255
0.97745098 0.97745098 0.97745098
0.96078431 0.96078431 0.96078431
0.96078431 0.96078431 0.96078431
0.96617647 0.96617647 0.96617647
0.99215686 0.99215686 0.99215686
0.97647059 0.97647059 0.97647059
0.96470588 0.96470588 0.96470588
