site/assets/luts/sha256-0de31a701ecae2fe8165c8ad12d7c4f9570223d7b8bd57eb3fdd0ebaa6388d8c.cube
# LUTr-Schema-Version: 2
# LUTr-ID: sha256-0de31a701ecae2fe8165c8ad12d7c4f9570223d7b8bd57eb3fdd0ebaa6388d8c
# LUTr-Title: faded extreme
# LUTr-Collection: Natron HaldCLUT
# LUTr-Collection-ID: natron-haldclut-presets
# LUTr-Source: https://github.com/NatronGitHub/clut
# LUTr-Retrieved: 2026-07-27
# LUTr-Source-File: submissions/natron-haldclut-presets/various/faded_extreme.png
# LUTr-Source-Format: HALD-PNG
# LUTr-Source-SHA256: 0de31a701ecae2fe8165c8ad12d7c4f9570223d7b8bd57eb3fdd0ebaa6388d8c
# LUTr-License: CC-BY-SA-4.0
# LUTr-License-URL: https://github.com/NatronGitHub/clut#license
# LUTr-License-Basis: repo-license-file
# LUTr-Transform-Class: film-emulation
# LUTr-Tags: creative, film, film-emulation, hald-clut, natron, png, vintage, cube
# LUTr-Input-Color-Space: srgb
# LUTr-Input-Gamut: rec709
# LUTr-Input-Transfer: srgb
# LUTr-Output-Color-Space: srgb
# LUTr-Output-Gamut: rec709
# LUTr-Output-Transfer: srgb
# LUTr-Color-Space-Confidence: assumed-display-referred
# LUTr-Domain-Normalized: true
# LUTr-Shaper: none
# LUTr-Original-Grid: 64x64x64
# LUTr-Conversion-Grid: 25x25x25
# LUTr-Conversion-Interpolation: trilinear
# LUTr-Conversion-Method: HALD-PNG LUT image decoded at 16-bit and sampled to 25x25x25 3D CUBE
# LUTr-Conversion-Tool: LUTr scripts/convert-all-to-cube.mjs 2.0.0
# LUTr-Conversion-Date: 2026-07-27
# LUTr-Note: Preserve this metadata and the upstream license notices when redistributing.
TITLE "faded extreme"
LUT_3D_SIZE 5
DOMAIN_MIN 0 0 0
DOMAIN_MAX 1 1 1
0.015686275 0.015686275 0.015686275
0.010784314 0.0078431373 0.0078431373
0.033333333 0.015686275 0.01372549
0.096078431 0.033333333 0.041176471
0.11372549 0.031372549 0.047058824
0.094117647 0.10196078 0.078431373
0.18897059 0.17818627 0.15490196
0.31176471 0.26960784 0.25
0.41519608 0.34558824 0.32598039
0.53529412 0.44411765 0.41862745
0.52352941 0.53529412 0.4627451
0.6377451 0.63039216 0.55343137
0.73333333 0.69803922 0.62156863
0.8754902 0.81176471 0.73137255
0.94705882 0.87254902 0.79215686
0.9754902 0.98137255 0.88333333
0.9875 0.98210784 0.94117647
0.99215686 0.98823529 0.98431373
0.98112745 0.9872549 0.98333333
0.99215686 0.99509804 0.99509804
0.99215686 0.99215686 0.99607843
0.98529412 0.98431373 0.98137255
0.98431373 0.98039216 0.98431373
0.98529412 0.98431373 0.98529412
0.99607843 0.99607843 0.99607843
0.011764706 0.011764706 0.011764706
0.0078431373 0.0039215686 0.0039215686
0.040686275 0.011764706 0.013235294
0.11862745 0.052696078 0.064460784
0.17352941 0.087254902 0.10294118
0.19240196 0.20392157 0.17279412
0.32689951 0.31482843 0.28180147
0.4127451 0.37806373 0.34460784
0.53216912 0.46936275 0.4375
0.62892157 0.54264706 0.50833333
0.63333333 0.64607843 0.56176471
0.74669118 0.73995098 0.65759804
0.85686275 0.82720588 0.74485294
0.96642157 0.92071078 0.83762255
0.98921569 0.95980392 0.91960784
0.99509804 0.99828431 0.97769608
0.99142157 0.99136029 0.98333333
0.98443627 0.98639706 0.98676471
0.98511029 0.98823529 0.98823529
0.99607843 0.99607843 0.99215686
0.99607843 0.99607843 0.99607843
0.99509804 0.99509804 0.99828431
0.98382353 0.98431373 0.98627451
0.98333333 0.98431373 0.98431373
0.9872549 0.9872549 0.99117647
0.01372549 0.025490196 0.017647059
0.044117647 0.032352941 0.03627451
0.10490196 0.061764706 0.07254902
0.21519608 0.15588235 0.15980392
0.3254902 0.24117647 0.24705882
0.31617647 0.33088235 0.29068627
0.42340686 0.41678922 0.37340686
0.53284314 0.49705882 0.45808824
0.65882353 0.60196078 0.55625
0.75588235 0.67745098 0.63137255
0.74313725 0.7627451 0.66862745
0.85857843 0.85882353 0.76691176
0.95784314 0.94558824 0.85686275
0.99166667 0.98676471 0.93823529
0.99803922 0.99803922 0.99019608
0.99607843 0.99607843 0.99607843
0.98541667 0.98382353 0.98541667
0.9872549 0.9872549 0.9879902
0.99607843 0.99607843 0.99607843
0.99754902 0.99754902 0.99754902
0.99215686 0.99215686 0.99215686
0.99705882 0.99705882 0.98921569
0.98529412 0.98529412 0.98529412
0.98186275 0.98186275 0.98382353
0.99215686 0.99215686 0.99215686
0.011764706 0.016666667 0.016666667
0.11495098 0.11029412 0.10612745
0.2245098 0.18676471 0.18823529
0.33970588 0.27696078 0.27671569
0.43529412 0.35686275 0.35294118
0.43848039 0.45098039 0.40416667
0.54093137 0.53455882 0.48719363
0.64007353 0.6122549 0.55906863
0.75588235 0.70098039 0.64705882
0.88651961 0.80882353 0.76176471
0.88970588 0.90833333 0.8122549
0.94938725 0.9497549 0.86090686
0.98872549 0.98578431 0.95318627
0.99080882 0.9872549 0.98419118
0.99607843 0.99803922 0.99607843
0.99117647 0.99142157 0.99117647
0.97665441 0.97665441 0.97665441
0.99681373 0.99681373 0.99681373
0.99197304 0.99197304 0.99197304
0.98431373 0.98431373 0.98431373
0.99215686 0.99215686 0.99215686
0.98112745 0.98112745 0.98039216
0.98039216 0.98039216 0.98039216
0.98602941 0.98602941 0.98602941
0.99215686 0.99215686 0.99215686
0.11764706 0.13333333 0.12941176
0.22745098 0.22352941 0.20882353
0.33333333 0.30196078 0.29411765
0.44509804 0.39215686 0.38039216
0.57647059 0.49803922 0.49019608
0.53039216 0.55392157 0.49607843
0.65490196 0.65122549 0.59313725
0.77156863 0.74411765 0.68382353
0.88455882 0.83259804 0.77083333
0.98333333 0.91176471 0.85
0.97843137 0.99411765 0.9254902
0.99362745 0.99411765 0.98039216
0.99215686 0.99019608 0.98627451
0.99068627 0.99068627 0.98921569
0.99607843 0.99607843 0.99411765
0.99215686 0.99215686 0.99117647
0.98210784 0.98210784 0.98137255
0.99607843 0.99607843 0.99607843
0.98137255 0.98137255 0.98137255
0.98431373 0.98431373 0.98431373
1 1 1
0.98137255 0.98137255 0.98137255
0.98039216 0.98039216 0.98039216
0.98921569 0.98921569 0.98921569
0.99607843 0.99607843 0.99607843
