site/assets/luts/sha256-54a78105210c75d542012d21786078b23e050bab163df23ebc6a6d9215be4773.cube
# LUTr-Schema-Version: 2
# LUTr-ID: sha256-54a78105210c75d542012d21786078b23e050bab163df23ebc6a6d9215be4773
# LUTr-Title: polaroid 690 cold +
# LUTr-Collection: Natron HaldCLUT
# LUTr-Collection-ID: natron-haldclut-presets
# LUTr-Source: https://github.com/NatronGitHub/clut
# LUTr-Retrieved: 2026-07-27
# LUTr-Source-File: submissions/natron-haldclut-presets/instant_pro/polaroid_690_cold_+.png
# LUTr-Source-Format: HALD-PNG
# LUTr-Source-SHA256: 54a78105210c75d542012d21786078b23e050bab163df23ebc6a6d9215be4773
# LUTr-License: CC-BY-SA-4.0
# LUTr-License-URL: https://github.com/NatronGitHub/clut#license
# LUTr-License-Basis: repo-license-file
# LUTr-Transform-Class: film-emulation
# LUTr-Tags: creative, film, film-emulation, hald-clut, natron, png, cool, cube
# LUTr-Input-Color-Space: srgb
# LUTr-Input-Gamut: rec709
# LUTr-Input-Transfer: srgb
# LUTr-Output-Color-Space: srgb
# LUTr-Output-Gamut: rec709
# LUTr-Output-Transfer: srgb
# LUTr-Color-Space-Confidence: assumed-display-referred
# LUTr-Domain-Normalized: true
# LUTr-Shaper: none
# LUTr-Original-Grid: 64x64x64
# LUTr-Conversion-Grid: 25x25x25
# LUTr-Conversion-Interpolation: trilinear
# LUTr-Conversion-Method: HALD-PNG LUT image decoded at 16-bit and sampled to 25x25x25 3D CUBE
# LUTr-Conversion-Tool: LUTr scripts/convert-all-to-cube.mjs 2.0.0
# LUTr-Conversion-Date: 2026-07-27
# LUTr-Note: Preserve this metadata and the upstream license notices when redistributing.
TITLE "polaroid 690 cold +"
LUT_3D_SIZE 9
DOMAIN_MIN 0 0 0
DOMAIN_MAX 1 1 1
0.0039215686 0.21176471 0.21176471
0.0039215686 0.20833333 0.21176471
0.038235294 0.20784314 0.20784314
0.21078431 0.2 0.20392157
0.3627451 0.18235294 0.2
0.53676471 0.13284314 0.19607843
0.72254902 0.044117647 0.19509804
0.86862745 0 0.18039216
0.98431373 0 0.17254902
0.0078431373 0.22303922 0.21568627
0.0078431373 0.22303922 0.20876225
0.080514706 0.21911765 0.20784314
0.2408701 0.21911765 0.20392157
0.40882353 0.20539216 0.2
0.5846201 0.16078431 0.19607843
0.74460784 0.090196078 0.18480392
0.88339461 0 0.17647059
0.97794118 0 0.17254902
0.0039215686 0.25980392 0.20490196
0.0039215686 0.24522059 0.20134804
0.11568627 0.26372549 0.19779412
0.29705882 0.27647059 0.19313725
0.48921569 0.28088235 0.18676471
0.65968137 0.26740196 0.18039216
0.79411765 0.22745098 0.17254902
0.91029412 0.18566176 0.16556373
0.99313725 0.14313725 0.16470588
0 0.34068627 0.19362745
0.0039215686 0.34460784 0.19215686
0.12647059 0.35784314 0.18639706
0.30974265 0.38480392 0.17101716
0.51715686 0.40318627 0.15833333
0.72156863 0.4254902 0.16127451
0.8377451 0.40747549 0.14754902
0.94264706 0.39344363 0.14901961
0.99460784 0.3872549 0.14901961
0 0.48039216 0.17647059
0.0019607843 0.47647059 0.17279412
0.091176471 0.47156863 0.1627451
0.3002451 0.5004902 0.14068627
0.49607843 0.53137255 0.11568627
0.68529412 0.5629902 0.086029412
0.8372549 0.58088235 0.078921569
0.94656863 0.59019608 0.14436275
0.99215686 0.59215686 0.17058824
0 0.62156863 0.12254902
0.0039215686 0.6254902 0.14607843
0.028676471 0.61482843 0.12254902
0.27843137 0.62849265 0.10441176
0.47696078 0.64828431 0.051960784
0.65140931 0.67647059 0.013296569
0.81127451 0.69558824 0.016666667
0.92647059 0.70245098 0.063051471
0.99215686 0.70637255 0.21421569
0.012745098 0.74411765 0.12352941
0.00085784314 0.74031863 0.11433824
0.07377451 0.73651961 0.079411765
0.30906863 0.73272059 0.067156863
0.49313725 0.74411765 0.043627451
0.64693627 0.75698529 0.011764706
0.79534314 0.77058824 0.015196078
0.91127451 0.77855392 0.052205882
0.99411765 0.78627451 0.19901961
0.20343137 0.83676471 0.17058824
0.23088235 0.83284314 0.17598039
0.3254902 0.82892157 0.14301471
0.43155637 0.825 0.125
0.56568627 0.82892157 0.11862745
0.68118873 0.83284314 0.11991422
0.79914216 0.84166667 0.15882353
0.90343137 0.8528799 0.17683824
0.98088235 0.86421569 0.2377451
0.4627451 0.92941176 0.35294118
0.46666667 0.9254902 0.35294118
0.49411765 0.91470588 0.31176471
0.56715686 0.91911765 0.31568627
0.63921569 0.91372549 0.29607843
0.73382353 0.92009804 0.32156863
0.82647059 0.93431373 0.3627451
0.90343137 0.94509804 0.39215686
0.96470588 0.95294118 0.42745098
0.0039215686 0.20784314 0.23088235
0.014276961 0.20784314 0.22310049
0.056862745 0.20404412 0.21531863
0.21599265 0.2 0.21911765
0.35490196 0.17279412 0.21151961
0.53823529 0.10196078 0.20735294
0.70735294 0.034313725 0.20343137
0.85294118 0 0.19558824
0.97598039 0 0.19166667
0.0039215686 0.21568627 0.22696078
0.00049019608 0.21519608 0.2161152
0.081862745 0.21127451 0.21519608
0.23737745 0.20939798 0.21568627
0.40640319 0.18970588 0.20955882
0.58115043 0.13560049 0.20408241
0.74123775 0.031004902 0.20245098
0.87205882 0.004296875 0.19558824
0.9872549 0 0.18780637
0 0.25686275 0.21960784
0.0039215686 0.25637255 0.22598039
0.10719975 0.26075368 0.21936275
0.30301777 0.27156863 0.21341912
0.49289216 0.26678922 0.21127451
0.65539216 0.23860294 0.20735294
0.79019608 0.19313725 0.19846814
0.90686275 0.13730086 0.19466912
0.98823529 0.087254902 0.18382353
0 0.35459559 0.21519608
0.0039215686 0.35457261 0.21564798
0.11384804 0.36568627 0.21119792
0.31923254 0.3818704 0.19920343
0.53520221 0.40278799 0.19068627
0.72359835 0.41869638 0.19706648
0.84857537 0.39682904 0.19474571
0.93872549 0.37273284 0.19101563
0.98823529 0.36519608 0.18596814
0 0.48602941 0.19730392
0.0039215686 0.49191176 0.19705882
0.078921569 0.48988971 0.19705882
0.30392157 0.50441176 0.18455882
0.50196078 0.53529412 0.15686275
0.69077819 0.56813725 0.14476103
0.84577206 0.58921569 0.16397059
0.94264706 0.58578431 0.20275735
0.99607843 0.58651961 0.23995098
0 0.62941176 0.17401961
0.0036534926 0.62661612 0.17387408
0.0296875 0.625 0.16871936
0.27598039 0.63234528 0.15323223
0.47573529 0.65490196 0.125
0.65274969 0.68039216 0.10526195
0.81511949 0.69460784 0.11029412
0.92910539 0.70098039 0.19015778
0.98823529 0.70637255 0.26911765
0.012132353 0.74889706 0.17254902
0.0078584559 0.74375 0.16764706
0.079901961 0.74362745 0.14439338
0.31078431 0.74019608 0.13547794
0.48823529 0.74932598 0.11623775
0.65147059 0.75914522 0.11482843
0.79571078 0.77058824 0.12408088
0.91568627 0.77977941 0.17185968
0.98431373 0.78333333 0.25428922
0.19019608 0.83976716 0.225
0.23828891 0.83671109 0.21715686
0.3167739 0.83246017 0.21280637
0.43921569 0.82892157 0.19460784
0.55658701 0.83284314 0.17742034
0.68498775 0.83676471 0.20040594
0.79989277 0.84454657 0.20828738
0.90729167 0.85680147 0.22751225
0.97254902 0.86029412 0.29803922
0.4622549 0.92941176 0.3877451
0.48394608 0.93241422 0.39025735
0.50845588 0.92598039 0.37218137
0.57009804 0.92334559 0.36176471
0.64926471 0.92401961 0.34828431
0.73627451 0.92794118 0.3627451
0.82254902 0.93284314 0.38333333
0.8995098 0.92640931 0.38131127
0.95294118 0.94460784 0.41421569
0 0.20392157 0.24705882
0.0049019608 0.20526961 0.27205882
0.065686275 0.20171569 0.2754902
0.22009804 0.1942402 0.27610294
0.36519608 0.16862745 0.26862745
0.53762255 0.1060049 0.26948529
0.68823529 0.0046568627 0.26078431
0.83480392 0.0025735294 0.25539216
0.97254902 0 0.21862745
0 0.21568627 0.27022059
0.0037990196 0.2182598 0.28241422
0.07879902 0.21519608 0.29145221
0.23405331 0.20735294 0.28132659
0.40729167 0.1838848 0.27941176
0.5754902 0.098529412 0.26239277
0.71470588 0.0071384804 0.25196078
0.85343137 0 0.25159314
0.98394608 0 0.22941176
0 0.2629902 0.28921569
0.0039215686 0.25989583 0.28572304
0.099632353 0.26427696 0.28939951
0.29803922 0.25931373 0.28958333
0.47634804 0.23284314 0.28186275
0.62990196 0.18627451 0.26783088
0.7723652 0.109375 0.25588235
0.89068627 0.039552696 0.24730392
0.99142157 0.022303922 0.23308824
0 0.36102941 0.30686275
0.0039215686 0.3692402 0.30196078
0.10481005 0.37745098 0.3018076
0.34019608 0.3899663 0.2948989
0.54650735 0.40042892 0.29724265
0.7084712 0.39816176 0.29264706
0.83226103 0.37273284 0.29181985
0.93757659 0.33333333 0.26894914
0.99607843 0.31421569 0.26862745
0 0.52156863 0.31127451
0.0037377451 0.51862745 0.29613971
0.043995098 0.50968137 0.29117647
0.31145833 0.5122549 0.27689951
0.52598039 0.54313725 0.28014706
0.69797794 0.5745098 0.27696078
0.83921569 0.58455882 0.30784314
0.95006127 0.59068627 0.33290441
0.99362745 0.57941176 0.3245098
0 0.65477941 0.29313725
0 0.65196078 0.2792739
0.007567402 0.64966299 0.26727941
0.27274816 0.65085784 0.26458333
0.48805147 0.66127451 0.25545343
0.66778493 0.68722426 0.24722733
0.81629902 0.69705882 0.27043505
0.93230699 0.70245098 0.32438725
0.97892157 0.70637255 0.38676471
0.0046568627 0.75882353 0.28529412
0.0054227941 0.75588235 0.28170956
0.072058824 0.75508578 0.26691176
0.3120098 0.74886642 0.24852941
0.48970588 0.75526961 0.24803922
0.65450368 0.76063113 0.25490196
0.80073529 0.77058824 0.27843137
0.91556373 0.77941176 0.31421569
0.97745098 0.78333333 0.36470588
0.19227941 0.8432598 0.32708333
0.21966912 0.84068627 0.32745098
0.31237745 0.83676471 0.31176471
0.42411152 0.83272059 0.2946538
0.5439951 0.82990196 0.27794118
0.67886029 0.83858762 0.29250919
0.8 0.84558824 0.31568627
0.90343137 0.85637255 0.3511489
0.96997549 0.86421569 0.38933824
0.44705882 0.92941176 0.45588235
0.46629902 0.93210784 0.4560049
0.50073529 0.9245098 0.44338235
0.55894608 0.91911765 0.42598039
0.64166667 0.92598039 0.41862745
0.73088235 0.92941176 0.42879902
0.81789216 0.93333333 0.44681373
0.89901961 0.93676471 0.46470588
0.95 0.95294118 0.50882353
0.0039215686 0.20392157 0.37696078
0 0.2 0.37696078
0.066666667 0.19705882 0.40637255
0.26666667 0.18278186 0.42310049
0.42058824 0.16029412 0.39387255
0.56813725 0.09754902 0.38627451
0.70441176 0.025 0.37806373
0.83578431 0.0036151961 0.36096814
0.95294118 0 0.33921569
0 0.21519608 0.38609069
0.0039215686 0.21519608 0.39754902
0.056770833 0.21288297 0.41493566
0.29240196 0.2055913 0.43939185
0.4486826 0.17965686 0.42043505
0.58442862 0.13235294 0.39106158
0.71960784 0.020220588 0.38111213
0.8408318 0.0039215686 0.36078431
0.95833333 0 0.33400735
0 0.26862745 0.40490196
0.0048866422 0.27120098 0.41141238
0.059957108 0.2739277 0.42907475
0.30424326 0.27156863 0.44140625
0.48480392 0.24497549 0.42389706
0.62058824 0.20085784 0.39878983
0.75150123 0.094240196 0.3754902
0.86875 0.022058824 0.35405944
0.97365196 0.0082107843 0.32843137
0 0.37794118 0.42647059
0 0.39246324 0.44355852
0.077221201 0.39241728 0.45147059
0.34991575 0.40349265 0.46384804
0.53354779 0.38851103 0.45018382
0.67442555 0.33970588 0.41603094
0.79584865 0.28665748 0.39129902
0.91531097 0.23736979 0.36060049
0.99215686 0.17794118 0.33621324
0 0.55735294 0.45539216
0.00064338235 0.55867034 0.45848652
0.028125 0.55104167 0.45759804
0.32962623 0.54681373 0.44954044
0.53946078 0.56580882 0.45477941
0.70496324 0.58872549 0.46737132
0.82469363 0.56979167 0.478125
0.92843137 0.53023897 0.44240196
0.99411765 0.50980392 0.42377451
0 0.68284314 0.45147059
0.0039215686 0.68137255 0.45422794
0.021323529 0.68068321 0.44742647
0.30741422 0.67408088 0.43341759
0.49656863 0.67276348 0.41568627
0.6714231 0.69034161 0.42773438
0.81960784 0.70637255 0.45556066
0.92205116 0.70790441 0.50441176
0.98039216 0.70392157 0.515625
0.010784314 0.77340686 0.45
0.0063878676 0.76948529 0.44522059
0.12429534 0.76571691 0.43039216
0.32605699 0.76205576 0.41470588
0.48137255 0.75680147 0.39656863
0.65062806 0.76418505 0.41865809
0.79371936 0.77466299 0.43020833
0.91041667 0.78138787 0.47071078
0.98039216 0.7872549 0.52352941
0.21519608 0.84852941 0.47628676
0.23012408 0.84487592 0.46127451
0.31948529 0.84315257 0.44866728
0.41868873 0.83890931 0.43657322
0.53823529 0.83627451 0.42279412
0.66978401 0.83676471 0.41397059
0.79215686 0.84492953 0.44136029
0.89558824 0.85637255 0.46456036
0.96617647 0.86421569 0.5122549
0.4495098 0.92941176 0.5627451
0.45557598 0.92579657 0.55490196
0.49852941 0.92941176 0.54852941
0.5533701 0.92156863 0.53045343
0.63210784 0.91960784 0.5125
0.72193627 0.92653186 0.51127451
0.80686275 0.92941176 0.53382353
0.88743873 0.93314951 0.55618873
0.9372549 0.94264706 0.58382353
0 0.19607843 0.54117647
0.0078431373 0.19607843 0.55269608
0.039215686 0.19460784 0.58333333
0.29730392 0.15980392 0.62647059
0.5 0.11862745 0.62745098
0.63921569 0.066911765 0.58210784
0.74705882 0.015686275 0.54068627
0.85833333 0.0036764706 0.51715686
0.96666667 0 0.49803922
0 0.22303922 0.55245098
0.0039215686 0.21939338 0.5620098
0.0020220588 0.20808824 0.58578431
0.3127451 0.19656863 0.62916667
0.53002451 0.16115196 0.64583333
0.64935662 0.12696078 0.59028799
0.75680147 0.071078431 0.54803922
0.86639093 0.00091911765 0.51519608
0.96691176 0 0.49803922
0 0.26862745 0.56078431
0 0.26617647 0.57077206
0.0078431373 0.27401961 0.59705882
0.32175245 0.2778799 0.63308824
0.52892157 0.27279412 0.63578431
0.6651348 0.24258578 0.59803922
0.76960784 0.20208333 0.55343137
0.87352941 0.051531863 0.51715686
0.96029412 0.0093137255 0.49068627
0 0.38995098 0.56911765
0 0.37892157 0.57058824
0.031740196 0.39074755 0.60220588
0.32401961 0.40836397 0.63140319
0.55882353 0.42659314 0.65526961
0.67573529 0.38679534 0.6004902
0.78915441 0.32377451 0.55557598
0.89166667 0.2104473 0.50073529
0.98382353 0.020833333 0.45465686
0 0.54509804 0.60980392
0.0022058824 0.55098039 0.60882353
0.068382353 0.54852941 0.61764706
0.36090686 0.57794118 0.63357843
0.54313725 0.59215686 0.64607843
0.69411765 0.5814951 0.6377451
0.80465686 0.48970588 0.58039216
0.90343137 0.4625 0.54375
0.98823529 0.38235294 0.49803922
0.0024509804 0.69215686 0.61911765
0.0053921569 0.70318627 0.63030025
0.17561275 0.69852941 0.62794118
0.37230392 0.69880515 0.6208027
0.5182598 0.69656863 0.61102941
0.67843137 0.70413603 0.62113971
0.8129902 0.70545343 0.63903186
0.90922181 0.7046875 0.65232843
0.98014706 0.66715686 0.62696078
0.05 0.78627451 0.62941176
0.08504902 0.78155637 0.61636029
0.25171569 0.77892157 0.61531863
0.39613971 0.77843137 0.61115196
0.50955882 0.77058824 0.58897059
0.65030637 0.77058824 0.5872549
0.79509804 0.77990196 0.60882353
0.90073529 0.78633578 0.63633578
0.97352941 0.79460784 0.68039216
0.27279412 0.85245098 0.63382353
0.31372549 0.85220588 0.63189338
0.36844363 0.8502451 0.61642157
0.45392157 0.84828431 0.60303309
0.54607843 0.8432598 0.58480392
0.65456495 0.8377451 0.56280637
0.77573529 0.84417892 0.57941176
0.88382353 0.85680147 0.61029412
0.9504902 0.86421569 0.64289216
0.46862745 0.92941176 0.68235294
0.4754902 0.92916667 0.67426471
0.49754902 0.92254902 0.65980392
0.56568627 0.92941176 0.65759804
0.62941176 0.92156863 0.63627451
0.71029412 0.93088235 0.62818627
0.79656863 0.9254902 0.63578431
0.87769608 0.9375 0.66151961
0.9372549 0.94901961 0.69607843
0.0039215686 0.19607843 0.70931373
0.0078431373 0.19607843 0.72628676
0.013602941 0.18039216 0.74754902
0.28480392 0.1598652 0.76819853
0.54191176 0.10196078 0.8
0.71323529 0.046507353 0.79166667
0.81617647 0.0093137255 0.75294118
0.89313725 0.0039215686 0.70245098
0.97401961 0 0.6622549
0 0.22696078 0.71452206
0.0039215686 0.22148438 0.72843137
0.013373162 0.20989583 0.74754902
0.30392157 0.19246324 0.76930147
0.5408701 0.17346814 0.79411765
0.70686275 0.14007353 0.78235294
0.81732537 0.08950674 0.75698529
0.89672947 0.076960784 0.69460784
0.97665441 0.029718137 0.66979167
0 0.27585784 0.71813725
0.0036917892 0.27585784 0.72161458
0 0.27202819 0.74862132
0.30317096 0.2801011 0.7709712
0.56237745 0.29509804 0.79852941
0.71548713 0.30183824 0.79761029
0.82120098 0.26387868 0.76188725
0.89313725 0.21881127 0.70219056
0.97352941 0.12389706 0.67156863
0 0.37542892 0.70931373
0 0.36452206 0.70876225
0.033716299 0.37846201 0.73209252
0.31349571 0.40386029 0.76127451
0.5504902 0.44212623 0.78704044
0.70873928 0.46713388 0.7935432
0.80196078 0.41885723 0.74734988
0.88598346 0.35932138 0.69669884
0.95386029 0.27310049 0.66519608
0.0039215686 0.52598039 0.71617647
0.0028492647 0.52239583 0.71372549
0.023223039 0.51421569 0.71783088
0.29065564 0.52870711 0.73186275
0.5245098 0.58431373 0.76948529
0.69754902 0.61911765 0.79019608
0.79479167 0.56636029 0.74534314
0.87990196 0.4997549 0.69028799
0.97941176 0.36789216 0.63186275
0.0048406863 0.68431373 0.74705882
0.015663297 0.68683364 0.7473652
0.16781556 0.68492647 0.75166973
0.38474265 0.69460784 0.75827206
0.55683211 0.70076593 0.77573529
0.68339461 0.71029412 0.77280944
0.80127145 0.70039828 0.76937806
0.88235294 0.646875 0.72156863
0.97738971 0.58241422 0.67156863
0.32536765 0.79620098 0.77843137
0.31758578 0.79056373 0.77058824
0.39494485 0.79056373 0.76776961
0.4872549 0.78950674 0.76776961
0.58314951 0.78627451 0.76593137
0.68163297 0.78028493 0.7560049
0.78933824 0.78808211 0.7669424
0.88676471 0.79808517 0.78886336
0.94889706 0.80232843 0.79987745
0.40471814 0.85998775 0.77058824
0.41476716 0.86045496 0.77058824
0.45833333 0.85638787 0.76325061
0.52794118 0.85765931 0.76060049
0.58887868 0.85481005 0.75294118
0.67254902 0.8495098 0.73738511
0.7689951 0.85047488 0.72596507
0.87444853 0.86372549 0.75098039
0.94509804 0.87175245 0.78057598
0.51127451 0.92941176 0.79117647
0.521875 0.93333333 0.79068627
0.53627451 0.92254902 0.78480392
0.58676471 0.93088235 0.78235294
0.63823529 0.93210784 0.77058824
0.71029412 0.92794118 0.75343137
0.7872549 0.93786765 0.75061275
0.86666667 0.92077206 0.75900735
0.92009804 0.92303922 0.77696078
0.0078431373 0.20098039 0.85098039
0.0039215686 0.2 0.85784314
0.021813725 0.18455882 0.86936275
0.30919118 0.16323529 0.8810049
0.54509804 0.14460784 0.89460784
0.72205882 0.14730392 0.90992647
0.85 0.14240196 0.9
0.93186275 0.11960784 0.87414216
0.98431373 0.19313725 0.84411765
0.0088235294 0.23051471 0.85
0.010952819 0.22389706 0.85392157
0.015318627 0.2088848 0.86960784
0.32647059 0.2069087 0.87798713
0.54883578 0.20410539 0.89442402
0.73394608 0.22553615 0.91190257
0.85076593 0.22153799 0.90318627
0.92745098 0.21911765 0.87009804
0.98786765 0.22953431 0.84007353
0.0049019608 0.28921569 0.85392157
0.0078431373 0.29142157 0.85
0.0080882353 0.28057598 0.86495098
0.33655025 0.28936887 0.87677696
0.55355392 0.30870098 0.88872549
0.72527574 0.35404412 0.90609681
0.83829657 0.36550245 0.8966299
0.92279412 0.34803922 0.87328431
0.97941176 0.34117647 0.83333333
0.00098039216 0.37487745 0.84460784
0.0023131127 0.38088235 0.8441636
0.051317402 0.39365809 0.84990809
0.35061275 0.417019 0.86032475
0.55110294 0.4504902 0.87996324
0.7167739 0.50931373 0.89718137
0.8299326 0.52383578 0.89298407
0.90441176 0.4877451 0.86133578
0.94607843 0.46862745 0.83529412
0 0.48529412 0.82058824
0.0038602941 0.49381127 0.8223652
0.021936275 0.50784314 0.82941176
0.30790441 0.53180147 0.84234069
0.53063725 0.58235294 0.86495098
0.6995098 0.6375 0.88504902
0.8127451 0.65 0.88235294
0.88431373 0.61568627 0.85073529
0.94803922 0.56127451 0.81813725
0.0039215686 0.6495098 0.8314951
0.014583333 0.65159314 0.83370098
0.033670343 0.66053922 0.8314951
0.3033701 0.65301777 0.83255208
0.48927696 0.67273284 0.84650735
0.68255208 0.71462929 0.87071078
0.80110294 0.72257966 0.86761642
0.87250306 0.69474571 0.84693627
0.94558824 0.64607843 0.7995098
0.25465686 0.78333333 0.85220588
0.28030025 0.78235294 0.85392157
0.36868873 0.78161765 0.85392157
0.48177083 0.77987132 0.85784314
0.59607843 0.78259804 0.86507353
0.71348039 0.7935049 0.87585784
0.81004902 0.80367647 0.88296569
0.87166054 0.78820466 0.86176471
0.92671569 0.78921569 0.86397059
0.51629902 0.86421569 0.87610294
0.52184436 0.86372549 0.87254902
0.56173407 0.86372549 0.87352941
0.60735294 0.86668199 0.87352941
0.65735294 0.86421569 0.85808824
0.72977941 0.86421569 0.86470588
0.79509804 0.86078431 0.85456495
0.86099877 0.86102941 0.85664828
0.93321078 0.86973039 0.875
0.6 0.93431373 0.88137255
0.60110294 0.93247549 0.88039216
0.61764706 0.93186275 0.88039216
0.64178922 0.92659314 0.87794118
0.68970588 0.93382353 0.87303922
0.73333333 0.93517157 0.87144608
0.79093137 0.92720588 0.85392157
0.85980392 0.94154412 0.85698529
0.91078431 0.95 0.86470588
0 0.21960784 0.94656863
0.0055759804 0.20833333 0.9504902
0.22144608 0.20625 0.95379902
0.40900735 0.20588235 0.9536152
0.57156863 0.21715686 0.95563725
0.725 0.24381127 0.96519608
0.85919118 0.32242647 0.96997549
0.93866422 0.37647059 0.96519608
0.9995098 0.34117647 0.95343137
0.02254902 0.24656863 0.94656863
0.014407169 0.23921569 0.95
0.21053922 0.24705882 0.94656863
0.40878523 0.24409467 0.95187653
0.58262868 0.25664828 0.95542279
0.72892157 0.29332108 0.96519608
0.84607843 0.37598039 0.96482843
0.93517923 0.41285999 0.96133578
0.99215686 0.39552696 0.95
0.047916667 0.31875 0.94264706
0.044316789 0.30908395 0.94575674
0.24929534 0.31875 0.94607843
0.42380515 0.32254902 0.95310968
0.58088235 0.34558824 0.95343137
0.72352941 0.39803922 0.95784314
0.84696691 0.49313725 0.96470588
0.92265625 0.50404412 0.95375306
0.98823529 0.48872549 0.94264706
0.037254902 0.4122549 0.93823529
0.035646446 0.41209406 0.94001225
0.24457721 0.42959559 0.93769914
0.42756587 0.44490656 0.94570312
0.58284314 0.4745098 0.94672181
0.71617647 0.53255208 0.94816942
0.83089767 0.60245098 0.9573989
0.91051624 0.61100643 0.95300245
0.96568627 0.58578431 0.93823529
0.022058824 0.51862745 0.91715686
0.015012255 0.52230392 0.92156863
0.16397059 0.53529412 0.92751225
0.38431373 0.56029412 0.9270527
0.56164216 0.59656863 0.9379902
0.70612745 0.64181985 0.94175858
0.82665441 0.69160539 0.9495098
0.90294118 0.69139093 0.94607843
0.94779412 0.67377451 0.93676471
0.0036151961 0.65343137 0.91078431
0.0076976103 0.64746477 0.91078431
0.030346201 0.64491422 0.91078431
0.28363205 0.65189185 0.91078431
0.50147059 0.67852328 0.92107843
0.68314185 0.71140472 0.93313419
0.81478248 0.74869792 0.93805147
0.89166667 0.75798866 0.94166667
0.94540441 0.73069853 0.92481618
0.17303922 0.77156863 0.91556373
0.22270221 0.76764706 0.9154565
0.30058211 0.76764706 0.91433824
0.44787071 0.76946998 0.91470588
0.54123775 0.76023284 0.9182598
0.65543811 0.76519608 0.91894914
0.79954044 0.8018076 0.93308824
0.88628983 0.82038909 0.9342065
0.93468137 0.79411765 0.91764706
0.48970588 0.85980392 0.92205882
0.50533088 0.86029412 0.9221201
0.53797488 0.85980392 0.92297794
0.60594363 0.86025582 0.92604167
0.67310049 0.86179534 0.92598039
0.743053 0.86356464 0.92689951
0.81115196 0.86862745 0.92991728
0.87984069 0.87909773 0.93345588
0.93235294 0.85343137 0.9151348
0.65539216 0.93333333 0.93382353
0.67058824 0.9372549 0.93382353
0.68455882 0.9372549 0.93431373
0.72647059 0.94215686 0.9377451
0.73406863 0.93333333 0.93039216
0.78627451 0.925 0.93645833
0.82107843 0.92598039 0.92647059
0.86813725 0.95294118 0.92689951
0.91715686 0.96078431 0.92941176
0.33333333 0.29803922 0.99607843
0.37156863 0.30245098 0.99607843
0.44705882 0.30196078 0.99705882
0.53823529 0.3122549 0.99607843
0.63137255 0.32941176 0.98823529
0.76127451 0.38823529 0.99607843
0.85 0.43823529 0.98823529
0.92647059 0.54264706 0.99264706
0.97647059 0.55294118 0.98823529
0.34754902 0.33186275 0.99607843
0.38425245 0.33627451 0.99607843
0.46004902 0.34313725 1
0.54411765 0.35196078 0.99607843
0.65441176 0.38137255 0.99779412
0.75735294 0.42401961 0.99215686
0.84607843 0.47316176 0.98443627
0.92254902 0.56464461 0.98866422
0.96911765 0.59166667 0.98823529
0.38627451 0.41568627 0.99215686
0.41752451 0.41531863 0.99607843
0.47181373 0.42058824 0.99240196
0.55085784 0.42708333 0.98823529
0.64166667 0.45 0.98431373
0.74767157 0.49754902 0.98995098
0.84142157 0.5627451 0.98823529
0.91470588 0.62683824 0.98823529
0.95196078 0.61666667 0.98137255
0.38039216 0.51176471 0.98823529
0.43112745 0.52518382 0.99215686
0.46580882 0.52352941 0.98823529
0.55055147 0.53376225 0.9848652
0.64754902 0.55931373 0.98676471
0.75343137 0.60735294 0.98976716
0.83823529 0.64362745 0.98823529
0.90686275 0.671875 0.98039216
0.96862745 0.69215686 0.98431373
0.35098039 0.60784314 0.98431373
0.38848039 0.61593137 0.98431373
0.45833333 0.62647059 0.98382353
0.54264706 0.63137255 0.98039216
0.64313725 0.65 0.98333333
0.74313725 0.68137255 0.98039216
0.83578431 0.70833333 0.98039216
0.90906863 0.74191176 0.98235294
0.96078431 0.74117647 0.98039216
0.28627451 0.69460784 0.97647059
0.32696078 0.69509804 0.97647059
0.38370098 0.69705882 0.97316176
0.51678922 0.70637255 0.97794118
0.62254902 0.71666667 0.97377451
0.74258578 0.74019608 0.98039216
0.83284314 0.75931373 0.97647059
0.90539216 0.79019608 0.97518382
0.93970588 0.78970588 0.96862745
0.40294118 0.77941176 0.96862745
0.42058824 0.78321078 0.97205882
0.46470588 0.78014706 0.96936275
0.47058824 0.76519608 0.95404412
0.57745098 0.77058824 0.95588235
0.68872549 0.77990196 0.96188725
0.80906863 0.80220588 0.96397059
0.89460784 0.83247549 0.97254902
0.94803922 0.85588235 0.97647059
0.55882353 0.86421569 0.96470588
0.54705882 0.86421569 0.95294118
0.57720588 0.86286765 0.95931373
0.62873775 0.86439951 0.96488971
0.66078431 0.85637255 0.94705882
0.73903186 0.86421569 0.96991422
0.80245098 0.85637255 0.96948529
0.88333333 0.89166667 0.96470588
0.90980392 0.90245098 0.96813725
0.68235294 0.94117647 0.96470588
0.69852941 0.94901961 0.96862745
0.7127451 0.94901961 0.96862745
0.72009804 0.9372549 0.95441176
0.75098039 0.9372549 0.95294118
0.79754902 0.94264706 0.9622549
0.84019608 0.94803922 0.95980392
0.87892157 0.95686275 0.95294118
0.89411765 0.94901961 0.94901961
