site/assets/luts/sha256-453c49142c0e8c77dd64f9479f73b83ef509d59a51bf12920ae95a42497d6e72.cube
# LUTr-Schema-Version: 2
# LUTr-ID: sha256-453c49142c0e8c77dd64f9479f73b83ef509d59a51bf12920ae95a42497d6e72
# LUTr-Title: 60's faded alt
# LUTr-Collection: Natron HaldCLUT
# LUTr-Collection-ID: natron-haldclut-presets
# LUTr-Source: https://github.com/NatronGitHub/clut
# LUTr-Retrieved: 2026-07-27
# LUTr-Source-File: submissions/natron-haldclut-presets/various/60's_faded_alt.png
# LUTr-Source-Format: HALD-PNG
# LUTr-Source-SHA256: 453c49142c0e8c77dd64f9479f73b83ef509d59a51bf12920ae95a42497d6e72
# LUTr-License: CC-BY-SA-4.0
# LUTr-License-URL: https://github.com/NatronGitHub/clut#license
# LUTr-License-Basis: repo-license-file
# LUTr-Transform-Class: film-emulation
# LUTr-Tags: creative, film, film-emulation, hald-clut, natron, png, vintage, cube
# LUTr-Input-Color-Space: srgb
# LUTr-Input-Gamut: rec709
# LUTr-Input-Transfer: srgb
# LUTr-Output-Color-Space: srgb
# LUTr-Output-Gamut: rec709
# LUTr-Output-Transfer: srgb
# LUTr-Color-Space-Confidence: assumed-display-referred
# LUTr-Domain-Normalized: true
# LUTr-Shaper: none
# LUTr-Original-Grid: 64x64x64
# LUTr-Conversion-Grid: 25x25x25
# LUTr-Conversion-Interpolation: trilinear
# LUTr-Conversion-Method: HALD-PNG LUT image decoded at 16-bit and sampled to 25x25x25 3D CUBE
# LUTr-Conversion-Tool: LUTr scripts/convert-all-to-cube.mjs 2.0.0
# LUTr-Conversion-Date: 2026-07-27
# LUTr-Note: Preserve this metadata and the upstream license notices when redistributing.
TITLE "60's faded alt"
LUT_3D_SIZE 25
DOMAIN_MIN 0 0 0
DOMAIN_MAX 1 1 1
0.32941176 0.1254902 0.062745098
0.30931373 0.13137255 0.051470588
0.31568627 0.13431373 0.049019608
0.34803922 0.14460784 0.058333333
0.36666667 0.17254902 0.064705882
0.37745098 0.17990196 0.059313725
0.39411765 0.16568627 0.066666667
0.41470588 0.14607843 0.057352941
0.44705882 0.14117647 0.062745098
0.4754902 0.14754902 0.055392157
0.51568627 0.16568627 0.060784314
0.55441176 0.17058824 0.068627451
0.60196078 0.18627451 0.1
0.62843137 0.17696078 0.093137255
0.64607843 0.17745098 0.07254902
0.69558824 0.20588235 0.098039216
0.72156863 0.2 0.098039216
0.74215686 0.20392157 0.095588235
0.75980392 0.19901961 0.085294118
0.79068627 0.23382353 0.11960784
0.76862745 0.2 0.088235294
0.78382353 0.22990196 0.11421569
0.77352941 0.22058824 0.12254902
0.72696078 0.19901961 0.090686275
0.7254902 0.23137255 0.12156863
0.3254902 0.15490196 0.05245098
0.31819853 0.159375 0.054901961
0.32867647 0.16801471 0.058333333
0.35490196 0.17058824 0.06127451
0.3627451 0.17696078 0.056372549
0.37745098 0.18235294 0.057169118
0.40232843 0.17818627 0.068872549
0.43284314 0.18088235 0.068566176
0.47401961 0.18872549 0.083333333
0.50490196 0.19846814 0.078431373
0.53921569 0.20906863 0.075
0.5745098 0.21176471 0.079227941
0.61666667 0.22671569 0.10318627
0.64932598 0.22665441 0.10686275
0.675 0.2314951 0.099632353
0.71519608 0.24154412 0.099571078
0.74215686 0.24362745 0.098039216
0.76519608 0.24754902 0.09564951
0.78186275 0.25208333 0.10392157
0.80128676 0.26041667 0.12071078
0.79436275 0.25710784 0.11519608
0.78596814 0.25845588 0.11213235
0.77169118 0.25747549 0.1122549
0.74405637 0.25386029 0.10637255
0.71519608 0.25882353 0.11568627
0.32058824 0.19215686 0.042156863
0.33137255 0.20245098 0.056862745
0.34803922 0.21568627 0.072058824
0.36678922 0.21654412 0.068872549
0.37647059 0.2127451 0.062254902
0.39252451 0.21666667 0.065073529
0.42647059 0.22352941 0.07377451
0.45833333 0.22990196 0.081495098
0.50098039 0.24117647 0.10784314
0.53578431 0.24803922 0.10294118
0.56348039 0.25294118 0.084803922
0.6004902 0.26360294 0.09754902
0.6372549 0.27107843 0.10833333
0.675 0.28088235 0.1314951
0.70588235 0.2872549 0.1245098
0.73786765 0.29117647 0.10784314
0.77058824 0.29509804 0.093137255
0.7872549 0.30147059 0.10428922
0.80367647 0.30857843 0.11960784
0.81973039 0.31433824 0.13247549
0.8127451 0.31519608 0.12794118
0.79080882 0.31041667 0.11237745
0.77573529 0.31127451 0.10906863
0.77401961 0.32634804 0.13002451
0.77745098 0.34411765 0.15196078
0.325 0.23333333 0.053921569
0.33792892 0.24607843 0.065563725
0.35098039 0.25772059 0.067156863
0.37800245 0.26378676 0.074019608
0.39877451 0.26421569 0.07377451
0.41703431 0.26948529 0.078492647
0.44362745 0.27205882 0.078431373
0.47941176 0.27794118 0.088051471
0.52843137 0.29215686 0.12156863
0.56292892 0.29822304 0.11617647
0.59007353 0.30343137 0.091789216
0.62408088 0.31084559 0.090257353
0.66176471 0.32107843 0.11544118
0.70245098 0.33529412 0.14901961
0.73039216 0.34166667 0.13958333
0.75686275 0.34411765 0.11813725
0.78382353 0.35 0.10490196
0.80410539 0.35686275 0.11078431
0.81973039 0.36323529 0.12254902
0.82738971 0.37003676 0.13284314
0.81911765 0.37009804 0.13137255
0.80631127 0.37003676 0.12481618
0.79595588 0.37340686 0.12438725
0.77310049 0.36997549 0.11672794
0.77401961 0.38039216 0.12892157
0.34117647 0.28235294 0.080392157
0.34558824 0.28872549 0.075245098
0.35833333 0.30098039 0.069607843
0.38284314 0.30588235 0.072058824
0.41470588 0.31372549 0.084313725
0.43602941 0.31372549 0.075980392
0.45784314 0.31764706 0.069117647
0.49754902 0.325 0.087990196
0.54117647 0.3372549 0.11176471
0.57916667 0.34362745 0.10612745
0.6127451 0.3495098 0.094607843
0.64558824 0.35833333 0.093137255
0.67941176 0.36960784 0.11470588
0.71323529 0.38088235 0.13357843
0.74068627 0.38970588 0.13039216
0.76323529 0.39558824 0.11666667
0.79019608 0.40196078 0.10980392
0.81936275 0.4122549 0.11642157
0.83186275 0.42009804 0.12009804
0.83357843 0.4252451 0.13284314
0.8254902 0.42647059 0.12647059
0.82401961 0.43406863 0.13848039
0.82647059 0.44264706 0.15588235
0.80367647 0.44534314 0.16372549
0.8 0.45294118 0.17843137
0.33970588 0.32941176 0.096078431
0.36164216 0.34264706 0.096568627
0.38247549 0.35147059 0.090196078
0.4004902 0.35147059 0.084252451
0.42598039 0.35490196 0.084068627
0.4495098 0.3588848 0.079473039
0.47647059 0.36188725 0.072794118
0.52089461 0.3723652 0.10943627
0.56127451 0.37843137 0.10098039
0.59822304 0.39105392 0.11660539
0.62830882 0.39558824 0.10245098
0.66525735 0.41188725 0.13033088
0.69705882 0.41617647 0.11348039
0.72702206 0.42640931 0.12113971
0.75441176 0.43627451 0.12107843
0.78137255 0.44607843 0.12040441
0.80931373 0.45392157 0.10980392
0.83694853 0.46764706 0.12224265
0.85147059 0.48014706 0.16176471
0.84056373 0.48131127 0.13443627
0.84093137 0.48553922 0.15539216
0.83921569 0.48872549 0.15343137
0.84007353 0.49901961 0.17095588
0.80281863 0.48976716 0.1625
0.77843137 0.5004902 0.17598039
0.36862745 0.38921569 0.11470588
0.3872549 0.40147059 0.11311275
0.40612745 0.40367647 0.10784314
0.4185049 0.39914216 0.09497549
0.43627451 0.39754902 0.084313725
0.4692402 0.40477941 0.097794118
0.49926471 0.40686275 0.093382353
0.54007353 0.41605392 0.090931373
0.57843137 0.42352941 0.089215686
0.61323529 0.43321078 0.10821078
0.64803922 0.44313725 0.10588235
0.68247549 0.45428922 0.10245098
0.7122549 0.46372549 0.10637255
0.7377451 0.47401961 0.11384804
0.76470588 0.48431373 0.11838235
0.78933824 0.49460784 0.11666667
0.81960784 0.50490196 0.13039216
0.84522059 0.51911765 0.15735294
0.85588235 0.53014706 0.1502451
0.85343137 0.53321078 0.16139706
0.85980392 0.54019608 0.19901961
0.83529412 0.53382353 0.15122549
0.83235294 0.54019608 0.17745098
0.81875 0.54607843 0.18884804
0.8127451 0.55588235 0.20490196
0.3622549 0.41911765 0.10441176
0.39166667 0.43731618 0.10870098
0.42022059 0.44509804 0.11813725
0.43235294 0.44136029 0.1004902
0.44681373 0.43995098 0.083333333
0.48333333 0.44528186 0.09185049
0.52095588 0.45232843 0.097058824
0.55784314 0.45980392 0.10594363
0.59901961 0.47009804 0.11421569
0.63382353 0.47947304 0.109375
0.66470588 0.48921569 0.11531863
0.69932598 0.4995098 0.11568627
0.72843137 0.51127451 0.13014706
0.75557598 0.52009804 0.12334559
0.7810049 0.53039216 0.13063725
0.80735294 0.54215686 0.14136029
0.83431373 0.55637255 0.15784314
0.85490196 0.56666667 0.17506127
0.86568627 0.57659314 0.17696078
0.86734069 0.58057598 0.19993873
0.86887255 0.58039216 0.22009804
0.85036765 0.57935049 0.19840686
0.83235294 0.58137255 0.19338235
0.81568627 0.58382353 0.19411765
0.81176471 0.5877451 0.2004902
0.38039216 0.46666667 0.094117647
0.39558824 0.47696078 0.096568627
0.42647059 0.48235294 0.11470588
0.45392157 0.48627451 0.11813725
0.47647059 0.48627451 0.10392157
0.51421569 0.49411765 0.12303922
0.53823529 0.49705882 0.095098039
0.57843137 0.50343137 0.099509804
0.61960784 0.51372549 0.10980392
0.65294118 0.52401961 0.10735294
0.68529412 0.53431373 0.12254902
0.71617647 0.54509804 0.14362745
0.74705882 0.55490196 0.12156863
0.77352941 0.56470588 0.12990196
0.79411765 0.57156863 0.14019608
0.81862745 0.58186275 0.14509804
0.84313725 0.59607843 0.16470588
0.86519608 0.60784314 0.18284314
0.8745098 0.6127451 0.19313725
0.87009804 0.61911765 0.19509804
0.88235294 0.62352941 0.24705882
0.86176471 0.61960784 0.22254902
0.84607843 0.62352941 0.21568627
0.82843137 0.62892157 0.22892157
0.80392157 0.63921569 0.23137255
0.38823529 0.50931373 0.10539216
0.40833333 0.51721814 0.10784314
0.44767157 0.52169118 0.12058824
0.47794118 0.52745098 0.12696078
0.50098039 0.53137255 0.11176471
0.52794118 0.53560049 0.10147059
0.55526961 0.54215686 0.089338235
0.59840686 0.54944853 0.11354167
0.63627451 0.55735294 0.11617647
0.67107843 0.57003676 0.14338235
0.6995098 0.57794118 0.12254902
0.73253676 0.58841912 0.15723039
0.7625 0.59607843 0.13995098
0.78400735 0.60392157 0.14675245
0.80833333 0.61421569 0.16519608
0.82892157 0.62303922 0.17199755
0.85343137 0.63333333 0.18921569
0.87156863 0.64601716 0.21709559
0.87732843 0.64901961 0.21507353
0.87696078 0.6526348 0.22383578
0.88161765 0.65441176 0.24240196
0.88590686 0.66305147 0.25698529
0.88639706 0.67316176 0.26911765
0.84362745 0.66280637 0.24767157
0.82303922 0.67009804 0.2495098
0.40686275 0.55490196 0.13627451
0.42745098 0.56568627 0.13872549
0.46666667 0.56470588 0.13210784
0.49767157 0.56862745 0.11593137
0.52745098 0.5754902 0.11911765
0.55931373 0.58161765 0.12720588
0.59019608 0.5879902 0.13627451
0.61813725 0.5942402 0.11017157
0.65392157 0.60392157 0.13333333
0.68419118 0.61421569 0.13394608
0.71495098 0.62352941 0.13039216
0.74852941 0.63002451 0.15833333
0.77598039 0.63480392 0.16127451
0.79803922 0.64362745 0.17536765
0.81495098 0.65294118 0.1745098
0.83860294 0.66139706 0.18431373
0.85980392 0.67352941 0.20588235
0.87904412 0.68137255 0.21568627
0.88333333 0.68235294 0.23627451
0.88333333 0.68529412 0.23995098
0.88578431 0.68970588 0.25
0.89056373 0.69362745 0.26727941
0.8879902 0.69779412 0.28357843
0.8557598 0.68909314 0.25845588
0.84411765 0.69901961 0.2754902
0.43088235 0.60294118 0.15343137
0.45147059 0.60686275 0.15098039
0.49460784 0.60980392 0.15073529
0.51991422 0.60980392 0.11893382
0.56078431 0.61740196 0.14509804
0.58376225 0.62156863 0.12683824
0.6125 0.62585784 0.13321078
0.64215686 0.63529412 0.1278799
0.67352941 0.64509804 0.14068627
0.70747549 0.65324755 0.16335784
0.73529412 0.65735294 0.15281863
0.76617647 0.66770833 0.19393382
0.79166667 0.67083333 0.17230392
0.81133578 0.68045343 0.18823529
0.82892157 0.6877451 0.1942402
0.84558824 0.69803922 0.20116422
0.86666667 0.70441176 0.22647059
0.88480392 0.71078431 0.24411765
0.88982843 0.71617647 0.25416667
0.8966299 0.72003676 0.29289216
0.89019608 0.72009804 0.28186275
0.8932598 0.72408088 0.31623775
0.87683824 0.72401961 0.28884804
0.86740196 0.73002451 0.30128676
0.84460784 0.73970588 0.30686275
0.45098039 0.61960784 0.14313725
0.48186275 0.63382353 0.12892157
0.52254902 0.64362745 0.13872549
0.55367647 0.64681373 0.14779412
0.58529412 0.65392157 0.15392157
0.60465686 0.65906863 0.1375
0.63480392 0.6622549 0.14901961
0.66593137 0.67401961 0.15710784
0.69803922 0.68039216 0.14901961
0.725 0.68431373 0.16323529
0.75196078 0.68921569 0.17647059
0.78088235 0.69779412 0.19534314
0.80196078 0.70490196 0.20490196
0.82230392 0.71004902 0.2120098
0.83921569 0.71715686 0.22058824
0.85980392 0.725 0.23480392
0.88039216 0.73529412 0.25098039
0.89142157 0.73921569 0.26911765
0.89607843 0.74362745 0.275
0.8997549 0.74509804 0.28553922
0.90196078 0.74803922 0.3254902
0.89117647 0.75073529 0.31593137
0.88333333 0.75343137 0.32058824
0.87058824 0.75710784 0.31568627
0.85294118 0.77058824 0.32352941
0.45931373 0.64411765 0.14558824
0.5 0.66158088 0.13578431
0.54117647 0.67561275 0.1377451
0.57156863 0.67598039 0.14417892
0.60073529 0.68921569 0.14362745
0.62984069 0.69558824 0.15435049
0.65306373 0.69558824 0.15845588
0.68511029 0.70471814 0.1658701
0.71813725 0.70735294 0.16960784
0.74313725 0.71127451 0.18363971
0.7685049 0.72009804 0.19803922
0.79515931 0.73039216 0.20441176
0.81617647 0.73431373 0.21642157
0.83278186 0.73523284 0.22892157
0.84656863 0.74129902 0.23884804
0.87009804 0.75324755 0.25882353
0.89411765 0.76519608 0.27205882
0.89834559 0.76305147 0.28792892
0.90330882 0.76568627 0.29987745
0.90631127 0.76568627 0.30588235
0.90416667 0.76960784 0.31397059
0.89803922 0.77352941 0.30955882
0.88860294 0.77352941 0.32843137
0.87745098 0.78020833 0.33155637
0.86372549 0.79313725 0.34607843
0.49705882 0.68529412 0.14901961
0.52904412 0.69901961 0.14509804
0.56176471 0.70612745 0.15269608
0.58909314 0.70686275 0.14840686
0.6127451 0.70980392 0.14411765
0.64656863 0.72303922 0.16715686
0.6745098 0.72647059 0.18210784
0.70441176 0.7307598 0.18958333
0.73529412 0.73431373 0.19019608
0.76078431 0.74068627 0.20294118
0.78529412 0.7502451 0.22083333
0.80588235 0.75477941 0.2314951
0.82647059 0.75637255 0.23137255
0.84264706 0.75919118 0.24301471
0.85367647 0.76568627 0.25
0.87352941 0.77487745 0.27585784
0.89411765 0.77941176 0.29313725
0.90735294 0.78125 0.29840686
0.91053922 0.78627451 0.31372549
0.9127451 0.78627451 0.31568627
0.9127451 0.79166667 0.32892157
0.91213235 0.79791667 0.35245098
0.89803922 0.79338235 0.33995098
0.8877451 0.80098039 0.34754902
0.87745098 0.81666667 0.36666667
0.54264706 0.72990196 0.15196078
0.55539216 0.73327206 0.15349265
0.58995098 0.73884804 0.175
0.61341912 0.7377451 0.16096814
0.63897059 0.74436275 0.17034314
0.66715686 0.75 0.18688725
0.69411765 0.76029412 0.19803922
0.725 0.76127451 0.20741422
0.75196078 0.76519608 0.21617647
0.77830882 0.76948529 0.23566176
0.79926471 0.77622549 0.24987745
0.81636029 0.77910539 0.24595588
0.83676471 0.78455882 0.27181373
0.85294118 0.78511029 0.27696078
0.86323529 0.79056373 0.28578431
0.88137255 0.79748775 0.30539216
0.8995098 0.8004902 0.31960784
0.91072304 0.80594363 0.32751225
0.91801471 0.80931373 0.33627451
0.92371324 0.81685049 0.37542892
0.92303922 0.81740196 0.36470588
0.928125 0.82401961 0.39448529
0.91801471 0.82512255 0.3942402
0.90196078 0.83033088 0.39166667
0.88529412 0.83823529 0.38382353
0.54509804 0.74901961 0.17647059
0.57843137 0.75784314 0.18039216
0.60980392 0.76470588 0.18039216
0.6377451 0.76813725 0.17990196
0.66470588 0.78039216 0.19803922
0.69117647 0.78431373 0.21568627
0.71568627 0.79117647 0.2127451
0.74411765 0.79215686 0.24656863
0.76862745 0.79215686 0.24313725
0.78921569 0.79215686 0.2495098
0.80980392 0.79705882 0.26470588
0.83039216 0.80343137 0.28186275
0.84901961 0.80784314 0.29215686
0.86323529 0.81176471 0.30637255
0.87745098 0.81568627 0.31666667
0.89166667 0.82107843 0.33235294
0.90588235 0.82745098 0.34509804
0.91617647 0.83137255 0.36029412
0.92156863 0.83137255 0.36764706
0.925 0.83480392 0.37156863
0.93137255 0.84313725 0.39607843
0.94166667 0.85147059 0.42941176
0.94313725 0.85882353 0.45196078
0.91470588 0.85882353 0.43627451
0.89803922 0.8627451 0.41960784
0.5627451 0.77205882 0.19460784
0.59938725 0.78235294 0.20465686
0.63676471 0.79105392 0.21678922
0.66090686 0.796875 0.21544118
0.68676471 0.80416667 0.22622549
0.71176471 0.80882353 0.23547794
0.73529412 0.81176471 0.25392157
0.75833333 0.81421569 0.25643382
0.77892157 0.81421569 0.27156863
0.80343137 0.81819853 0.29074755
0.82365196 0.82058824 0.2939951
0.84099265 0.8245098 0.30637255
0.86127451 0.83235294 0.31593137
0.87352941 0.83253676 0.33088235
0.88676471 0.83627451 0.34301471
0.90042892 0.84466912 0.35784314
0.91372549 0.8495098 0.37058824
0.92101716 0.85196078 0.38627451
0.92610294 0.85196078 0.39656863
0.92922794 0.85588235 0.40557598
0.93259804 0.85857843 0.41348039
0.94136029 0.86550245 0.44068627
0.93223039 0.86629902 0.44852941
0.91709559 0.87297794 0.44650735
0.9004902 0.88480392 0.44264706
0.59803922 0.79803922 0.19411765
0.62941176 0.8127451 0.25159314
0.66764706 0.82107843 0.26151961
0.67830882 0.82205882 0.23223039
0.70539216 0.8254902 0.25147059
0.72843137 0.82941176 0.2625
0.75122549 0.82941176 0.27303922
0.77144608 0.82941176 0.28002451
0.79019608 0.83333333 0.29117647
0.81507353 0.83823529 0.31507353
0.83529412 0.84215686 0.3127451
0.85490196 0.84509804 0.33039216
0.86911765 0.84901961 0.34313725
0.88370098 0.85294118 0.34595588
0.89093137 0.85686275 0.36102941
0.90379902 0.86188725 0.38284314
0.91764706 0.86470588 0.40294118
0.92610294 0.86862745 0.41715686
0.93039216 0.87181373 0.42990196
0.93333333 0.87156863 0.43210784
0.93480392 0.87303922 0.43529412
0.93492647 0.87769608 0.45453431
0.92867647 0.87794118 0.46617647
0.91813725 0.88235294 0.45943627
0.91078431 0.89901961 0.46862745
0.61127451 0.81470588 0.24460784
0.64430147 0.8254902 0.27150735
0.68014706 0.84007353 0.28333333
0.70428922 0.84601716 0.28829657
0.725 0.84632353 0.28848039
0.74509804 0.84607843 0.28094363
0.76605392 0.85 0.30318627
0.79019608 0.85343137 0.34283088
0.81078431 0.85735294 0.35735294
0.82794118 0.85998775 0.34803922
0.84754902 0.86176471 0.33737745
0.86176471 0.86568627 0.35533088
0.87794118 0.86960784 0.37794118
0.88976716 0.87352941 0.38284314
0.89656863 0.87659314 0.39362745
0.90863971 0.87922794 0.40557598
0.92156863 0.88137255 0.42990196
0.93155637 0.88529412 0.44430147
0.93811275 0.88921569 0.4497549
0.94368873 0.88927696 0.48590686
0.94093137 0.89142157 0.47916667
0.93805147 0.89356618 0.47910539
0.93272059 0.8935049 0.47340686
0.93063725 0.89871324 0.49448529
0.91372549 0.9127451 0.48186275
0.62156863 0.8254902 0.28823529
0.65490196 0.84093137 0.28946078
0.69607843 0.85784314 0.29509804
0.72083333 0.86078431 0.30367647
0.74215686 0.86176471 0.31470588
0.75588235 0.85882353 0.30245098
0.77647059 0.86176471 0.32058824
0.79828431 0.86740196 0.33186275
0.81764706 0.8745098 0.34705882
0.84019608 0.87965686 0.38014706
0.85490196 0.87941176 0.37303922
0.87205882 0.88602941 0.39362745
0.88627451 0.8872549 0.40490196
0.89681373 0.89019608 0.42573529
0.91078431 0.89411765 0.47058824
0.91838235 0.89607843 0.4625
0.92745098 0.89803922 0.45686275
0.9377451 0.9 0.46911765
0.94362745 0.90343137 0.47696078
0.94509804 0.89828431 0.48210784
0.94117647 0.89705882 0.48921569
0.9377451 0.90416667 0.4872549
0.94068627 0.90784314 0.50539216
0.9502451 0.91053922 0.5375
0.93137255 0.91764706 0.51764706
0.64852941 0.85245098 0.31421569
0.6745098 0.86488971 0.30441176
0.70539216 0.87965686 0.29044118
0.72849265 0.87800245 0.30539216
0.7495098 0.87058824 0.33259804
0.77009804 0.86715686 0.34852941
0.78688725 0.86678922 0.35514706
0.80735294 0.87254902 0.35618873
0.82794118 0.88676471 0.36911765
0.84822304 0.89491422 0.39436275
0.86433824 0.89852941 0.4004902
0.87843137 0.90110294 0.4060049
0.89264706 0.90171569 0.42230392
0.90245098 0.90294118 0.44454657
0.9127451 0.9067402 0.46973039
0.92303922 0.91011029 0.47598039
0.93333333 0.90980392 0.48333333
0.94148284 0.91109069 0.48841912
0.94509804 0.90588235 0.50784314
0.94509804 0.90245098 0.5151348
0.94313725 0.90441176 0.51323529
0.9372549 0.91072304 0.50245098
0.93639706 0.91801471 0.50330882
0.94080882 0.92352941 0.53504902
0.93970588 0.93039216 0.53578431
0.67941176 0.8872549 0.32843137
0.68982843 0.89178922 0.32389706
0.71568627 0.88063725 0.32647059
0.73578431 0.86164216 0.32683824
0.7495098 0.85931373 0.3372549
0.77009804 0.85943627 0.35539216
0.78946078 0.86127451 0.36838235
0.81470588 0.87512255 0.39154412
0.8372549 0.89705882 0.39411765
0.85710784 0.90355392 0.41862745
0.87156863 0.89803922 0.42254902
0.88835784 0.89387255 0.44227941
0.90098039 0.89166667 0.45
0.90894608 0.89705882 0.45735294
0.91568627 0.90857843 0.46691176
0.92598039 0.90637255 0.48431373
0.93333333 0.9 0.50098039
0.94362745 0.90539216 0.5127451
0.94803922 0.90294118 0.52622549
0.94816176 0.89705882 0.53578431
0.94656863 0.90441176 0.53872549
0.94411765 0.90735294 0.52818627
0.94411765 0.92058824 0.54093137
0.93480392 0.93088235 0.53860294
0.92745098 0.93921569 0.52843137
0.67941176 0.85588235 0.33186275
0.69491422 0.86525735 0.34099265
0.72120098 0.86029412 0.35012255
0.73321078 0.82965686 0.34528186
0.74828431 0.82941176 0.35245098
0.76519608 0.84166667 0.35189951
0.79068627 0.84411765 0.37438725
0.81470588 0.85098039 0.39840686
0.84019608 0.86862745 0.44068627
0.86335784 0.87555147 0.43713235
0.87683824 0.86764706 0.44509804
0.89656863 0.88180147 0.47009804
0.90735294 0.87671569 0.47401961
0.91568627 0.86911765 0.47843137
0.92598039 0.87647059 0.49215686
0.93088235 0.88394608 0.50551471
0.93333333 0.88333333 0.50196078
0.94810049 0.88841912 0.53057598
0.95330882 0.88382353 0.54019608
0.95441176 0.87610294 0.54197304
0.9497549 0.87794118 0.54313725
0.94901961 0.88253676 0.53970588
0.94901961 0.89571078 0.55294118
0.94454657 0.9223652 0.57444853
0.93970588 0.91813725 0.56813725
0.65098039 0.75686275 0.31372549
0.69117647 0.81911765 0.34362745
0.71764706 0.83529412 0.35294118
0.7254902 0.79019608 0.35294118
0.74117647 0.79215686 0.36078431
0.77303922 0.84313725 0.36764706
0.79705882 0.83529412 0.38823529
0.8122549 0.80637255 0.40833333
0.83529412 0.85098039 0.41960784
0.85735294 0.81372549 0.4377451
0.8754902 0.8245098 0.45588235
0.8995098 0.87058824 0.47647059
0.90980392 0.85098039 0.48431373
0.92205882 0.83970588 0.49460784
0.93235294 0.84313725 0.50196078
0.93872549 0.83480392 0.50490196
0.94509804 0.8745098 0.52941176
0.96078431 0.84264706 0.52647059
0.96078431 0.85294118 0.5372549
0.95735294 0.86323529 0.54362745
0.95294118 0.85294118 0.53921569
0.95245098 0.8495098 0.53578431
0.95294118 0.86078431 0.54117647
0.94754902 0.90784314 0.57205882
0.93333333 0.8627451 0.5372549
0.32990196 0.12254902 0.060294118
0.33829657 0.1317402 0.067647059
0.34301471 0.13615196 0.061887255
0.34834559 0.14742647 0.07064951
0.3625 0.15882353 0.072794118
0.37910539 0.17830882 0.075490196
0.39178922 0.15955882 0.079411765
0.42101716 0.15821078 0.082291667
0.46960784 0.17990196 0.093137255
0.50533088 0.19234069 0.094056373
0.53161765 0.18762255 0.089583333
0.56519608 0.18425245 0.090012255
0.60416667 0.18995098 0.10490196
0.62977941 0.1783701 0.10018382
0.66384804 0.19203431 0.10514706
0.69981618 0.20465686 0.11023284
0.72303922 0.19509804 0.11470588
0.75637255 0.21084559 0.11770833
0.78321078 0.24583333 0.12647059
0.78468137 0.21868873 0.12310049
0.79068627 0.23382353 0.12377451
0.79031863 0.21482843 0.12058824
0.78394608 0.2370098 0.13051471
0.76654412 0.23633578 0.13333333
0.7254902 0.22352941 0.13676471
0.34283088 0.15698529 0.065257353
0.34187347 0.1646829 0.071017157
0.34924939 0.17026654 0.071859681
0.36008732 0.17165288 0.0745481
0.37224265 0.17941176 0.078584559
0.38242953 0.18462776 0.075681679
0.40392157 0.18321078 0.08125
0.44002757 0.19046415 0.090770527
0.48284314 0.20281863 0.10036765
0.51822151 0.21341912 0.10126379
0.54811581 0.21593137 0.096354167
0.58118107 0.21691176 0.096997549
0.61957721 0.22545956 0.10931373
0.65276501 0.22745864 0.11660539
0.68417586 0.23590686 0.11937806
0.71682751 0.24049479 0.11695006
0.74460784 0.24270833 0.11715686
0.77246477 0.25320925 0.12375919
0.79108456 0.26429228 0.13026961
0.80342371 0.26323529 0.13272825
0.8041973 0.26234681 0.13137255
0.79890472 0.264928 0.13130362
0.78901654 0.2730239 0.13328738
0.77401961 0.27174479 0.13850337
0.74901961 0.27696078 0.15196078
0.34313725 0.19509804 0.062745098
0.33877145 0.20765931 0.070327819
0.35199142 0.21685049 0.078094363
0.3845435 0.22169118 0.086412377
0.3877451 0.22150735 0.082843137
0.39964767 0.22801777 0.083578431
0.42974877 0.23134191 0.0890625
0.46659007 0.23737745 0.10147059
0.50735294 0.24595588 0.11605392
0.5417739 0.25379902 0.11507353
0.57123162 0.26115196 0.10628064
0.60566789 0.26708027 0.10761336
0.64178922 0.27352941 0.12034314
