site/assets/luts/sha256-9d21b495c81b70a12d236b070338f968083438e41cf45afeb7f990d2b3b086e4.cube
# LUTr-Schema-Version: 2
# LUTr-ID: sha256-9d21b495c81b70a12d236b070338f968083438e41cf45afeb7f990d2b3b086e4
# LUTr-Title: polaroid 690 cold ++
# LUTr-Collection: Natron HaldCLUT
# LUTr-Collection-ID: natron-haldclut-presets
# LUTr-Source: https://github.com/NatronGitHub/clut
# LUTr-Retrieved: 2026-07-27
# LUTr-Source-File: submissions/natron-haldclut-presets/instant_pro/polaroid_690_cold_++.png
# LUTr-Source-Format: HALD-PNG
# LUTr-Source-SHA256: 9d21b495c81b70a12d236b070338f968083438e41cf45afeb7f990d2b3b086e4
# LUTr-License: CC-BY-SA-4.0
# LUTr-License-URL: https://github.com/NatronGitHub/clut#license
# LUTr-License-Basis: repo-license-file
# LUTr-Transform-Class: film-emulation
# LUTr-Tags: creative, film, film-emulation, hald-clut, natron, png, cool, cube
# LUTr-Input-Color-Space: srgb
# LUTr-Input-Gamut: rec709
# LUTr-Input-Transfer: srgb
# LUTr-Output-Color-Space: srgb
# LUTr-Output-Gamut: rec709
# LUTr-Output-Transfer: srgb
# LUTr-Color-Space-Confidence: assumed-display-referred
# LUTr-Domain-Normalized: true
# LUTr-Shaper: none
# LUTr-Original-Grid: 64x64x64
# LUTr-Conversion-Grid: 25x25x25
# LUTr-Conversion-Interpolation: trilinear
# LUTr-Conversion-Method: HALD-PNG LUT image decoded at 16-bit and sampled to 25x25x25 3D CUBE
# LUTr-Conversion-Tool: LUTr scripts/convert-all-to-cube.mjs 2.0.0
# LUTr-Conversion-Date: 2026-07-27
# LUTr-Note: Preserve this metadata and the upstream license notices when redistributing.
TITLE "polaroid 690 cold ++"
LUT_3D_SIZE 5
DOMAIN_MIN 0 0 0
DOMAIN_MAX 1 1 1
0.20784314 0.30980392 0.36078431
0.26078431 0.30980392 0.36470588
0.41960784 0.29803922 0.35686275
0.68333333 0.26568627 0.35294118
0.94509804 0.22745098 0.35294118
0.20784314 0.34705882 0.36078431
0.27181373 0.35490196 0.36004902
0.50098039 0.35882353 0.36078431
0.75490196 0.34901961 0.35686275
0.97745098 0.33333333 0.34117647
0.19607843 0.49215686 0.35686275
0.28039216 0.4995098 0.35539216
0.50098039 0.54117647 0.34509804
0.80637255 0.59901961 0.33921569
0.99215686 0.61568627 0.33921569
0.18431373 0.72843137 0.33039216
0.30882353 0.72230392 0.33333333
0.52254902 0.73578431 0.32156863
0.78039216 0.7629902 0.31470588
0.98137255 0.78627451 0.34117647
0.48627451 0.92156863 0.40784314
0.53529412 0.92058824 0.39705882
0.66862745 0.92745098 0.38431373
0.8254902 0.93333333 0.40784314
0.92941176 0.94509804 0.42352941
0.19313725 0.31372549 0.40294118
0.26078431 0.31151961 0.40367647
0.41862745 0.29558824 0.40588235
0.66495098 0.24436275 0.40098039
0.9254902 0.08627451 0.37941176
0.19607843 0.35196078 0.40882353
0.27254902 0.35189951 0.40980392
0.49215686 0.34705882 0.40955882
0.72616422 0.30741422 0.39485294
0.96078431 0.25073529 0.38333333
0.14264706 0.51519608 0.41078431
0.26139706 0.52291667 0.40980392
0.51102941 0.54877451 0.40392157
0.81176471 0.58639706 0.40477941
0.97941176 0.58823529 0.40784314
0.12230392 0.74705882 0.39803922
0.28137255 0.73308824 0.39117647
0.50747549 0.74007353 0.37843137
0.79197304 0.77083333 0.38884804
0.97254902 0.78553922 0.41764706
0.45980392 0.9254902 0.47647059
0.50784314 0.92156863 0.46470588
0.63039216 0.90588235 0.43823529
0.81470588 0.92181373 0.45171569
0.95 0.95294118 0.50490196
0.15490196 0.30588235 0.55490196
0.26372549 0.30588235 0.58333333
0.52156863 0.28627451 0.63529412
0.7127451 0.26176471 0.58284314
0.92941176 0.13333333 0.55294118
0.13284314 0.35539216 0.5745098
0.26335784 0.35735294 0.59901961
0.53308824 0.35441176 0.62720588
0.73345588 0.31666667 0.57512255
0.92647059 0.2004902 0.54117647
0.080392157 0.54019608 0.59607843
0.24313725 0.54117647 0.59803922
0.52598039 0.5745098 0.63284314
0.78063725 0.51862745 0.59117647
0.97745098 0.4372549 0.53333333
0.036764706 0.77941176 0.61666667
0.24117647 0.7754902 0.61372549
0.51495098 0.76323529 0.59803922
0.79105392 0.78259804 0.59791667
0.96764706 0.79019608 0.65245098
0.45098039 0.93333333 0.66666667
0.46715686 0.91813725 0.64068627
0.61960784 0.9254902 0.63137255
0.79705882 0.93088235 0.62401961
0.94117647 0.95294118 0.68235294
0.10686275 0.30196078 0.84705882
0.30490196 0.29901961 0.85318627
0.58529412 0.28235294 0.8872549
0.83627451 0.28039216 0.88823529
0.96862745 0.27156863 0.84019608
0.016176471 0.35906863 0.84313725
0.2651348 0.36219363 0.85300245
0.57512255 0.37647059 0.87904412
0.83118873 0.40275735 0.88848039
0.97671569 0.35857843 0.82843137
0.0078431373 0.53970588 0.82352941
0.08995098 0.51960784 0.81519608
0.51568627 0.56985294 0.85392157
0.81213235 0.64460784 0.87745098
0.95343137 0.55882353 0.81911765
0.17745098 0.77867647 0.8497549
0.325 0.77604167 0.85
0.57340686 0.775 0.85870098
0.80294118 0.80202206 0.87199755
0.94730392 0.76323529 0.84093137
0.59215686 0.94117647 0.88235294
0.60367647 0.93088235 0.87745098
0.67892157 0.93431373 0.87352941
0.79044118 0.93014706 0.85686275
0.92254902 0.96176471 0.87352941
0.36078431 0.34901961 0.97647059
0.4872549 0.36470588 0.99215686
0.63921569 0.34705882 0.98039216
0.84607843 0.46862745 0.99215686
0.99215686 0.53333333 0.99215686
0.40784314 0.4372549 0.99215686
0.47965686 0.44411765 0.99142157
0.66176471 0.46911765 0.99215686
0.84509804 0.54828431 0.99142157
0.97352941 0.62352941 0.98627451
0.34117647 0.60784314 0.98431373
0.42794118 0.60980392 0.98431373
0.63823529 0.64705882 0.98431373
0.83039216 0.69901961 0.98039216
0.94705882 0.7254902 0.97647059
0.36666667 0.77941176 0.97156863
0.41495098 0.7754902 0.96764706
0.58823529 0.77156863 0.97254902
0.82034314 0.80686275 0.97254902
0.93823529 0.85 0.97254902
0.68627451 0.94509804 0.96470588
0.70980392 0.94607843 0.96470588
0.76470588 0.94901961 0.96862745
0.84411765 0.95294118 0.96470588
0.89411765 0.94509804 0.94901961
