site/assets/luts/sha256-1b347b4c5afec78ad7f79103bf04b319e182b7133ffe2a8864c732a7003b7eea.cube
# LUTr-Schema-Version: 2
# LUTr-ID: sha256-1b347b4c5afec78ad7f79103bf04b319e182b7133ffe2a8864c732a7003b7eea
# LUTr-Title: Velvia Vivid v2
# LUTr-Collection: FilmSim
# LUTr-Collection-ID: sguyader-filmsim
# LUTr-Source: https://github.com/sguyader/FilmSim
# LUTr-Retrieved: 2026-07-27
# LUTr-Source-File: submissions/sguyader-filmsim/Velvia_Vivid_v2.tif
# LUTr-Source-Format: HALD-TIF
# LUTr-Source-SHA256: 1b347b4c5afec78ad7f79103bf04b319e182b7133ffe2a8864c732a7003b7eea
# LUTr-License: CC0-1.0
# LUTr-License-URL: https://github.com/sguyader/FilmSim/blob/master/LICENSE
# LUTr-License-Basis: repo-license-file
# LUTr-Transform-Class: film-emulation
# LUTr-Tags: creative, film, film-emulation, hald-clut, rawtherapee, tif, cube
# LUTr-Input-Color-Space: srgb
# LUTr-Input-Gamut: rec709
# LUTr-Input-Transfer: srgb
# LUTr-Output-Color-Space: srgb
# LUTr-Output-Gamut: rec709
# LUTr-Output-Transfer: srgb
# LUTr-Color-Space-Confidence: assumed-display-referred
# LUTr-Domain-Normalized: true
# LUTr-Shaper: none
# LUTr-Original-Grid: 144x144x144
# LUTr-Conversion-Grid: 25x25x25
# LUTr-Conversion-Interpolation: trilinear
# LUTr-Conversion-Method: HALD-TIF LUT image decoded at 16-bit and sampled to 25x25x25 3D CUBE
# LUTr-Conversion-Tool: LUTr scripts/convert-all-to-cube.mjs 2.0.0
# LUTr-Conversion-Date: 2026-07-27
# LUTr-Note: Preserve this metadata and the upstream license notices when redistributing.
TITLE "Velvia Vivid v2"
LUT_3D_SIZE 25
DOMAIN_MIN 0 0 0
DOMAIN_MAX 1 1 1
0 0 0
0.0038605325 0 0
0.0038605325 0 0
0.011188678 0.000015259022 0
0.034515908 0.000012715852 0
0.072610691 0.0078367793 0
0.11516365 0.019539178 0
0.15396925 0.037937107 0
0.20832634 0.046926579 0
0.27534524 0.048357748 0
0.34892042 0.046243737 0
0.4246802 0.046277434 0
0.50779736 0.033249409 0
0.57961522 0.060425091 0
0.64155795 0.097076626 0
0.70361067 0.12652399 0
0.76035706 0.14981816 0
0.81196498 0.16920475 0
0.86128786 0.18467613 0
0.90779672 0.19933496 0
0.95435264 0.20781771 0
0.99599069 0.21546502 0
0.9960174 0.22281224 0
0.99606317 0.22667277 0
0.99606317 0.22667277 0
0 0 0
0 0 0
0.0074692912 0.000013987437 0
0.022842597 0.000013033748 0.0000128748
0.046190225 0.0038785467 0
0.08510036 0.011691325 0.0000030465061
0.12302777 0.030170424 4.7684443e-7
0.16551872 0.046910975 3.70879e-7
0.21874528 0.057223875 0
0.28223301 0.064787105 0
0.35829678 0.064650727 0
0.43381018 0.068383995 0
0.51746777 0.056419916 0
0.58166387 0.089411616 0
0.64539305 0.1187517 0
0.70355623 0.14589938 0
0.76036215 0.16542306 0
0.81475041 0.18468683 0
0.86129072 0.19921178 0
0.90780255 0.21092808 0
0.95441113 0.21886778 0
0.99252721 0.22654315 0
0.99598688 0.23057908 0
0.99592584 0.23450065 0
0.99592584 0.23450065 0
0.000045777066 0.0078431373 0.000061036088
0.0033835292 0.011247912 0.000034226834
0.011409404 0.011371044 0.000025643634
0.034358867 0.01530162 0.0000092189924
0.068738503 0.023049176 4.2386172e-7
0.099662076 0.027776824 0
0.13177914 0.041695913 0
0.1733685 0.054371021 0
0.23012004 0.062517908 0
0.29615202 0.072652177 0
0.37144867 0.076634835 0
0.44741662 0.080417536 0
0.52142875 0.089429313 0
0.58560624 0.11856451 0
0.64774357 0.14199421 0
0.70596946 0.1652889 0
0.76167273 0.1846774 0
0.81470456 0.20016043 0
0.86122937 0.21464961 0
0.90784478 0.2235204 0
0.95367721 0.23115532 0
0.9925857 0.2381129 0
0.99597628 0.24204422 0
0.99599959 0.24586862 0
0.99600214 0.24618906 0
0.0000019073777 0.038124666 0.000053406577
0.0071655413 0.042021677 0.000004371074
0.019182339 0.045890078 0.0000044505481
0.053215362 0.050239614 0.0000016689555
0.084753058 0.058016073 0.0000015894814
0.11585094 0.06580024 0.0000030200148
0.15377089 0.073733501 0
0.19637082 0.076175183 0
0.25058429 0.076177488 0
0.31167887 0.081397822 0
0.38331474 0.081788198 0
0.45554634 0.094354798 0
0.52925727 0.11479839 0
0.59125992 0.14379737 0
0.65303066 0.16919299 0
0.70988093 0.18855097 0
0.76425701 0.20664721 0
0.81472527 0.21984682 0
0.86122539 0.2314312 0
0.90779569 0.24181934 0
0.95041835 0.24961185 0
0.99259985 0.2535718 0
0.99599451 0.25745212 0
0.99601358 0.26132982 0
0.99601358 0.26132982 0
0.0071463086 0.084669769 0.000091554131
0.023266723 0.088567496 0.00004937989
0.038652798 0.088552978 4.2386172e-7
0.069153569 0.092040195 0.0000015894814
0.10409959 0.096369201 0.0000063579258
0.13521973 0.10469957 0
0.17707459 0.11203555 0
0.22633029 0.11654311 0
0.28161881 0.12373541 0
0.34070598 0.11758666 0
0.40629202 0.11444923 0
0.47653724 0.1137842 0
0.53867908 0.12960759 0
0.599071 0.15354815 0
0.65904712 0.18139607 0
0.71377286 0.20795726 0
0.76767631 0.22623195 0
0.81565311 0.24166317 0
0.86498309 0.25338051 0
0.90776112 0.26117162 0
0.9504175 0.26901825 0
0.9925927 0.27292477 0
0.99593601 0.276819 0
0.99593601 0.276819 0
0.99592584 0.27747005 0
0.030345108 0.13118372 0.0000031789629
0.046783525 0.13427367 0.000036505091
0.062332151 0.13511747 0.000062890483
0.084146035 0.13893769 0.000020822207
0.11518061 0.14295033 0.0000010596543
0.15520412 0.15319788 0.000043286878
0.20028865 0.16252193 0
0.25076857 0.1700543 0.000020636767
0.30565516 0.17391894 0
0.36611536 0.18121146 0
0.42818898 0.18856093 0
0.48983495 0.17731466 0
0.54874336 0.18165039 0
0.60854556 0.18984348 0
0.66675764 0.20188544 0
0.72159986 0.21555673 0
0.77204547 0.23187101 0
0.82166937 0.25035263 0
0.86512105 0.2665349 0
0.90774909 0.27680917 0
0.95042588 0.28460153 0
0.9890933 0.2895885 0
0.99594815 0.293353 0
0.99602566 0.29618779 0
0.99602566 0.29618779 0
0.010616464 0.1933814 0.000072480354
0.021248188 0.19636199 0.000061830828
0.04838763 0.2000089 0.000044823377
0.083005741 0.20024462 0.000016212711
0.12264566 0.20496681 0.000069301391
0.16918504 0.21198278 0.0000038147555
0.2166619 0.21978237 0.0000066758221
0.26686599 0.23067747 0.000010808474
0.31762671 0.23639785 0.000011444266
0.37381313 0.24322929 0
0.43373579 0.24986458 0
0.49452805 0.25752254 0
0.55653658 0.25984588 0
0.61626151 0.24716325 0
0.6723071 0.2481419 0
0.72546159 0.25204089 0
0.77593652 0.25628672 0
0.82638444 0.26170208 0
0.86900702 0.26887922 0
0.91166107 0.28060912 0
0.95287124 0.29311373 0
0.98914368 0.30127747 0
0.99595636 0.30869001 0
0.99595636 0.31173006 0
0.99597925 0.31557183 0
0 0.26612179 0.00012207218
0 0.26612179 0.00012207218
0.017646688 0.27006789 0.00013764909
0.070224959 0.27007006 0.00011841637
0.11852498 0.27397584 0.000060930122
0.16947038 0.27789545 0.00010265401
0.2313166 0.28573425 0.000057221332
0.28551855 0.28964996 0
0.33505803 0.29650314 0.0000044505481
0.38712123 0.30421252 0
0.44148107 0.30918646 0
0.49778519 0.31306313 0
0.55457039 0.31814647 0
0.61282841 0.32204982 0
0.66996013 0.3181735 0
0.72547557 0.30251877 0
0.77592783 0.29859956 0
0.82636396 0.29864375 0
0.87197077 0.29791015 0
0.91559692 0.29862351 0
0.95431258 0.29976772 0
0.99253262 0.3038378 0
0.99595636 0.30902317 0
0.99598433 0.31669655 0
0.99595636 0.32431525 0
0 0.33597823 0.00016784924
0 0.33597823 0.00016784924
0.048592779 0.33600451 0.00011571425
0.09523092 0.33958635 0.0001112637
0.1307393 0.34099167 0.000079686003
0.18000899 0.34484944 0.000088163238
0.23978408 0.34872969 0.000043233895
0.30189 0.35294478 0.0000072056492
0.35358545 0.35555895 0
0.4009041 0.35979121 0.017242059
0.44973212 0.36470546 0.021319821
0.50017145 0.36858782 0.003742699
0.55323873 0.36860711 0
0.6055954 0.36979286 0
0.65988742 0.37252571 0
0.71419534 0.37251405 0
0.76937006 0.36081653 0
0.81984796 0.3451648 0
0.86643397 0.33737825 0
0.91168883 0.33345456 0
0.95426363 0.3291371 0
0.99253389 0.3256555 0
0.99594619 0.32302841 0
0.99594619 0.32302841 0
0.99595636 0.32431525 0
0 0.40191501 0.00018120089
0.031726527 0.40191318 0.00015982236
0.079719488 0.40195379 0.0001330396
0.12237473 0.4019007 0.00014615282
0.15784346 0.40582322 0.000072480354
0.1923201 0.40925706 0.000085355154
0.24580663 0.41123112 0.000073434043
0.30612459 0.41470135 0.000017802192
0.36702144 0.41512042 0.000020345363
0.41339885 0.41370069 0
0.45693618 0.41514839 0.036396105
0.50405095 0.41905534 0.044520581
0.55062276 0.41903468 0.025587472
0.60108466 0.4190636 0
0.65147885 0.41906678 0
0.70196245 0.41517915 0
0.75290049 0.41515157 0
0.80115357 0.41124566 0
0.85480993 0.39319162 0
0.90379656 0.37613831 0
0.94648725 0.36826855 0
0.98881299 0.36049368 0
0.99595493 0.35403315 0
0.99593919 0.34633974 0
0.99596971 0.34246014 0
0.027801938 0.46004425 0.00015259022
0.068149971 0.46004081 0.00015105372
0.10300094 0.46165281 0.00017929351
0.14171181 0.46164073 0.00014241754
0.17857252 0.4616687 0.00012080059
0.20827993 0.46559848 0.00010342226
0.2495435 0.46787499 0.00011635004
0.30494228 0.46951401 0.000086043929
0.3643918 0.46951671 0.000026703288
0.42265329 0.46949976 0.000049750769
0.46365693 0.46467123 0.000026703288
0.50407326 0.46256803 0.049528984
0.55057539 0.46561189 0.056863381
0.59324979 0.46562656 0.038705675
0.64141002 0.46173482 0.0026376915
0.69023295 0.45880763 0
0.73843027 0.45707171 0
0.78496902 0.45390604 0
0.83422535 0.44943542 0
0.881973 0.44189465 0
0.93243284 0.42042378 0
0.97737167 0.40315083 0
0.99589914 0.39498942 0
0.9959678 0.38360927 0
0.99595382 0.37579792 0
0.05652959 0.51212139 0.0001970957
0.085531083 0.51211895 0.00023315044
0.11649442 0.51211884 0.00022602426
0.15141957 0.51214094 0.00014893441
0.18989471 0.51215953 0.00014432492
0.22324264 0.5160456 0.00014668265
0.25269083 0.51606076 0.00011889321
0.29957036 0.51997289 0.00011266774
0.35582577 0.51998868 0.000047048651
0.41592899 0.51999671 0.000064373999
0.46917169 0.5161059 0.0000048214271
0.50789257 0.50826027 0.000017775701
0.54667258 0.50434405 0.049350856
0.59031762 0.50826589 0.061661999
0.63300871 0.5053991 0.043337689
0.67851752 0.50227177 0.0026293997
0.72505892 0.49775862 0
0.76946543 0.49262595 0
0.81603151 0.48871659 0
0.86256188 0.48440888 0
0.90914153 0.47704916 0
0.9557188 0.46901981 0
0.9959367 0.44366422 0
0.9959659 0.42626713 0
0.99593856 0.41635958 0
0.066163119 0.55867094 0.00024414435
0.093319727 0.55869415 0.00017039241
0.12228453 0.5587218 0.00019455253
0.15547513 0.55871386 0.00015163653
0.19373363 0.55873579 0.0001373312
0.22857156 0.55872721 0.00018914829
0.25660906 0.56258297 0.00015259022
0.29436052 0.56261667 0.00010458788
0.34414944 0.56262048 0.000068665599
0.40235943 0.56261349 0.000072480354
0.46049694 0.56264591 0.000020981155
0.50882385 0.55573199 0.000011762163
0.5466392 0.54699397 0.000022888533
0.58534562 0.54310388 0.039593983
0.62720811 0.54422446 0.056889448
0.66798943 0.54310864 0.039477951
0.71136797 0.53918771 0.0012766715
0.75594593 0.5347591 0
0.80056268 0.52747196 0
0.84668688 0.52318672 0
0.88973322 0.51740927 0
0.9362974 0.51160353 0
0.98074057 0.50409005 0
0.99589373 0.49406456 0
0.99589532 0.46501106 0
0.064353017 0.60135996 0.00027084764
0.091498817 0.60137429 0.00026711236
0.12048121 0.60136091 0.00020615574
0.15498906 0.60135932 0.00020257941
0.19048547 0.60137458 0.00019041988
0.22714169 0.6013745 0.0001400863
0.26044941 0.60135026 0.00013494697
0.28913415 0.60348136 0.00015338496
0.33307669 0.60526012 0.00013139713
0.38484374 0.60528328 0.000068745073
0.4422704 0.60346761 0.000031259802
0.49924812 0.59843412 0.00003258437
0.54570459 0.59358962 0.0000069937184
0.58142098 0.58493511 0.0000075765282
0.61947009 0.57916566 0.019187849
0.66026074 0.57794841 0.045013717
0.70099777 0.57615439 0.027733272
0.74245253 0.57352766 0
0.78506523 0.56780553 0
0.8311731 0.56232974 0
0.87426174 0.55630102 0
0.91872981 0.55059868 0
0.96350604 0.5447705 0
0.99591185 0.5388908 0
0.99590105 0.53107691 0
0.048887363 0.64011851 0.00026194654
0.079950334 0.64008084 0.00021998423
0.11084079 0.64014161 0.00024064749
0.14571603 0.64010246 0.00025574756
0.18234001 0.64010262 0.00020218204
0.22124596 0.63846794 0.0001753198
0.25653976 0.63849502 0.00020249994
0.28761503 0.64012264 0.00017855175
0.32024533 0.64238109 0.000098759781
0.36622241 0.6423929 0.000059923451
0.42058707 0.64009308 0.000053512542
0.47890064 0.63925749 0.000039631071
0.53406386 0.63346812 0.000042598103
0.57876172 0.62660871 0
0.61464686 0.61801857 0.0000051923061
0.65108339 0.61282362 0.0017123484
0.69325551 0.61224028 0.024586947
0.73248964 0.60887879 0.010512565
0.77350493 0.60670793 0
0.8161494 0.60107809 0
0.86037041 0.59690115 0
0.90535782 0.58935063 0
0.94967193 0.5854607 0
0.99432841 0.58150765 0
0.99586353 0.57601409 0
0.012350271 0.67735561 0.00033569848
0.055033172 0.67738367 0.0002740266
0.091325564 0.67736865 0.00028610666
0.13006862 0.67491417 0.00021052682
0.17065436 0.67491766 0.00021553368
0.20950232 0.67494008 0.0002164079
0.24834535 0.67495661 0.00021171893
0.28152212 0.67493761 0.00020726838
0.31040347 0.67658185 0.00016912083
0.35077416 0.67737755 0.00014877546
0.40123709 0.67742936 0.000096640472
0.45562168 0.67498538 0.00010800526
0.51386759 0.67228485 0.000030518044
0.56822436 0.66649445 0.000084480939
0.61090654 0.65933598 0.000022888533
0.64664397 0.65095536 0.0000035763333
0.68361181 0.64614519 0.0000057221332
0.72466684 0.64615624 0.0024319066
0.76520323 0.64371281 0
0.80605147 0.63981015 0
0.84866801 0.63794601 0
0.89345603 0.63204943 0
0.93786081 0.62811459 0
0.98436697 0.62414176 0
0.99583619 0.62028496 0
0 0.71234709 0.0003000941
0.0048752575 0.70978273 0.00034799047
0.058934157 0.70975772 0.00031916787
0.10675402 0.70977531 0.00031026678
0.15331841 0.70975051 0.00027890101
0.19599302 0.70847321 0.00023799836
0.23502836 0.7084624 0.00019073777
0.27159215 0.70846346 0.00021638141
0.30308487 0.70847639 0.00020853997
0.33532336 0.7097734 0.00014750388
0.38077999 0.7097857 0.00015089477
0.43225079 0.70979333 0.000070361045
0.48860405 0.70849673 0.000063579258
0.54673436 0.7053059 0.000091766062
0.59929427 0.69805363 0.000032637352
0.64274116 0.69190382 0.000019073777
0.67808889 0.68417385 0.000013563575
0.71684405 0.67852822 0
0.75849419 0.68116401 0
0.79821236 0.67857167 0
0.84082806 0.67857803 0
0.88349101 0.67464014 0
0.92995219 0.67074676 0
0.97528123 0.66683981 0
0.99583429 0.66294347 0
0 0.74460848 0.00032743318
0 0.74460848 0.00032743318
0.0023184176 0.74462829 0.00039678755
0.074026761 0.74347399 0.0003187705
0.12985491 0.74347889 0.00028250384
0.176576 0.74347065 0.00023778642
0.2195058 0.74348138 0.00029214669
0.25990668 0.74070172 0.00020355959
0.29524448 0.74253219 0.00016700152
0.32414907 0.74350911 0.00019288357
0.36247197 0.74462639 0.00015709375
0.41165975 0.74458978 0.00016188869
0.46530162 0.74350474 0.00008392462
0.52344647 0.74075356 0.00011685338
0.57993237 0.73845019 0.000068453668
0.63154382 0.73291888 0.000017802192
0.67674292 0.72695612 0.000013139713
0.71286015 0.72086698 0.00001210655
0.75163589 0.71732662 0
0.79647466 0.71643113 0
0.83695883 0.71730479 0
0.87959742 0.7173 0
0.92474309 0.71731147 0
0.96874507 0.71733488 0
0.99582475 0.71342985 0
0 0.77843137 0.00036621653
0 0.77843137 0.00036621653
0 0.77843137 0.00036621653
0.018326562 0.77843948 0.00038290608
0.098769106 0.7784727 0.00036939549
0.15638352 0.77845299 0.00027084764
0.20374514 0.77550927 0.00026607919
0.24738514 0.77553168 0.00021203683
0.28709723 0.77553089 0.0002059968
0.31849823 0.77847763 0.00022888533
0.34915916 0.77903124 0.00018692302
0.393527 0.77947582 0.00022952112
0.44447623 0.77944038 0.0001201648
0.50067283 0.77905159 0.00011205844
0.55881081 0.7755719 0.00010109102
0.61634337 0.77347028 0.000067235065
0.66929758 0.76775896 0.000066122428
0.7128535 0.76385074 0.000016371659
0.7516022 0.75994411 0
0.7936683 0.75603939 0
0.83608568 0.759006 0
0.87955148 0.76289197 0
0.92606654 0.76388794 0
0.96875556 0.76385964 0
0.99573892 0.76390478 0
0 0.81428308 0.0003509575
0 0.81428308 0.0003509575
0 0.81428308 0.0003509575
0 0.81428308 0.0003509575
0.061792787 0.81424334 0.00037638921
0.13309298 0.81345782 0.00034777854
0.1882852 0.81344383 0.00032298263
0.23505048 0.81343771 0.00028864983
0.27772162 0.81347287 0.00022210354
0.31427394 0.8142989 0.00024295224
0.34179043 0.81429315 0.00023333588
0.38027022 0.81740983 0.00018292282
0.42851371 0.81817159 0.00014623229
0.48283413 0.81819755 0.000122602
0.53937389 0.81742013 0.00012307885
0.59939727 0.81430724 0.000034332799
0.65772107 0.81405801 0.00007396387
0.70897641 0.81040369 0.000030041199
0.75548737 0.8065245 0.000039260192
0.79733478 0.80263978 0.00002869014
0.83687608 0.8026254 0.000012080059
0.87989544 0.80303694 0
0.93001068 0.81044009 0
0.97265191 0.81045182 0
0.99570649 0.81432949 0
0 0.85295898 0.00034841433
0 0.85295898 0.00034841433
0 0.85295898 0.00034841433
0 0.85295898 0.00034841433
0.014871188 0.85301196 0.00042047083
0.11370175 0.85299087 0.0003114324
0.17329226 0.85300539 0.00035350067
0.22392042 0.85304237 0.00030263727
0.27042547 0.8530429 0.00026788061
0.31061742 0.85305085 0.00026194654
0.34425964 0.85305625 0.00016636572
0.37494024 0.85694285 0.00023577308
0.41762671 0.85696702 0.00017420717
0.4676496 0.85694328 0.00016837907
0.52375999 0.86022566 0.00016445835
0.58394687 0.85899201 0.00011444266
0.64241839 0.85698566 0.000071208769
0.7011298 0.85693406 0.000051605164
0.75500432 0.8530499 0.0000095368887
0.80200095 0.85306696 5.2982715e-7
0.84469368 0.84917983 0
0.8873277 0.84984709 0
0.93001068 0.85308741 0
0.98040996 0.86089992 0.02018864
0.99575291 0.86479235 0.017512271
0 0.89562257 0.00034332799
0 0.89562257 0.00034332799
0 0.89562257 0.00034332799
0 0.89562257 0.00034332799
0 0.89562257 0.00034332799
0.09750205 0.8957061 0.00034157956
0.16462768 0.89567931 0.00034523537
0.21999051 0.89565404 0.00032417474
0.26649945 0.8956569 0.00029246459
0.30932493 0.89569362 0.00022387846
0.34787311 0.89570713 0.00021219577
0.37670909 0.89959826 0.00023937591
0.41364729 0.89959945 0.00019169146
0.4602032 0.90353755 0.00026552288
0.51211344 0.90350385 0.00015465654
0.57021034 0.90353294 0.00010657473
0.63079334 0.90355344 0.00008392462
0.69039842 0.90351442 0.000080586709
0.74861763 0.90355917 0.000038624399
0.80203263 0.90281958 0
0.84908541 0.90013224 0.000034332799
0.89510734 0.89969935 0
0.93827217 0.90353389 0
0.98431166 0.90416683 0.014249304
0.99572557 0.9113489 0.059056229
0 0.93830523 0.00044759798
0 0.93830523 0.00044759798
0 0.93830523 0.00044759798
0 0.93862694 0.00044251164
0 0.9422357 0.00045649907
0.091103937 0.94225234 0.00039615176
0.16462895 0.94220328 0.00038497241
0.21993146 0.94220836 0.00036113018
0.27042505 0.94223485 0.00030687588
0.31306872 0.9422624 0.00024366751
0.35364246 0.94224428 0.00024679349
0.38674298 0.94615489 0.00019762553
0.41576384 0.94615218 0.00022697795
0.45625493 0.95004196 0.00022379899
0.50675127 0.95007365 0.00017664437
0.56108759 0.95395272 0.00019375779
0.62053568 0.95400083 0.00012376762
0.68129954 0.95402192 0.00012435043
0.74078578 0.95398992 0.000030518044
0.80174398 0.95398133 0.0000048214271
0.85244526 0.95401821 0.000044717411
0.90284279 0.95400295 0
0.94586343 0.95397635 3.1789629e-7
0.98850646 0.95401874 0
0.99566389 0.95400549 0.033095547
0 0.98880242 0.00050291193
0 0.98880242 0.00050291193
0 0.98880242 0.00050291193
0 0.98880242 0.00050291193
0 0.98880242 0.00050291193
0.098020142 0.98876555 0.00043806109
0.16851253 0.98877699 0.00040070827
0.22386506 0.98878398 0.0003889726
0.2742771 0.9925572 0.0003886812
0.32083699 0.99252936 0.00034841433
0.36131361 0.99251757 0.00030443868
0.39843529 0.99255013 0.0003393278
0.42743032 0.99628475 0.00021362631
0.46026397 0.99629871 0.00025699266
0.50668091 0.99630477 0.00021998423
0.55722324 0.99631304 0.00016784924
0.61281758 0.99633275 0.00014750388
0.67361604 0.99633013 0.00011216441
0.73294518 0.99628379 0.00010331629
0.79397759 0.99631518 0.00009054746
0.84913977 0.99630435 0.000058598883
0.90266532 0.99632027 0.000029246459
0.9490231 0.9963354 0.000053618507
0.98819704 0.99616784 0.000029299441
0.99574019 0.99260891 0.0000012715852
0 0.99623102 0.0004882887
0 0.99623102 0.0004882887
0 0.99623102 0.0004882887
0 0.99623102 0.0004882887
0.0093842985 0.99630732 0.00047557285
0.11344956 0.9962679 0.00045522749
0.17726787 0.99625391 0.00041199359
0.23163513 0.99626599 0.00027021185
0.28210371 0.99628697 0.00033061214
0.3286183 0.99628634 0.0002994583
0.37131558 0.99630477 0.00022888533
0.41001882 0.99629079 0.00019137357
0.44292363 0.99629969 0.00022888533
0.47007324 0.99631304 0.00020981155
0.50668091 0.99630477 0.00021998423
0.55321965 0.99628634 0.00018310826
0.61671372 0.99628188 0.00013224486
0.70890428 0.99633148 0.00016784924
0.77888914 0.99632639 0.00013351644
0.83952214 0.99634356 0.000024795911
0.89927774 0.99635564 0
0.9424506 0.99632639 0.082934691
0.98056509 0.99630605 0.31700364
0.99586417 0.99626218 0.38323479
0.99584955 0.9962005 0.48038453
0.0000012715852 0.000043869688 0.039239846
0.0077845384 0 0.0075968206
0.007801016 0.000014040419 0.00030952502
0.015104524 0.00004196231 0.000013351644
0.038361817 0.0000024372049 0
0.073350913 0.0000030465061 0
0.1084678 0.014675205 0
0.15285423 0.031231509 0
0.21089918 0.031532133 0
0.27827966 0.029901484 0
0.35225961 0.020358714 0
0.42822042 0.012284307 0
0.51369497 0.000030518044 0
0.57780761 0.033029981 0
0.64157575 0.077740531 0
0.70209462 0.11247338 0
0.76034371 0.13823869 0
0.81199142 0.16032323 0
0.86125353 0.17684062 0
0.90781453 0.19153696 0
0.95431311 0.20012292 0
0.99602232 0.20781278 0
0.99598688 0.21498436 0
0.9960174 0.21882963 0
0.9960174 0.21899557 0
0 0 0
0.00031252075 0.00015014198 0.00046906039
0.015130629 0.000042169826 0.000013455402
0.026870141 0.0000019272463 0.0000019272463
0.053967761 0.003867407 0
0.088107261 0.01453435 0.0000038842953
0.1278707 0.026207595 0
0.16953164 0.039173321 0
0.22261066 0.04435501 0
0.29001394 0.045451994 0
0.36364402 0.037901337 0
0.44374176 0.027574574 0
0.51750677 0.03505351 0
0.58156924 0.073801467 0
0.64384899 0.10704803 0
0.70358259 0.13422336 0
0.76039224 0.1574917 0
0.81473879 0.17580051 0
0.86124876 0.19135386 0
0.90775987 0.20310507 0
0.95437766 0.2110482 0
0.99263943 0.21887621 0
0.99601922 0.22296639 0
0.99606305 0.22667927 0
0.99598992 0.2304231 0
0.0000038147555 0.011423921 0.0000050863406
0.0000038147555 0.011423921 0.0000050863406
0.011411766 0.011665924 0.000027974873
0.04246407 0.015307137 0.0000059605554
0.073492907 0.015440876 0.0000077178155
0.10433573 0.022288133 0
0.1357215 0.038107328 0
0.18121884 0.050828954 0
0.23792754 0.058645861 0
0.30170075 0.06465184 0
0.37615657 0.065214154 0
0.45147476 0.060707043 0
0.52145426 0.079592065 0
0.58540558 0.10716719 0
0.64776744 0.13436983 0
0.70599409 0.15750649 0
0.7616545 0.17687071 0
0.81466433 0.1924403 0
0.86125806 0.20681725 0
0.90775603 0.21853653 0
0.95366477 0.22637622 0
0.99259988 0.23117284 0
0.99593774 0.23493751 0
0.99603256 0.23842846 0
0.9959767 0.24201699 0
0 0.045265173 0.00004410811
0 0.04590486 0.000047684443
0.011818795 0.045875143 0.0000026491357
0.053215362 0.050239614 0.0000016689555
0.088647897 0.057642412 0.0000015894814
0.12284824 0.061920184 8.8083764e-7
0.158121 0.068938254 0
0.20260965 0.066027172 0
0.25475976 0.068431918 0
0.31716449 0.072315843 0
0.39173115 0.076060164 0
0.46699392 0.087643855 0
0.52925727 0.11479839 0
0.59124593 0.14202009 0
0.65161158 0.165287 0
0.70991193 0.18465538 0
0.76425659 0.20023466 0
0.81470731 0.21562397 0
0.86125353 0.22717727 0
0.90778417 0.23794823 0
0.95044662 0.24302392 0
0.99257076 0.24963545 0
0.99603456 0.25355535 0
0.99604569 0.25418932 0
0.99599451 0.25745212 0
0 0.088565906 0.000045777066
0.01091466 0.088515758 0.0000026049835
0.033557759 0.088588698 0.000018914829
0.064818828 0.092465778 0.000050598493
0.10355281 0.096364962 0
0.13834197 0.10422035 0
0.18098472 0.10811208 0
0.23138796 0.11208079 0
0.28792835 0.11254715 0
0.34790659 0.10357708 0
0.41553249 0.096847166 0
0.47658312 0.10822782 0
0.53867653 0.13025737 0
0.59872036 0.15802929 0
0.65715394 0.18530302 0
0.71377286 0.20795726 0
0.7653587 0.22394935 0
0.81466138 0.23886907 0
0.86119885 0.24945449 0
0.90780694 0.25728658 0
0.95042132 0.26506574 0
0.98914257 0.26902132 0
0.99598179 0.27292032 0
0.9959818 0.27292144 0
0.995982 0.27294713 0
0.0069801813 0.1342888 0.000084666378
0.031022598 0.13513763 0.000090812373
0.054163371 0.13510515 0.000057040308
0.075934635 0.13902549 0.000030064379
0.1112712 0.14553252 0.0000050775102
0.15391306 0.15321549 0.000043286878
