site/assets/luts/sha256-208b8176ebd73a30804d3737854041ead279c3b7f771deaab676f73afb9650a1.cube
# LUTr-Schema-Version: 2
# LUTr-ID: sha256-208b8176ebd73a30804d3737854041ead279c3b7f771deaab676f73afb9650a1
# LUTr-Title: polaroid 665 -
# LUTr-Collection: Natron HaldCLUT
# LUTr-Collection-ID: natron-haldclut-presets
# LUTr-Source: https://github.com/NatronGitHub/clut
# LUTr-Retrieved: 2026-07-27
# LUTr-Source-File: submissions/natron-haldclut-presets/instant_pro/polaroid_665_-.png
# LUTr-Source-Format: HALD-PNG
# LUTr-Source-SHA256: 208b8176ebd73a30804d3737854041ead279c3b7f771deaab676f73afb9650a1
# LUTr-License: CC-BY-SA-4.0
# LUTr-License-URL: https://github.com/NatronGitHub/clut#license
# LUTr-License-Basis: repo-license-file
# LUTr-Transform-Class: film-emulation
# LUTr-Tags: creative, film, film-emulation, hald-clut, natron, png, cube
# LUTr-Input-Color-Space: srgb
# LUTr-Input-Gamut: rec709
# LUTr-Input-Transfer: srgb
# LUTr-Output-Color-Space: srgb
# LUTr-Output-Gamut: rec709
# LUTr-Output-Transfer: srgb
# LUTr-Color-Space-Confidence: assumed-display-referred
# LUTr-Domain-Normalized: true
# LUTr-Shaper: none
# LUTr-Original-Grid: 64x64x64
# LUTr-Conversion-Grid: 25x25x25
# LUTr-Conversion-Interpolation: trilinear
# LUTr-Conversion-Method: HALD-PNG LUT image decoded at 16-bit and sampled to 25x25x25 3D CUBE
# LUTr-Conversion-Tool: LUTr scripts/convert-all-to-cube.mjs 2.0.0
# LUTr-Conversion-Date: 2026-07-27
# LUTr-Note: Preserve this metadata and the upstream license notices when redistributing.
TITLE "polaroid 665 -"
LUT_3D_SIZE 25
DOMAIN_MIN 0 0 0
DOMAIN_MAX 1 1 1
0.066666667 0.066666667 0.066666667
0.062745098 0.062745098 0.062745098
0.062745098 0.062745098 0.062745098
0.062745098 0.062745098 0.062745098
0.066666667 0.066666667 0.066666667
0.071078431 0.071078431 0.071078431
0.074509804 0.074509804 0.074509804
0.098529412 0.098529412 0.098529412
0.12156863 0.12156863 0.12156863
0.14607843 0.14607843 0.14607843
0.1627451 0.1627451 0.1627451
0.18333333 0.18333333 0.18333333
0.20588235 0.20588235 0.20588235
0.23235294 0.23235294 0.23235294
0.25686275 0.25686275 0.25686275
0.28284314 0.28284314 0.28284314
0.30980392 0.30980392 0.30980392
0.33431373 0.33431373 0.33431373
0.35392157 0.35392157 0.35392157
0.36813725 0.36813725 0.36813725
0.38235294 0.38235294 0.38235294
0.39705882 0.39705882 0.39705882
0.42058824 0.42058824 0.42058824
0.44754902 0.44754902 0.44754902
0.4745098 0.4745098 0.4745098
0.066666667 0.066666667 0.066666667
0.062745098 0.062745098 0.062745098
0.062745098 0.062745098 0.062745098
0.062745098 0.062745098 0.062745098
0.069852941 0.069852941 0.069852941
0.080882353 0.080882353 0.080882353
0.09129902 0.09129902 0.09129902
0.11035539 0.11035539 0.11035539
0.13186275 0.13186275 0.13186275
0.14944853 0.14944853 0.14944853
0.16458333 0.16458333 0.16458333
0.18155637 0.18155637 0.18155637
0.20710784 0.20710784 0.20710784
0.23265931 0.23265931 0.23265931
0.25870098 0.25870098 0.25870098
0.28529412 0.28529412 0.28529412
0.30980392 0.30980392 0.30980392
0.33431373 0.33431373 0.33431373
0.35490196 0.35490196 0.35490196
0.37156863 0.37156863 0.37156863
0.3875 0.3875 0.3875
0.40520833 0.40520833 0.40520833
0.42794118 0.42794118 0.42794118
0.45545343 0.45545343 0.45545343
0.48088235 0.48088235 0.48088235
0.067647059 0.067647059 0.067647059
0.067647059 0.067647059 0.067647059
0.063480392 0.063480392 0.063480392
0.058946078 0.058946078 0.058946078
0.074019608 0.074019608 0.074019608
0.091789216 0.091789216 0.091789216
0.10686275 0.10686275 0.10686275
0.12647059 0.12647059 0.12647059
0.14705882 0.14705882 0.14705882
0.16482843 0.16482843 0.16482843
0.17941176 0.17941176 0.17941176
0.19362745 0.19362745 0.19362745
0.21519608 0.21519608 0.21519608
0.23860294 0.23860294 0.23860294
0.26397059 0.26397059 0.26397059
0.28737745 0.28737745 0.28737745
0.31078431 0.31078431 0.31078431
0.33676471 0.33676471 0.33676471
0.35588235 0.35588235 0.35588235
0.3754902 0.3754902 0.3754902
0.39313725 0.39313725 0.39313725
0.41372549 0.41372549 0.41372549
0.44117647 0.44117647 0.44117647
0.46813725 0.46813725 0.46813725
0.49215686 0.49215686 0.49215686
0.089215686 0.089215686 0.089215686
0.08872549 0.08872549 0.08872549
0.084803922 0.084803922 0.084803922
0.083884804 0.083884804 0.083884804
0.096568627 0.096568627 0.096568627
0.11280637 0.11280637 0.11280637
0.12352941 0.12352941 0.12352941
0.13970588 0.13970588 0.13970588
0.16029412 0.16029412 0.16029412
0.18057598 0.18057598 0.18057598
0.19620098 0.19620098 0.19620098
0.21072304 0.21072304 0.21072304
0.23039216 0.23039216 0.23039216
0.25147059 0.25147059 0.25147059
0.275 0.275 0.275
0.29656863 0.29656863 0.29656863
0.31715686 0.31715686 0.31715686
0.33823529 0.33823529 0.33823529
0.35882353 0.35882353 0.35882353
0.37941176 0.37941176 0.37941176
0.4 0.4 0.4
0.42101716 0.42101716 0.42101716
0.44803922 0.44803922 0.44803922
0.47481618 0.47481618 0.47481618
0.49460784 0.49460784 0.49460784
0.11960784 0.11960784 0.11960784
0.11960784 0.11960784 0.11960784
0.11568627 0.11568627 0.11568627
0.11568627 0.11568627 0.11568627
0.12647059 0.12647059 0.12647059
0.13529412 0.13529412 0.13529412
0.13529412 0.13529412 0.13529412
0.15147059 0.15147059 0.15147059
0.1745098 0.1745098 0.1745098
0.19387255 0.19387255 0.19387255
0.21323529 0.21323529 0.21323529
0.22867647 0.22867647 0.22867647
0.24607843 0.24607843 0.24607843
0.26568627 0.26568627 0.26568627
0.28823529 0.28823529 0.28823529
0.30686275 0.30686275 0.30686275
0.32745098 0.32745098 0.32745098
0.34803922 0.34803922 0.34803922
0.36470588 0.36470588 0.36470588
0.38529412 0.38529412 0.38529412
0.40392157 0.40392157 0.40392157
0.4247549 0.4247549 0.4247549
0.45196078 0.45196078 0.45196078
0.47352941 0.47352941 0.47352941
0.49215686 0.49215686 0.49215686
0.1504902 0.1504902 0.1504902
0.15018382 0.15018382 0.15018382
0.14656863 0.14656863 0.14656863
0.14656863 0.14656863 0.14656863
0.15392157 0.15392157 0.15392157
0.14993873 0.14993873 0.14993873
0.14656863 0.14656863 0.14656863
0.15998775 0.15998775 0.15998775
0.18480392 0.18480392 0.18480392
0.20539216 0.20539216 0.20539216
0.22598039 0.22598039 0.22598039
0.2466299 0.2466299 0.2466299
0.26348039 0.26348039 0.26348039
0.28039216 0.28039216 0.28039216
0.30098039 0.30098039 0.30098039
0.32107843 0.32107843 0.32107843
0.33823529 0.33823529 0.33823529
0.35833333 0.35833333 0.35833333
0.37487745 0.37487745 0.37487745
0.39166667 0.39166667 0.39166667
0.40808824 0.40808824 0.40808824
0.42843137 0.42843137 0.42843137
0.45196078 0.45196078 0.45196078
0.47175245 0.47175245 0.47175245
0.49019608 0.49019608 0.49019608
0.18137255 0.18137255 0.18137255
0.17781863 0.17781863 0.17781863
0.17745098 0.17745098 0.17745098
0.17745098 0.17745098 0.17745098
0.1745098 0.1745098 0.1745098
0.17009804 0.17009804 0.17009804
0.16348039 0.16348039 0.16348039
0.17058824 0.17058824 0.17058824
0.19509804 0.19509804 0.19509804
0.21568627 0.21568627 0.21568627
0.2372549 0.2372549 0.2372549
0.26078431 0.26078431 0.26078431
0.27892157 0.27892157 0.27892157
0.29705882 0.29705882 0.29705882
0.31470588 0.31470588 0.31470588
0.33137255 0.33137255 0.33137255
0.35196078 0.35196078 0.35196078
0.36862745 0.36862745 0.36862745
0.38431373 0.38431373 0.38431373
0.40196078 0.40196078 0.40196078
0.41666667 0.41666667 0.41666667
0.43443627 0.43443627 0.43443627
0.45882353 0.45882353 0.45882353
0.48333333 0.48333333 0.48333333
0.50392157 0.50392157 0.50392157
0.20833333 0.20833333 0.20833333
0.20741422 0.20741422 0.20741422
0.20441176 0.20441176 0.20441176
0.20441176 0.20441176 0.20441176
0.1997549 0.1997549 0.1997549
0.1963848 0.1963848 0.1963848
0.19264706 0.19264706 0.19264706
0.19803922 0.19803922 0.19803922
0.21078431 0.21078431 0.21078431
0.22990196 0.22990196 0.22990196
0.2504902 0.2504902 0.2504902
0.27107843 0.27107843 0.27107843
0.29166667 0.29166667 0.29166667
0.30833333 0.30833333 0.30833333
0.32598039 0.32598039 0.32598039
0.34466912 0.34466912 0.34466912
0.3622549 0.3622549 0.3622549
0.37892157 0.37892157 0.37892157
0.39558824 0.39558824 0.39558824
0.4122549 0.4122549 0.4122549
0.43039216 0.43039216 0.43039216
0.4536152 0.4536152 0.4536152
0.48235294 0.48235294 0.48235294
0.50931373 0.50931373 0.50931373
0.52990196 0.52990196 0.52990196
0.23529412 0.23529412 0.23529412
0.23529412 0.23529412 0.23529412
0.23431373 0.23431373 0.23431373
0.23137255 0.23137255 0.23137255
0.22745098 0.22745098 0.22745098
0.22352941 0.22352941 0.22352941
0.22352941 0.22352941 0.22352941
0.22745098 0.22745098 0.22745098
0.23529412 0.23529412 0.23529412
0.24803922 0.24803922 0.24803922
0.26372549 0.26372549 0.26372549
0.28137255 0.28137255 0.28137255
0.30196078 0.30196078 0.30196078
0.31862745 0.31862745 0.31862745
0.33627451 0.33627451 0.33627451
0.35588235 0.35588235 0.35588235
0.37254902 0.37254902 0.37254902
0.38921569 0.38921569 0.38921569
0.40588235 0.40588235 0.40588235
0.42647059 0.42647059 0.42647059
0.44705882 0.44705882 0.44705882
0.47156863 0.47156863 0.47156863
0.49901961 0.49901961 0.49901961
0.52843137 0.52843137 0.52843137
0.54901961 0.54901961 0.54901961
0.2622549 0.2622549 0.2622549
0.2622549 0.2622549 0.2622549
0.2622549 0.2622549 0.2622549
0.25851716 0.25851716 0.25851716
0.25514706 0.25514706 0.25514706
0.25441176 0.25441176 0.25441176
0.25441176 0.25441176 0.25441176
0.25496324 0.25496324 0.25496324
0.2622549 0.2622549 0.2622549
0.27254902 0.27254902 0.27254902
0.28431373 0.28431373 0.28431373
0.29589461 0.29589461 0.29589461
0.3122549 0.3122549 0.3122549
0.32892157 0.32892157 0.32892157
0.34840686 0.34840686 0.34840686
0.36617647 0.36617647 0.36617647
0.38284314 0.38284314 0.38284314
0.40042892 0.40042892 0.40042892
0.42009804 0.42009804 0.42009804
0.44068627 0.44068627 0.44068627
0.4625 0.4625 0.4625
0.48841912 0.48841912 0.48841912
0.51605392 0.51605392 0.51605392
0.54356618 0.54356618 0.54356618
0.56568627 0.56568627 0.56568627
0.28921569 0.28921569 0.28921569
0.28921569 0.28921569 0.28921569
0.28921569 0.28921569 0.28921569
0.28921569 0.28921569 0.28921569
0.28529412 0.28529412 0.28529412
0.28529412 0.28529412 0.28529412
0.28529412 0.28529412 0.28529412
0.28529412 0.28529412 0.28529412
0.28921569 0.28921569 0.28921569
0.2995098 0.2995098 0.2995098
0.30955882 0.30955882 0.30955882
0.31654412 0.31654412 0.31654412
0.32696078 0.32696078 0.32696078
0.34276961 0.34276961 0.34276961
0.35980392 0.35980392 0.35980392
0.37647059 0.37647059 0.37647059
0.39411765 0.39411765 0.39411765
0.41372549 0.41372549 0.41372549
0.43431373 0.43431373 0.43431373
0.45490196 0.45490196 0.45490196
0.47794118 0.47794118 0.47794118
0.50526961 0.50526961 0.50526961
0.53235294 0.53235294 0.53235294
0.55931373 0.55931373 0.55931373
0.58235294 0.58235294 0.58235294
0.31617647 0.31617647 0.31617647
0.31666667 0.31666667 0.31666667
0.31666667 0.31666667 0.31666667
0.32009804 0.32009804 0.32009804
0.31617647 0.31617647 0.31617647
0.31617647 0.31617647 0.31617647
0.31617647 0.31617647 0.31617647
0.31617647 0.31617647 0.31617647
0.31666667 0.31666667 0.31666667
0.32647059 0.32647059 0.32647059
0.33676471 0.33676471 0.33676471
0.34319853 0.34319853 0.34319853
0.35 0.35 0.35
0.35686275 0.35686275 0.35686275
0.37095588 0.37095588 0.37095588
0.38890931 0.38890931 0.38890931
0.40735294 0.40735294 0.40735294
0.42794118 0.42794118 0.42794118
0.44852941 0.44852941 0.44852941
0.46911765 0.46911765 0.46911765
0.49509804 0.49509804 0.49509804
0.5216299 0.5216299 0.5216299
0.54914216 0.54914216 0.54914216
0.57843137 0.57843137 0.57843137
0.59901961 0.59901961 0.59901961
0.34705882 0.34705882 0.34705882
0.34705882 0.34705882 0.34705882
0.34705882 0.34705882 0.34705882
0.34705882 0.34705882 0.34705882
0.34705882 0.34705882 0.34705882
0.34705882 0.34705882 0.34705882
0.34705882 0.34705882 0.34705882
0.34705882 0.34705882 0.34705882
0.34705882 0.34705882 0.34705882
0.35343137 0.35343137 0.35343137
0.36323529 0.36323529 0.36323529
0.36838235 0.36838235 0.36838235
0.3754902 0.3754902 0.3754902
0.38088235 0.38088235 0.38088235
0.3877451 0.3877451 0.3877451
0.40220588 0.40220588 0.40220588
0.42156863 0.42156863 0.42156863
0.43823529 0.43823529 0.43823529
0.45882353 0.45882353 0.45882353
0.48308824 0.48308824 0.48308824
0.50784314 0.50784314 0.50784314
0.5370098 0.5370098 0.5370098
0.56960784 0.56960784 0.56960784
0.59901961 0.59901961 0.59901961
0.61960784 0.61960784 0.61960784
0.37794118 0.37794118 0.37794118
0.37401961 0.37401961 0.37401961
0.37487745 0.37487745 0.37487745
0.37794118 0.37794118 0.37794118
0.37794118 0.37794118 0.37794118
0.37843137 0.37843137 0.37843137
0.37843137 0.37843137 0.37843137
0.37794118 0.37794118 0.37794118
0.37794118 0.37794118 0.37794118
0.38167892 0.38167892 0.38167892
0.38933824 0.38933824 0.38933824
0.39356618 0.39356618 0.39356618
0.40122549 0.40122549 0.40122549
0.40588235 0.40588235 0.40588235
0.4127451 0.4127451 0.4127451
0.41795343 0.41795343 0.41795343
0.43137255 0.43137255 0.43137255
0.44852941 0.44852941 0.44852941
0.47046569 0.47046569 0.47046569
0.49362745 0.49362745 0.49362745
0.51813725 0.51813725 0.51813725
0.54754902 0.54754902 0.54754902
0.58566176 0.58566176 0.58566176
0.61930147 0.61930147 0.61930147
0.64068627 0.64068627 0.64068627
0.40490196 0.40490196 0.40490196
0.40490196 0.40490196 0.40490196
0.40490196 0.40490196 0.40490196
0.40845588 0.40845588 0.40845588
0.40882353 0.40882353 0.40882353
0.4127451 0.4127451 0.4127451
0.4127451 0.4127451 0.4127451
0.4127451 0.4127451 0.4127451
0.4127451 0.4127451 0.4127451
0.41237745 0.41237745 0.41237745
0.41666667 0.41666667 0.41666667
0.42144608 0.42144608 0.42144608
0.42892157 0.42892157 0.42892157
0.43370098 0.43370098 0.43370098
0.43627451 0.43627451 0.43627451
0.4372549 0.4372549 0.4372549
0.44117647 0.44117647 0.44117647
0.45882353 0.45882353 0.45882353
0.48333333 0.48333333 0.48333333
0.50392157 0.50392157 0.50392157
0.52843137 0.52843137 0.52843137
0.55784314 0.55784314 0.55784314
0.59509804 0.59509804 0.59509804
0.63480392 0.63480392 0.63480392
0.66176471 0.66176471 0.66176471
0.43578431 0.43578431 0.43578431
0.43578431 0.43578431 0.43578431
0.43578431 0.43578431 0.43578431
0.43578431 0.43578431 0.43578431
0.44044118 0.44044118 0.44044118
0.44381127 0.44381127 0.44381127
0.44693627 0.44693627 0.44693627
0.44754902 0.44754902 0.44754902
0.44754902 0.44754902 0.44754902
0.44754902 0.44754902 0.44754902
0.44963235 0.44963235 0.44963235
0.45508578 0.45508578 0.45508578
0.45808824 0.45808824 0.45808824
0.46323529 0.46323529 0.46323529
0.46323529 0.46323529 0.46323529
0.46078431 0.46078431 0.46078431
0.46078431 0.46078431 0.46078431
0.4745098 0.4745098 0.4745098
0.49362745 0.49362745 0.49362745
0.51421569 0.51421569 0.51421569
0.5379902 0.5379902 0.5379902
0.56813725 0.56813725 0.56813725
0.60539216 0.60539216 0.60539216
0.64025735 0.64025735 0.64025735
0.67205882 0.67205882 0.67205882
0.47058824 0.47058824 0.47058824
0.46666667 0.46666667 0.46666667
0.46666667 0.46666667 0.46666667
0.46666667 0.46666667 0.46666667
0.47254902 0.47254902 0.47254902
0.47843137 0.47843137 0.47843137
0.48235294 0.48235294 0.48235294
0.48235294 0.48235294 0.48235294
0.48235294 0.48235294 0.48235294
0.48627451 0.48627451 0.48627451
0.4872549 0.4872549 0.4872549
0.49019608 0.49019608 0.49019608
0.49411765 0.49411765 0.49411765
0.49803922 0.49803922 0.49803922
0.49803922 0.49803922 0.49803922
0.49803922 0.49803922 0.49803922
0.49803922 0.49803922 0.49803922
0.50196078 0.50196078 0.50196078
0.51078431 0.51078431 0.51078431
0.5245098 0.5245098 0.5245098
0.54705882 0.54705882 0.54705882
0.57843137 0.57843137 0.57843137
0.6127451 0.6127451 0.6127451
0.64901961 0.64901961 0.64901961
0.68235294 0.68235294 0.68235294
0.50784314 0.50784314 0.50784314
0.50484069 0.50484069 0.50484069
0.5 0.5 0.5
0.50343137 0.50343137 0.50343137
0.50857843 0.50857843 0.50857843
0.51354167 0.51354167 0.51354167
0.5189951 0.5189951 0.5189951
0.51960784 0.51960784 0.51960784
0.52107843 0.52107843 0.52107843
0.52107843 0.52107843 0.52107843
0.52561275 0.52561275 0.52561275
0.52873775 0.52873775 0.52873775
0.53210784 0.53210784 0.53210784
0.53529412 0.53529412 0.53529412
0.53529412 0.53529412 0.53529412
0.53921569 0.53921569 0.53921569
0.53676471 0.53676471 0.53676471
0.53676471 0.53676471 0.53676471
0.54129902 0.54129902 0.54129902
0.54460784 0.54460784 0.54460784
0.55735294 0.55735294 0.55735294
0.59246324 0.59246324 0.59246324
0.62879902 0.62879902 0.62879902
0.66660539 0.66660539 0.66660539
0.69656863 0.69656863 0.69656863
0.55294118 0.55294118 0.55294118
0.54938725 0.54938725 0.54938725
0.54509804 0.54509804 0.54509804
0.54607843 0.54607843 0.54607843
0.55 0.55 0.55
0.55294118 0.55294118 0.55294118
0.55686275 0.55686275 0.55686275
0.55686275 0.55686275 0.55686275
0.55686275 0.55686275 0.55686275
0.55870098 0.55870098 0.55870098
0.56151961 0.56151961 0.56151961
0.56727941 0.56727941 0.56727941
0.57058824 0.57058824 0.57058824
0.57303922 0.57303922 0.57303922
0.57647059 0.57647059 0.57647059
0.57647059 0.57647059 0.57647059
0.57647059 0.57647059 0.57647059
0.57254902 0.57254902 0.57254902
0.57745098 0.57745098 0.57745098
0.58480392 0.58480392 0.58480392
0.59656863 0.59656863 0.59656863
0.62107843 0.62107843 0.62107843
0.65416667 0.65416667 0.65416667
0.68688725 0.68688725 0.68688725
0.71568627 0.71568627 0.71568627
0.59803922 0.59803922 0.59803922
0.59540441 0.59540441 0.59540441
0.59362745 0.59362745 0.59362745
0.59405637 0.59405637 0.59405637
0.59754902 0.59754902 0.59754902
0.59803922 0.59803922 0.59803922
0.59803922 0.59803922 0.59803922
0.59411765 0.59411765 0.59411765
0.59411765 0.59411765 0.59411765
0.59656863 0.59656863 0.59656863
0.60196078 0.60196078 0.60196078
0.60588235 0.60588235 0.60588235
0.61348039 0.61348039 0.61348039
0.61807598 0.61807598 0.61807598
0.62107843 0.62107843 0.62107843
0.62107843 0.62107843 0.62107843
0.61764706 0.61764706 0.61764706
0.61764706 0.61764706 0.61764706
0.62254902 0.62254902 0.62254902
0.63278186 0.63278186 0.63278186
0.64264706 0.64264706 0.64264706
0.65790441 0.65790441 0.65790441
0.68578431 0.68578431 0.68578431
0.71305147 0.71305147 0.71305147
0.72892157 0.72892157 0.72892157
0.64509804 0.64509804 0.64509804
0.64191176 0.64191176 0.64191176
0.64117647 0.64117647 0.64117647
0.64509804 0.64509804 0.64509804
0.64509804 0.64509804 0.64509804
0.64509804 0.64509804 0.64509804
0.64313725 0.64313725 0.64313725
0.64044118 0.64044118 0.64044118
0.64117647 0.64117647 0.64117647
0.64240196 0.64240196 0.64240196
0.64754902 0.64754902 0.64754902
0.65465686 0.65465686 0.65465686
0.65980392 0.65980392 0.65980392
0.66495098 0.66495098 0.66495098
0.66813725 0.66813725 0.66813725
0.66862745 0.66862745 0.66862745
0.66666667 0.66666667 0.66666667
0.66789216 0.66789216 0.66789216
0.67352941 0.67352941 0.67352941
0.68014706 0.68014706 0.68014706
0.6872549 0.6872549 0.6872549
0.69485294 0.69485294 0.69485294
0.71519608 0.71519608 0.71519608
0.73137255 0.73137255 0.73137255
0.73333333 0.73333333 0.73333333
0.69215686 0.69215686 0.69215686
0.68872549 0.68872549 0.68872549
0.69227941 0.69227941 0.69227941
0.69264706 0.69264706 0.69264706
0.69264706 0.69264706 0.69264706
0.69215686 0.69215686 0.69215686
0.68872549 0.68872549 0.68872549
0.68872549 0.68872549 0.68872549
0.68872549 0.68872549 0.68872549
0.69264706 0.69264706 0.69264706
0.69742647 0.69742647 0.69742647
0.70392157 0.70392157 0.70392157
0.70833333 0.70833333 0.70833333
0.7122549 0.7122549 0.7122549
0.71482843 0.71482843 0.71482843
0.71617647 0.71617647 0.71617647
0.71617647 0.71617647 0.71617647
0.71862745 0.71862745 0.71862745
0.72401961 0.72401961 0.72401961
0.7278799 0.7278799 0.7278799
0.73357843 0.73357843 0.73357843
0.73621324 0.73621324 0.73621324
0.73933824 0.73933824 0.73933824
0.74264706 0.74264706 0.74264706
0.74264706 0.74264706 0.74264706
0.74019608 0.74019608 0.74019608
0.7372549 0.7372549 0.7372549
0.74019608 0.74019608 0.74019608
0.74019608 0.74019608 0.74019608
0.74019608 0.74019608 0.74019608
0.74019608 0.74019608 0.74019608
0.74019608 0.74019608 0.74019608
0.74019608 0.74019608 0.74019608
0.74019608 0.74019608 0.74019608
0.74411765 0.74411765 0.74411765
0.74803922 0.74803922 0.74803922
0.75196078 0.75196078 0.75196078
0.75588235 0.75588235 0.75588235
0.75980392 0.75980392 0.75980392
0.76053922 0.76053922 0.76053922
0.76372549 0.76372549 0.76372549
0.76372549 0.76372549 0.76372549
0.7682598 0.7682598 0.7682598
0.77181373 0.77181373 0.77181373
0.77512255 0.77512255 0.77512255
0.77941176 0.77941176 0.77941176
0.78382353 0.78382353 0.78382353
0.78504902 0.78504902 0.78504902
0.78333333 0.78333333 0.78333333
0.78039216 0.78039216 0.78039216
0.78627451 0.78627451 0.78627451
0.78627451 0.78627451 0.78627451
0.78345588 0.78345588 0.78345588
0.78578431 0.78578431 0.78578431
0.78627451 0.78627451 0.78627451
0.78627451 0.78627451 0.78627451
0.78627451 0.78627451 0.78627451
0.7877451 0.7877451 0.7877451
0.79166667 0.79166667 0.79166667
0.79558824 0.79558824 0.79558824
0.79620098 0.79620098 0.79620098
0.80165441 0.80165441 0.80165441
0.79803922 0.79803922 0.79803922
0.80735294 0.80735294 0.80735294
0.80919118 0.80919118 0.80919118
0.81127451 0.81127451 0.81127451
0.81372549 0.81372549 0.81372549
0.81372549 0.81372549 0.81372549
0.81372549 0.81372549 0.81372549
0.81764706 0.81764706 0.81764706
0.8254902 0.8254902 0.8254902
0.83118873 0.83118873 0.83118873
0.83333333 0.83333333 0.83333333
0.82941176 0.82941176 0.82941176
0.82696078 0.82696078 0.82696078
0.82352941 0.82352941 0.82352941
0.82107843 0.82107843 0.82107843
0.81568627 0.81568627 0.81568627
0.81568627 0.81568627 0.81568627
0.81568627 0.81568627 0.81568627
0.81568627 0.81568627 0.81568627
0.81862745 0.81862745 0.81862745
0.82107843 0.82107843 0.82107843
0.82745098 0.82745098 0.82745098
0.83382353 0.83382353 0.83382353
0.84607843 0.84607843 0.84607843
0.8504902 0.8504902 0.8504902
0.83529412 0.83529412 0.83529412
0.8504902 0.8504902 0.8504902
0.85392157 0.85392157 0.85392157
0.85343137 0.85343137 0.85343137
0.84705882 0.84705882 0.84705882
0.84460784 0.84460784 0.84460784
0.84705882 0.84705882 0.84705882
0.8504902 0.8504902 0.8504902
0.85686275 0.85686275 0.85686275
0.86715686 0.86715686 0.86715686
0.86764706 0.86764706 0.86764706
0.8627451 0.8627451 0.8627451
0.85882353 0.85882353 0.85882353
0.073039216 0.073039216 0.073039216
0.073039216 0.073039216 0.073039216
0.073039216 0.073039216 0.073039216
0.073039216 0.073039216 0.073039216
0.075735294 0.075735294 0.075735294
0.081188725 0.081188725 0.081188725
0.094117647 0.094117647 0.094117647
0.11427696 0.11427696 0.11427696
0.13823529 0.13823529 0.13823529
0.15882353 0.15882353 0.15882353
0.17879902 0.17879902 0.17879902
0.19393382 0.19393382 0.19393382
0.21421569 0.21421569 0.21421569
0.23529412 0.23529412 0.23529412
0.26041667 0.26041667 0.26041667
0.28621324 0.28621324 0.28621324
0.30980392 0.30980392 0.30980392
0.33676471 0.33676471 0.33676471
0.35453431 0.35453431 0.35453431
0.37028186 0.37028186 0.37028186
0.38431373 0.38431373 0.38431373
0.39920343 0.39920343 0.39920343
0.41764706 0.41764706 0.41764706
0.4348652 0.4348652 0.4348652
0.45147059 0.45147059 0.45147059
0.073039216 0.073039216 0.073039216
0.073039216 0.073039216 0.073039216
0.072671569 0.072671569 0.072671569
0.07064951 0.07064951 0.07064951
0.078921569 0.078921569 0.078921569
0.091597733 0.091597733 0.091597733
0.10487132 0.10487132 0.10487132
0.12156863 0.12156863 0.12156863
0.14215686 0.14215686 0.14215686
0.16182598 0.16182598 0.16182598
0.17918199 0.17918199 0.17918199
0.1952742 0.1952742 0.1952742
0.21421569 0.21421569 0.21421569
0.23792126 0.23792126 0.23792126
0.26179534 0.26179534 0.26179534
0.28621324 0.28621324 0.28621324
0.30980392 0.30980392 0.30980392
0.33584559 0.33584559 0.33584559
0.35490196 0.35490196 0.35490196
0.371875 0.371875 0.371875
0.38872549 0.38872549 0.38872549
0.40654871 0.40654871 0.40654871
0.43046875 0.43046875 0.43046875
0.45228248 0.45228248 0.45228248
0.46727941 0.46727941 0.46727941
0.080392157 0.080392157 0.080392157
0.078860294 0.078860294 0.078860294
0.076470588 0.076470588 0.076470588
0.076470588 0.076470588 0.076470588
0.08872549 0.08872549 0.08872549
0.10499387 0.10499387 0.10499387
0.12043505 0.12043505 0.12043505
0.13616728 0.13616728 0.13616728
0.15637255 0.15637255 0.15637255
0.17303922 0.17303922 0.17303922
0.18897059 0.18897059 0.18897059
