site/assets/luts/sha256-bbd29985ab7adf11bc134a15c3664460fcef2a0cf6ae4fc1bff6f18504bcec20.cube
# LUTr-Schema-Version: 2
# LUTr-ID: sha256-bbd29985ab7adf11bc134a15c3664460fcef2a0cf6ae4fc1bff6f18504bcec20
# LUTr-Title: fuji velvia 50
# LUTr-Collection: Natron HaldCLUT
# LUTr-Collection-ID: natron-haldclut-presets
# LUTr-Source: https://github.com/NatronGitHub/clut
# LUTr-Retrieved: 2026-07-27
# LUTr-Source-File: submissions/natron-haldclut-presets/colorslide/fuji_velvia_50.png
# LUTr-Source-Format: HALD-PNG
# LUTr-Source-SHA256: bbd29985ab7adf11bc134a15c3664460fcef2a0cf6ae4fc1bff6f18504bcec20
# LUTr-License: CC-BY-SA-4.0
# LUTr-License-URL: https://github.com/NatronGitHub/clut#license
# LUTr-License-Basis: repo-license-file
# LUTr-Transform-Class: film-emulation
# LUTr-Tags: creative, film, film-emulation, hald-clut, natron, png, cube
# LUTr-Input-Color-Space: srgb
# LUTr-Input-Gamut: rec709
# LUTr-Input-Transfer: srgb
# LUTr-Output-Color-Space: srgb
# LUTr-Output-Gamut: rec709
# LUTr-Output-Transfer: srgb
# LUTr-Color-Space-Confidence: assumed-display-referred
# LUTr-Domain-Normalized: true
# LUTr-Shaper: none
# LUTr-Original-Grid: 64x64x64
# LUTr-Conversion-Grid: 25x25x25
# LUTr-Conversion-Interpolation: trilinear
# LUTr-Conversion-Method: HALD-PNG LUT image decoded at 16-bit and sampled to 25x25x25 3D CUBE
# LUTr-Conversion-Tool: LUTr scripts/convert-all-to-cube.mjs 2.0.0
# LUTr-Conversion-Date: 2026-07-27
# LUTr-Note: Preserve this metadata and the upstream license notices when redistributing.
TITLE "fuji velvia 50"
LUT_3D_SIZE 5
DOMAIN_MIN 0 0 0
DOMAIN_MAX 1 1 1
0.0039215686 0 0
0.17156863 0.014705882 0.031372549
0.45098039 0 0.011764706
0.70980392 0.0078431373 0.023529412
0.96078431 0 0.0039215686
0.040196078 0.18333333 0.034313725
0.17965686 0.17254902 0.042156863
0.45490196 0.13823529 0.027941176
0.72058824 0.084068627 0.025735294
0.97156863 0.017647059 0.015686275
0 0.5 0.078431373
0.07745098 0.49264706 0.092156863
0.44313725 0.46372549 0.079411765
0.7254902 0.41666667 0.054901961
0.96862745 0.36666667 0.049019608
0 0.77745098 0.08627451
0.015686275 0.77034314 0.12254902
0.42156863 0.74705882 0.10147059
0.70294118 0.71372549 0.10196078
0.95980392 0.67156863 0.054901961
0 0.99215686 0.15686275
0.015686275 0.9872549 0.17352941
0.37843137 0.99019608 0.16862745
0.6872549 0.98823529 0.11666667
0.96470588 0.96862745 0.02745098
0.0039215686 0.0039215686 0.11372549
0.16372549 0.018627451 0.12647059
0.45686275 0.0073529412 0.11617647
0.7247549 0 0.088235294
0.98039216 0 0.059803922
0.02745098 0.19803922 0.16372549
0.16862745 0.1747549 0.16470588
0.46458333 0.12941176 0.1754902
0.72941176 0.084129902 0.15122549
0.97573529 0.017647059 0.10416667
0 0.49656863 0.23431373
0.10759804 0.49031863 0.22634804
0.45465686 0.4627451 0.23406863
0.7314951 0.41629902 0.22058824
0.97892157 0.36470588 0.1877451
0 0.78039216 0.28406863
0.0082107843 0.77034314 0.29136029
0.425 0.74313725 0.2872549
0.70906863 0.71819853 0.28253676
0.97941176 0.67769608 0.24387255
0 1 0.32156863
0.02254902 0.99607843 0.3254902
0.35784314 0.98627451 0.32205882
0.69509804 0.99093137 0.3127451
0.95294118 0.96078431 0.25392157
0.0078431373 0.0078431373 0.33137255
0.15147059 0.0058823529 0.3254902
0.46568627 0.0019607843 0.33529412
0.73578431 0 0.31764706
0.98235294 0 0.29411765
0.023529412 0.19509804 0.38921569
0.1745098 0.15245098 0.39313725
0.46862745 0.11446078 0.39901961
0.73921569 0.057107843 0.39264706
0.98872549 0.032352941 0.3745098
0.0039215686 0.49705882 0.45098039
0.094117647 0.48872549 0.45294118
0.45539216 0.45539216 0.46176471
0.73382353 0.41470588 0.45661765
0.96176471 0.36666667 0.44313725
0 0.77745098 0.50441176
0.018504902 0.77352941 0.50490196
0.425 0.7497549 0.50882353
0.71838235 0.72156863 0.5064951
0.96078431 0.69117647 0.49901961
0 1 0.53921569
0.0068627451 1 0.55245098
0.3745098 0.99607843 0.54901961
0.69656863 0.97843137 0.53970588
0.96666667 0.96862745 0.52352941
0.011764706 0.0078431373 0.52941176
0.14509804 0.0049019608 0.54215686
0.45588235 0 0.56078431
0.72941176 0 0.55882353
0.96568627 0 0.54411765
0.023529412 0.18235294 0.59411765
0.13780637 0.14117647 0.60196078
0.46078431 0.09877451 0.60980392
0.74172794 0.033026961 0.60588235
0.97377451 0.02254902 0.60196078
0.011764706 0.49215686 0.65980392
0.029044118 0.48431373 0.65588235
0.44436275 0.44877451 0.66764706
0.73382353 0.40882353 0.67156863
0.98382353 0.35294118 0.65980392
0 0.78529412 0.70980392
0.027634804 0.77647059 0.70588235
0.40196078 0.75735294 0.71580882
0.71764706 0.72530637 0.72101716
0.9872549 0.68039216 0.71862745
0 0.99607843 0.74803922
0.015441176 0.98431373 0.74117647
0.35588235 0.99607843 0.75980392
0.69509804 0.97156863 0.76078431
0.98333333 0.98137255 0.75686275
0.0039215686 0 0.7372549
0.12058824 0 0.74509804
0.4372549 0 0.74901961
0.7372549 0 0.74117647
0.98823529 0 0.76078431
0.0078431373 0.10392157 0.78921569
0.1245098 0.1 0.78333333
0.44362745 0.043627451 0.7877451
0.7379902 0 0.80294118
0.94607843 0 0.79901961
0 0.47647059 0.8372549
0.023529412 0.46470588 0.84313725
0.43529412 0.42156863 0.82058824
0.73431373 0.37794118 0.85931373
0.97843137 0.33333333 0.86078431
0.0039215686 0.78137255 0.89411765
0.0078431373 0.76642157 0.89877451
0.35 0.74558824 0.90882353
0.71004902 0.70686275 0.92867647
0.96862745 0.66862745 0.9254902
0 1 0.98039216
0.00098039216 0.99117647 0.95196078
0.26078431 0.97843137 0.95686275
0.67156863 0.9872549 0.97156863
0.98039216 0.98431373 0.94117647
