site/assets/luts/sha256-9e11ba97c9f3abdd3ae06839dbd50767a6a04564d919f2d988bfe46967877127.cube
# LUTr-Schema-Version: 2
# LUTr-ID: sha256-9e11ba97c9f3abdd3ae06839dbd50767a6a04564d919f2d988bfe46967877127
# LUTr-Title: polaroid px-680 cold
# LUTr-Collection: Natron HaldCLUT
# LUTr-Collection-ID: natron-haldclut-presets
# LUTr-Source: https://github.com/NatronGitHub/clut
# LUTr-Retrieved: 2026-07-27
# LUTr-Source-File: submissions/natron-haldclut-presets/instant_consumer/polaroid_px-680_cold.png
# LUTr-Source-Format: HALD-PNG
# LUTr-Source-SHA256: 9e11ba97c9f3abdd3ae06839dbd50767a6a04564d919f2d988bfe46967877127
# LUTr-License: CC-BY-SA-4.0
# LUTr-License-URL: https://github.com/NatronGitHub/clut#license
# LUTr-License-Basis: repo-license-file
# LUTr-Transform-Class: film-emulation
# LUTr-Tags: creative, film, film-emulation, hald-clut, natron, png, cool, cube
# LUTr-Input-Color-Space: srgb
# LUTr-Input-Gamut: rec709
# LUTr-Input-Transfer: srgb
# LUTr-Output-Color-Space: srgb
# LUTr-Output-Gamut: rec709
# LUTr-Output-Transfer: srgb
# LUTr-Color-Space-Confidence: assumed-display-referred
# LUTr-Domain-Normalized: true
# LUTr-Shaper: none
# LUTr-Original-Grid: 64x64x64
# LUTr-Conversion-Grid: 25x25x25
# LUTr-Conversion-Interpolation: trilinear
# LUTr-Conversion-Method: HALD-PNG LUT image decoded at 16-bit and sampled to 25x25x25 3D CUBE
# LUTr-Conversion-Tool: LUTr scripts/convert-all-to-cube.mjs 2.0.0
# LUTr-Conversion-Date: 2026-07-27
# LUTr-Note: Preserve this metadata and the upstream license notices when redistributing.
TITLE "polaroid px-680 cold"
LUT_3D_SIZE 25
DOMAIN_MIN 0 0 0
DOMAIN_MAX 1 1 1
0.16470588 0.22745098 0.24705882
0.16470588 0.225 0.24705882
0.16470588 0.22352941 0.24705882
0.16470588 0.22352941 0.24705882
0.16666667 0.21960784 0.24705882
0.16862745 0.21911765 0.24705882
0.16862745 0.21568627 0.24705882
0.17009804 0.21421569 0.24705882
0.18431373 0.21176471 0.24705882
0.21519608 0.21176471 0.24705882
0.24607843 0.20784314 0.24705882
0.28039216 0.20784314 0.24705882
0.37254902 0.21176471 0.24313725
0.46715686 0.21176471 0.23921569
0.55588235 0.21176471 0.23627451
0.6377451 0.21029412 0.23382353
0.70588235 0.21960784 0.23137255
0.75735294 0.2504902 0.22745098
0.80490196 0.27647059 0.22352941
0.85637255 0.30098039 0.21960784
0.87843137 0.33529412 0.22745098
0.90294118 0.37009804 0.23578431
0.92352941 0.40490196 0.24607843
0.94803922 0.43578431 0.26421569
0.96470588 0.46666667 0.27843137
0.15833333 0.22990196 0.24705882
0.16078431 0.2283701 0.24705882
0.16286765 0.22745098 0.24705882
0.16470588 0.22383578 0.24705882
0.16789216 0.22279412 0.24705882
0.16862745 0.21960784 0.24705882
0.17218137 0.21629902 0.24705882
0.17555147 0.2151348 0.24705882
0.18039216 0.21176471 0.24705882
0.20882353 0.21176471 0.24705882
0.24669118 0.20968137 0.24705882
0.29234069 0.20784314 0.24705882
0.38088235 0.21176471 0.24313725
0.47107843 0.21439951 0.23921569
0.55686275 0.21568627 0.23590686
0.63621324 0.22052696 0.23229167
0.70588235 0.23627451 0.22745098
0.75735294 0.26170343 0.225
0.8067402 0.2877451 0.22291667
0.8504902 0.31501225 0.22334559
0.87916667 0.34289216 0.22745098
0.90324755 0.37273284 0.23314951
0.92745098 0.40490196 0.24215686
0.9471201 0.43578431 0.25784314
0.95441176 0.45245098 0.26813725
0.15294118 0.23529412 0.24313725
0.1564951 0.23235294 0.24705882
0.16078431 0.23063725 0.24705882
0.16470588 0.22745098 0.24705882
0.16862745 0.22352941 0.24705882
0.17267157 0.22046569 0.24705882
0.17647059 0.21960784 0.24705882
0.18039216 0.21568627 0.24705882
0.18137255 0.21176471 0.24705882
0.20306373 0.21176471 0.24705882
0.24877451 0.21176471 0.24705882
0.2995098 0.21176471 0.24313725
0.38627451 0.2122549 0.24313725
0.47095588 0.21568627 0.23921569
0.55367647 0.21960784 0.23627451
0.6310049 0.23811275 0.2310049
0.70588235 0.25294118 0.22647059
0.7622549 0.27708333 0.22291667
0.80784314 0.30196078 0.22058824
0.84509804 0.32990196 0.22352941
0.87843137 0.36029412 0.22990196
0.90330882 0.38370098 0.23529412
0.93039216 0.40980392 0.23848039
0.94448529 0.43186275 0.24754902
0.94803922 0.43823529 0.25392157
0.1495098 0.23872549 0.24313725
0.15294118 0.23658088 0.24558824
0.15784314 0.23394608 0.24705882
0.16421569 0.2278799 0.24705882
0.17058824 0.22720588 0.24705882
0.17604167 0.22352941 0.24705882
0.18026961 0.22046569 0.24705882
0.18400735 0.21911765 0.24705882
0.1877451 0.21568627 0.24705882
0.20735294 0.21519608 0.24705882
0.25833333 0.21433824 0.24607843
0.29993873 0.21176471 0.24313725
0.39362745 0.21911765 0.24117647
0.47702206 0.22254902 0.23921569
0.55257353 0.23627451 0.23529412
0.62990196 0.25343137 0.22775735
0.70931373 0.27009804 0.22352941
0.77009804 0.29068627 0.21960784
0.80784314 0.31875 0.22058824
0.84509804 0.34705882 0.22696078
0.87671569 0.37573529 0.22965686
0.90294118 0.4 0.23229167
0.92781863 0.42365196 0.23823529
0.9463848 0.45012255 0.25716912
0.95245098 0.46078431 0.26568627
0.14705882 0.24117647 0.24313725
0.14828431 0.23921569 0.24313725
0.15343137 0.23529412 0.24705882
0.16029412 0.23137255 0.24705882
0.16764706 0.22745098 0.24705882
0.17696078 0.22745098 0.24705882
0.18333333 0.22401961 0.24705882
0.18897059 0.22279412 0.24705882
0.19411765 0.21960784 0.24705882
0.23186275 0.22279412 0.24705882
0.27892157 0.22352941 0.24313725
0.33235294 0.22916667 0.24142157
0.40588235 0.2372549 0.23823529
0.49166667 0.24387255 0.23529412
0.56372549 0.25784314 0.23137255
0.63651961 0.27352941 0.22598039
0.71176471 0.29019608 0.21960784
0.77647059 0.31004902 0.21568627
0.8127451 0.3377451 0.21764706
0.84754902 0.36715686 0.21764706
0.87843137 0.39215686 0.22352941
0.90318627 0.4129902 0.22965686
0.92745098 0.44019608 0.23970588
0.94411765 0.47107843 0.26642157
0.96078431 0.49607843 0.28823529
0.14117647 0.24313725 0.24313725
0.14491422 0.24313725 0.24313725
0.14987745 0.23835784 0.24705882
0.15637255 0.23186275 0.24705882
0.16666667 0.22745098 0.24705882
0.17604167 0.22745098 0.24705882
0.18333333 0.22745098 0.24705882
0.18970588 0.22383578 0.24705882
0.20392157 0.22352941 0.24705882
0.25067402 0.23039216 0.24675245
0.30404412 0.2372549 0.24301471
0.36317402 0.24754902 0.23921569
0.42671569 0.25784314 0.23529412
0.50588235 0.26813725 0.23137255
0.575 0.28137255 0.22745098
0.64558824 0.29675245 0.22205882
0.71372549 0.31470588 0.21568627
0.77273284 0.33578431 0.21176471
0.81960784 0.36115196 0.20784314
0.85692402 0.3877451 0.21127451
0.88063725 0.40882353 0.21740196
0.90692402 0.42898284 0.22310049
0.92708333 0.45343137 0.2372549
0.93970588 0.47922794 0.26127451
0.95245098 0.50196078 0.28186275
0.14117647 0.24705882 0.24313725
0.14117647 0.2442402 0.24313725
0.14534314 0.24142157 0.24411765
0.15257353 0.23566176 0.24705882
0.1627451 0.23088235 0.24705882
0.17303922 0.23137255 0.24705882
0.18112745 0.23039216 0.24705882
0.18970588 0.22745098 0.24705882
0.21078431 0.22745098 0.24705882
0.26764706 0.24215686 0.2435049
0.32843137 0.25857843 0.23921569
0.39019608 0.26813725 0.23541667
0.45196078 0.27647059 0.23186275
0.51875 0.28492647 0.22830882
0.58529412 0.30196078 0.22377451
0.64914216 0.32156863 0.2185049
0.71372549 0.34215686 0.2127451
0.76911765 0.36335784 0.20821078
0.81960784 0.3872549 0.20465686
0.85747549 0.40870098 0.20735294
0.88235294 0.42941176 0.21519608
0.90698529 0.44607843 0.21997549
0.92230392 0.46666667 0.23333333
0.93186275 0.48431373 0.25392157
0.94215686 0.50882353 0.2745098
0.1372549 0.24705882 0.24313725
0.14117647 0.24552696 0.24313725
0.14178922 0.24460784 0.24375
0.14705882 0.24099265 0.24705882
0.15735294 0.23676471 0.24705882
0.16746324 0.23872549 0.246875
0.17401961 0.2432598 0.24558824
0.1848652 0.24417892 0.24558824
0.22107843 0.25686275 0.24313725
0.28676471 0.275 0.23829657
0.34852941 0.29129902 0.23492647
0.40784314 0.30343137 0.23167892
0.46960784 0.31127451 0.22671569
0.52990196 0.32156863 0.22205882
0.59019608 0.33762255 0.21813725
0.65251225 0.35392157 0.2127451
0.71764706 0.36911765 0.20637255
0.77359069 0.38970588 0.20245098
0.81421569 0.41029412 0.20392157
0.84803922 0.43302696 0.21078431
0.875 0.45269608 0.21838235
0.89901961 0.47028186 0.2254902
0.91813725 0.4872549 0.24154412
0.93088235 0.50484069 0.25876225
0.94117647 0.52058824 0.2745098
0.1372549 0.24705882 0.24313725
0.1372549 0.2495098 0.24313725
0.12941176 0.25882353 0.24313725
0.1254902 0.26617647 0.24313725
0.13333333 0.26666667 0.24313725
0.15343137 0.27058824 0.24313725
0.16372549 0.2745098 0.23921569
0.18627451 0.28382353 0.23921569
0.23137255 0.30196078 0.23921569
0.29313725 0.32009804 0.23284314
0.3627451 0.33823529 0.23039216
0.4245098 0.34852941 0.22401961
0.48627451 0.3627451 0.22156863
0.54362745 0.37303922 0.21519608
0.59803922 0.38627451 0.20882353
0.65980392 0.39754902 0.20392157
0.72156863 0.40784314 0.19607843
0.77058824 0.41813725 0.19607843
0.80686275 0.43333333 0.2
0.8377451 0.45392157 0.20735294
0.86666667 0.4745098 0.22156863
0.89117647 0.49117647 0.23235294
0.91176471 0.50882353 0.24901961
0.92843137 0.52843137 0.26568627
0.94117647 0.54117647 0.27843137
0.090196078 0.27892157 0.24068627
0.092647059 0.28529412 0.24068627
0.089705882 0.29705882 0.24068627
0.088235294 0.3036152 0.24068627
0.10759804 0.30539216 0.23921569
0.13333333 0.30410539 0.23890931
0.15245098 0.30833333 0.23566176
0.18719363 0.32009804 0.234375
0.23921569 0.34313725 0.23137255
0.29705882 0.36372549 0.22800245
0.36862745 0.38394608 0.22463235
0.44215686 0.39969363 0.21764706
0.50563725 0.4129902 0.21323529
0.55784314 0.4245098 0.20539216
0.60931373 0.43296569 0.19852941
0.66525735 0.44264706 0.19362745
0.71519608 0.4504902 0.18970588
0.75637255 0.45140931 0.18970588
0.79718137 0.45968137 0.19068627
0.82990196 0.47843137 0.20098039
0.85833333 0.49828431 0.21960784
0.88743873 0.51390931 0.23609069
0.90784314 0.52941176 0.25294118
0.9245098 0.54810049 0.26960784
0.94019608 0.56323529 0.28382353
0.018627451 0.32254902 0.23529412
0.025980392 0.33186275 0.23713235
0.03627451 0.34117647 0.23823529
0.046568627 0.34509804 0.23823529
0.066176471 0.34607843 0.23529412
0.096568627 0.34509804 0.23517157
0.13112745 0.34215686 0.23137255
0.18186275 0.36188725 0.22928922
0.23333333 0.38529412 0.22745098
0.28541667 0.40980392 0.22463235
0.36078431 0.42867647 0.21936275
0.44607843 0.44607843 0.21482843
0.51421569 0.45980392 0.20784314
0.56629902 0.46715686 0.1995098
0.61936275 0.47745098 0.19142157
0.6682598 0.48627451 0.18615196
0.70588235 0.49019608 0.18431373
0.74607843 0.48958333 0.18431373
0.79044118 0.48676471 0.18333333
0.82156863 0.5 0.19509804
0.85196078 0.52058824 0.21960784
0.88272059 0.53676471 0.23970588
0.9 0.54926471 0.25392157
0.90992647 0.56568627 0.26813725
0.91862745 0.57843137 0.27843137
0 0.37745098 0.23529412
0.0042279412 0.38167892 0.23529412
0.0093137255 0.38590686 0.23529412
0.012745098 0.38970588 0.23529412
0.016911765 0.39019608 0.23186275
0.019730392 0.39019608 0.23137255
0.056985294 0.39656863 0.22794118
0.13658088 0.4122549 0.22745098
0.20882353 0.43333333 0.22352941
0.26911765 0.45520833 0.2213848
0.34865196 0.46973039 0.21862745
0.42156863 0.48039216 0.21568627
0.48946078 0.49436275 0.21151961
0.54552696 0.50490196 0.20294118
0.60343137 0.51776961 0.19571078
0.66127451 0.52892157 0.19166667
0.70196078 0.53480392 0.19166667
0.74313725 0.53265931 0.19166667
0.78088235 0.53088235 0.19252451
0.81084559 0.53480392 0.2028799
0.84166667 0.55147059 0.21960784
0.86905637 0.56764706 0.2401348
0.88321078 0.57401961 0.25392157
0.89246324 0.58627451 0.26439951
0.89901961 0.59509804 0.275
0 0.43529412 0.23333333
0.0024509804 0.43848039 0.23333333
0.0039215686 0.4372549 0.23137255
0.0058823529 0.4372549 0.23137255
0.0029411765 0.4372549 0.23137255
0 0.4372549 0.22745098
0.0098039216 0.44215686 0.22745098
0.078431373 0.46029412 0.22598039
0.15882353 0.47843137 0.22352941
0.24313725 0.49460784 0.22156863
0.31862745 0.50490196 0.21960784
0.39411765 0.51519608 0.21960784
0.4627451 0.5254902 0.21470588
0.52058824 0.53970588 0.20931373
0.5872549 0.55539216 0.20294118
0.65318627 0.57009804 0.19926471
0.70196078 0.57647059 0.19803922
0.73872549 0.57843137 0.20441176
0.76960784 0.57843137 0.21029412
0.8004902 0.58039216 0.21715686
0.83333333 0.58627451 0.22745098
0.86127451 0.59803922 0.24191176
0.86862745 0.60490196 0.25392157
0.8745098 0.60857843 0.26151961
0.87843137 0.61176471 0.26862745
0 0.49264706 0.23137255
0 0.49264706 0.23137255
0.0039215686 0.49166667 0.23137255
0.0039215686 0.48523284 0.23137255
0.0039215686 0.48431373 0.23137255
0.0039828431 0.48480392 0.23131127
0.010906863 0.49129902 0.22745098
0.020036765 0.50165441 0.22352941
0.086764706 0.51911765 0.22352941
0.18676471 0.52726716 0.22616422
0.28823529 0.53578431 0.22659314
0.36715686 0.54656863 0.22359069
0.44019608 0.55857843 0.21789216
0.50484069 0.57457108 0.2122549
0.57303922 0.59166667 0.21188725
0.64509804 0.60863971 0.20294118
0.70147059 0.62107843 0.2004902
0.73235294 0.62156863 0.21470588
0.75931373 0.625 0.22414216
0.79368873 0.625 0.2283701
0.82696078 0.62328431 0.23406863
0.8504902 0.62849265 0.24411765
0.85441176 0.63186275 0.25477941
0.85851716 0.63284314 0.26390931
0.8627451 0.63333333 0.26813725
0 0.5372549 0.23137255
0 0.54117647 0.23247549
0 0.54019608 0.23137255
0.00098039216 0.53284314 0.23137255
0.00098039216 0.52941176 0.22843137
0.0044117647 0.53247549 0.22830882
0.0078431373 0.5370098 0.22818627
0.0034313725 0.54656863 0.22708333
0.041176471 0.55392157 0.23039216
0.15159314 0.56029412 0.23394608
0.25686275 0.57058824 0.23431373
0.34007353 0.58088235 0.23039216
0.42156863 0.59117647 0.22107843
0.49068627 0.60588235 0.22291667
0.55980392 0.62254902 0.22769608
0.63186275 0.63811275 0.22414216
0.68823529 0.64901961 0.22745098
0.71813725 0.65257353 0.23688725
0.74901961 0.65367647 0.24509804
0.77990196 0.65588235 0.25196078
0.81470588 0.65588235 0.26078431
0.84105392 0.65980392 0.27107843
0.85392157 0.66348039 0.28455882
0.85992647 0.66703431 0.29558824
0.86568627 0.66764706 0.30294118
0 0.57843137 0.23529412
0 0.57996324 0.23529412
0 0.57843137 0.23468137
0 0.57843137 0.23137255
0 0.57720588 0.22745098
0.0024509804 0.57843137 0.23155637
0.0039215686 0.57843137 0.23676471
0 0.58382353 0.24123775
0.039215686 0.59019608 0.24460784
0.15392157 0.59656863 0.24944853
0.25490196 0.6064951 0.25
0.34264706 0.61568627 0.24607843
0.41960784 0.62279412 0.24485294
0.47990196 0.63265931 0.25147059
0.54742647 0.64840686 0.25539216
0.6122549 0.66323529 0.25778186
0.66372549 0.66960784 0.26323529
0.7033701 0.67598039 0.26623775
0.73480392 0.67781863 0.27205882
0.76568627 0.68265931 0.28596814
0.80171569 0.68872549 0.3
0.83088235 0.69246324 0.3122549
0.85147059 0.69754902 0.32254902
0.86476716 0.69908088 0.33229167
0.87205882 0.7 0.33921569
0 0.61568627 0.23529412
0 0.61568627 0.2377451
0.00098039216 0.61568627 0.24313725
0.0039215686 0.61568627 0.24313725
0.0039215686 0.61176471 0.24313725
0.0039215686 0.61568627 0.24705882
0.0039215686 0.61568627 0.25098039
0 0.62107843 0.25637255
0.043137255 0.62745098 0.25882353
0.16666667 0.63382353 0.26666667
0.2745098 0.64019608 0.27058824
0.35343137 0.6504902 0.26666667
0.41568627 0.65294118 0.27254902
0.47745098 0.66323529 0.27892157
0.53823529 0.67647059 0.28627451
0.59411765 0.68627451 0.29019608
0.63921569 0.69019608 0.29019608
0.68676471 0.69656863 0.29019608
0.72058824 0.70294118 0.30392157
0.75539216 0.71323529 0.3245098
0.79215686 0.71960784 0.33921569
0.82058824 0.7254902 0.35343137
0.84509804 0.72843137 0.35980392
0.86568627 0.73333333 0.36862745
0.87843137 0.73333333 0.37647059
0 0.65294118 0.25441176
0.0039215686 0.65294118 0.25925245
0.0039215686 0.65012255 0.26433824
0.006372549 0.646875 0.26764706
0.0039215686 0.64656863 0.26764706
0.010294118 0.64656863 0.26764706
0.0084558824 0.64877451 0.26764706
0.0087622549 0.65196078 0.26911765
0.062254902 0.65833333 0.2754902
0.18670343 0.66770833 0.28578431
0.29056373 0.675 0.28933824
0.35998775 0.67794118 0.29117647
0.41960784 0.68382353 0.29632353
0.47959559 0.69411765 0.30606618
0.53590686 0.70441176 0.31654412
0.58627451 0.71078431 0.32107843
0.63137255 0.71470588 0.32107843
0.67647059 0.71862745 0.32205882
0.71311275 0.72745098 0.33480392
0.74852941 0.7377451 0.35539216
0.78382353 0.74411765 0.37401961
0.81421569 0.7504902 0.38560049
0.83664216 0.7557598 0.39460784
0.86023284 0.76084559 0.40435049
0.88382353 0.76568627 0.41127451
0 0.68529412 0.28431373
0.0039215686 0.68529412 0.28713235
0.0078431373 0.68455882 0.28848039
0.0078431373 0.6814951 0.28921569
0.0034313725 0.68235294 0.28823529
0.0035539216 0.68492647 0.28823529
0.016666667 0.68235294 0.28529412
0.014828431 0.68529412 0.2814951
0.10196078 0.68921569 0.29215686
0.21727941 0.6995098 0.30453431
0.30269608 0.70490196 0.30955882
0.36286765 0.70490196 0.3127451
0.42156863 0.70980392 0.31764706
0.48125 0.72009804 0.33198529
0.53627451 0.72745098 0.34534314
0.58345588 0.7317402 0.35343137
0.62745098 0.73529412 0.35588235
0.67156863 0.73921569 0.35870098
0.70563725 0.74705882 0.36960784
0.73872549 0.75441176 0.38541667
0.77352941 0.76470588 0.4004902
0.80404412 0.77107843 0.41433824
0.82843137 0.77745098 0.4254902
0.85330882 0.78382353 0.43578431
0.87352941 0.79117647 0.44607843
0 0.72009804 0.3122549
0.0026348039 0.72009804 0.3127451
0.0040441176 0.71875 0.3127451
0.0078431373 0.71617647 0.3127451
0.0053921569 0.71985294 0.3127451
0.003125 0.72310049 0.31268382
0.073039216 0.71360294 0.3122549
0.11519608 0.71746324 0.31568627
0.17156863 0.72009804 0.32009804
0.26305147 0.72432598 0.33431373
0.33639706 0.72928922 0.33970588
0.38474265 0.73229167 0.33970588
0.43210784 0.73602941 0.34534314
0.48431373 0.74068627 0.35680147
0.53627451 0.74705882 0.37046569
0.58363971 0.75343137 0.38431373
0.62745098 0.75931373 0.39068627
0.66862745 0.7622549 0.39442402
0.70110294 0.7685049 0.40343137
0.73235294 0.775 0.41372549
0.76691176 0.78161765 0.42818627
0.7971201 0.79166667 0.44215686
0.82193627 0.79803922 0.45539216
0.84785539 0.80833333 0.47028186
0.86715686 0.81813725 0.48039216
0.047058824 0.75098039 0.34117647
0.034558824 0.75098039 0.34117647
0.035784314 0.75098039 0.3372549
0.066421569 0.74926471 0.34068627
0.10980392 0.74803922 0.34509804
0.13504902 0.75098039 0.3495098
0.19117647 0.7504902 0.35294118
0.25906863 0.75171569 0.35833333
0.29019608 0.75098039 0.36078431
0.31642157 0.75098039 0.36397059
0.3754902 0.75490196 0.37058824
0.41960784 0.75686275 0.37794118
0.46470588 0.76176471 0.38627451
0.50980392 0.76691176 0.39632353
0.5504902 0.77205882 0.40294118
0.58946078 0.7752451 0.41127451
0.62941176 0.78039216 0.42156863
0.66936275 0.7875 0.42867647
0.70098039 0.79068627 0.43823529
0.73186275 0.79558824 0.44656863
0.7627451 0.80196078 0.45882353
0.79313725 0.8122549 0.46936275
0.82058824 0.82254902 0.48480392
0.84754902 0.83284314 0.50220588
0.87058824 0.84313725 0.51568627
0.2127451 0.78137255 0.38235294
0.21023284 0.77794118 0.38284314
0.20637255 0.77794118 0.38272059
0.23431373 0.77794118 0.38235294
0.26544118 0.77794118 0.38627451
0.28137255 0.77794118 0.39068627
0.31335784 0.77794118 0.39705882
0.34215686 0.77794118 0.39803922
0.36078431 0.77745098 0.39803922
0.39117647 0.77794118 0.4004902
0.42144608 0.7814951 0.40686275
0.45496324 0.7848652 0.41323529
0.49779412 0.7875 0.42352941
0.54068627 0.79362745 0.43382353
0.57794118 0.79742647 0.44375
0.61127451 0.80116422 0.44901961
0.64803922 0.80539216 0.45686275
0.67647059 0.81145833 0.46452206
0.70539216 0.81286765 0.46960784
0.73627451 0.82009804 0.47990196
0.77058824 0.82647059 0.49191176
0.79705882 0.83235294 0.5004902
0.82071078 0.83921569 0.51421569
0.85 0.853125 0.53235294
0.87058824 0.85980392 0.54264706
0.32254902 0.80882353 0.42745098
0.34203431 0.80882353 0.42928922
0.35416667 0.80882353 0.42965686
0.36017157 0.80882353 0.42659314
0.37401961 0.80882353 0.42892157
0.38909314 0.80882353 0.43529412
0.40588235 0.80882353 0.43897059
0.4192402 0.80551471 0.43921569
0.43627451 0.80490196 0.43921569
0.45784314 0.80490196 0.43921569
0.48308824 0.80906863 0.44803922
0.51029412 0.8127451 0.45747549
0.54166667 0.81666667 0.46470588
0.57414216 0.82071078 0.475
0.60980392 0.8245098 0.48235294
0.64178922 0.82879902 0.4877451
0.6754902 0.83235294 0.49509804
0.69705882 0.83627451 0.50085784
0.71789216 0.8379902 0.50686275
0.74656863 0.84375 0.51715686
0.77745098 0.8504902 0.52843137
0.80392157 0.85588235 0.5377451
0.8245098 0.85980392 0.54730392
0.85147059 0.87009804 0.56323529
0.86666667 0.87647059 0.56960784
0.43578431 0.83578431 0.47401961
0.44221814 0.83970588 0.47401961
0.44852941 0.83970588 0.47401961
0.45373775 0.83970588 0.47401961
0.4622549 0.83897059 0.4752451
0.47518382 0.83970588 0.48039216
0.48921569 0.83860294 0.48039216
0.49895833 0.83523284 0.48039216
0.50833333 0.83186275 0.48039216
0.52199755 0.83186275 0.48284314
0.54840686 0.83970588 0.49313725
0.57616422 0.84362745 0.5036152
0.60343137 0.84754902 0.51053922
0.62254902 0.84785539 0.51568627
0.64607843 0.85330882 0.52254902
0.6754902 0.85631127 0.52984069
0.70245098 0.85931373 0.53529412
0.72156863 0.86176471 0.54074755
0.73823529 0.86384804 0.54595588
0.7622549 0.86930147 0.55441176
0.78970588 0.87426471 0.56715686
0.81403186 0.87922794 0.575
0.83088235 0.88137255 0.58382353
0.85392157 0.88921569 0.59656863
0.8627451 0.89166667 0.59901961
0.52156863 0.8627451 0.50980392
0.52794118 0.8627451 0.51372549
0.54019608 0.86764706 0.51862745
0.54117647 0.86666667 0.51764706
0.54313725 0.86470588 0.51568627
0.55637255 0.86666667 0.52107843
0.55294118 0.8627451 0.51764706
0.55833333 0.85882353 0.51372549
0.56470588 0.85882353 0.51764706
0.57990196 0.85882353 0.52009804
0.60294118 0.86372549 0.53039216
0.63039216 0.87058824 0.54117647
0.64509804 0.87058824 0.54509804
0.65980392 0.87107843 0.54901961
0.68333333 0.8745098 0.55588235
0.71029412 0.88382353 0.56764706
0.7254902 0.88235294 0.57254902
0.74215686 0.88480392 0.575
0.75882353 0.88627451 0.58039216
0.77941176 0.89019608 0.5877451
0.8 0.89411765 0.59607843
0.82058824 0.89803922 0.60441176
0.8372549 0.89803922 0.61078431
0.85392157 0.90343137 0.62107843
0.85882353 0.90196078 0.61960784
0.16078431 0.22745098 0.24705882
0.16378676 0.225 0.24705882
0.16470588 0.22352941 0.24705882
0.16470588 0.22352941 0.24705882
0.16470588 0.21960784 0.24705882
0.16862745 0.21911765 0.24705882
0.16862745 0.21568627 0.24705882
0.16862745 0.21421569 0.24705882
0.18039216 0.21176471 0.24705882
0.21519608 0.21176471 0.24705882
0.24607843 0.20784314 0.24705882
0.28125 0.20784314 0.24705882
0.37573529 0.21053922 0.24313725
0.47107843 0.21176471 0.23921569
0.55686275 0.21176471 0.23529412
0.63829657 0.21568627 0.23137255
0.70980392 0.22990196 0.22892157
0.76372549 0.25686275 0.22745098
0.81458333 0.28382353 0.22352941
0.85471814 0.31470588 0.22598039
0.88357843 0.34558824 0.23186275
0.90539216 0.37910539 0.24215686
0.92708333 0.41127451 0.2557598
0.94803922 0.44215686 0.27150735
0.96617647 0.47303922 0.2872549
0.15833333 0.23045343 0.24705882
0.16020987 0.22990196 0.24705882
0.16092218 0.22745098 0.24705882
0.16470588 0.22383578 0.24705882
0.16516544 0.22279412 0.24705882
0.16862745 0.21960784 0.24705882
0.17069547 0.21629902 0.24705882
0.17404259 0.2151348 0.24705882
0.18131127 0.21176471 0.24705882
0.21184896 0.21176471 0.24705882
0.24845282 0.20784314 0.24705882
0.29571078 0.20918352 0.24705882
0.38333333 0.21176471 0.24313725
0.47493107 0.21439951 0.23921569
0.55853248 0.21790748 0.23529412
0.6377451 0.22598039 0.23137255
0.70980392 0.2411152 0.22745098
0.76464461 0.26528033 0.22442555
0.81199449 0.2915288 0.22352941
0.85225184 0.3202742 0.22567402
0.88357843 0.34803922 0.23063725
0.90705423 0.38039216 0.23878676
0.92783395 0.41482843 0.2522212
0.94746477 0.44607843 0.27058824
0.9598652 0.46911765 0.28425245
0.15196078 0.23627451 0.24705882
0.15542279 0.23345588 0.24705882
0.16078431 0.23063725 0.24705882
0.16435355 0.22745098 0.24705882
0.16685049 0.22352941 0.24705882
0.16943934 0.22046569 0.24705882
0.17420343 0.21960784 0.24705882
0.17855392 0.21568627 0.24705882
0.18492647 0.21176471 0.24705882
0.20966605 0.21176471 0.24705882
0.25523897 0.21176471 0.24705882
0.30984988 0.21176471 0.2435815
0.39362745 0.2151348 0.24313725
0.47794118 0.21629902 0.23921569
0.55719975 0.22490809 0.23627451
0.63359375 0.24120711 0.23137255
0.70588235 0.25870098 0.22708333
0.76824449 0.27928922 0.22352941
