site/assets/luts/sha256-9b66b7b71455058fb207c632e1ebbd00d69802742a817a76aa5b9e4e1256ad0d.cube
# LUTr-Schema-Version: 2
# LUTr-ID: sha256-9b66b7b71455058fb207c632e1ebbd00d69802742a817a76aa5b9e4e1256ad0d
# LUTr-Title: orange tone
# LUTr-Collection: Natron HaldCLUT
# LUTr-Collection-ID: natron-haldclut-presets
# LUTr-Source: https://github.com/NatronGitHub/clut
# LUTr-Retrieved: 2026-07-27
# LUTr-Source-File: submissions/natron-haldclut-presets/various/orange_tone.png
# LUTr-Source-Format: HALD-PNG
# LUTr-Source-SHA256: 9b66b7b71455058fb207c632e1ebbd00d69802742a817a76aa5b9e4e1256ad0d
# LUTr-License: CC-BY-SA-4.0
# LUTr-License-URL: https://github.com/NatronGitHub/clut#license
# LUTr-License-Basis: repo-license-file
# LUTr-Transform-Class: film-emulation
# LUTr-Tags: creative, film, film-emulation, hald-clut, natron, png, warm, cube
# LUTr-Input-Color-Space: srgb
# LUTr-Input-Gamut: rec709
# LUTr-Input-Transfer: srgb
# LUTr-Output-Color-Space: srgb
# LUTr-Output-Gamut: rec709
# LUTr-Output-Transfer: srgb
# LUTr-Color-Space-Confidence: assumed-display-referred
# LUTr-Domain-Normalized: true
# LUTr-Shaper: none
# LUTr-Original-Grid: 64x64x64
# LUTr-Conversion-Grid: 25x25x25
# LUTr-Conversion-Interpolation: trilinear
# LUTr-Conversion-Method: HALD-PNG LUT image decoded at 16-bit and sampled to 25x25x25 3D CUBE
# LUTr-Conversion-Tool: LUTr scripts/convert-all-to-cube.mjs 2.0.0
# LUTr-Conversion-Date: 2026-07-27
# LUTr-Note: Preserve this metadata and the upstream license notices when redistributing.
TITLE "orange tone"
LUT_3D_SIZE 9
DOMAIN_MIN 0 0 0
DOMAIN_MAX 1 1 1
0.078431373 0 0
0.19803922 0.019117647 0.0039215686
0.36176471 0.074509804 0.0078431373
0.56617647 0.17205882 0.0039215686
0.79215686 0.3254902 0.0039215686
0.98970588 0.49068627 0.0039215686
0.99607843 0.6 0.0029411765
1 0.70735294 0
1 0.78039216 0
0.082843137 0.0039215686 0
0.21280637 0.022610294 0.0039215686
0.37046569 0.068627451 0.0078431373
0.56372549 0.15667892 0.0017769608
0.79215686 0.32156863 0.0039215686
0.99234069 0.48823529 0.0039215686
0.99607843 0.59607843 0.0029411765
1 0.70343137 0
1 0.76862745 0
0.097058824 0.0039215686 0
0.22414216 0.026960784 0.0073529412
0.3745098 0.067647059 0.0088235294
0.58480392 0.16507353 0.0068627451
0.81617647 0.33627451 0.0078431373
0.97892157 0.50183824 0.0039215686
0.99607843 0.60392157 0
1 0.70245098 0
0.99705882 0.78431373 0
0.1254902 0.0078431373 0
0.24491422 0.030882353 0.0073529412
0.41078431 0.083946078 0.0078431373
0.61960784 0.18627451 0.011764706
0.86936275 0.37156863 0.011764706
0.99460784 0.52689951 0.0039215686
1 0.62107843 0
0.9973652 0.71764706 0
0.99607843 0.80392157 0
0.13333333 0.0078431373 0
0.26813725 0.03872549 0.0039215686
0.43970588 0.099019608 0
0.66078431 0.23235294 0.0031862745
0.89803922 0.39803922 0.0058823529
1 0.54166667 0.0039215686
0.99607843 0.64411765 0.0014705882
0.99607843 0.73872549 0
0.99607843 0.81372549 0
0.14264706 0.0078431373 0
0.28560049 0.03872549 0.0039215686
0.46519608 0.11764706 0.0039215686
0.68921569 0.25594363 0.0039215686
0.92107843 0.42107843 0.0039215686
0.99852941 0.55582108 0.0039215686
0.9939951 0.66323529 0.0039215686
0.99607843 0.75441176 0.0017769608
0.99460784 0.825 0.0039215686
0.18235294 0.015686275 0
0.3314951 0.054044118 0.0039215686
0.50196078 0.13431373 0.0039215686
0.70232843 0.25294118 0
0.94754902 0.43970588 0.0039215686
0.99607843 0.56666667 0.0039215686
0.99215686 0.67745098 0.0039215686
0.99607843 0.7622549 0.0039215686
0.99215686 0.83529412 0.0039215686
0.21960784 0.02745098 0
0.3622549 0.069607843 0.0038602941
0.53970588 0.14607843 0
0.72107843 0.25686275 0
0.95710784 0.44558824 0.0039215686
0.99871324 0.56911765 0.0039215686
0.99607843 0.67352941 0
0.99607843 0.76182598 0
0.99607843 0.82794118 0
0.22352941 0.031372549 0
0.38529412 0.085294118 0
0.5627451 0.14607843 0
0.74411765 0.27254902 0
0.98235294 0.4745098 0.0039215686
0.99607843 0.57303922 0
1 0.67352941 0
0.99607843 0.76617647 0
0.99607843 0.85098039 0
0.069607843 0 0
0.20147059 0.015196078 0.0039215686
0.37794118 0.075122549 0.0044117647
0.57794118 0.17077206 0.0039215686
0.79803922 0.31985294 0.0039215686
0.99969363 0.48431373 0.0039215686
1 0.60294118 0
1 0.70343137 0
1 0.78382353 0
0.10582108 0.0039215686 0
0.22408088 0.023468137 0.0039215686
0.38970588 0.079411765 0.0078431373
0.58658088 0.171875 0.0043504902
0.82061887 0.3291973 0.0039215686
0.95686275 0.48431373 0.0039215686
0.9935049 0.60761336 0
1 0.70605852 0
1 0.77205882 0
0.11715686 0.0077205882 0
0.24341299 0.030882353 0.0039215686
0.40897672 0.087132353 0.0078431373
0.61568627 0.18872549 0.0078431373
0.84803922 0.35147059 0.0078431373
0.95387561 0.49496017 0.0039215686
0.99215686 0.61173407 0
1 0.71127451 0
1 0.79203431 0.0034313725
0.13970588 0.0078431373 0
0.26040135 0.034803922 0.0039215686
0.42758885 0.094960172 0.0039215686
0.63246783 0.2 0.007958027
0.88446691 0.38259804 0.0078431373
0.99068627 0.5258655 0.0039215686
0.99607843 0.62901348 0.00096507353
1 0.72312347 0
0.99607843 0.7942402 0
0.15269608 0.01004902 0
0.29338235 0.050214461 0.0038909314
0.45061275 0.10189951 0.0036764706
0.66047794 0.23204657 0.0024509804
0.90968137 0.40980392 0.0039215686
0.99607843 0.54436275 0.0039215686
0.99607843 0.64656863 0
0.99757966 0.74261642 0
0.99607843 0.80980392 0
0.17175245 0.011764706 0
0.31832108 0.053492647 0.0039215686
0.48671875 0.11997549 0.0039215686
0.69476869 0.25176164 0.0039215686
0.93265931 0.43106618 0.0039215686
0.99227175 0.55974265 0.0039215686
0.99215686 0.66377145 0.0039215686
0.99607843 0.75829504 0
0.99607843 0.82892157 0.0017769608
0.18517157 0.015686275 0
0.32391238 0.050490196 0.0039215686
0.51063113 0.13746936 0.0039215686
0.71617647 0.25686275 0
0.95349265 0.45147059 0.0039215686
0.98828125 0.57313113 0.0039215686
0.99215686 0.67417279 0.0039215686
0.99607843 0.7622549 0.0039215686
0.99215686 0.84215686 0.0039215686
0.20232843 0.024019608 0
0.35055147 0.062691483 0.0038602941
0.53835784 0.14865196 0.00075061275
0.746875 0.27532935 0
0.98235294 0.47254902 0.0039215686
0.9942019 0.57696078 0.0039215686
0.99607843 0.67610294 0
0.99607843 0.76220129 0
0.99607843 0.82745098 0
0.21568627 0.02745098 0
0.37401961 0.081372549 0
0.56188725 0.15 0
0.78970588 0.31666667 0.0037377451
0.9997549 0.48431373 0.0039215686
0.9995098 0.58431373 0
1 0.67732843 0
0.99607843 0.76617647 0
0.99607843 0.83137255 0
0.087254902 0 0.0039215686
0.22009804 0.025612745 0
0.39877451 0.084313725 0.0039215686
0.58370098 0.16311275 0.0039215686
0.8245098 0.33235294 0.0039215686
0.99362745 0.50294118 0
1 0.60686275 0
1 0.70343137 0
1 0.79901961 0
0.11715686 0.0073529412 0.00049019608
0.24041054 0.030867034 0.0039215686
0.4122549 0.087990196 0.0039215686
0.61407782 0.18596814 0.0065104167
0.83180147 0.33970588 0.0039215686
0.97463235 0.50232843 0
0.99289216 0.61366422 0
1 0.71067708 0
1 0.79117647 0.0034313725
0.1254902 0.0078431373 0
0.25836397 0.034803922 0.0039215686
0.42898284 0.097487745 0.0049019608
0.63397672 0.19767157 0.0049019608
0.86164216 0.37156863 0.0039215686
0.97487745 0.51617647 0.0039215686
0.99313725 0.62683824 0.0039215686
0.99644608 0.72533701 0.0039215686
1 0.81568627 0.0039215686
0.15147059 0.011764706 0
0.27530637 0.03872549 0.0039215686
0.44301471 0.10294118 0.0039215686
0.65304841 0.22149203 0.0039215686
0.90140931 0.40245098 0.0039215686
0.99215686 0.54022672 0.0039215686
0.99607843 0.64653799 0.0068627451
1 0.73835784 0.0039215686
1 0.80686275 0.0039215686
0.15931373 0.011764706 0
0.31047794 0.055147059 0.0039215686
0.46960784 0.1122549 0.0039215686
0.6846201 0.24859069 0.0039215686
0.93039216 0.42769608 0.0039215686
0.99607843 0.55459559 0.0039215686
0.99607843 0.65747549 0.0039215686
1 0.75042892 0.0034313725
1 0.81323529 0
0.19264706 0.015318627 0
0.33541667 0.057843137 0.0039215686
0.51544118 0.12576593 0.0078431373
0.7127451 0.25931373 0.0039215686
0.95729167 0.44816176 0.0039215686
0.99829963 0.56873468 0.0039215686
0.99791667 0.66688113 0.0039215686
1 0.76515012 0
1 0.84362745 0
0.19142157 0.012745098 0
0.34316789 0.057843137 0.0039215686
0.5317402 0.14252451 0.0039215686
0.73480392 0.26341912 0.0032169118
0.96813725 0.46568627 0.0040441176
0.99215686 0.58125 0.0039215686
0.99313725 0.68210784 0.0039215686
1 0.76875 0
0.99901961 0.83137255 0
0.22279412 0.027083333 0
0.36174939 0.068903186 0
0.5504902 0.15790441 0
0.76813725 0.29624694 0.0019148284
0.99803922 0.48848039 0.0076593137
0.9926011 0.58872549 0.0039215686
0.99607843 0.68529412 0.0039215686
0.99607843 0.77267157 0.0039215686
0.99607843 0.82303922 0.0037990196
0.22254902 0.02745098 0
0.37389706 0.07745098 0
0.56887255 0.16764706 0
0.79607843 0.32696078 0.0039215686
0.99803922 0.49558824 0.0039215686
1 0.59375 0
0.99681373 0.69142157 0
0.99607843 0.77389706 0
0.99607843 0.81568627 0
0.1 0.0024509804 0
0.25098039 0.034803922 0
0.42156863 0.092156863 0.0039215686
0.62506127 0.20294118 0.0039215686
0.85735294 0.375 0.0019607843
0.99754902 0.51813725 0
1 0.6192402 0
1 0.71519608 0.00030637255
1 0.8 0.0024509804
0.16078431 0.015686275 0.0012867647
0.26405484 0.03872549 0.0039215686
0.43921569 0.1015625 0.0039215686
0.64295343 0.21078431 0.0039215686
0.86887255 0.38259804 0
1 0.52420343 0
1 0.62633272 0.003783701
1 0.72269455 0.0039215686
1 0.79822304 0.0039215686
0.15073529 0.010539216 0.0014705882
0.27789522 0.039583333 0.0039215686
0.45514706 0.1073223 0.0039215686
0.66352635 0.21963848 0.0039215686
0.88946078 0.39785539 0.00055147059
0.99607843 0.53820466 0.0039215686
1 0.64234069 0.0070159314
1 0.73760723 0.0067248775
1 0.80784314 0.0039215686
0.15839461 0.011764706 0
0.29271599 0.042647059 0.0039215686
0.47071078 0.11963848 0.0039215686
0.67696078 0.22947304 0.0039215686
0.91590074 0.41905637 0.0019301471
0.99123775 0.55366115 0.0039215686
0.9995864 0.6615962 0.011764706
1 0.74498315 0.0078431373
1 0.81960784 0.0039215686
0.17107843 0.011764706 0
0.31421569 0.057843137 0.0039215686
0.49466912 0.13143382 0.0039215686
0.70560662 0.2495098 0
0.94558824 0.44007353 0.0014705882
1 0.56911765 0.0041973039
1 0.67224265 0.0078431373
1 0.76323529 0.0068627451
1 0.83970588 0.0039215686
0.2098652 0.019607843 0.0039215686
0.34393382 0.062071078 0.0039215686
0.52444853 0.14192708 0.0039215686
0.73480392 0.2654565 0.0039215686
0.95713848 0.45340074 0.00073529412
0.99607843 0.57730545 0.0039215686
1 0.67806373 0.0039215686
1 0.77401961 0.0039215686
1 0.84258578 0.0039215686
0.22169118 0.01997549 0.0057598039
0.36960784 0.066038603 0.00036764706
0.55343137 0.15410539 0.0029411765
0.76698836 0.28872549 0.0039215686
0.96764706 0.46856618 0.00091911765
0.98639706 0.58586091 0.0039215686
0.99607843 0.68838848 0.0039215686
1 0.78578431 0.0047640931
1 0.83492647 0.006372549
0.22794118 0.023529412 0.0039215686
0.39188879 0.076325061 0
0.58039216 0.17126225 0.0029411765
0.80342371 0.32322304 0.0039215686
1 0.49990809 0.0039215686
0.99607843 0.59968597 0.0039215686
0.99607843 0.70009191 0.0039215686
0.99607843 0.78997396 0.0039215686
0.9995098 0.82334559 0.0039215686
0.25343137 0.031372549 0.0039215686
0.39969363 0.077941176 0
0.58811275 0.17757353 0.0035539216
0.81666667 0.33480392 0.0039215686
0.99803922 0.49926471 0.0039215686
0.99908088 0.60441176 0.0039215686
0.99607843 0.70882353 0
0.99607843 0.7995098 0
0.99607843 0.81568627 0
0.12156863 0.0039215686 0
0.25612745 0.024509804 0
0.44313725 0.093627451 0.0068627451
0.66078431 0.23235294 0.0046568627
0.89019608 0.40098039 0.0039215686
0.99289216 0.53063725 0.0039215686
1 0.63235294 0.0039215686
1 0.72696078 0.0039215686
1 0.81372549 0.0039215686
0.13480392 0.0075980392 0
0.28333333 0.038449755 0.0038909314
0.4661152 0.1098652 0.0039215686
0.68511029 0.23961397 0.0039215686
0.9004902 0.4064951 0.0039215686
0.99607843 0.53259804 0.0039215686
1 0.63651961 0.0039215686
1 0.73651961 0.0039215686
1 0.80784314 0.0039215686
0.16960784 0.01372549 0
0.29901961 0.042647059 0.0039215686
0.49313725 0.12254902 0.0039215686
0.71127451 0.24803922 0.0039215686
0.9497549 0.4372549 0
0.99607843 0.55545343 0.0039215686
1 0.65428922 0.0078431373
1 0.74393382 0.0078431373
1 0.80784314 0.0039215686
0.16544118 0.0053921569 0
0.3143076 0.055147059 0.0039215686
0.49987745 0.13216912 0.0039215686
0.72052696 0.25343137 0.00027573529
0.95539216 0.44693627 0
1 0.56957721 0.0039215686
1 0.67083333 0.0078431373
1 0.75530025 0.0078431373
1 0.82279412 0.0039215686
0.18823529 0.01372549 0
0.33455882 0.064828431 0.0039215686
0.51960784 0.14558824 0.0039215686
0.73872549 0.26262255 0
0.97843137 0.46666667 0
1 0.58455882 0.0039215686
1 0.6872549 0.0078431373
1 0.77291667 0.0075980392
1 0.84313725 0.0039215686
0.21323529 0.019607843 0.00073529412
0.35196078 0.065686275 0.0039215686
0.5495098 0.15582108 0.0024509804
0.76914828 0.30027574 0
0.96348039 0.47095588 0
0.99411765 0.58946078 0.0039215686
1 0.68890931 0.0078431373
0.99990809 0.78186275 0.0039215686
0.99607843 0.84436275 0.0039215686
0.23627451 0.025980392 0.0039215686
0.38651961 0.073529412 0.0039215686
0.58186275 0.17745098 0.0039215686
0.80545343 0.32916667 0.0039215686
0.9754902 0.48848039 0
0.99289216 0.59871324 0.0039215686
1 0.6995098 0.0039215686
1 0.79607843 0.0039215686
0.99803922 0.83921569 0.0039215686
0.27328431 0.035294118 0.0039215686
0.41173407 0.081403186 0.0039215686
0.60778186 0.18088235 0.0039215686
0.83382353 0.3372549 0.0078431373
0.99142157 0.50919118 0.0040441176
0.99607843 0.61234681 0.0039215686
0.99607843 0.71476716 0.0036764706
0.99607843 0.80490196 0.0039215686
1 0.84068627 0.0039215686
0.26078431 0.029411765 0.0039215686
0.42647059 0.085294118 0.0039215686
0.61519608 0.18333333 0.0039215686
0.84044118 0.34387255 0.0078431373
1 0.51568627 0.0078431373
0.99926471 0.61617647 0.0039215686
0.99607843 0.71911765 0.0014705882
0.99607843 0.81470588 0
0.99607843 0.83137255 0
0.15833333 0.0078431373 0
0.29313725 0.043933824 0
0.46470588 0.10686275 0.0018382353
0.67745098 0.24901961 0.0039215686
0.91446078 0.41642157 0.0039215686
1 0.54221814 0.0039215686
1 0.6442402 0.0039215686
1 0.72794118 0.0039215686
1 0.79362745 0.0039215686
0.16176471 0.011458333 0
0.30471814 0.047855392 0.0036994485
0.48877145 0.12152267 0.0037377451
0.70294118 0.25931373 0.0039215686
0.92892157 0.42533701 0.0039215686
1 0.54999234 0.0039215686
1 0.65369179 0.0039215686
1 0.74373468 0.0039215686
1 0.80539216 0.0039215686
0.18860294 0.017769608 0.0039215686
0.33137255 0.055300245 0.0039215686
0.52365196 0.13716299 0.0039215686
0.73336397 0.26715686 0.0039215686
0.95484069 0.44803922 0.0039215686
0.99816176 0.56306679 0.0039215686
0.99705882 0.65894608 0.0039215686
0.99701287 0.7504902 0.0078431373
0.99607843 0.8189951 0.0078431373
0.18768382 0.015686275 0.0039215686
0.34626225 0.062140012 0.0039215686
0.52892157 0.14615502 0.0039215686
0.74391085 0.27107843 0.0039215686
0.9823223 0.47346814 0.0039215686
0.9964231 0.58237592 0.0039215686
1 0.6783701 0.0078431373
0.99607843 0.76439951 0.0078431373
0.99607843 0.83284314 0.0078431373
0.21838235 0.023529412 0
0.36510417 0.073529412 0.0039215686
0.54969363 0.15079657 0.0039215686
0.76176471 0.28992034 0.0039215686
0.98247549 0.48480392 0.0039215686
0.99607843 0.59923407 0.0044730392
1 0.69730392 0.0078431373
0.99607843 0.77573529 0.0039215686
0.99607843 0.83259804 0.0039215686
0.23192402 0.026531863 0
0.37715993 0.070894608 0.0069240196
0.58039216 0.16686581 0.0039215686
0.80741422 0.33341759 0
0.98820466 0.50174632 0
0.99731924 0.6124617 0.0039215686
0.99986213 0.70614277 0.0039215686
0.99607843 0.79018842 0.0039215686
0.99460784 0.83921569 0
0.25588235 0.031372549 0.0039215686
0.40742953 0.083241422 0.0039215686
0.60735294 0.18685662 0.0039215686
0.84227941 0.36078431 0.0020833333
1 0.51838235 0
1 0.61908701 0.00068933824
1 0.71703431 0.0035539216
0.99607843 0.80147059 0
0.99607843 0.84411765 0.0024509804
0.27469363 0.035294118 0.0039215686
0.43645833 0.092830882 0.0039215686
0.63913909 0.20580576 0.0039215686
0.86832108 0.37223499 0.0039215686
0.99387255 0.52230392 0.0039215686
0.99619332 0.62408854 0.0016467525
1 0.72561275 0
1 0.80512408 0.00049019608
0.9963848 0.86452206 0.0039215686
0.29166667 0.039215686 0.0039215686
0.44019608 0.089215686 0.0039215686
0.66237745 0.22794118 0.0039215686
0.88137255 0.38480392 0.0039215686
0.99019608 0.52426471 0.0039215686
0.99908088 0.6254902 0.003370098
1 0.7245098 0
1 0.8127451 0.00049019608
1 0.88137255 0.0039215686
0.16372549 0.011764706 0
0.30343137 0.046078431 0.0039215686
0.5 0.13039216 0
0.7122549 0.26323529 0
0.93186275 0.42794118 0.0039215686
0.99607843 0.55343137 0.0039215686
1 0.65784314 0.0078431373
1 0.75147059 0.0039215686
0.99607843 0.84313725 0
0.16090686 0.0074754902 0
0.32625613 0.06294424 0
0.51127451 0.14080882 0
0.72616422 0.27977941 0.0039215686
0.94803922 0.44166667 0.0039215686
0.99607843 0.56136642 0.0039215686
1 0.665625 0.0039215686
1 0.76156556 0.0039215686
0.99963235 0.80735294 0.0039215686
0.18406863 0.015686275 0.0039215686
0.35698529 0.06963848 0.0039215686
0.54589461 0.16060049 0.0039215686
0.74754902 0.29166667 0.0039215686
0.96433824 0.46151961 0.0039215686
0.99607843 0.57469363 0.0039215686
0.99742647 0.6776348 0.0039215686
1 0.76516544 0.0039215686
0.99607843 0.82083333 0.006127451
0.19730392 0.022426471 0
0.3745098 0.070496324 0.0039215686
0.56372549 0.16568627 0.0039215686
0.77303922 0.29970895 0.0039215686
0.98927696 0.48688725 0.0039215686
0.99607843 0.59610907 0.0039215686
0.99901961 0.69375 0.0039215686
0.99607843 0.77224265 0.0039215686
0.99607843 0.83529412 0.0039215686
0.22401961 0.023529412 0
0.39258578 0.081372549 0.0039215686
0.58455882 0.17230392 0.0039215686
0.8036152 0.3247549 0.0039215686
0.99607843 0.50416667 0.0039215686
1 0.61133578 0.0039215686
1 0.7064951 0.0039215686
0.99607843 0.78406863 0.0039215686
0.99607843 0.8377451 0.0039215686
0.23970588 0.026838235 0
0.41519608 0.090196078 0.0039215686
0.61017157 0.18529412 0.0039215686
0.83682598 0.35294118 0.0014705882
1 0.5158701 0
1 0.62218137 0.0039215686
0.99607843 0.71832108 0.0039215686
0.99566483 0.79941789 0
0.99215686 0.84411765 0
0.25563725 0.029166667 0.0039215686
0.42950368 0.089859069 0.0039215686
0.63529412 0.19859069 0.0039215686
0.83992034 0.36115196 0.0039215686
0.99362745 0.52794118 0
1 0.63048407 0
1 0.7278799 0
0.99607843 0.80615809 0
0.99607843 0.84313725 0
0.29656863 0.040563725 0.0039215686
0.44578738 0.095710784 0.0039215686
0.66847426 0.23186275 0.0039215686
0.89705882 0.39656863 0.0039215686
0.99834559 0.53584559 0.0039215686
1 0.64015012 0
1 0.7370098 0
0.99989277 0.80189951 0
0.99607843 0.85392157 0
0.32843137 0.050980392 0.0029411765
0.44803922 0.093137255 0.0029411765
0.69338235 0.25392157 0.0039215686
0.93676471 0.42389706 0.0039215686
0.99607843 0.54362745 0.0039215686
0.99754902 0.64362745 0
1 0.73946078 0
1 0.81666667 0
1 0.85 0.0029411765
0.16519608 0.012254902 0
0.3161152 0.050490196 0.0039215686
0.53088235 0.15294118 0
0.73216912 0.26096814 0
0.9377451 0.44779412 0.0039215686
0.99215686 0.57322304 0.0039215686
0.99705882 0.67352941 0.0039215686
1 0.77009804 0.0039215686
1 0.83970588 0
0.18131127 0.015686275 0
0.35 0.069178922 0
0.54613971 0.16046262 0
0.76709559 0.29852941 0
0.97990196 0.46862745 0.0039215686
0.99607843 0.57889859 0.0039215686
0.99607843 0.68573836 0.0039215686
1 0.77401961 0.0039215686
1 0.81715686 0.0034313725
0.22291667 0.026593137 0.0029411765
0.37303922 0.07745098 0.0029411765
0.56605392 0.17493873 0.0025735294
0.78926164 0.31720282 0
0.98088235 0.47892157 0.0039215686
0.99607843 0.59224877 0.0037377451
0.99607843 0.69684436 0
1 0.77745098 0.0039215686
1 0.82745098 0.0039215686
0.23707108 0.029227941 0.0039215686
0.4 0.084007353 0.0039215686
0.5963848 0.18814338 0.0039215686
0.82647059 0.35146293 0.0039215686
0.99558824 0.50269608 0.0039215686
0.99607843 0.60441176 0.0039215686
0.99607843 0.70098039 0.0039215686
0.99607843 0.78422947 0.0034313725
0.99607843 0.85 0.0034313725
0.23578431 0.024019608 0.0039215686
0.42472426 0.089215686 0.0078431373
0.62659314 0.20104167 0.0049019608
0.84549632 0.35995711 0.0039215686
0.99987745 0.51789216 0.0039215686
1 0.61902574 0.0039215686
0.99607843 0.71421569 0.0039215686
0.99607843 0.79776348 0
0.99607843 0.86715686 0
0.26470588 0.031556373 0
0.43785233 0.10098039 0.0039215686
0.64460784 0.21478248 0.0039215686
0.88530178 0.38762255 0.0039215686
0.99607843 0.52647059 0.0011335784
1 0.63585325 0
0.99805453 0.72981005 0
0.99607843 0.805553 0
0.99607843 0.86323529 0
0.27438725 0.027328431 0
0.4442402 0.093351716 0
0.66127451 0.22135417 0.0039215686
0.90326287 0.40071998 0.0039215686
0.99234069 0.5401348 0.0039215686
0.99607843 0.64598652 0
1 0.73924632 0
0.99620098 0.81302083 0
0.99607843 0.86323529 0
0.31862745 0.043627451 0
0.45729167 0.10103401 0
0.68763787 0.25430453 0.0029411765
0.92640931 0.42320006 0.0039215686
1 0.55143995 0.0039215686
1 0.65541513 0
1 0.74808517 0
0.99994638 0.81672794 0
0.99607843 0.86323529 0
0.33333333 0.050980392 0
0.47555147 0.12009804 0
0.71323529 0.27696078 0.0029411765
0.95410539 0.43970588 0.0039215686
1 0.55686275 0.0039215686
1 0.65931373 0
1 0.75502451 0
1 0.81715686 0
0.99607843 0.86372549 0
0.17647059 0.011764706 0
0.35392157 0.076960784 0
0.55490196 0.16470588 0
0.77254902 0.29705882 0.0024509804
0.99411765 0.49215686 0.0078431373
0.99607843 0.59019608 0.0039215686
0.99607843 0.68921569 0.0039215686
1 0.77794118 0.0034313725
1 0.85490196 0
0.20392157 0.019607843 0
0.37310049 0.073529412 0
0.57352941 0.17242647 0
0.79705882 0.321875 0.0024509804
0.99828431 0.49019608 0.0078431373
0.99215686 0.59393382 0.0039215686
0.99607843 0.69705882 0
1 0.78186275 0
1 0.8622549 0
0.22647059 0.023529412 0.0029411765
0.38921569 0.08125 0.0029411765
0.58897059 0.18333333 0
0.81617647 0.32536765 0
1 0.49754902 0.0039215686
0.99607843 0.6004902 0
0.99607843 0.7 0
0.99607843 0.7817402 0
1 0.85882353 0
0.2377451 0.025980392 0.0039215686
0.40490196 0.092647059 0.0039215686
0.60343137 0.19215686 0.0039215686
0.8401348 0.35196078 0.0039215686
0.99607843 0.50784314 0.0039215686
0.99852941 0.60833333 0
0.99607843 0.70490196 0
0.99607843 0.78792892 0
0.99607843 0.86519608 0
0.25098039 0.031372549 0.0039215686
0.42818627 0.090931373 0.0073529412
0.64117647 0.20882353 0.0039215686
0.85392157 0.36446078 0.0039215686
1 0.52156863 0
1 0.62279412 0
0.99754902 0.72009804 0
0.99607843 0.80147059 0
0.99607843 0.8745098 0
0.2745098 0.035294118 0
0.44411765 0.10459559 0.0039215686
0.65698529 0.22291667 0.0039215686
0.90398284 0.39803922 0.0039215686
1 0.53602941 0.00073529412
1 0.64417892 0
1 0.73627451 0
1 0.81292892 0
1 0.87843137 0
0.28627451 0.031372549 0
0.44460784 0.096078431 0
0.67941176 0.24534314 0.0036764706
0.9254902 0.4189951 0.0039215686
1 0.5495098 0.0039215686
1 0.65931373 0
1 0.74803922 0
1 0.82193627 0
1 0.89411765 0
0.32205882 0.043627451 0
0.47248775 0.11323529 0
0.69411765 0.25833333 0.0029411765
0.93088235 0.42794118 0.0039215686
1 0.55686275 0.0039215686
1 0.66323529 0
1 0.75588235 0
1 0.82843137 0
1 0.88627451 0
0.34117647 0.054901961 0
0.51813725 0.15882353 0
0.72254902 0.28627451 0.0039215686
0.94411765 0.43578431 0.0039215686
1 0.55686275 0.0039215686
1 0.66323529 0
1 0.75980392 0
1 0.83235294 0
0.99607843 0.90588235 0
