site/assets/luts/sha256-c740f5b1e7b546a65c1383d0fbecddd936104726b1e08627399798b13f27cf43.cube
# LUTr-Schema-Version: 2
# LUTr-ID: sha256-c740f5b1e7b546a65c1383d0fbecddd936104726b1e08627399798b13f27cf43
# LUTr-Title: fuji provia 400x
# LUTr-Collection: Natron HaldCLUT
# LUTr-Collection-ID: natron-haldclut-presets
# LUTr-Source: https://github.com/NatronGitHub/clut
# LUTr-Retrieved: 2026-07-27
# LUTr-Source-File: submissions/natron-haldclut-presets/colorslide/fuji_provia_400x.png
# LUTr-Source-Format: HALD-PNG
# LUTr-Source-SHA256: c740f5b1e7b546a65c1383d0fbecddd936104726b1e08627399798b13f27cf43
# LUTr-License: CC-BY-SA-4.0
# LUTr-License-URL: https://github.com/NatronGitHub/clut#license
# LUTr-License-Basis: repo-license-file
# LUTr-Transform-Class: film-emulation
# LUTr-Tags: creative, film, film-emulation, hald-clut, natron, png, cube
# LUTr-Input-Color-Space: srgb
# LUTr-Input-Gamut: rec709
# LUTr-Input-Transfer: srgb
# LUTr-Output-Color-Space: srgb
# LUTr-Output-Gamut: rec709
# LUTr-Output-Transfer: srgb
# LUTr-Color-Space-Confidence: assumed-display-referred
# LUTr-Domain-Normalized: true
# LUTr-Shaper: none
# LUTr-Original-Grid: 64x64x64
# LUTr-Conversion-Grid: 25x25x25
# LUTr-Conversion-Interpolation: trilinear
# LUTr-Conversion-Method: HALD-PNG LUT image decoded at 16-bit and sampled to 25x25x25 3D CUBE
# LUTr-Conversion-Tool: LUTr scripts/convert-all-to-cube.mjs 2.0.0
# LUTr-Conversion-Date: 2026-07-27
# LUTr-Note: Preserve this metadata and the upstream license notices when redistributing.
TITLE "fuji provia 400x"
LUT_3D_SIZE 25
DOMAIN_MIN 0 0 0
DOMAIN_MAX 1 1 1
0.0078431373 0.015686275 0.011764706
0.049019608 0.019607843 0.024509804
0.094117647 0.019607843 0.03627451
0.13529412 0.012254902 0.042647059
0.17254902 0.011764706 0.039215686
0.21372549 0.0078431373 0.030882353
0.25490196 0.0039215686 0.024509804
0.30686275 0.011764706 0.018137255
0.36078431 0.015686275 0.0078431373
0.40980392 0.017156863 0.0088235294
0.45588235 0.014705882 0.025490196
0.50343137 0.0083333333 0.042647059
0.56470588 0.0058823529 0.02745098
0.63039216 0 0.0073529412
0.68137255 0.01372549 0.0068627451
0.73137255 0.032843137 0.011764706
0.78039216 0.050980392 0.015686275
0.82156863 0.046078431 0.011764706
0.86666667 0.025490196 0.010784314
0.90784314 0.0049019608 0.0044117647
0.93529412 0 0.0039215686
0.95 0.0039215686 0.0044117647
0.96666667 0.0078431373 0.0078431373
0.98186275 0.011764706 0.0078431373
0.99215686 0.011764706 0.0078431373
0.026960784 0.045098039 0.022058824
0.056311275 0.049019608 0.022977941
0.099877451 0.052941176 0.031740196
0.13792892 0.049509804 0.034987745
0.17647059 0.048284314 0.032843137
0.21746324 0.043137255 0.030882353
0.2567402 0.035784314 0.029901961
0.30931373 0.036335784 0.025980392
0.36078431 0.033333333 0.014215686
0.4122549 0.029411765 0.0091911765
0.4622549 0.031495098 0.023039216
0.5122549 0.033333333 0.039705882
0.575 0.030147059 0.023529412
0.63382353 0.025490196 0.012438725
0.68529412 0.026593137 0.0080882353
0.73284314 0.040686275 0.011764706
0.78284314 0.057352941 0.011764706
0.8254902 0.046078431 0.011764706
0.86556373 0.027941176 0.010784314
0.90784314 0.0073529412 0.0044117647
0.93529412 0.0012254902 0.0031862745
0.95 0.0065563725 0.0065563725
0.96666667 0.0096813725 0.0078431373
0.98186275 0.011764706 0.0078431373
0.99460784 0.014215686 0.0078431373
0.061764706 0.090196078 0.03627451
0.081985294 0.092647059 0.034436275
0.10980392 0.094117647 0.028186275
0.13933824 0.093259804 0.026593137
0.17647059 0.090196078 0.026960784
0.21764706 0.087132353 0.032843137
0.25882353 0.082598039 0.040196078
0.30931373 0.078431373 0.036887255
0.36078431 0.074509804 0.029411765
0.4122549 0.070588235 0.030392157
0.46862745 0.067401961 0.030882353
0.52303922 0.070465686 0.035784314
0.58039216 0.070098039 0.030882353
0.63480392 0.066666667 0.028063725
0.68529412 0.063480392 0.021568627
0.73884804 0.057843137 0.012377451
0.78921569 0.06372549 0.0078431373
0.82757353 0.054044118 0.011764706
0.86642157 0.044117647 0.016666667
0.90686275 0.031740196 0.01372549
0.9372549 0.024509804 0.0093137255
0.95355392 0.018137255 0.0088235294
0.96764706 0.012990196 0.0080882353
0.98333333 0.012377451 0.0078431373
0.99607843 0.015686275 0.0039215686
0.089215686 0.13137255 0.050490196
0.10588235 0.13167892 0.046568627
0.12610294 0.13186275 0.038602941
0.14411765 0.13137255 0.030882353
0.17647059 0.13137255 0.032598039
0.21764706 0.13131127 0.043137255
0.25919118 0.12745098 0.049509804
0.30931373 0.12205882 0.048161765
0.36078431 0.11568627 0.05
0.4122549 0.11305147 0.053921569
0.4685049 0.10784314 0.050122549
0.52604167 0.10784314 0.048284314
0.58235294 0.10784314 0.042647059
0.6377451 0.10741422 0.03872549
0.68921569 0.10098039 0.031862745
0.74068627 0.091176471 0.025
0.79264706 0.084313725 0.014215686
0.82941176 0.078247549 0.017647059
0.86311275 0.073039216 0.024019608
0.90392157 0.068688725 0.026960784
0.94093137 0.062745098 0.019362745
0.95778186 0.052022059 0.015686275
0.97144608 0.03872549 0.012622549
0.98578431 0.028431373 0.0099877451
0.9995098 0.015686275 0.0039215686
0.10588235 0.17254902 0.060784314
0.10784314 0.17254902 0.058333333
0.12156863 0.17254902 0.055882353
0.14362745 0.17254902 0.05122549
0.17647059 0.17254902 0.050980392
0.21568627 0.17230392 0.052941176
0.25882353 0.16862745 0.056372549
0.30857843 0.16470588 0.062254902
0.35686275 0.16078431 0.068627451
0.4122549 0.15686275 0.070588235
0.46862745 0.15196078 0.067647059
0.52696078 0.14901961 0.057352941
0.58529412 0.14705882 0.050980392
0.6377451 0.14485294 0.046813725
0.68627451 0.1377451 0.048529412
0.73480392 0.12941176 0.050245098
0.78627451 0.12941176 0.039215686
0.83210784 0.125 0.031372549
0.86372549 0.11078431 0.040686275
0.90563725 0.10588235 0.033823529
0.94705882 0.10196078 0.024509804
0.97132353 0.095588235 0.019117647
0.98529412 0.083333333 0.015686275
0.99362745 0.070343137 0.01372549
0.99607843 0.058823529 0.01372549
0.10980392 0.21372549 0.071078431
0.11243873 0.21372549 0.068627451
0.11556373 0.21372549 0.066176471
0.14270833 0.21372549 0.066727941
0.17622549 0.2120098 0.069362745
0.21323529 0.21029412 0.062806373
0.25870098 0.20980392 0.066176471
0.30931373 0.20980392 0.075
0.35686275 0.20588235 0.078921569
0.4122549 0.20214461 0.082659314
0.46862745 0.19448529 0.081495098
0.52696078 0.19025735 0.071568627
0.58627451 0.18651961 0.059558824
0.63817402 0.18235294 0.055882353
0.68541667 0.1754902 0.066176471
0.73155637 0.17058824 0.075
0.78431373 0.17058824 0.06372549
0.83363971 0.1723652 0.049203431
0.875 0.16568627 0.042647059
0.91317402 0.15196078 0.035784314
0.95759804 0.14509804 0.025245098
0.98572304 0.13872549 0.015747549
0.99215686 0.12843137 0.01875
0.99362745 0.11452206 0.021568627
0.99607843 0.10392157 0.024019608
0.1 0.25784314 0.081372549
0.10183824 0.25784314 0.081372549
0.10465686 0.25882353 0.079656863
0.13247549 0.25784314 0.080392157
0.16764706 0.25784314 0.081372549
0.20686275 0.25784314 0.080392157
0.25710784 0.25784314 0.080392157
0.30931373 0.25490196 0.082843137
0.35686275 0.25098039 0.085294118
0.4122549 0.24644608 0.088112745
0.47083333 0.24142157 0.086029412
0.53039216 0.23823529 0.07879902
0.58970588 0.23431373 0.071078431
0.64460784 0.22990196 0.066176471
0.69215686 0.22352941 0.07254902
0.73823529 0.21862745 0.07879902
0.7872549 0.21568627 0.078431373
0.83909314 0.21862745 0.064338235
0.88210784 0.21372549 0.052941176
0.92340686 0.20343137 0.042647059
0.96813725 0.19313725 0.028431373
0.99215686 0.18284314 0.01997549
0.99215686 0.17254902 0.025735294
0.99362745 0.15894608 0.030392157
0.99607843 0.14509804 0.034313725
0.083333333 0.30931373 0.097058824
0.083333333 0.30931373 0.097058824
0.085416667 0.30931373 0.095588235
0.11795343 0.30569853 0.095588235
0.15735294 0.30539216 0.097058824
0.19852941 0.30753676 0.097058824
0.25183824 0.30428922 0.097058824
0.30539216 0.30091912 0.095588235
0.35686275 0.29607843 0.091666667
0.41078431 0.290625 0.090196078
0.47254902 0.28970588 0.091666667
0.53431373 0.28609069 0.089522059
0.59485294 0.28578431 0.084558824
0.6495098 0.28137255 0.081372549
0.69914216 0.275 0.081372549
0.74761029 0.27101716 0.080821078
0.79607843 0.26764706 0.078431373
0.84417892 0.26525735 0.073529412
0.89019608 0.26188725 0.063235294
0.9276348 0.25490196 0.052941176
0.95931373 0.24852941 0.042647059
0.98333333 0.24001225 0.034129902
0.99178922 0.22830882 0.034681373
0.99362745 0.20980392 0.037683824
0.99607843 0.19313725 0.040686275
0.062745098 0.35686275 0.11372549
0.062745098 0.35686275 0.11372549
0.067647059 0.35686275 0.11372549
0.1 0.35686275 0.11372549
0.14509804 0.35686275 0.11372549
0.19117647 0.35637255 0.10980392
0.24901961 0.35294118 0.10980392
0.30147059 0.34901961 0.10588235
0.35686275 0.34509804 0.10196078
0.41078431 0.33872549 0.10196078
0.47254902 0.3372549 0.10686275
0.5377451 0.3372549 0.10245098
0.59803922 0.3372549 0.098039216
0.65343137 0.33284314 0.094117647
0.70490196 0.32941176 0.094117647
0.75245098 0.3254902 0.092647059
0.80392157 0.32156863 0.08627451
0.85147059 0.31519608 0.079901961
0.89705882 0.30980392 0.070588235
0.92401961 0.30588235 0.063235294
0.94901961 0.30196078 0.056862745
0.97352941 0.29411765 0.046568627
0.9872549 0.2872549 0.043137255
0.99215686 0.26911765 0.043137255
0.99607843 0.25882353 0.043137255
0.042156863 0.40833333 0.12794118
0.042156863 0.40833333 0.12794118
0.047058824 0.40833333 0.12647059
0.079411765 0.40618873 0.12647059
0.12892157 0.40441176 0.1252451
0.18694853 0.40410539 0.12009804
0.2432598 0.4004902 0.1182598
0.29810049 0.39656863 0.11617647
0.35294118 0.39264706 0.11617647
0.41470588 0.38719363 0.11617647
0.47254902 0.38480392 0.12291667
0.53431373 0.38480392 0.11795343
0.6 0.38553922 0.11029412
0.65716912 0.38431373 0.10441176
0.70735294 0.38088235 0.10441176
0.75637255 0.37696078 0.10441176
0.80637255 0.37303922 0.1004902
0.85447304 0.36911765 0.093566176
0.8935049 0.36421569 0.084436275
0.92273284 0.35735294 0.077267157
0.94509804 0.35343137 0.067156863
0.96568627 0.34932598 0.059497549
0.98272059 0.34264706 0.050490196
0.99215686 0.33088235 0.047058824
0.99607843 0.32058824 0.047058824
0.02254902 0.45588235 0.13823529
0.021568627 0.45588235 0.13823529
0.026470588 0.45588235 0.13823529
0.059681373 0.45588235 0.13823529
0.11666667 0.45588235 0.13578431
0.17843137 0.45196078 0.12990196
0.23651961 0.44877451 0.12573529
0.29301471 0.44595588 0.12254902
0.35294118 0.44019608 0.1254902
0.41470588 0.43627451 0.1254902
0.47647059 0.43235294 0.12941176
0.53909314 0.43235294 0.12291667
0.60098039 0.43529412 0.11617647
0.66127451 0.43137255 0.11507353
0.70980392 0.42769608 0.11838235
0.76127451 0.4245098 0.11654412
0.8127451 0.4245098 0.11078431
0.85968137 0.42058824 0.10404412
0.89313725 0.41568627 0.098039216
0.92757353 0.40931373 0.088602941
0.9504902 0.40294118 0.081372549
0.96997549 0.40098039 0.071078431
0.97941176 0.39705882 0.057843137
0.98970588 0.39203431 0.050980392
0.99607843 0.38235294 0.047058824
0.0083333333 0.50392157 0.14509804
0.0083333333 0.50392157 0.14509804
0.0084558824 0.50392157 0.14852941
0.048529412 0.50392157 0.14852941
0.10637255 0.50367647 0.14460784
0.16813725 0.50300245 0.13719363
0.22598039 0.49693627 0.13026961
0.28382353 0.49430147 0.12941176
0.3495098 0.48823529 0.13284314
0.41715686 0.4877451 0.12941176
0.47990196 0.48382353 0.12941176
0.54215686 0.48382353 0.12591912
0.60735294 0.47843137 0.125
0.66519608 0.47254902 0.125
0.71629902 0.47254902 0.125
0.76764706 0.47205882 0.12156863
0.81911765 0.47205882 0.11764706
0.86599265 0.47205882 0.11109069
0.9004902 0.46715686 0.1057598
0.93523284 0.46078431 0.10147059
0.96421569 0.45441176 0.091666667
0.97647059 0.45245098 0.081372549
0.98296569 0.44852941 0.071078431
0.98970588 0.44834559 0.056862745
1 0.44068627 0.047058824
0.0098039216 0.54509804 0.14313725
0.0098039216 0.54509804 0.14313725
0.010784314 0.54509804 0.14509804
0.038970588 0.54509804 0.14509804
0.096078431 0.54509804 0.14411765
0.15563725 0.54509804 0.14068627
0.21372549 0.54215686 0.13431373
0.28088235 0.53970588 0.13333333
0.34901961 0.5372549 0.1372549
0.41593137 0.53651961 0.13406863
0.48039216 0.53921569 0.13088235
0.54387255 0.53186275 0.12941176
0.60784314 0.52352941 0.13137255
0.66936275 0.51740196 0.13137255
0.72107843 0.51421569 0.12990196
0.77205882 0.51446078 0.1254902
0.82156863 0.51568627 0.11764706
0.86862745 0.51372549 0.11372549
0.90980392 0.51323529 0.11372549
0.95294118 0.51176471 0.11176471
0.9754902 0.50784314 0.10294118
0.98259804 0.50367647 0.089705882
0.9877451 0.5 0.075980392
0.99362745 0.49803922 0.0625
1 0.49607843 0.049019608
0.012254902 0.58235294 0.14068627
0.012254902 0.58235294 0.14068627
0.015808824 0.58235294 0.14080882
0.029473039 0.58535539 0.14117647
0.079411765 0.58578431 0.14093137
0.13523284 0.58535539 0.1372549
0.19656863 0.58235294 0.13468137
0.27665441 0.57843137 0.13480392
0.34901961 0.57794118 0.1372549
0.41470588 0.57794118 0.13333333
0.4817402 0.57401961 0.12941176
0.54957108 0.57015931 0.13284314
0.61176471 0.5627451 0.1372549
0.67310049 0.55931373 0.1372549
0.725 0.55894608 0.13039216
0.77628676 0.55882353 0.12371324
0.82352941 0.55882353 0.11764706
0.86862745 0.55637255 0.11372549
0.91384804 0.55392157 0.11360294
0.95839461 0.55098039 0.11023284
0.97843137 0.54877451 0.10343137
0.984375 0.54699755 0.089705882
0.99117647 0.54313725 0.075490196
0.99607843 0.54313725 0.06127451
1 0.53970588 0.054901961
0.015686275 0.62058824 0.13431373
0.015686275 0.62242647 0.13431373
0.018872549 0.62352941 0.1372549
0.023897059 0.62352941 0.13811275
0.051960784 0.62352941 0.1372549
0.10857843 0.62316176 0.13468137
0.18921569 0.61985294 0.13431373
0.27120098 0.6185049 0.13333333
0.34901961 0.61568627 0.13333333
0.41654412 0.61213235 0.1314951
0.48529412 0.60784314 0.12941176
0.55379902 0.60404412 0.13284314
0.61568627 0.6 0.13578431
0.67696078 0.60392157 0.13823529
0.73210784 0.60392157 0.13039216
0.78345588 0.60294118 0.12009804
0.83039216 0.6 0.11470588
0.87218137 0.59754902 0.11372549
0.91838235 0.59583333 0.10906863
0.96568627 0.59215686 0.1060049
0.98186275 0.58823529 0.097058824
0.98480392 0.5877451 0.085784314
0.99117647 0.58431373 0.075490196
0.99607843 0.58431373 0.065196078
1 0.58431373 0.058823529
0.015686275 0.65931373 0.12794118
0.015686275 0.65931373 0.12886029
0.015686275 0.65931373 0.13186275
0.01439951 0.65931373 0.13186275
0.025735294 0.65931373 0.13186275
0.078125 0.65900735 0.13186275
0.17107843 0.65686275 0.13186275
0.26519608 0.65686275 0.12886029
0.34901961 0.65539216 0.12794118
0.41715686 0.64810049 0.12941176
0.48529412 0.64301471 0.12941176
0.55735294 0.63756127 0.12941176
0.61960784 0.6372549 0.13259804
0.68088235 0.63970588 0.12794118
0.73566176 0.64117647 0.12107843
0.79166667 0.64362745 0.11470588
0.83529412 0.64117647 0.1122549
0.87647059 0.63817402 0.10833333
0.92401961 0.6372549 0.10441176
0.97579657 0.6372549 0.1004902
0.98431373 0.63210784 0.092156863
0.98823529 0.62941176 0.084313725
0.99215686 0.6254902 0.074019608
0.99607843 0.6254902 0.065196078
0.99607843 0.6254902 0.062745098
0.011764706 0.69411765 0.12156863
0.014215686 0.69411765 0.12156863
0.015686275 0.69411765 0.12156863
0.011764706 0.69411765 0.1254902
0.0078431373 0.69411765 0.1254902
0.051960784 0.69411765 0.1254902
0.15098039 0.69019608 0.1254902
0.25392157 0.69019608 0.12156863
0.34901961 0.69019608 0.12156863
0.41715686 0.68382353 0.1254902
0.48921569 0.67843137 0.12647059
0.55735294 0.675 0.12941176
0.62352941 0.6745098 0.1254902
0.68137255 0.6745098 0.11764706
0.73921569 0.67843137 0.11078431
0.79166667 0.67843137 0.10441176
0.83921569 0.67843137 0.10196078
0.88039216 0.6745098 0.098039216
0.93039216 0.6745098 0.094117647
0.97107843 0.67058824 0.090686275
0.98431373 0.66862745 0.088235294
0.98872549 0.66666667 0.077941176
0.99509804 0.6627451 0.071568627
0.99607843 0.6627451 0.062745098
0.99607843 0.6627451 0.062745098
0.0093137255 0.72892157 0.11127451
0.0093137255 0.72892157 0.11127451
0.0093137255 0.72781863 0.11127451
0.0093137255 0.72892157 0.11127451
0.013480392 0.72745098 0.11593137
0.056066176 0.725 0.11648284
0.15098039 0.725 0.11519608
0.25392157 0.72107843 0.11127451
0.34509804 0.72107843 0.11127451
0.42107843 0.71960784 0.11764706
0.49558824 0.71568627 0.12365196
0.56390931 0.71323529 0.12334559
0.62990196 0.71176471 0.11715686
0.68903186 0.71176471 0.11078431
0.74375 0.71323529 0.1004902
0.79503676 0.71323529 0.095588235
0.84166667 0.71323529 0.091666667
0.88676471 0.70931373 0.087745098
0.93223039 0.70723039 0.083823529
0.96550245 0.70539216 0.083823529
0.98112745 0.70269608 0.080637255
0.99246324 0.70147059 0.071568627
0.99607843 0.7 0.064828431
1 0.7 0.062745098
1 0.7 0.062745098
0.0029411765 0.76372549 0.10392157
0.0029411765 0.76372549 0.10098039
0.0029411765 0.76372549 0.10098039
0.0025735294 0.76372549 0.10012255
0.039215686 0.75980392 0.10098039
0.088112745 0.75943627 0.10098039
0.16102941 0.75612745 0.1
0.25845588 0.75477941 0.097058824
0.34509804 0.75294118 0.10098039
0.42352941 0.75588235 0.10710784
0.50196078 0.75269608 0.10784314
0.57046569 0.74901961 0.11078431
0.63627451 0.74803922 0.10882353
0.69656863 0.74803922 0.10061275
0.74803922 0.74803922 0.090931373
0.7995098 0.74803922 0.085294118
0.84803922 0.74803922 0.081372549
0.89558824 0.74411765 0.076838235
0.93921569 0.74117647 0.073284314
0.96997549 0.74019608 0.07254902
0.98088235 0.7372549 0.069117647
0.99656863 0.7372549 0.064338235
1 0.7372549 0.058823529
1 0.73627451 0.058823529
1 0.73627451 0.058823529
0 0.79803922 0.087254902
0 0.79803922 0.087254902
0 0.79460784 0.087132353
0.003002451 0.79460784 0.082904412
0.030637255 0.79436275 0.08504902
0.079289216 0.79068627 0.079901961
0.17120098 0.79068627 0.079411765
0.26636029 0.79019608 0.077267157
0.34852941 0.79019608 0.083333333
0.42745098 0.79019608 0.083823529
0.50833333 0.78933824 0.079901961
0.58039216 0.78633578 0.082904412
0.64313725 0.78627451 0.089460784
0.7004902 0.78627451 0.087193627
0.75453431 0.78284314 0.080392157
0.80686275 0.78284314 0.075
0.85441176 0.78235294 0.071078431
0.90588235 0.77892157 0.064705882
0.95330882 0.77843137 0.059313725
0.98633578 0.77843137 0.055882353
0.99191176 0.775 0.057352941
0.99656863 0.775 0.054901961
1 0.77463235 0.051470588
1 0.7745098 0.051470588
1 0.7745098 0.051470588
0 0.83137255 0.070588235
0 0.82941176 0.070588235
0 0.82892157 0.068137255
0.0039215686 0.82745098 0.063235294
0.0068627451 0.82745098 0.059803922
0.056372549 0.82941176 0.053431373
0.17598039 0.82941176 0.053921569
0.27181373 0.82745098 0.053676471
0.34901961 0.82745098 0.056862745
0.43259804 0.82745098 0.055637255
0.51568627 0.82696078 0.052941176
0.5872549 0.82352941 0.056372549
0.64803922 0.82352941 0.060784314
0.70465686 0.82352941 0.060539216
0.75931373 0.82156863 0.056862745
0.81127451 0.81960784 0.058823529
0.86078431 0.81764706 0.058823529
0.91029412 0.81568627 0.053676471
0.96176471 0.81372549 0.046568627
0.99607843 0.81568627 0.042892157
0.99607843 0.81568627 0.045098039
0.99656863 0.81568627 0.045098039
1 0.81568627 0.041666667
1 0.81568627 0.041176471
1 0.81568627 0.039215686
0 0.86421569 0.053921569
0 0.86421569 0.051470588
0 0.86078431 0.049019608
0 0.86078431 0.042156863
0 0.86421569 0.032843137
0.031740196 0.86770833 0.030392157
0.15012255 0.86727941 0.030392157
0.26078431 0.86470588 0.028247549
0.34411765 0.86470588 0.030392157
0.43333333 0.86470588 0.030085784
0.52156863 0.86421569 0.025980392
0.59313725 0.86121324 0.026409314
0.65098039 0.86078431 0.032107843
0.70925245 0.86078431 0.034252451
0.76372549 0.86041667 0.034313725
0.81341912 0.85686275 0.039705882
0.85882353 0.85637255 0.042647059
0.90980392 0.85294118 0.03872549
0.96127451 0.85257353 0.034803922
0.99552696 0.85294118 0.031801471
0.99607843 0.85490196 0.034803922
0.99607843 0.85686275 0.034803922
1 0.85723039 0.031862745
1 0.86078431 0.030882353
1 0.86078431 0.030882353
0 0.89509804 0.03627451
0 0.89509804 0.033333333
0 0.89509804 0.029166667
0.0029411765 0.89509804 0.025
0.0053921569 0.89852941 0.020588235
0.015318627 0.90330882 0.013235294
0.086764706 0.90588235 0.0098039216
0.22512255 0.90588235 0.0098039216
0.3127451 0.90588235 0.012745098
0.42156863 0.90343137 0.01127451
0.5129902 0.90122549 0.0046568627
0.58431373 0.90196078 0.0049019608
0.6495098 0.90196078 0.0098039216
0.71617647 0.89901961 0.0098039216
0.76470588 0.89803922 0.01372549
0.81017157 0.89509804 0.020955882
0.85490196 0.89411765 0.028431373
0.90637255 0.89056373 0.028431373
0.95784314 0.89117647 0.024509804
0.99166667 0.89411765 0.024509804
0.99607843 0.89411765 0.024509804
0.99607843 0.89803922 0.024142157
1 0.90196078 0.020588235
1 0.90196078 0.020588235
1 0.90490196 0.020588235
0.0014705882 0.92990196 0.022058824
0.0039215686 0.92990196 0.019607843
0.0039215686 0.92806373 0.018137255
0.0075367647 0.93118873 0.014215686
0.0078431373 0.93382353 0.0071078431
0.0082107843 0.93431373 0.0021446078
0.039460784 0.93529412 0
0.099019608 0.94699755 0.0015318627
0.23823529 0.94705882 0
0.37132353 0.94460784 0
0.46139706 0.93321078 0.0039215686
0.5473652 0.93547794 0.0039215686
0.61691176 0.94313725 0.0039215686
0.6939951 0.9372549 0
0.75294118 0.93382353 0.0035539216
0.80196078 0.93382353 0.0087622549
0.85098039 0.93529412 0.014215686
0.90245098 0.93529412 0.015134804
0.95392157 0.93566176 0.014215686
0.98988971 0.93921569 0.014215686
0.99607843 0.93921569 0.014215686
0.99607843 0.93952206 0.014215686
0.99791667 0.94313725 0.010661765
1 0.94705882 0.010294118
1 0.94705882 0.010294118
0 0.96078431 0.015686275
0 0.96078431 0.011764706
0.0039215686 0.96078431 0.010784314
0.0039215686 0.96078431 0.0078431373
0.0098039216 0.94705882 0.0039215686
0.016666667 0.9377451 0
0.020588235 0.95098039 0
0.027941176 0.96764706 0
0.062745098 0.98431373 0
0.14166667 0.99117647 0
0.33431373 0.97156863 0.0039215686
0.49852941 0.96127451 0.0039215686
0.57647059 0.98039216 0.0019607843
0.65931373 0.96715686 0.00049019608
0.73529412 0.95294118 0.0039215686
0.79166667 0.95441176 0.0053921569
0.84313725 0.96078431 0.0078431373
0.89852941 0.96862745 0.0078431373
0.95392157 0.97254902 0.0068627451
0.99117647 0.97647059 0.0039215686
0.99607843 0.97647059 0.0039215686
0.99607843 0.97647059 0.0039215686
0.99607843 0.97647059 0.0039215686
1 0.98186275 0.0039215686
1 0.99215686 0
0.012745098 0.015686275 0.030882353
0.04754902 0.022058824 0.034803922
0.091666667 0.020710784 0.039215686
0.13137255 0.010110294 0.042647059
0.17009804 0.0085784314 0.039215686
0.21127451 0.0078431373 0.035110294
0.25245098 0.0045343137 0.03125
0.30294118 0.010232843 0.032352941
0.35441176 0.015686275 0.030882353
0.40588235 0.015686275 0.030882353
0.45134804 0.011151961 0.03872549
0.4995098 0.0056985294 0.049509804
0.5622549 0.0046568627 0.03504902
0.62009804 0.0039215686 0.026960784
0.675 0.0085784314 0.024509804
0.72254902 0.02310049 0.028982843
0.77009804 0.034313725 0.029901961
0.81519608 0.026102941 0.028431373
0.85637255 0.014705882 0.023897059
0.89754902 0.0044117647 0.018137255
0.93088235 0.0039215686 0.013480392
0.95 0.0039215686 0.010294118
0.96666667 0.0078431373 0.011764706
0.98186275 0.0093137255 0.011764706
0.99215686 0.011764706 0.0078431373
0.023958333 0.041176471 0.039705882
0.055185355 0.046591605 0.041176471
0.096568627 0.051179534 0.042784926
0.13479626 0.046875 0.040862439
0.17254902 0.045098039 0.040747549
0.21372549 0.040686275 0.039208027
0.25245098 0.033563113 0.03817402
0.30294118 0.033333333 0.03817402
0.35441176 0.032414216 0.037254902
0.40588235 0.030537684 0.033333333
0.45680147 0.029963235 0.038541667
0.50815717 0.029963235 0.046070772
0.56663603 0.0296875 0.039001225
0.62272518 0.026409314 0.034137561
0.675 0.026960784 0.030193015
0.72591912 0.035500919 0.028638174
0.77401961 0.040686275 0.028431373
0.81519608 0.034352022 0.02689951
0.85637255 0.021078431 0.024280025
0.89754902 0.0093137255 0.018443627
0.93164828 0.0054534314 0.014705882
0.95 0.0073606005 0.014215686
0.96666667 0.0089920343 0.014215686
0.98186275 0.011190257 0.011764706
0.99460784 0.011764706 0.0078431373
0.051470588 0.084436275 0.053921569
0.073897059 0.087193627 0.052481618
0.10615809 0.090042892 0.050306373
0.1372549 0.087745098 0.046691176
0.17254902 0.08627451 0.045833333
0.21372549 0.084359681 0.049096201
0.25245098 0.081066176 0.052665441
