site/assets/luts/sha256-13cde68fb576831b901197bc8ac87fe6435e7a794b031e55ca286459bde91a94.cube
# LUTr-Schema-Version: 2
# LUTr-ID: sha256-13cde68fb576831b901197bc8ac87fe6435e7a794b031e55ca286459bde91a94
# LUTr-Title: fuji neopan 1600 ++
# LUTr-Collection: Natron HaldCLUT
# LUTr-Collection-ID: natron-haldclut-presets
# LUTr-Source: https://github.com/NatronGitHub/clut
# LUTr-Retrieved: 2026-07-27
# LUTr-Source-File: submissions/natron-haldclut-presets/negative_old/fuji_neopan_1600_++.png
# LUTr-Source-Format: HALD-PNG
# LUTr-Source-SHA256: 13cde68fb576831b901197bc8ac87fe6435e7a794b031e55ca286459bde91a94
# LUTr-License: CC-BY-SA-4.0
# LUTr-License-URL: https://github.com/NatronGitHub/clut#license
# LUTr-License-Basis: repo-license-file
# LUTr-Transform-Class: film-emulation
# LUTr-Tags: creative, film, film-emulation, hald-clut, natron, png, black-and-white, cube
# LUTr-Input-Color-Space: srgb
# LUTr-Input-Gamut: rec709
# LUTr-Input-Transfer: srgb
# LUTr-Output-Color-Space: srgb
# LUTr-Output-Gamut: rec709
# LUTr-Output-Transfer: srgb
# LUTr-Color-Space-Confidence: assumed-display-referred
# LUTr-Domain-Normalized: true
# LUTr-Shaper: none
# LUTr-Original-Grid: 64x64x64
# LUTr-Conversion-Grid: 25x25x25
# LUTr-Conversion-Interpolation: trilinear
# LUTr-Conversion-Method: HALD-PNG LUT image decoded at 16-bit and sampled to 25x25x25 3D CUBE
# LUTr-Conversion-Tool: LUTr scripts/convert-all-to-cube.mjs 2.0.0
# LUTr-Conversion-Date: 2026-07-27
# LUTr-Note: Preserve this metadata and the upstream license notices when redistributing.
TITLE "fuji neopan 1600 ++"
LUT_3D_SIZE 5
DOMAIN_MIN 0 0 0
DOMAIN_MAX 1 1 1
0.15294118 0.15294118 0.15294118
0.16078431 0.16078431 0.16078431
0.18431373 0.18431373 0.18431373
0.26470588 0.26470588 0.26470588
0.48235294 0.48235294 0.48235294
0.16764706 0.16764706 0.16764706
0.18333333 0.18333333 0.18333333
0.25686275 0.25686275 0.25686275
0.35980392 0.35980392 0.35980392
0.53137255 0.53137255 0.53137255
0.29411765 0.29411765 0.29411765
0.30490196 0.30490196 0.30490196
0.39019608 0.39019608 0.39019608
0.55637255 0.55637255 0.55637255
0.76470588 0.76470588 0.76470588
0.57058824 0.57058824 0.57058824
0.57843137 0.57843137 0.57843137
0.6245098 0.6245098 0.6245098
0.74313725 0.74313725 0.74313725
0.8872549 0.8872549 0.8872549
0.91372549 0.91372549 0.91372549
0.91372549 0.91372549 0.91372549
0.92352941 0.92352941 0.92352941
0.96078431 0.96078431 0.96078431
0.98431373 0.98431373 0.98431373
0.15686275 0.15686275 0.15686275
0.17083333 0.17083333 0.17083333
0.2127451 0.2127451 0.2127451
0.29901961 0.29901961 0.29901961
0.42745098 0.42745098 0.42745098
0.1870098 0.1870098 0.1870098
0.21795343 0.21795343 0.21795343
0.28308824 0.28308824 0.28308824
0.37941176 0.37941176 0.37941176
0.5754902 0.5754902 0.5754902
0.34215686 0.34215686 0.34215686
0.36237745 0.36237745 0.36237745
0.44142157 0.44142157 0.44142157
0.60392157 0.60392157 0.60392157
0.74607843 0.74607843 0.74607843
0.61666667 0.61666667 0.61666667
0.63823529 0.63823529 0.63823529
0.67291667 0.67291667 0.67291667
0.76862745 0.76862745 0.76862745
0.89583333 0.89583333 0.89583333
0.9254902 0.9254902 0.9254902
0.91544118 0.91544118 0.91544118
0.92254902 0.92254902 0.92254902
0.95759804 0.95759804 0.95759804
0.98431373 0.98431373 0.98431373
0.20980392 0.20980392 0.20980392
0.23823529 0.23823529 0.23823529
0.31862745 0.31862745 0.31862745
0.37843137 0.37843137 0.37843137
0.57647059 0.57647059 0.57647059
0.25441176 0.25441176 0.25441176
0.30931373 0.30931373 0.30931373
0.38897059 0.38897059 0.38897059
0.46703431 0.46703431 0.46703431
0.64068627 0.64068627 0.64068627
0.38529412 0.38529412 0.38529412
0.42328431 0.42328431 0.42328431
0.54705882 0.54705882 0.54705882
0.65367647 0.65367647 0.65367647
0.75686275 0.75686275 0.75686275
0.70196078 0.70196078 0.70196078
0.72561275 0.72561275 0.72561275
0.75343137 0.75343137 0.75343137
0.80882353 0.80882353 0.80882353
0.91323529 0.91323529 0.91323529
0.93921569 0.93921569 0.93921569
0.94509804 0.94509804 0.94509804
0.95 0.95 0.95
0.96372549 0.96372549 0.96372549
0.99411765 0.99411765 0.99411765
0.37254902 0.37254902 0.37254902
0.41176471 0.41176471 0.41176471
0.52990196 0.52990196 0.52990196
0.62622549 0.62622549 0.62622549
0.71568627 0.71568627 0.71568627
0.4375 0.4375 0.4375
0.49607843 0.49607843 0.49607843
0.59767157 0.59767157 0.59767157
0.67843137 0.67843137 0.67843137
0.74828431 0.74828431 0.74828431
0.47205882 0.47205882 0.47205882
0.55355392 0.55355392 0.55355392
0.69313725 0.69313725 0.69313725
0.77303922 0.77303922 0.77303922
0.8254902 0.8254902 0.8254902
0.69901961 0.69901961 0.69901961
0.72058824 0.72058824 0.72058824
0.80098039 0.80098039 0.80098039
0.8721201 0.8721201 0.8721201
0.9370098 0.9370098 0.9370098
0.91666667 0.91666667 0.91666667
0.94926471 0.94926471 0.94926471
0.95441176 0.95441176 0.95441176
0.97647059 0.97647059 0.97647059
0.99215686 0.99215686 0.99215686
0.75294118 0.75294118 0.75294118
0.79607843 0.79607843 0.79607843
0.8254902 0.8254902 0.8254902
0.89117647 0.89117647 0.89117647
0.9254902 0.9254902 0.9254902
0.80196078 0.80196078 0.80196078
0.80588235 0.80588235 0.80588235
0.85245098 0.85245098 0.85245098
0.90147059 0.90147059 0.90147059
0.93235294 0.93235294 0.93235294
0.81568627 0.81568627 0.81568627
0.8122549 0.8122549 0.8122549
0.87352941 0.87352941 0.87352941
0.92745098 0.92745098 0.92745098
0.95882353 0.95882353 0.95882353
0.83333333 0.83333333 0.83333333
0.84509804 0.84509804 0.84509804
0.87745098 0.87745098 0.87745098
0.95 0.95 0.95
0.97254902 0.97254902 0.97254902
0.96470588 0.96470588 0.96470588
0.96078431 0.96078431 0.96078431
0.96862745 0.96862745 0.96862745
0.98039216 0.98039216 0.98039216
0.98823529 0.98823529 0.98823529
