site/assets/luts/sha256-3d01b9cb1d3ba324206d9597c82f960551e1a409902bece5adb65212c18f963c.cube
# LUTr-Schema-Version: 2
# LUTr-ID: sha256-3d01b9cb1d3ba324206d9597c82f960551e1a409902bece5adb65212c18f963c
# LUTr-Title: polaroid px-680 warm -
# LUTr-Collection: Natron HaldCLUT
# LUTr-Collection-ID: natron-haldclut-presets
# LUTr-Source: https://github.com/NatronGitHub/clut
# LUTr-Retrieved: 2026-07-27
# LUTr-Source-File: submissions/natron-haldclut-presets/instant_consumer/polaroid_px-680_warm_-.png
# LUTr-Source-Format: HALD-PNG
# LUTr-Source-SHA256: 3d01b9cb1d3ba324206d9597c82f960551e1a409902bece5adb65212c18f963c
# LUTr-License: CC-BY-SA-4.0
# LUTr-License-URL: https://github.com/NatronGitHub/clut#license
# LUTr-License-Basis: repo-license-file
# LUTr-Transform-Class: film-emulation
# LUTr-Tags: creative, film, film-emulation, hald-clut, natron, png, warm, cube
# LUTr-Input-Color-Space: srgb
# LUTr-Input-Gamut: rec709
# LUTr-Input-Transfer: srgb
# LUTr-Output-Color-Space: srgb
# LUTr-Output-Gamut: rec709
# LUTr-Output-Transfer: srgb
# LUTr-Color-Space-Confidence: assumed-display-referred
# LUTr-Domain-Normalized: true
# LUTr-Shaper: none
# LUTr-Original-Grid: 64x64x64
# LUTr-Conversion-Grid: 25x25x25
# LUTr-Conversion-Interpolation: trilinear
# LUTr-Conversion-Method: HALD-PNG LUT image decoded at 16-bit and sampled to 25x25x25 3D CUBE
# LUTr-Conversion-Tool: LUTr scripts/convert-all-to-cube.mjs 2.0.0
# LUTr-Conversion-Date: 2026-07-27
# LUTr-Note: Preserve this metadata and the upstream license notices when redistributing.
TITLE "polaroid px-680 warm -"
LUT_3D_SIZE 9
DOMAIN_MIN 0 0 0
DOMAIN_MAX 1 1 1
0.16470588 0.14509804 0.0078431373
0.18382353 0.14509804 0.0078431373
0.23627451 0.14509804 0.0049019608
0.35980392 0.15147059 0.0039215686
0.54901961 0.15294118 0.0039215686
0.72892157 0.1745098 0.0014705882
0.87058824 0.27745098 0.0029411765
0.95392157 0.3622549 0.024019608
1 0.43137255 0.047058824
0.17254902 0.17205882 0.011764706
0.18823529 0.16421569 0.011764706
0.25490196 0.16801471 0.0068627451
0.38039216 0.17205882 0.0053921569
0.53921569 0.17352941 0
0.73823529 0.22959559 0
0.86960784 0.3122549 0.0039215686
0.95398284 0.38872549 0.0039215686
1 0.47745098 0.11666667
0.15392157 0.21764706 0.0049019608
0.18480392 0.23186275 0.012622549
0.24436275 0.22941176 0.00098039216
0.39019608 0.23909314 0
0.5754902 0.26176471 0
0.74313725 0.28382353 0
0.86764706 0.36789216 0
0.94705882 0.43137255 0.0044117647
0.99607843 0.48921569 0.02254902
0.13088235 0.31960784 0.0039215686
0.15784314 0.32352941 0.0039215686
0.25784314 0.34215686 0.0024509804
0.40931373 0.36911765 0.0024509804
0.58823529 0.39215686 0
0.73284314 0.40140931 0
0.84607843 0.43676471 0.0039215686
0.93449755 0.49822304 0.0012867647
0.98578431 0.54215686 0.0078431373
0.092156863 0.43921569 0.0039215686
0.12941176 0.44289216 0.0039215686
0.23333333 0.45196078 0.0039215686
0.38406863 0.47769608 0
0.55980392 0.50980392 0
0.71764706 0.54779412 0.0026960784
0.83235294 0.55343137 0.0039215686
0.91495098 0.58284314 0.0039215686
0.97058824 0.60392157 0.011764706
0.016666667 0.55882353 0
0.12794118 0.55882353 0.00030637255
0.22745098 0.55943627 0.0014705882
0.36666667 0.57941176 0.012683824
0.52156863 0.60514706 0.0093137255
0.67647059 0.63970588 0.0048406863
0.81531863 0.67352941 0.0039215686
0.90147059 0.68823529 0.00085784314
0.95686275 0.68676471 0.071568627
0.13921569 0.67058824 0.019607843
0.17610294 0.67058824 0.037254902
0.27843137 0.67352941 0.03627451
0.38688725 0.68137255 0.070465686
0.52009804 0.69901961 0.074509804
0.65980392 0.71813725 0.11654412
0.7872549 0.74803922 0.14240196
0.88235294 0.75539216 0.18345588
0.94313725 0.77843137 0.27156863
0.36470588 0.76617647 0.2
0.35545343 0.7622549 0.19080882
0.40943627 0.77659314 0.21433824
0.47745098 0.77665441 0.23854167
0.57818627 0.78529412 0.26764706
0.67745098 0.79491422 0.2963848
0.77647059 0.8057598 0.3372549
0.86023284 0.81666667 0.37248775
0.89803922 0.8245098 0.41421569
0.59215686 0.85098039 0.42352941
0.60147059 0.85539216 0.42843137
0.63431373 0.85882353 0.44607843
0.65735294 0.85098039 0.44705882
0.70588235 0.85098039 0.46470588
0.77156863 0.85882353 0.49558824
0.8254902 0.85882353 0.50392157
0.87892157 0.86666667 0.54558824
0.9254902 0.87058824 0.57647059
0.18382353 0.15245098 0.03872549
0.19558824 0.14901961 0.034803922
0.23823529 0.14117647 0.026960784
0.38823529 0.16323529 0.030882353
0.55122549 0.14558824 0.044362745
0.73823529 0.20704657 0.030208333
0.87352941 0.29129902 0.052941176
0.94607843 0.38186275 0.10484069
0.98823529 0.47745098 0.17058824
0.17696078 0.15686275 0.02745098
0.19852941 0.16367187 0.026960784
0.26709559 0.17205882 0.026960784
0.38530178 0.17839308 0.029105392
0.56985294 0.20140931 0.026746324
0.74793199 0.24448529 0.018895527
0.87046569 0.32185968 0.046078431
0.95310968 0.40441176 0.10447304
0.99215686 0.49705882 0.18670343
0.18370098 0.22806373 0.03872549
0.19522059 0.2254902 0.029702819
0.26020221 0.23682598 0.032322304
0.40989583 0.24411765 0.012622549
0.58768382 0.26862745 0.0077818627
0.75130208 0.30588235 0.0012867647
0.87113971 0.37181373 0.012254902
0.95 0.44558824 0.069730392
0.99705882 0.53137255 0.17585784
0.17352941 0.32714461 0.046078431
0.19509804 0.33471967 0.030614277
0.26617647 0.34640012 0.020940564
0.40686275 0.36519608 0.0029488358
0.59362745 0.38455882 0.0030330882
0.7414905 0.41519608 0
0.85147059 0.44840686 0.0039215686
0.93582261 0.4995098 0.026386336
0.99264706 0.56960784 0.15275735
0.14240196 0.44313725 0.038235294
0.17647059 0.4504902 0.026286765
0.25833333 0.45612745 0.035232843
0.39803922 0.47892157 0.01127451
0.5627451 0.51372549 0.010416667
0.72613358 0.55171569 0.0030943627
0.83866422 0.55490196 0.0052083333
0.92058824 0.57693015 0.0093443627
0.97867647 0.61764706 0.1002451
0.12156863 0.5622549 0.009129902
0.17371324 0.56462163 0.023935355
0.25614277 0.56881127 0.023115809
0.38509498 0.58560815 0.034918811
0.53118873 0.61029412 0.039460784
0.68805147 0.64332108 0.034129902
0.82094056 0.67953431 0.038051471
0.90147059 0.68039216 0.082391238
0.96060049 0.69803922 0.13756127
0.17352941 0.67745098 0.057598039
0.23628983 0.67440257 0.084849877
0.30796569 0.67447917 0.095067402
0.40549939 0.68414522 0.12634804
0.53382353 0.70245098 0.13921569
0.65997243 0.72486213 0.16323529
0.77444853 0.74803922 0.21553309
0.87598039 0.76703431 0.25151654
0.92647059 0.7745098 0.27990196
0.35686275 0.77003676 0.21470588
0.37113971 0.77395833 0.22287071
0.42250306 0.77832414 0.24019608
0.48735447 0.77794118 0.26341912
0.58897059 0.7875 0.29761029
0.68382353 0.79910386 0.3254902
0.77630208 0.80882353 0.35980392
0.86415441 0.82058824 0.39858303
0.93290441 0.83578431 0.44859069
0.59215686 0.85098039 0.43088235
0.58866422 0.84705882 0.41954657
0.62254902 0.85098039 0.43443627
0.66439951 0.85147059 0.45569853
0.70563725 0.85073529 0.46617647
0.76746324 0.85833333 0.49607843
0.82941176 0.86360294 0.5307598
0.8754902 0.85882353 0.52892157
0.92205882 0.86666667 0.56911765
0.17647059 0.14901961 0.080392157
0.20245098 0.15551471 0.075612745
0.25294118 0.16078431 0.083333333
0.36764706 0.16262255 0.09754902
0.55882353 0.14901961 0.11813725
0.75490196 0.17205882 0.14411765
0.86960784 0.31446078 0.20098039
0.94558824 0.43480392 0.26176471
0.98431373 0.53529412 0.32058824
0.17953431 0.175 0.090808824
0.22156863 0.18595282 0.098529412
0.28973652 0.19068627 0.10349265
0.38671875 0.19375 0.11292892
0.59264706 0.19859069 0.13161765
0.75834865 0.24332108 0.15209865
0.87352941 0.36875 0.21960784
0.94993873 0.46079963 0.26176471
0.99166667 0.54705882 0.3245098
0.19117647 0.24117647 0.11151961
0.2189951 0.24727328 0.11859681
0.30122549 0.26593137 0.11746324
0.44338235 0.27634804 0.13504902
0.61188725 0.2932598 0.13002451
0.76204044 0.34402574 0.15061275
0.8658701 0.41789216 0.19613971
0.94368873 0.49252451 0.25098039
0.98455882 0.56176471 0.30955882
0.20968137 0.33137255 0.11862745
0.23382353 0.34595588 0.11855086
0.31583946 0.36550245 0.1254902
0.45343137 0.38483456 0.13688725
0.62205882 0.3997549 0.12064951
0.75784314 0.42745098 0.12078738
0.85392157 0.4763174 0.15070466
0.9361826 0.52660846 0.21407782
0.98247549 0.59362745 0.28529412
0.23235294 0.45784314 0.12647059
0.26335784 0.46550245 0.13088235
0.3182598 0.46997549 0.13480392
0.43970588 0.48970588 0.14319853
0.59656863 0.52303922 0.12647059
0.74117647 0.55294118 0.115625
0.84411765 0.55686275 0.11691176
0.92083333 0.58449755 0.15802696
0.97401961 0.63382353 0.24901961
0.22120098 0.57634804 0.13382353
0.26727941 0.57843137 0.14166667
0.32362132 0.58069853 0.14840686
0.42329963 0.59159007 0.1622549
0.56151961 0.61776961 0.17230392
0.70899203 0.65085784 0.18584559
0.82610294 0.67552083 0.21243873
0.90147059 0.68846507 0.22408088
0.95686275 0.69558824 0.24791667
0.27745098 0.68137255 0.1752451
0.28823529 0.68137255 0.17147672
0.35428922 0.68137255 0.1870098
0.44264706 0.68756127 0.2057598
0.54901961 0.70588235 0.23578431
0.67156863 0.72809436 0.26421569
0.79730392 0.74803922 0.29344363
0.87956495 0.76580882 0.33406863
0.94632353 0.78529412 0.37279412
0.38676471 0.77352941 0.27242647
0.40635723 0.77401961 0.27896752
0.44371936 0.77760417 0.28183211
0.50637255 0.77794118 0.30448836
0.59191176 0.79074755 0.34068627
0.69166667 0.79820772 0.37179841
0.78621324 0.80854779 0.40223652
0.86764706 0.82009804 0.43284314
0.90882353 0.82438725 0.45526961
0.59313725 0.84803922 0.44019608
0.61446078 0.85441176 0.45367647
0.61985294 0.84730392 0.44411765
0.63627451 0.83921569 0.43958333
0.71421569 0.85147059 0.49264706
0.76764706 0.85196078 0.50980392
0.82156863 0.85098039 0.51544118
0.87941176 0.86409314 0.56213235
0.92843137 0.87058824 0.59215686
0.21666667 0.16715686 0.18235294
0.24050245 0.17058824 0.18204657
0.32058824 0.20036765 0.19411765
0.40906863 0.22732843 0.19840686
0.5627451 0.2120098 0.23333333
0.74552696 0.20398284 0.26617647
0.87781863 0.26482843 0.29669118
0.94215686 0.43314951 0.36323529
0.98431373 0.56372549 0.44019608
0.22205882 0.20557598 0.20147059
0.25241268 0.20340839 0.20539216
0.33480392 0.22665441 0.20931373
0.43186275 0.24810049 0.21861979
0.57931985 0.23995098 0.24583333
0.74981618 0.24541207 0.28089001
0.87561275 0.33111213 0.31380208
0.9495098 0.46893382 0.37974112
0.97824755 0.58743873 0.44626225
0.2127451 0.26470588 0.21666667
0.24932598 0.27071078 0.226731
0.35318627 0.28826593 0.24065564
0.47107843 0.3222886 0.24656863
0.63112745 0.32941176 0.27598039
0.767356 0.3649663 0.31090686
0.85894608 0.45208333 0.36127451
0.93613664 0.56047794 0.41997549
0.97107843 0.62205882 0.44607843
0.23235294 0.35251225 0.22640931
0.26733303 0.36011029 0.22696078
0.37352941 0.38529412 0.2467065
0.50377604 0.4122549 0.27182904
0.65389093 0.43336397 0.29338235
0.77116268 0.47422641 0.31862745
0.86009498 0.5372549 0.3600337
0.92101716 0.58535539 0.37910539
0.96470588 0.64117647 0.42640931
0.29681373 0.47058824 0.24656863
0.32279412 0.47058824 0.2403799
0.41813725 0.49044118 0.26752451
0.50199142 0.50836397 0.27846201
0.6314951 0.53970588 0.29522059
0.75539216 0.55808824 0.30441176
0.84589461 0.57598039 0.31231618
0.91216299 0.61715686 0.34344363
0.9622549 0.67107843 0.40710784
0.37696078 0.58627451 0.28180147
0.37382812 0.58627451 0.26942402
0.43212316 0.59264706 0.28062194
0.50189951 0.60931373 0.28543964
0.59705882 0.62751225 0.30297181
0.72693781 0.65896906 0.32254902
0.82869179 0.67454044 0.34460784
0.89901961 0.69106158 0.35692402
0.9504902 0.71127451 0.36813725
0.39411765 0.68321078 0.29705882
0.40237439 0.68529412 0.29528186
0.43529412 0.68893995 0.29669118
0.492019 0.69607843 0.30346201
0.58088235 0.70955882 0.32401961
0.69054841 0.72892157 0.35882353
0.79865196 0.75196078 0.38651961
0.88333333 0.77322304 0.41386336
0.94301471 0.78235294 0.43860294
0.44215686 0.77432598 0.34411765
0.45324755 0.77794118 0.3495098
0.47954963 0.77794118 0.34964767
0.53664982 0.78119638 0.36428462
0.61544118 0.78422181 0.39460784
0.69932598 0.79705882 0.42371324
0.79327512 0.8057598 0.4504902
0.87156863 0.82015931 0.48314951
0.93676471 0.83578431 0.51764706
0.59607843 0.85098039 0.46127451
0.60349265 0.85018382 0.46605392
0.61458333 0.84313725 0.46188725
0.67303922 0.85245098 0.49356618
0.69852941 0.84240196 0.48872549
0.76127451 0.84852941 0.52395833
0.82794118 0.85772059 0.55698529
0.88333333 0.86109069 0.57561275
0.91764706 0.87058824 0.60637255
0.25686275 0.2 0.32941176
0.30490196 0.20539216 0.32745098
0.40196078 0.23627451 0.33529412
0.55269608 0.2995098 0.36519608
0.6372549 0.30588235 0.3745098
0.72622549 0.2995098 0.38970588
0.84803922 0.33921569 0.42303922
0.93235294 0.43529412 0.45343137
0.98431373 0.54117647 0.49411765
0.27205882 0.23235294 0.33872549
0.31295956 0.23670343 0.34264706
0.41629902 0.26813725 0.35343137
0.55900735 0.3254902 0.37647059
0.64901961 0.35882353 0.38897059
0.75416667 0.34837623 0.40897672
0.85980392 0.35202206 0.43167892
0.93627451 0.46148897 0.45729167
0.98602941 0.56764706 0.50147059
0.26568627 0.30098039 0.34852941
0.31390931 0.30845588 0.36219363
0.4254902 0.32830882 0.37941176
0.56917892 0.37555147 0.39540441
0.66764706 0.42671569 0.40612745
0.75098039 0.41452206 0.41844363
0.85735294 0.44901961 0.44644608
0.93259804 0.53229167 0.47426471
0.96862745 0.61960784 0.51862745
0.24803922 0.38970588 0.35808824
0.29240196 0.39362745 0.36534926
0.40778186 0.41164216 0.37941176
0.56366422 0.45321691 0.40582108
0.68198529 0.49301471 0.42671569
0.76764706 0.49705882 0.43949142
0.853125 0.55637255 0.47230392
0.91617647 0.62166054 0.50539216
0.95563725 0.68529412 0.53921569
0.29607843 0.47843137 0.34901961
0.33823529 0.48602941 0.35294118
0.41127451 0.49240196 0.3622549
0.54203431 0.52757353 0.39938725
0.6745098 0.57352941 0.43382353
0.77034314 0.59938725 0.44031863
0.84289216 0.6254902 0.46470588
0.9064951 0.67696078 0.5004902
0.95098039 0.71176471 0.52352941
0.34289216 0.56593137 0.33553922
0.3768076 0.5754902 0.3489277
0.44699755 0.58719363 0.37009804
0.53676471 0.61470588 0.39264706
0.65147059 0.64289216 0.4245098
0.74607843 0.6745098 0.44460784
0.83504902 0.70594363 0.46819853
0.90284926 0.70269608 0.45873162
0.94509804 0.73210784 0.4879902
0.42598039 0.67794118 0.37941176
0.44491422 0.67922794 0.38492647
0.49558824 0.68872549 0.39669118
0.56243873 0.70343137 0.4098652
0.62818627 0.71495098 0.42205882
0.71930147 0.73676471 0.44754902
0.81519608 0.7627451 0.47352941
0.8872549 0.7745098 0.48995098
0.94019608 0.7745098 0.50147059
0.48480392 0.76813725 0.41911765
0.51617647 0.77401961 0.42815564
0.53272059 0.7776348 0.42818627
0.56838235 0.78152574 0.42818627
0.63321078 0.78946078 0.44607843
0.71559436 0.79705882 0.47892157
0.79852941 0.80839461 0.50563725
0.8754902 0.82101716 0.53823529
0.94117647 0.83602941 0.56544118
0.62352941 0.84901961 0.50980392
0.63333333 0.85098039 0.51372549
0.64362745 0.84803922 0.51078431
0.66176471 0.84166667 0.50955882
0.72058824 0.85196078 0.53431373
0.77426471 0.85294118 0.55833333
0.82892157 0.85490196 0.58284314
0.88333333 0.8627451 0.61004902
0.93333333 0.87254902 0.64313725
0.37303922 0.26715686 0.47401961
0.40275735 0.25539216 0.47224265
0.50245098 0.28541667 0.4872549
0.61721814 0.33633578 0.49607843
0.72009804 0.45931373 0.51764706
0.7838848 0.48431373 0.51905637
0.83541667 0.46715686 0.52205882
0.91666667 0.48658088 0.54411765
0.96176471 0.56617647 0.55980392
0.36519608 0.27696078 0.48578431
0.4127451 0.28866422 0.480553
0.50592831 0.30957414 0.49509804
0.63283548 0.37843137 0.51158088
0.72558211 0.48627451 0.52205882
0.78620558 0.52439491 0.52486979
0.83970588 0.48872549 0.52856924
0.91323529 0.51991422 0.54573376
0.96685049 0.58039216 0.57126225
0.36666667 0.33823529 0.49068627
0.40330882 0.34558824 0.49607843
0.50762868 0.3692402 0.50392157
0.63480392 0.432644 0.51813725
0.72965686 0.52604167 0.52653186
0.78457414 0.5622549 0.53390012
0.83431373 0.54276961 0.5361826
0.91501225 0.57045037 0.55606618
0.95931373 0.62303922 0.5745098
0.30741422 0.42689951 0.47647059
0.35459559 0.4305913 0.48167892
0.48615196 0.44806985 0.50045956
0.61813725 0.4942019 0.51721814
0.7174326 0.57542892 0.53186275
0.78872549 0.62084865 0.54558824
0.84417892 0.60621936 0.55127145
0.90568321 0.63278186 0.56684283
0.94810049 0.6754902 0.58670343
0.31764706 0.50931373 0.46397059
0.35088848 0.51127451 0.46387868
0.43265931 0.52107843 0.47916667
0.55612745 0.55128676 0.50294118
0.69485294 0.60955882 0.52720588
0.78872549 0.66939338 0.5495098
0.84656863 0.67310049 0.56280637
0.89724265 0.69852941 0.58161765
0.93578431 0.72671569 0.59509804
0.35588235 0.58480392 0.4372549
0.38007812 0.58841912 0.44443168
0.45448836 0.59987745 0.46179534
0.54829963 0.61917892 0.47894455
0.66173407 0.65 0.50808824
0.77303922 0.69460784 0.54189645
0.8444087 0.72143076 0.56124387
0.89901961 0.73284314 0.56010263
0.94417892 0.76617647 0.60055147
0.36727941 0.65845588 0.42414216
0.40209865 0.6643076 0.43515625
0.45637255 0.6768076 0.44607843
0.54244792 0.69483762 0.46482843
0.64509804 0.71421569 0.49718137
0.74604779 0.74178922 0.52990196
0.82922794 0.76740196 0.55441176
0.89420956 0.78566176 0.56973039
0.94509804 0.7817402 0.57254902
0.45863971 0.76078431 0.46930147
0.469447 0.76067708 0.4745098
0.52855392 0.76617647 0.4861826
0.57057292 0.77346814 0.48890931
0.65784314 0.78946078 0.51176471
0.73442862 0.80098039 0.53480392
0.8138174 0.80968137 0.56911765
0.88478094 0.82440257 0.59973192
0.93872549 0.82843137 0.61550245
0.60539216 0.84068627 0.54803922
0.60214461 0.83921569 0.54626225
0.65257353 0.85098039 0.56164216
0.68235294 0.84761029 0.56372549
0.72254902 0.84681373 0.57181373
0.77794118 0.84558824 0.58578431
0.8254902 0.84411765 0.60343137
0.8872549 0.86452206 0.64656863
0.91911765 0.8627451 0.65637255
0.50196078 0.33921569 0.59215686
0.54031863 0.34852941 0.60294118
0.6 0.36102941 0.60294118
0.69558824 0.43137255 0.60686275
0.7745098 0.52598039 0.61421569
0.82598039 0.61911765 0.61862745
0.86078431 0.64705882 0.61470588
0.90245098 0.62487745 0.62169118
0.94117647 0.64215686 0.63333333
0.50294118 0.36715686 0.59901961
0.53644301 0.36775429 0.60294118
0.60621936 0.40594363 0.60294118
0.69590993 0.46465993 0.61078431
0.77616422 0.54227941 0.61470588
0.82598039 0.64693627 0.62133885
0.86078431 0.65882353 0.61862745
0.89160539 0.63169424 0.61931679
0.93970588 0.65257353 0.62941176
0.49803922 0.40490196 0.59901961
0.52977941 0.42034314 0.59911152
0.60098039 0.45435049 0.60294118
0.69166667 0.50784314 0.6106924
0.76985294 0.58186275 0.61617647
0.82460172 0.66813725 0.62647059
0.86372549 0.68651961 0.62922794
0.89460784 0.66335784 0.62867647
0.9372549 0.67254902 0.6372549
0.48137255 0.49019608 0.59264706
0.49140625 0.48779105 0.59264706
0.57723652 0.50481005 0.59984681
0.67352941 0.54762561 0.60755208
0.75410539 0.61268382 0.61439951
0.82352941 0.68872549 0.62654718
0.86372549 0.70333946 0.63348652
0.89901961 0.70343137 0.64007353
0.93333333 0.70245098 0.64509804
0.38431373 0.55490196 0.56813725
0.41758578 0.55490196 0.56617647
0.50502451 0.56372549 0.57928922
0.61887255 0.5963848 0.59295343
0.73112745 0.64240196 0.60637255
0.81323529 0.70680147 0.62941176
0.86078431 0.73296569 0.63860294
0.89466912 0.73333333 0.64564951
0.91568627 0.73235294 0.6495098
0.38639706 0.61960784 0.54865196
0.41190257 0.62161458 0.55085784
0.47046569 0.62827819 0.55833333
0.56349571 0.64299939 0.57378983
0.66176471 0.66519608 0.5879902
0.7894761 0.71741728 0.61870404
0.8591299 0.75554534 0.63504902
0.89857537 0.76372549 0.64946385
0.9254902 0.775 0.65392157
0.41102941 0.69411765 0.53308824
0.43088235 0.69705882 0.53946078
0.459375 0.69338235 0.53363971
0.5375 0.70098039 0.54558824
0.63823529 0.72009804 0.57218137
0.74990809 0.74770221 0.6002451
0.83854167 0.77916667 0.63039216
0.90284926 0.8013174 0.65101103
0.93333333 0.80588235 0.65465686
0.3807598 0.75490196 0.51960784
0.37922794 0.75526961 0.51305147
0.43094363 0.75719975 0.51920956
0.52023591 0.76591605 0.53218444
0.62273284 0.77892157 0.55655637
0.73466605 0.7979473 0.59577206
0.82941176 0.81237745 0.63860294
0.89203431 0.82961091 0.66567096
0.94117647 0.84105392 0.6817402
0.57058824 0.85686275 0.59607843
0.55637255 0.84656863 0.58970588
0.58186275 0.83995098 0.58995098
0.65441176 0.85036765 0.60882353
0.71470588 0.85098039 0.62058824
0.78811275 0.85 0.6377451
0.83333333 0.85196078 0.65392157
0.89117647 0.8627451 0.6877451
0.94509804 0.86372549 0.7
0.63382353 0.47352941 0.6877451
0.66421569 0.48829657 0.69466912
0.70931373 0.51911765 0.69166667
0.75275735 0.54607843 0.6877451
0.81838235 0.62328431 0.69117647
0.85655637 0.6841299 0.69136029
0.88247549 0.73529412 0.69509804
0.90588235 0.75435049 0.69901961
0.92941176 0.73088235 0.69509804
0.64074755 0.49264706 0.69466912
0.66115962 0.5 0.69509804
0.70549939 0.53071385 0.69166667
0.7588848 0.5714614 0.69117647
0.81663603 0.63434436 0.69166667
0.86078431 0.70410539 0.69509804
0.88284314 0.74635417 0.69509804
0.90294118 0.75392157 0.69901961
0.91813725 0.73823529 0.69895833
0.63737745 0.52303922 0.69558824
0.65568321 0.53442096 0.6928462
0.69384191 0.55686275 0.6877451
0.75543811 0.59803922 0.68988971
0.80900735 0.65710784 0.69509804
0.85686275 0.71997549 0.69509804
0.88370098 0.75778186 0.69800858
0.90637255 0.76568627 0.70294118
0.92855392 0.75294118 0.70196078
0.60784314 0.57892157 0.68382353
0.62650888 0.57330729 0.6877451
0.6754902 0.59166667 0.6872549
0.73628217 0.62598039 0.6877451
0.79739583 0.67956495 0.69151348
0.85342371 0.73560049 0.69821538
0.88382353 0.77215074 0.70294118
0.90680147 0.77981771 0.71084559
0.92156863 0.77383578 0.71078431
0.52254902 0.62303922 0.66838235
0.54828431 0.62303922 0.67034314
0.61182598 0.62696078 0.67579657
0.69623162 0.64862132 0.68373162
0.775 0.68823529 0.68737745
0.83783701 0.74215686 0.69901961
0.88357843 0.78143382 0.70686275
0.91029412 0.78897059 0.71102941
0.93161765 0.7870098 0.71813725
0.42224265 0.66666667 0.65245098
0.44599418 0.67058824 0.65245098
0.50543811 0.67058824 0.65828738
0.62205882 0.69098499 0.66978401
0.70995711 0.70995711 0.67711397
0.80360754 0.74852941 0.68843444
0.87637868 0.78962929 0.71078431
0.91464461 0.80067402 0.71993719
0.93333333 0.80980392 0.72254902
0.44509804 0.73333333 0.64117647
0.45882353 0.73589154 0.64508272
0.50946691 0.73627451 0.64966299
0.57058824 0.73884804 0.65212929
0.6377451 0.74313725 0.65655637
0.74117647 0.75672488 0.67144608
0.84702819 0.79708946 0.70294118
0.91861213 0.82892157 0.73443627
0.93382353 0.82892157 0.73039216
0.43382353 0.79754902 0.63290441
0.45599724 0.79754902 0.64074755
0.49339767 0.79362745 0.63606005
0.55523131 0.79319853 0.6372549
0.63455882 0.79362745 0.64145221
0.7219133 0.80275735 0.66154259
0.82248775 0.81328125 0.69214154
0.89852941 0.83970588 0.72303922
0.94209559 0.85539216 0.74564951
0.45735294 0.83970588 0.6372549
0.46911765 0.84411765 0.64117647
0.53137255 0.85196078 0.6495098
0.56207108 0.84344363 0.64754902
0.6502451 0.85710784 0.66029412
0.7127451 0.83970588 0.66145833
0.8317402 0.86360294 0.70379902
0.89117647 0.86280637 0.73088235
0.94509804 0.87401961 0.75392157
0.76078431 0.64705882 0.76078431
0.77598039 0.65490196 0.76470588
0.79215686 0.66666667 0.76176471
0.81813725 0.68872549 0.75686275
0.85294118 0.72352941 0.75686275
0.87990196 0.75441176 0.75294118
0.90196078 0.78431373 0.74803922
0.92205882 0.80098039 0.74558824
0.92941176 0.80784314 0.74901961
0.76421569 0.65833333 0.76470588
0.76862745 0.65839461 0.76127451
0.78688725 0.66960784 0.76041667
0.82205882 0.70147059 0.76078431
0.85294118 0.73137255 0.76078431
0.87647059 0.75441176 0.746875
0.90196078 0.78566176 0.74460784
0.92254902 0.80882353 0.75
0.93676471 0.81176471 0.75637255
0.75392157 0.6745098 0.76470588
0.76838235 0.68553922 0.76875
0.77622549 0.68039216 0.75686275
0.81090686 0.70404412 0.75686275
0.84901961 0.73676471 0.75735294
0.87843137 0.76580882 0.75257353
0.90588235 0.79215686 0.75269608
0.92071078 0.80735294 0.7432598
0.9372549 0.81862745 0.75686275
0.72696078 0.68872549 0.76078431
0.74460784 0.69393382 0.76421569
0.76911765 0.70404412 0.76115196
0.8033701 0.72156863 0.76078431
0.83602941 0.74166667 0.75220588
0.87598039 0.77647059 0.75686275
0.90686275 0.80061275 0.75931373
0.92205882 0.80992647 0.746875
0.94362745 0.82598039 0.77107843
0.71176471 0.7254902 0.76666667
0.69534314 0.71568627 0.75465686
0.73921569 0.7245098 0.76176471
0.77941176 0.73897059 0.7620098
0.82058824 0.75490196 0.75588235
0.8629902 0.78186275 0.75612745
0.89901961 0.80490196 0.75539216
0.92990196 0.82745098 0.75710784
0.94509804 0.83137255 0.76862745
0.60343137 0.74411765 0.74901961
0.61550245 0.7504902 0.75686275
0.65821078 0.7495098 0.75588235
0.72297794 0.75680147 0.75925245
0.78333333 0.76470588 0.75220588
0.83921569 0.78339461 0.74754902
0.89007353 0.80882353 0.75294118
0.93333333 0.83529412 0.77009804
0.94901961 0.84705882 0.77892157
0.57352941 0.79313725 0.75686275
0.56985294 0.78419118 0.74485294
0.60490196 0.78848039 0.75269608
0.64522059 0.78921569 0.75870098
0.71715686 0.79068627 0.76029412
0.78860294 0.80208333 0.76078431
0.86078431 0.81985294 0.7625
0.92990196 0.83933824 0.77745098
0.94901961 0.85098039 0.78039216
0.60441176 0.83186275 0.75686275
0.61617647 0.83578431 0.76427696
0.63137255 0.83198529 0.75477941
0.64852941 0.82432598 0.74117647
0.70416667 0.83014706 0.75318627
0.76158088 0.82843137 0.76127451
0.83026961 0.83186275 0.76960784
0.90294118 0.8471201 0.7721201
0.94901961 0.85931373 0.78823529
0.65098039 0.87843137 0.77254902
0.63921569 0.86666667 0.76470588
0.65588235 0.87156863 0.75784314
0.68578431 0.87303922 0.76715686
0.72352941 0.87058824 0.76862745
0.7754902 0.8627451 0.77352941
0.82941176 0.85490196 0.74215686
0.89166667 0.8745098 0.78823529
0.94509804 0.86666667 0.79215686
