site/assets/luts/sha256-dcbba1046ff781048fb2681108288adf8e9eff93b377379b1a2423d3d85f7073.cube
# LUTr-Schema-Version: 2
# LUTr-ID: sha256-dcbba1046ff781048fb2681108288adf8e9eff93b377379b1a2423d3d85f7073
# LUTr-Title: golden fade
# LUTr-Collection: Natron HaldCLUT
# LUTr-Collection-ID: natron-haldclut-presets
# LUTr-Source: https://github.com/NatronGitHub/clut
# LUTr-Retrieved: 2026-07-27
# LUTr-Source-File: submissions/natron-haldclut-presets/various/golden_fade.png
# LUTr-Source-Format: HALD-PNG
# LUTr-Source-SHA256: dcbba1046ff781048fb2681108288adf8e9eff93b377379b1a2423d3d85f7073
# LUTr-License: CC-BY-SA-4.0
# LUTr-License-URL: https://github.com/NatronGitHub/clut#license
# LUTr-License-Basis: repo-license-file
# LUTr-Transform-Class: film-emulation
# LUTr-Tags: creative, film, film-emulation, hald-clut, natron, png, cube
# LUTr-Input-Color-Space: srgb
# LUTr-Input-Gamut: rec709
# LUTr-Input-Transfer: srgb
# LUTr-Output-Color-Space: srgb
# LUTr-Output-Gamut: rec709
# LUTr-Output-Transfer: srgb
# LUTr-Color-Space-Confidence: assumed-display-referred
# LUTr-Domain-Normalized: true
# LUTr-Shaper: none
# LUTr-Original-Grid: 64x64x64
# LUTr-Conversion-Grid: 25x25x25
# LUTr-Conversion-Interpolation: trilinear
# LUTr-Conversion-Method: HALD-PNG LUT image decoded at 16-bit and sampled to 25x25x25 3D CUBE
# LUTr-Conversion-Tool: LUTr scripts/convert-all-to-cube.mjs 2.0.0
# LUTr-Conversion-Date: 2026-07-27
# LUTr-Note: Preserve this metadata and the upstream license notices when redistributing.
TITLE "golden fade"
LUT_3D_SIZE 25
DOMAIN_MIN 0 0 0
DOMAIN_MAX 1 1 1
0.30196078 0.14901961 0.30980392
0.29509804 0.11323529 0.30490196
0.34509804 0.11568627 0.30882353
0.4127451 0.1627451 0.325
0.40980392 0.11764706 0.31764706
0.49215686 0.18284314 0.33970588
0.48627451 0.12745098 0.32745098
0.57303922 0.19607843 0.35294118
0.6 0.2 0.34901961
0.61323529 0.15784314 0.34754902
0.67058824 0.21666667 0.36666667
0.68431373 0.18921569 0.36568627
0.72156863 0.20784314 0.37058824
0.75784314 0.22794118 0.37598039
0.75882353 0.18137255 0.36666667
0.77058824 0.16127451 0.3622549
0.8 0.18039216 0.37254902
0.8372549 0.23578431 0.38676471
0.86960784 0.26666667 0.39803922
0.87598039 0.2254902 0.39362745
0.89803922 0.25294118 0.40392157
0.91813725 0.29411765 0.41176471
0.9254902 0.25686275 0.40784314
0.93137255 0.22156863 0.40588235
0.96862745 0.3372549 0.44313725
0.18627451 0.092647059 0.29411765
0.34834559 0.17279412 0.32757353
0.39779412 0.18186275 0.33651961
0.39093137 0.1216299 0.32365196
0.46421569 0.18063725 0.35122549
0.50998775 0.20459559 0.34754902
0.53088235 0.18970588 0.34791667
0.58872549 0.22205882 0.36078431
0.61029412 0.20245098 0.35931373
0.62487745 0.17438725 0.35582108
0.69117647 0.24117647 0.37708333
0.71011029 0.22977941 0.3776348
0.75122549 0.25490196 0.38333333
0.78125 0.26574755 0.39068627
0.8 0.26470588 0.39362745
0.81574755 0.24914216 0.39859069
0.84264706 0.26960784 0.40098039
0.87046569 0.29442402 0.40882353
0.88321078 0.28848039 0.41311275
0.89577206 0.26231618 0.40765931
0.91642157 0.30073529 0.42083333
0.93498775 0.31734069 0.42469363
0.95477941 0.33137255 0.43026961
0.96115196 0.31605392 0.43137255
0.98529412 0.38039216 0.45833333
0.20196078 0.11960784 0.30294118
0.36213235 0.20232843 0.33737745
0.41617647 0.21495098 0.34754902
0.44816176 0.21286765 0.34914216
0.49362745 0.22892157 0.35490196
0.52426471 0.23014706 0.36127451
0.57156863 0.24632353 0.36568627
0.58835784 0.225 0.36262255
0.63137255 0.24313725 0.36862745
0.66960784 0.26029412 0.37634804
0.69362745 0.25882353 0.38137255
0.72034314 0.25122549 0.38688725
0.76617647 0.29215686 0.39460784
0.76568627 0.25882353 0.39227941
0.80098039 0.27843137 0.39362745
0.82928922 0.29877451 0.40318627
0.84607843 0.29215686 0.40392157
0.86764706 0.31323529 0.41421569
0.88921569 0.32352941 0.41470588
0.8939951 0.28921569 0.4129902
0.91617647 0.34166667 0.42352941
0.93982843 0.35796569 0.43137255
0.94411765 0.33284314 0.42965686
0.96470588 0.36213235 0.43578431
0.96960784 0.37254902 0.44019608
0.35441176 0.24558824 0.33872549
0.39883578 0.25208333 0.3495098
0.44129902 0.25698529 0.35637255
0.47898284 0.26427696 0.35980392
0.51617647 0.27034314 0.36397059
0.53835784 0.25900735 0.36427696
0.58529412 0.2872549 0.37303922
0.61973039 0.29466912 0.37285539
0.64607843 0.27990196 0.37696078
0.66832108 0.26666667 0.38020833
0.71813725 0.31507353 0.38823529
0.74515931 0.33265931 0.39509804
0.76740196 0.32401961 0.3995098
0.79105392 0.33198529 0.40238971
0.80392157 0.30392157 0.3995098
0.83529412 0.33970588 0.41078431
0.84558824 0.325 0.41029412
0.87058824 0.34626225 0.42156863
0.89007353 0.37291667 0.42242647
0.89607843 0.33639706 0.42156863
0.92622549 0.39926471 0.43602941
0.93333333 0.39221814 0.43523284
0.95612745 0.41727941 0.44473039
0.95637255 0.41047794 0.44344363
0.95637255 0.41078431 0.45
0.26470588 0.2372549 0.34705882
0.42181373 0.29779412 0.36372549
0.46029412 0.29411765 0.37058824
0.50343137 0.3120098 0.3745098
0.54509804 0.32058824 0.37941176
0.57254902 0.31813725 0.38259804
0.61029412 0.32892157 0.38627451
0.64632353 0.34338235 0.39093137
0.67647059 0.34313725 0.39607843
0.71372549 0.35196078 0.40245098
0.74705882 0.37107843 0.40833333
0.76397059 0.37426471 0.40980392
0.7872549 0.37254902 0.41372549
0.81127451 0.375 0.41789216
0.83823529 0.39166667 0.42352941
0.85980392 0.40147059 0.43014706
0.87843137 0.40392157 0.43137255
0.89387255 0.4122549 0.4377451
0.91176471 0.42647059 0.44019608
0.92328431 0.42990196 0.44509804
0.9372549 0.4372549 0.45098039
0.96495098 0.46102941 0.45882353
0.96078431 0.45147059 0.45686275
0.96813725 0.46936275 0.46764706
0.98235294 0.50588235 0.48627451
0.26666667 0.26813725 0.34901961
0.38976716 0.31115196 0.36568627
0.47279412 0.32156863 0.37647059
0.515625 0.33284314 0.38082108
0.56519608 0.3622549 0.39264706
0.60539216 0.37696078 0.39650735
0.62561275 0.35845588 0.39227941
0.6627451 0.37389706 0.40165441
0.70196078 0.39313725 0.40833333
0.72481618 0.38345588 0.41041667
0.75379902 0.38897059 0.41507353
0.77843137 0.4033701 0.41568627
0.80661765 0.42598039 0.42205882
0.82984069 0.42830882 0.43535539
0.85686275 0.44730392 0.43835784
0.86862745 0.43854167 0.43872549
0.88970588 0.45098039 0.44313725
0.90606618 0.45735294 0.44969363
0.92254902 0.47156863 0.45490196
0.9254902 0.45735294 0.45147059
0.93504902 0.45931373 0.45294118
0.96072304 0.4901348 0.47009804
0.96041667 0.47205882 0.4627451
0.96421569 0.4875 0.471875
0.96421569 0.49019608 0.47794118
0.39117647 0.36176471 0.36862745
0.42279412 0.35306373 0.3745098
0.46960784 0.34803922 0.38014706
0.52536765 0.35955882 0.38933824
0.57696078 0.39705882 0.40392157
0.61568627 0.40784314 0.40637255
0.63553922 0.38259804 0.39926471
0.67242647 0.39803922 0.40625
0.70882353 0.41764706 0.41568627
0.72855392 0.40661765 0.41531863
0.75661765 0.41323529 0.42132353
0.78529412 0.43333333 0.42598039
0.82009804 0.47107843 0.43578431
0.83921569 0.47769608 0.44252451
0.85784314 0.47720588 0.44607843
0.86286765 0.45061275 0.43786765
0.88235294 0.4627451 0.44607843
0.8995098 0.47242647 0.4557598
0.91960784 0.49387255 0.46176471
0.92806373 0.48982843 0.45833333
0.93235294 0.48529412 0.45931373
0.95428922 0.51752451 0.47953431
0.95686275 0.4995098 0.46887255
0.95870098 0.52794118 0.47585784
0.95588235 0.55980392 0.47941176
0.3245098 0.39166667 0.37156863
0.42254902 0.40196078 0.38670343
0.50735294 0.40772059 0.39571078
0.55 0.41439951 0.40116422
0.59362745 0.43921569 0.4125
0.62794118 0.4408701 0.41323529
0.65698529 0.43517157 0.41139706
0.69117647 0.44650735 0.42101716
0.7245098 0.45833333 0.42892157
0.74754902 0.46378676 0.42800245
0.77352941 0.47058824 0.43284314
0.80147059 0.48596814 0.44148284
0.83284314 0.50980392 0.45122549
0.85343137 0.52009804 0.45814951
0.87107843 0.52683824 0.45968137
0.88192402 0.51470588 0.45784314
0.90098039 0.52647059 0.46176471
0.92248775 0.54460784 0.46721814
0.94019608 0.55502451 0.47242647
0.94234069 0.5504902 0.47696078
0.94460784 0.54803922 0.48333333
0.95704657 0.56372549 0.49313725
0.9622549 0.56409314 0.49313725
0.96525735 0.58915441 0.49852941
0.96617647 0.6127451 0.50490196
0.34901961 0.43529412 0.38431373
0.49362745 0.45735294 0.40245098
0.54019608 0.4627451 0.40784314
0.57107843 0.46666667 0.41176471
0.60784314 0.47647059 0.41764706
0.64460784 0.48627451 0.41960784
0.67843137 0.48921569 0.42254902
0.71029412 0.4995098 0.43431373
0.74117647 0.50980392 0.43921569
0.76568627 0.52009804 0.43921569
0.79019608 0.5254902 0.43921569
0.81813725 0.54019608 0.4504902
0.84509804 0.55098039 0.46470588
0.87107843 0.56470588 0.4745098
0.88529412 0.57156863 0.47058824
0.90098039 0.57401961 0.47598039
0.92156863 0.58823529 0.47843137
0.94215686 0.60490196 0.48235294
0.95294118 0.61176471 0.4872549
0.95294118 0.61176471 0.49754902
0.95686275 0.60980392 0.50392157
0.96470588 0.61617647 0.51029412
0.96862745 0.62941176 0.51372549
0.96862745 0.65 0.51764706
0.97254902 0.67058824 0.52156863
0.43186275 0.47696078 0.39264706
0.50729167 0.49908088 0.4127451
0.55257353 0.50637255 0.42058824
0.59136029 0.51519608 0.42873775
0.6252451 0.52083333 0.42598039
0.66145833 0.52794118 0.42352941
0.69546569 0.53676471 0.43223039
0.72843137 0.54705882 0.44313725
0.76029412 0.55882353 0.45196078
0.78480392 0.56764706 0.45196078
0.80625 0.57340686 0.44803922
0.83235294 0.58529412 0.46029412
0.85931373 0.59607843 0.47573529
0.88314951 0.60637255 0.48609069
0.8995098 0.61556373 0.48186275
0.91464461 0.62156863 0.48327206
0.93039216 0.62941176 0.48627451
0.94362745 0.63817402 0.48872549
0.95392157 0.64546569 0.49509804
0.96292892 0.6526348 0.50784314
0.96715686 0.65612745 0.5129902
0.97126225 0.66550245 0.52205882
0.975 0.68235294 0.52977941
0.975 0.69901961 0.53278186
0.97892157 0.70931373 0.53823529
0.41176471 0.51764706 0.41372549
0.54718137 0.54607843 0.42904412
0.57745098 0.55073529 0.43406863
0.6122549 0.5564951 0.43982843
0.64754902 0.56323529 0.44019608
0.68198529 0.57303922 0.44117647
0.71666667 0.58406863 0.44803922
0.75147059 0.59571078 0.46127451
0.78235294 0.60784314 0.46764706
0.80232843 0.61176471 0.46519608
0.81764706 0.61176471 0.45980392
0.84264706 0.62291667 0.47071078
0.86960784 0.6372549 0.48529412
0.89215686 0.64754902 0.49117647
0.9120098 0.65784314 0.49117647
0.92794118 0.66384804 0.48872549
0.9372549 0.66960784 0.49411765
0.94362745 0.67022059 0.49411765
0.95416667 0.67843137 0.50294118
0.96813725 0.68970588 0.51029412
0.97941176 0.7 0.51813725
0.98137255 0.71066176 0.52732843
0.98137255 0.7245098 0.54117647
0.98529412 0.73811275 0.55245098
0.98529412 0.74607843 0.5627451
0.41078431 0.55539216 0.41960784
0.55128676 0.58811275 0.44007353
0.60196078 0.59803922 0.44656863
0.63284314 0.60147059 0.45349265
0.67328431 0.60784314 0.45441176
0.70637255 0.61813725 0.46176471
0.7372549 0.62843137 0.46862745
0.77352941 0.64264706 0.4754902
0.7995098 0.6495098 0.48186275
0.81243873 0.64920343 0.4754902
0.825 0.64656863 0.47009804
0.85294118 0.66072304 0.48137255
0.87990196 0.67671569 0.49558824
0.90245098 0.68872549 0.50147059
0.91911765 0.69522059 0.50147059
0.9346201 0.70392157 0.50490196
0.94068627 0.70735294 0.51176471
0.94362745 0.7004902 0.49803922
0.95490196 0.71029412 0.50637255
0.97156863 0.72352941 0.51666667
0.98455882 0.73602941 0.52303922
0.98431373 0.74460784 0.53382353
0.9817402 0.75441176 0.54411765
0.98088235 0.76519608 0.55490196
0.98088235 0.7754902 0.56470588
0.46862745 0.59215686 0.41764706
0.53063725 0.61151961 0.43627451
0.60637255 0.63284314 0.45392157
0.65490196 0.64264706 0.46078431
0.69509804 0.64901961 0.46960784
0.72696078 0.65931373 0.47279412
0.75784314 0.66960784 0.47794118
0.78921569 0.67794118 0.48308824
0.80588235 0.68039216 0.48235294
0.81813725 0.68039216 0.47916667
0.83235294 0.68137255 0.4754902
0.85931373 0.69509804 0.4877451
0.88529412 0.70882353 0.50196078
0.90686275 0.72009804 0.5122549
0.92598039 0.73039216 0.51911765
0.94313725 0.73921569 0.52401961
0.94509804 0.7372549 0.51372549
0.94632353 0.73210784 0.50269608
0.95588235 0.74215686 0.5127451
0.96813725 0.75245098 0.52303922
0.97745098 0.76078431 0.53039216
0.97843137 0.76911765 0.5377451
0.97647059 0.77941176 0.54803922
0.9745098 0.79044118 0.55441176
0.9745098 0.80196078 0.56078431
0.45833333 0.63382353 0.43578431
0.5814951 0.66323529 0.45294118
0.64705882 0.67598039 0.46409314
0.67444853 0.67598039 0.46709559
0.71029412 0.68235294 0.47279412
0.74405637 0.69607843 0.47843137
0.7745098 0.70637255 0.4814951
0.79558824 0.70863971 0.48627451
0.8122549 0.71127451 0.48627451
0.82628676 0.71127451 0.48284314
0.84166667 0.71531863 0.48688725
0.86568627 0.72254902 0.49761029
0.89068627 0.73676471 0.5122549
0.91072304 0.74699755 0.51764706
0.92745098 0.75686275 0.52414216
0.94479167 0.76697304 0.53137255
0.94558824 0.76617647 0.52254902
0.95147059 0.76617647 0.51844363
0.95821078 0.77107843 0.52610294
0.96378676 0.77794118 0.52990196
0.96838235 0.78529412 0.53553922
0.96862745 0.79362745 0.54166667
0.96862745 0.80392157 0.55196078
0.96813725 0.81372549 0.55686275
0.96813725 0.82009804 0.56078431
0.45196078 0.67156863 0.43921569
0.57573529 0.69166667 0.45588235
0.65759804 0.70392157 0.46666667
0.6877451 0.70686275 0.47009804
0.72254902 0.71666667 0.47647059
0.75784314 0.72745098 0.48186275
0.78921569 0.73823529 0.48602941
0.80441176 0.73823529 0.48921569
0.81862745 0.73823529 0.48921569
0.83529412 0.74215686 0.49203431
0.85588235 0.74705882 0.49803922
0.87647059 0.7564951 0.50833333
0.89754902 0.76764706 0.51862745
0.91421569 0.77365196 0.52144608
0.9245098 0.77745098 0.51838235
0.93933824 0.78627451 0.52254902
0.94509804 0.79019608 0.5254902
0.95539216 0.79595588 0.53419118
0.96151961 0.80196078 0.54019608
0.96127451 0.8057598 0.54019608
0.96176471 0.80735294 0.53872549
0.96176471 0.81421569 0.54460784
0.96176471 0.8245098 0.55196078
0.96176471 0.82757353 0.55686275
0.96078431 0.83039216 0.55686275
0.50931373 0.70343137 0.44509804
0.59148284 0.71776961 0.45790441
0.65367647 0.72867647 0.46482843
0.69803922 0.7372549 0.47009804
0.73284314 0.74754902 0.48431373
0.76795343 0.75784314 0.49166667
0.79840686 0.76519608 0.49522059
0.81378676 0.76911765 0.49558824
0.82892157 0.76911765 0.49313725
0.84558824 0.7754902 0.50104167
0.86764706 0.78333333 0.51262255
0.88694853 0.79215686 0.52040441
0.90661765 0.79926471 0.52696078
0.91960784 0.803125 0.52696078
0.92659314 0.80441176 0.52303922
0.93627451 0.80588235 0.52150735
0.94656863 0.81470588 0.53333333
0.95686275 0.82254902 0.54264706
0.96470588 0.82855392 0.5504902
0.96127451 0.83167892 0.5504902
0.95882353 0.83186275 0.54656863
0.95686275 0.83609069 0.54705882
0.95686275 0.84509804 0.55735294
0.95686275 0.84754902 0.55833333
0.95294118 0.84754902 0.55588235
0.50196078 0.74117647 0.45882353
0.59068627 0.75392157 0.46911765
0.66862745 0.76568627 0.47941176
0.71617647 0.76862745 0.48235294
0.74705882 0.77647059 0.49215686
0.77794118 0.78480392 0.49852941
0.80588235 0.79215686 0.50196078
0.82254902 0.79754902 0.50588235
0.84313725 0.80392157 0.50980392
0.85980392 0.80784314 0.52009804
0.87941176 0.8127451 0.52254902
0.89705882 0.81960784 0.52892157
0.91568627 0.82941176 0.53529412
0.92990196 0.83529412 0.5372549
0.9372549 0.83529412 0.5372549
0.94656863 0.83676471 0.53872549
0.95294118 0.83921569 0.54509804
0.95931373 0.84705882 0.55147059
0.96470588 0.85196078 0.55686275
0.96127451 0.85490196 0.56078431
0.96078431 0.86078431 0.56078431
0.96078431 0.8627451 0.56470588
0.96078431 0.86960784 0.56862745
0.95686275 0.87205882 0.57254902
0.95686275 0.8745098 0.57254902
0.52598039 0.78382353 0.47696078
0.6122549 0.79564951 0.48878676
0.6997549 0.80625 0.50122549
0.73627451 0.80588235 0.5004902
0.76642157 0.81053922 0.50441176
0.78823529 0.81519608 0.50459559
0.81433824 0.82205882 0.50772059
0.83584559 0.82843137 0.51856618
0.85735294 0.83480392 0.52794118
0.87156863 0.83572304 0.52732843
0.88676471 0.8372549 0.52610294
0.90490196 0.84754902 0.53284314
0.92401961 0.86029412 0.54240196
0.94019608 0.86648284 0.54754902
0.94938725 0.87009804 0.54938725
0.95594363 0.86764706 0.55539216
0.96078431 0.86764706 0.55931373
0.96078431 0.87009804 0.55778186
0.96078431 0.87254902 0.55968137
0.96421569 0.88137255 0.56666667
0.96470588 0.89485294 0.57622549
0.96078431 0.88970588 0.5776348
0.96078431 0.89117647 0.58186275
0.96078431 0.89601716 0.58676471
0.96078431 0.89754902 0.58676471
0.54019608 0.80588235 0.47254902
0.68688725 0.83713235 0.49754902
0.71887255 0.83921569 0.50784314
0.75428922 0.84215686 0.51421569
0.78529412 0.84411765 0.51470588
0.80551471 0.84607843 0.51470588
0.82352941 0.84901961 0.51691176
0.84852941 0.85931373 0.53186275
0.86862745 0.86568627 0.53921569
0.88186275 0.86568627 0.53468137
0.89387255 0.8627451 0.52843137
0.91372549 0.87683824 0.54166667
0.93186275 0.8872549 0.55
0.94963235 0.90147059 0.55698529
0.95759804 0.90196078 0.56176471
0.96286765 0.89705882 0.56997549
0.96862745 0.89313725 0.5745098
0.96507353 0.89313725 0.56997549
0.96176471 0.89485294 0.56446078
0.96556373 0.91176471 0.58051471
0.96862745 0.92990196 0.5877451
0.96433824 0.91997549 0.59019608
0.96151961 0.91544118 0.59313725
0.9627451 0.92095588 0.60012255
0.9627451 0.92156863 0.60294118
0.59705882 0.86519608 0.50490196
0.69797794 0.87303922 0.51519608
0.7439951 0.87389706 0.52156863
0.77401961 0.87303922 0.525
0.7995098 0.875 0.525
0.82003676 0.87696078 0.52542892
0.84019608 0.88088235 0.53186275
0.86127451 0.88890931 0.54362745
0.88186275 0.89656863 0.55637255
0.89607843 0.89656863 0.55343137
0.90735294 0.89742647 0.54901961
0.92745098 0.90435049 0.55931373
0.94436275 0.91813725 0.56764706
0.95729167 0.925 0.57156863
0.96078431 0.9254902 0.575
0.96470588 0.92303922 0.58382353
0.96862745 0.92401961 0.5877451
0.96862745 0.92401961 0.5872549
0.96813725 0.92879902 0.58823529
0.96862745 0.93921569 0.59810049
0.96862745 0.94852941 0.60318627
0.96856618 0.94362745 0.61078431
0.96764706 0.93921569 0.61764706
0.97745098 0.95814951 0.62775735
0.98333333 0.97009804 0.63382353
0.59607843 0.89215686 0.50980392
0.67328431 0.89926471 0.52328431
0.75 0.90196078 0.53333333
0.78872549 0.9002451 0.53137255
0.81372549 0.90392157 0.53529412
0.83431373 0.90784314 0.53970588
0.85196078 0.91127451 0.54313725
0.87156863 0.91519608 0.55122549
0.89215686 0.92352941 0.56470588
0.90882353 0.92745098 0.56813725
0.92156863 0.92843137 0.56764706
0.94044118 0.9370098 0.57794118
0.95686275 0.94117647 0.58529412
0.96470588 0.94509804 0.58823529
0.96470588 0.94509804 0.58970588
0.96470588 0.94509804 0.59411765
0.96862745 0.94901961 0.59803922
0.97254902 0.95735294 0.59803922
0.97401961 0.95931373 0.60294118
0.97254902 0.95906863 0.60955882
0.96862745 0.95686275 0.61764706
0.96862745 0.95490196 0.62794118
0.97156863 0.96127451 0.63823529
0.98186275 0.97794118 0.65245098
0.98823529 0.98627451 0.66470588
0.68137255 0.92598039 0.53088235
0.72095588 0.9276348 0.53694853
0.75612745 0.92696078 0.54166667
0.80294118 0.92647059 0.53823529
0.8245098 0.93014706 0.54583333
0.84509804 0.9338848 0.55042892
0.86519608 0.9377451 0.55392157
0.88186275 0.93921569 0.55539216
0.90245098 0.94558824 0.56960784
0.91930147 0.95165441 0.57567402
0.93578431 0.95477941 0.58235294
0.95637255 0.95784314 0.59607843
0.97107843 0.96176471 0.60269608
0.97254902 0.96519608 0.60398284
0.96875 0.96519608 0.60098039
0.96470588 0.96488971 0.60098039
0.96862745 0.96862745 0.60490196
0.97469363 0.975 0.60882353
0.97512255 0.97512255 0.61360294
0.9721201 0.96911765 0.62352941
0.96838235 0.96495098 0.63014706
0.96470588 0.96470588 0.64068627
0.97156863 0.96776961 0.66127451
0.97775735 0.97401961 0.67696078
0.98039216 0.98039216 0.69117647
0.66960784 0.97058824 0.54313725
0.73235294 0.96029412 0.55159314
0.78333333 0.95 0.55661765
0.82401961 0.9432598 0.55882353
0.84215686 0.94362745 0.56323529
0.86176471 0.94718137 0.56801471
0.88235294 0.94803922 0.5745098
0.89607843 0.94803922 0.57843137
0.91666667 0.95294118 0.58627451
0.93272059 0.95870098 0.59301471
0.95 0.96642157 0.60073529
0.97058824 0.97806373 0.61029412
0.98480392 0.98235294 0.61813725
0.97990196 0.97904412 0.61862745
0.97328431 0.97328431 0.62083333
0.96862745 0.96862745 0.62156863
0.96862745 0.96862745 0.6254902
0.97254902 0.97254902 0.62647059
0.96960784 0.96960784 0.62720588
0.96862745 0.96862745 0.63382353
0.96470588 0.96470588 0.64411765
0.96470588 0.96470588 0.65355392
0.96862745 0.96789216 0.66789216
0.97291667 0.97071078 0.68529412
0.97647059 0.97352941 0.69803922
0.69313725 0.99068627 0.55833333
0.75343137 0.97696078 0.56862745
0.81115196 0.96127451 0.57438725
0.84509804 0.95833333 0.57922794
0.85980392 0.95710784 0.58333333
0.87843137 0.95833333 0.58578431
0.89754902 0.95833333 0.59080882
0.90827206 0.95778186 0.59509804
0.92696078 0.95833333 0.59901961
0.94362745 0.96323529 0.60392157
0.96421569 0.97389706 0.61666667
0.98118873 0.98529412 0.62352941
0.99019608 0.99019608 0.62818627
0.98382353 0.98382353 0.63676471
0.97463235 0.97647059 0.63823529
0.97107843 0.9716299 0.64215686
0.96862745 0.96862745 0.64215686
0.96862745 0.96954657 0.64460784
0.96654412 0.96654412 0.6439951
0.96341912 0.96341912 0.64460784
0.96078431 0.96078431 0.6504902
0.96470588 0.96470588 0.66470588
0.96654412 0.96470588 0.67683824
0.96623775 0.96470588 0.67935049
0.96715686 0.96715686 0.68872549
0.70588235 0.98823529 0.57254902
0.7622549 0.98039216 0.57892157
0.83333333 0.97254902 0.58921569
0.8622549 0.96862745 0.59215686
0.8745098 0.96862745 0.59607843
0.89117647 0.96862745 0.6
0.90882353 0.96862745 0.6
0.91519608 0.96323529 0.60539216
0.93333333 0.96470588 0.60784314
0.95392157 0.96715686 0.61421569
0.96960784 0.97745098 0.61960784
0.98382353 0.9877451 0.62352941
0.99019608 0.99019608 0.62941176
0.98382353 0.98382353 0.63970588
0.97647059 0.97647059 0.65
0.97254902 0.97254902 0.65490196
0.96862745 0.96862745 0.65490196
0.96617647 0.96617647 0.65490196
0.96372549 0.96372549 0.65490196
0.95735294 0.95735294 0.65490196
0.95882353 0.95882353 0.66078431
0.96470588 0.96470588 0.67107843
0.96470588 0.96470588 0.68235294
0.96323529 0.96078431 0.68088235
0.95686275 0.95686275 0.67843137
0.22794118 0.079901961 0.29901961
0.29068627 0.093811275 0.30839461
0.34203431 0.10870098 0.31948529
0.40324755 0.14558824 0.33792892
0.41004902 0.11397059 0.32573529
0.48952206 0.17071078 0.35
0.48051471 0.11593137 0.33394608
0.54846814 0.16268382 0.35294118
0.5872549 0.17303922 0.35931373
0.61072304 0.15526961 0.35784314
0.65514706 0.18909314 0.3685049
0.659375 0.15140931 0.35655637
0.69240196 0.15465686 0.3620098
0.74117647 0.19362745 0.37892157
0.75171569 0.16323529 0.37144608
0.7754902 0.16623775 0.375
0.79852941 0.17254902 0.37892157
0.83817402 0.2254902 0.39859069
0.86409314 0.24448529 0.4067402
0.86666667 0.19681373 0.39742647
0.88823529 0.20710784 0.40563725
0.90098039 0.19442402 0.40226716
0.92254902 0.22953431 0.41580882
0.93143382 0.21433824 0.41384804
0.96078431 0.28823529 0.44313725
0.21593137 0.1033701 0.30876225
0.30367647 0.13723958 0.32708333
0.37017463 0.15238971 0.33823529
0.39790901 0.12738205 0.33419884
0.44702819 0.15683211 0.34972426
0.49698989 0.18218444 0.35373775
0.51793811 0.16646752 0.35238971
0.57659314 0.19867494 0.36715686
0.59460784 0.17408088 0.36268382
0.615625 0.16132047 0.36063879
0.67135417 0.21125919 0.37892157
0.69276961 0.20478707 0.3776348
0.71470588 0.18943015 0.37769608
0.76042433 0.22389706 0.39068627
0.78026961 0.2234375 0.39160539
0.80512408 0.22758885 0.39916513
0.82542892 0.23370098 0.3995098
0.85700827 0.2591682 0.41029412
0.87593444 0.26243873 0.41488971
0.88714001 0.24068627 0.41183364
0.90094975 0.22858456 0.4127451
0.91685049 0.2279182 0.41616881
0.93382353 0.23402267 0.42035846
0.95196078 0.26697304 0.43229167
0.97886029 0.26727941 0.44166667
0.19840686 0.11433824 0.31078431
0.31663603 0.16758578 0.33681066
0.4 0.19261642 0.34911152
0.42928922 0.18065257 0.34947917
0.47267157 0.19473039 0.35661765
0.50626532 0.19615502 0.360769
0.53918505 0.19491422 0.36253064
0.56787684 0.18953738 0.36309743
0.61911765 0.2192402 0.37634804
0.63616728 0.20240502 0.37178309
0.67061887 0.2125 0.37693015
0.70442708 0.22215074 0.38426777
0.72708333 0.20379902 0.38468137
0.75799632 0.23223039 0.3946538
0.78615196 0.24589461 0.39675245
0.81842831 0.26829044 0.40646446
0.82671569 0.24080882 0.40171569
0.85052083 0.25811887 0.40706189
