site/assets/luts/sha256-6d4a1322cebe550fb076d64fe56686ae85d5932cb4bc92b09a69a2418ce8d036.cube
# LUTr-Schema-Version: 2
# LUTr-ID: sha256-6d4a1322cebe550fb076d64fe56686ae85d5932cb4bc92b09a69a2418ce8d036
# LUTr-Title: polaroid 669 cold +
# LUTr-Collection: Natron HaldCLUT
# LUTr-Collection-ID: natron-haldclut-presets
# LUTr-Source: https://github.com/NatronGitHub/clut
# LUTr-Retrieved: 2026-07-27
# LUTr-Source-File: submissions/natron-haldclut-presets/instant_pro/polaroid_669_cold_+.png
# LUTr-Source-Format: HALD-PNG
# LUTr-Source-SHA256: 6d4a1322cebe550fb076d64fe56686ae85d5932cb4bc92b09a69a2418ce8d036
# LUTr-License: CC-BY-SA-4.0
# LUTr-License-URL: https://github.com/NatronGitHub/clut#license
# LUTr-License-Basis: repo-license-file
# LUTr-Transform-Class: film-emulation
# LUTr-Tags: creative, film, film-emulation, hald-clut, natron, png, cool, cube
# LUTr-Input-Color-Space: srgb
# LUTr-Input-Gamut: rec709
# LUTr-Input-Transfer: srgb
# LUTr-Output-Color-Space: srgb
# LUTr-Output-Gamut: rec709
# LUTr-Output-Transfer: srgb
# LUTr-Color-Space-Confidence: assumed-display-referred
# LUTr-Domain-Normalized: true
# LUTr-Shaper: none
# LUTr-Original-Grid: 64x64x64
# LUTr-Conversion-Grid: 25x25x25
# LUTr-Conversion-Interpolation: trilinear
# LUTr-Conversion-Method: HALD-PNG LUT image decoded at 16-bit and sampled to 25x25x25 3D CUBE
# LUTr-Conversion-Tool: LUTr scripts/convert-all-to-cube.mjs 2.0.0
# LUTr-Conversion-Date: 2026-07-27
# LUTr-Note: Preserve this metadata and the upstream license notices when redistributing.
TITLE "polaroid 669 cold +"
LUT_3D_SIZE 25
DOMAIN_MIN 0 0 0
DOMAIN_MAX 1 1 1
0 0.24313725 0.31372549
0 0.24313725 0.31372549
0 0.24313725 0.31372549
0 0.23970588 0.30980392
0 0.23921569 0.30588235
0 0.23872549 0.30196078
0 0.23529412 0.29901961
0 0.23137255 0.29656863
0.023529412 0.23137255 0.29803922
0.089215686 0.23529412 0.30196078
0.14607843 0.23529412 0.30588235
0.19754902 0.23529412 0.30588235
0.24313725 0.23333333 0.30196078
0.29313725 0.23137255 0.30637255
0.35196078 0.23137255 0.3127451
0.41127451 0.22745098 0.32156863
0.46666667 0.22745098 0.32941176
0.52205882 0.22352941 0.33333333
0.57352941 0.21960784 0.3372549
0.625 0.21960784 0.3372549
0.67647059 0.21568627 0.33921569
0.72352941 0.21960784 0.3495098
0.76862745 0.22352941 0.35686275
0.81764706 0.225 0.36617647
0.8627451 0.22745098 0.37254902
0 0.24705882 0.31372549
0 0.24613971 0.31372549
0 0.24313725 0.31372549
0 0.24313725 0.30980392
0 0.24044118 0.30588235
0 0.23921569 0.30539216
0.0006127451 0.23590686 0.30196078
0.0024509804 0.23474265 0.29803922
0.032352941 0.23529412 0.29803922
0.095588235 0.23682598 0.30196078
0.15698529 0.23921569 0.30588235
0.21047794 0.23792892 0.30588235
0.25784314 0.23529412 0.30710784
0.30539216 0.23511029 0.31011029
0.35833333 0.23382353 0.31727941
0.41427696 0.23137255 0.32457108
0.47058824 0.23137255 0.33186275
0.52297794 0.22745098 0.33333333
0.57352941 0.22316176 0.3372549
0.62745098 0.21960784 0.3372549
0.67843137 0.21691176 0.33921569
0.72401961 0.22224265 0.3495098
0.77218137 0.22598039 0.35980392
0.82064951 0.22990196 0.36770833
0.86029412 0.23627451 0.375
0 0.24803922 0.31372549
0 0.24705882 0.31372549
0.00098039216 0.24705882 0.3120098
0.00012254902 0.24448529 0.30980392
0 0.24313725 0.30588235
0 0.24007353 0.30539216
0 0.23921569 0.30196078
0.0072303922 0.23627451 0.29803922
0.055882353 0.23921569 0.30196078
0.11372549 0.23982843 0.30588235
0.17230392 0.24313725 0.30980392
0.22598039 0.24056373 0.31066176
0.27401961 0.23921569 0.3122549
0.32205882 0.23921569 0.31507353
0.37279412 0.23627451 0.32230392
0.42401961 0.23590686 0.32757353
0.4754902 0.23529412 0.33431373
0.53051471 0.23235294 0.3372549
0.58235294 0.22843137 0.33897059
0.63382353 0.22843137 0.34117647
0.68529412 0.2254902 0.34411765
0.73235294 0.22879902 0.35343137
0.77745098 0.23455882 0.36372549
0.82156863 0.24056373 0.37071078
0.85490196 0.24901961 0.38039216
0 0.25098039 0.30980392
0 0.25098039 0.30980392
0.0039215686 0.2504902 0.30980392
0.0039215686 0.24748775 0.30980392
0.0034313725 0.24681373 0.30588235
0 0.24313725 0.30539216
0 0.24264706 0.30196078
0.0084558824 0.23921569 0.29803922
0.069607843 0.24264706 0.30196078
0.13137255 0.24528186 0.30802696
0.19301471 0.24705882 0.31078431
0.24362745 0.24656863 0.31372549
0.29117647 0.24313725 0.31715686
0.33872549 0.24264706 0.32113971
0.38762255 0.24264706 0.32536765
0.43823529 0.24264706 0.33302696
0.48921569 0.24264706 0.3372549
0.5372549 0.24264706 0.34117647
0.58884804 0.23872549 0.34460784
0.64368873 0.23872549 0.34509804
0.69166667 0.23872549 0.35073529
0.74264706 0.23872549 0.35735294
0.78431373 0.24178922 0.36727941
0.82156863 0.25324755 0.37401961
0.85490196 0.26617647 0.38382353
0 0.25490196 0.30980392
0 0.25294118 0.30980392
0.0039215686 0.25294118 0.30980392
0.0039215686 0.25294118 0.30980392
0.0039215686 0.25294118 0.30882353
0.0039215686 0.25073529 0.30588235
0.0058823529 0.24901961 0.30392157
0.032843137 0.24901961 0.30392157
0.090196078 0.24901961 0.30588235
0.15196078 0.25098039 0.30980392
0.2127451 0.25294118 0.31372549
0.26421569 0.25294118 0.31740196
0.30980392 0.25294118 0.32058824
0.35539216 0.25490196 0.32377451
0.40539216 0.25490196 0.32892157
0.45441176 0.25686275 0.33480392
0.50392157 0.25686275 0.34117647
0.5502451 0.25294118 0.34436275
0.5995098 0.24901961 0.34558824
0.65441176 0.24901961 0.34901961
0.70098039 0.24901961 0.35490196
0.74730392 0.24705882 0.36127451
0.79019608 0.25392157 0.37009804
0.82745098 0.26960784 0.37990196
0.8627451 0.28235294 0.38823529
0 0.25490196 0.30588235
0 0.25520833 0.30802696
0.0039215686 0.25882353 0.30980392
0.0039215686 0.25931373 0.30980392
0.0017156863 0.25931373 0.30980392
0.0044117647 0.25882353 0.30980392
0.023161765 0.25882353 0.31237745
0.059497549 0.25900735 0.30980392
0.11519608 0.25931373 0.31029412
0.17273284 0.25931373 0.31372549
0.22941176 0.25931373 0.31507353
0.28088235 0.2627451 0.32107843
0.32843137 0.26519608 0.32377451
0.3754902 0.26764706 0.32947304
0.42316176 0.26764706 0.33333333
0.47107843 0.26764706 0.33872549
0.52254902 0.26764706 0.34166667
0.56764706 0.26734069 0.34540441
0.61629902 0.26237745 0.34901961
0.66519608 0.25931373 0.35251225
0.71029412 0.26176471 0.35882353
0.75189951 0.26813725 0.365625
0.79656863 0.275 0.3754902
0.8377451 0.28872549 0.38627451
0.87107843 0.29901961 0.39607843
0 0.25882353 0.30588235
0 0.26176471 0.30833333
0.0039215686 0.26348039 0.30980392
0.0039215686 0.26568627 0.30980392
0 0.26568627 0.30980392
0.0013480392 0.26568627 0.30980392
0.025735294 0.26568627 0.30980392
0.081372549 0.26568627 0.31311275
0.13921569 0.26960784 0.31666667
0.19705882 0.27144608 0.31764706
0.25 0.27279412 0.32083333
0.29889706 0.27647059 0.32414216
0.34705882 0.27892157 0.32745098
0.39227941 0.2817402 0.33247549
0.44044118 0.28431373 0.3370098
0.49056373 0.28137255 0.34117647
0.53921569 0.28137255 0.34509804
0.58823529 0.28137255 0.34901961
0.63357843 0.28039216 0.35367647
0.67941176 0.28284314 0.35931373
0.72058824 0.28382353 0.36421569
0.76176471 0.28872549 0.37169118
0.80294118 0.29901961 0.37941176
0.84448529 0.31041667 0.39080882
0.87843137 0.32254902 0.4
0.0039215686 0.27745098 0.31519608
0 0.27598039 0.31372549
0.0028186275 0.27745098 0.31409314
0.0039215686 0.27745098 0.31390931
0.0026960784 0.27598039 0.31372549
0.0018382353 0.27352941 0.31127451
0.040808824 0.27647059 0.31311275
0.099571078 0.28045343 0.31819853
0.15833333 0.28529412 0.32156863
0.21519608 0.28921569 0.32457108
0.26666667 0.29313725 0.32696078
0.31666667 0.29313725 0.32910539
0.3622549 0.29436275 0.32941176
0.40784314 0.29577206 0.33382353
0.45686275 0.29705882 0.34019608
0.50686275 0.2995098 0.34564951
0.55833333 0.29705882 0.34901961
0.60588235 0.29797794 0.35386029
0.64852941 0.30343137 0.36115196
0.68970588 0.31029412 0.36960784
0.73088235 0.31421569 0.37401961
0.77205882 0.31421569 0.37794118
0.81213235 0.32071078 0.38333333
0.84754902 0.33676471 0.39810049
0.87843137 0.35343137 0.40931373
0.0039215686 0.29411765 0.32156863
0.0039215686 0.29411765 0.32156863
0 0.29411765 0.32156863
0.0034313725 0.29411765 0.32156863
0.0058823529 0.29411765 0.32156863
0.025 0.29411765 0.32156863
0.062745098 0.29411765 0.32156863
0.11715686 0.2995098 0.32303922
0.17647059 0.30588235 0.3254902
0.23186275 0.30833333 0.32941176
0.28235294 0.30980392 0.33333333
0.33088235 0.30980392 0.33333333
0.3745098 0.30980392 0.33333333
0.42205882 0.31029412 0.3372549
0.46960784 0.31666667 0.34411765
0.51715686 0.31911765 0.34901961
0.56862745 0.32156863 0.35686275
0.62009804 0.32794118 0.36323529
0.6627451 0.33431373 0.36960784
0.70392157 0.34117647 0.37990196
0.74509804 0.34509804 0.38431373
0.78235294 0.34901961 0.38823529
0.81666667 0.35588235 0.39509804
0.85147059 0.37156863 0.40686275
0.88235294 0.38431373 0.41960784
0.0078431373 0.31470588 0.33186275
0.0048406863 0.31470588 0.33186275
0.0018382353 0.31470588 0.32904412
0 0.31470588 0.32794118
0.025735294 0.31470588 0.32794118
0.058517157 0.31470588 0.32794118
0.093627451 0.31862745 0.32794118
0.1377451 0.31862745 0.32849265
0.18921569 0.32254902 0.32941176
0.24215686 0.32647059 0.33333333
0.29362745 0.33039216 0.33615196
0.34148284 0.33253676 0.33939951
0.38431373 0.33431373 0.33970588
0.428125 0.33431373 0.34117647
0.47414216 0.33786765 0.34693627
0.52352941 0.34307598 0.35386029
0.57647059 0.35245098 0.36323529
0.63431373 0.359375 0.37199755
0.68088235 0.36813725 0.37990196
0.71813725 0.37420343 0.38676471
0.75539216 0.38112745 0.39583333
0.78970588 0.38676471 0.40294118
0.82303922 0.39705882 0.41176471
0.85839461 0.40974265 0.42113971
0.89264706 0.42156863 0.42990196
0.012745098 0.33627451 0.34215686
0.014338235 0.33529412 0.34154412
0.018627451 0.33529412 0.3379902
0.025980392 0.33529412 0.33468137
0.050980392 0.33529412 0.33431373
0.087132353 0.33921569 0.33431373
0.1245098 0.33921569 0.33431373
0.16176471 0.33921569 0.33431373
0.20196078 0.33921569 0.33333333
0.25245098 0.34497549 0.33615196
0.30294118 0.34803922 0.33897059
0.34791667 0.35490196 0.34473039
0.38921569 0.35882353 0.34509804
0.43468137 0.35882353 0.34607843
0.48161765 0.35882353 0.34901961
0.52892157 0.36421569 0.35441176
0.58039216 0.3745098 0.36470588
0.63762255 0.38578431 0.375
0.68946078 0.39926471 0.38921569
0.72879902 0.41029412 0.4004902
0.76764706 0.41911765 0.41078431
0.79754902 0.42794118 0.41801471
0.82843137 0.43823529 0.42745098
0.85931373 0.44889706 0.43480392
0.88627451 0.4627451 0.44509804
0.037745098 0.35980392 0.34901961
0.044117647 0.35980392 0.34852941
0.049509804 0.35931373 0.34497549
0.059865196 0.35588235 0.34460784
0.077205882 0.35931373 0.34460784
0.11029412 0.35980392 0.34460784
0.14803922 0.35980392 0.34460784
0.18529412 0.36323529 0.34099265
0.22254902 0.35980392 0.34068627
0.25882353 0.3622549 0.33939951
0.3067402 0.36862745 0.34473039
0.35098039 0.3754902 0.34810049
0.39215686 0.37941176 0.34901961
0.4377451 0.37984069 0.34944853
0.48529412 0.38321078 0.35294118
0.52922794 0.38872549 0.35833333
0.57647059 0.39901961 0.36470588
0.62843137 0.40931373 0.375
0.67990196 0.42438725 0.39007353
0.73137255 0.44117647 0.40686275
0.77083333 0.45882353 0.42132353
0.80055147 0.46911765 0.43137255
0.82843137 0.47941176 0.4442402
0.85931373 0.49491422 0.45539216
0.88627451 0.50784314 0.46568627
0.07254902 0.38235294 0.35490196
0.075735294 0.38235294 0.35490196
0.081372549 0.38235294 0.35441176
0.095098039 0.38039216 0.35122549
0.11078431 0.38039216 0.35294118
0.13063725 0.38063725 0.35098039
0.16323529 0.38431373 0.3495098
0.20122549 0.38504902 0.34828431
0.2372549 0.38627451 0.34901961
0.27058824 0.39019608 0.34705882
0.31176471 0.39411765 0.34901961
0.35490196 0.39607843 0.34901961
0.39411765 0.4 0.35098039
0.4372549 0.40392157 0.35294118
0.48186275 0.40735294 0.35588235
0.52745098 0.41519608 0.35955882
0.57254902 0.42352941 0.36470588
0.62205882 0.43504902 0.375
0.67352941 0.44901961 0.38970588
0.72328431 0.46764706 0.40686275
0.76372549 0.48823529 0.42352941
0.79558824 0.50465686 0.43970588
0.82647059 0.52009804 0.45196078
0.85735294 0.53627451 0.46764706
0.88039216 0.55490196 0.48235294
0.099509804 0.41323529 0.36127451
0.10294118 0.41323529 0.36127451
0.10833333 0.4122549 0.36127451
0.12205882 0.40931373 0.36084559
0.13848039 0.40539216 0.35735294
0.15490196 0.40490196 0.35729167
0.17806373 0.40490196 0.35686275
0.21403186 0.40667892 0.35686275
0.24754902 0.41323529 0.35735294
0.28235294 0.42107843 0.36109069
0.32205882 0.425 0.35735294
0.35974265 0.425 0.35735294
0.39632353 0.425 0.35514706
0.43425245 0.42898284 0.35386029
0.48137255 0.43578431 0.35992647
0.52481618 0.44215686 0.3622549
0.56862745 0.44852941 0.36470588
0.61568627 0.45863971 0.37107843
0.66617647 0.47401961 0.38627451
0.71078431 0.49460784 0.4033701
0.75196078 0.51519608 0.42132353
0.78578431 0.53970588 0.44019608
0.81666667 0.56078431 0.46127451
0.84754902 0.58186275 0.48186275
0.87401961 0.60245098 0.49852941
0.12352941 0.45098039 0.36764706
0.12598039 0.44803922 0.36764706
0.13529412 0.44411765 0.36764706
0.14522059 0.44056373 0.36764706
0.16078431 0.43823529 0.36617647
0.17892157 0.43235294 0.36372549
0.19313725 0.42843137 0.36151961
0.22303922 0.43088235 0.36188725
0.25784314 0.44117647 0.36470588
0.2932598 0.4504902 0.36764706
0.32916667 0.45269608 0.36764706
0.36580882 0.45588235 0.36470588
0.40147059 0.45931373 0.36372549
0.44031863 0.46666667 0.36372549
0.48235294 0.46985294 0.36372549
0.52352941 0.47267157 0.36470588
0.56470588 0.4754902 0.36470588
0.60870098 0.48284314 0.3692402
0.65588235 0.50098039 0.38308824
0.69705882 0.52156863 0.40036765
0.73823529 0.54460784 0.41813725
0.77892157 0.56715686 0.4372549
0.80980392 0.59509804 0.46397059
0.84178922 0.62463235 0.49031863
0.86764706 0.64705882 0.5127451
0.14411765 0.48823529 0.37647059
0.14957108 0.48578431 0.37647059
0.15686275 0.47830882 0.37401961
0.16323529 0.475 0.37273284
0.17794118 0.47181373 0.37254902
0.19589461 0.46844363 0.37009804
0.2127451 0.46580882 0.37009804
0.23872549 0.46917892 0.37009804
0.26813725 0.47647059 0.37401961
0.30238971 0.48284314 0.37401961
0.33443627 0.48713235 0.37401961
0.37077206 0.49197304 0.37401961
0.40784314 0.49730392 0.37401961
0.44656863 0.50422794 0.37401961
0.4877451 0.50784314 0.37401961
0.5283701 0.51176471 0.37401961
0.56862745 0.51568627 0.37401961
0.60588235 0.51813725 0.37254902
0.64705882 0.53186275 0.37806373
0.68823529 0.55245098 0.39381127
0.73186275 0.57303922 0.40833333
0.76911765 0.59626225 0.42745098
0.80343137 0.62205882 0.45539216
0.83431373 0.64957108 0.48137255
0.85882353 0.67352941 0.50441176
0.16078431 0.52941176 0.38431373
0.16470588 0.52696078 0.38431373
0.17352941 0.51666667 0.38039216
0.18382353 0.50980392 0.37696078
0.19411765 0.50588235 0.37647059
0.2127451 0.50588235 0.37647059
0.23333333 0.50882353 0.38039216
0.25539216 0.50980392 0.38039216
0.28235294 0.51372549 0.38431373
0.31078431 0.51764706 0.38039216
0.34019608 0.52156863 0.38039216
0.375 0.5254902 0.38039216
0.41176471 0.53529412 0.38039216
0.45294118 0.54166667 0.38431373
0.49411765 0.54901961 0.38431373
0.53137255 0.55441176 0.38284314
0.56862745 0.55686275 0.38039216
0.60588235 0.56323529 0.37892157
0.64313725 0.56960784 0.38137255
0.68088235 0.57990196 0.3877451
0.72156863 0.6 0.39803922
0.7622549 0.6245098 0.42058824
0.79313725 0.64901961 0.44509804
0.8254902 0.675 0.47107843
0.85490196 0.69803922 0.49411765
0.17745098 0.5745098 0.39068627
0.17892157 0.57150735 0.39068627
0.1877451 0.56176471 0.38786765
0.19803922 0.5536152 0.38676471
0.20955882 0.54632353 0.38284314
0.22941176 0.5495098 0.38676471
0.25 0.55061275 0.38970588
0.27113971 0.55098039 0.39068627
0.29656863 0.55245098 0.39068627
0.32107843 0.55490196 0.38915441
0.34656863 0.55637255 0.38615196
0.37873775 0.56011029 0.38431373
0.41813725 0.57009804 0.38676471
0.45686275 0.58284314 0.3908701
0.49411765 0.59203431 0.3939951
0.53137255 0.59895833 0.39068627
0.56862745 0.60441176 0.38676471
0.60588235 0.61078431 0.38584559
0.64215686 0.61654412 0.38823529
0.67824755 0.6213848 0.38823529
0.71519608 0.62892157 0.38897059
0.74852941 0.65410539 0.41323529
0.78394608 0.68284314 0.44166667
0.8161152 0.70741422 0.46960784
0.84215686 0.72892157 0.49019608
0.19411765 0.61568627 0.39705882
0.1935049 0.61568627 0.39644608
0.20196078 0.60857843 0.39534314
0.2122549 0.60490196 0.39656863
0.22352941 0.60196078 0.39705882
0.24117647 0.60196078 0.39705882
0.26176471 0.60196078 0.40098039
0.28235294 0.60098039 0.40196078
0.30686275 0.60098039 0.40098039
0.33137255 0.59705882 0.39852941
0.35588235 0.59607843 0.39313725
0.38382353 0.59926471 0.39019608
0.42009804 0.6122549 0.39460784
0.45637255 0.62401961 0.39705882
0.49411765 0.63431373 0.39705882
0.52990196 0.64068627 0.39705882
0.56862745 0.65098039 0.39705882
0.60343137 0.65772059 0.39705882
0.63897059 0.66372549 0.39803922
0.67647059 0.67107843 0.40098039
0.71176471 0.67941176 0.40392157
0.74252451 0.69607843 0.41862745
0.77254902 0.71960784 0.44436275
0.80404412 0.74705882 0.47058824
0.83039216 0.75980392 0.48627451
0.21078431 0.66421569 0.40735294
0.21078431 0.66176471 0.40686275
0.21568627 0.66029412 0.40686275
0.22647059 0.66029412 0.40735294
0.24019608 0.65980392 0.40735294
0.25496324 0.65980392 0.40784314
0.27598039 0.65723039 0.41127451
0.29656863 0.65618873 0.41519608
0.31715686 0.65245098 0.41519608
0.34166667 0.65214461 0.41096814
0.36617647 0.65196078 0.40723039
0.39411765 0.65545343 0.40686275
0.42696078 0.6622549 0.40710784
0.45980392 0.66905637 0.40343137
0.49117647 0.6754902 0.40257353
0.52775735 0.68578431 0.40490196
0.56470588 0.6995098 0.41078431
0.60196078 0.70606618 0.41127451
0.63823529 0.7122549 0.41470588
0.67346814 0.72254902 0.41819853
0.70808824 0.73284314 0.42254902
0.73872549 0.74754902 0.43529412
0.76703431 0.76813725 0.45588235
0.796875 0.78167892 0.47205882
0.82009804 0.79068627 0.48235294
0.22941176 0.71764706 0.42745098
0.23382353 0.71642157 0.42745098
0.23970588 0.71568627 0.42745098
0.24656863 0.71764706 0.42401961
0.25686275 0.71568627 0.42352941
0.26764706 0.71568627 0.42352941
0.28627451 0.71421569 0.4254902
0.30686275 0.71176471 0.4254902
0.32941176 0.70980392 0.42745098
0.35073529 0.70784314 0.4254902
0.37352941 0.70833333 0.42156863
0.40441176 0.71348039 0.42156863
0.43529412 0.71862745 0.42352941
0.46813725 0.72181373 0.42156863
0.50147059 0.72696078 0.42352941
0.53186275 0.73676471 0.42230392
0.56470588 0.74705882 0.42745098
0.5995098 0.75735294 0.42941176
0.63529412 0.76372549 0.42941176
0.67279412 0.77401961 0.43480392
0.70490196 0.78431373 0.43921569
0.73651961 0.79877451 0.44607843
0.76421569 0.81127451 0.46323529
0.78921569 0.82034314 0.47401961
0.81176471 0.82352941 0.48235294
0.24803922 0.7754902 0.44411765
0.25441176 0.77285539 0.44785539
0.26372549 0.77242647 0.44803922
0.26372549 0.7754902 0.44411765
0.27352941 0.7754902 0.44191176
0.2877451 0.77156863 0.44019608
0.29754902 0.77156863 0.43627451
0.31734069 0.76979167 0.43970588
0.34607843 0.76372549 0.44411765
0.36421569 0.76372549 0.44166667
0.37977941 0.76335784 0.43578431
0.41072304 0.76758578 0.43621324
0.4502451 0.775 0.44656863
0.48921569 0.77898284 0.45643382
0.52046569 0.78590686 0.46041667
0.54068627 0.79246324 0.45245098
0.57254902 0.79901961 0.44852941
0.60343137 0.80882353 0.44589461
0.63443627 0.81813725 0.44509804
0.66954657 0.8254902 0.45281863
0.70441176 0.83529412 0.46078431
0.73523284 0.84552696 0.4622549
0.75919118 0.85159314 0.47512255
0.78511029 0.85655637 0.48627451
0.80784314 0.86029412 0.49264706
0.26470588 0.8372549 0.46078431
0.27794118 0.8314951 0.46654412
0.2872549 0.82965686 0.46838235
0.28468137 0.83419118 0.46384804
0.29803922 0.83382353 0.46519608
0.32107843 0.82941176 0.47009804
0.32818627 0.82720588 0.46372549
0.34166667 0.82316176 0.46311275
0.37352941 0.81862745 0.47156863
0.39105392 0.81862745 0.46813725
0.40171569 0.81936275 0.45931373
0.43039216 0.82512255 0.46617647
0.47254902 0.82990196 0.48235294
0.51323529 0.83737745 0.49803922
0.53823529 0.84411765 0.49828431
0.55453431 0.84938725 0.48688725
0.58627451 0.85392157 0.48529412
0.61715686 0.86029412 0.48529412
0.64803922 0.86593137 0.49215686
0.67977941 0.87009804 0.50036765
0.71470588 0.87647059 0.51078431
0.74509804 0.88370098 0.52144608
0.76568627 0.8872549 0.53431373
0.79056373 0.89227941 0.54460784
0.81176471 0.89509804 0.55098039
0.34656863 0.89117647 0.51470588
0.35539216 0.88817402 0.51862745
0.35551471 0.88578431 0.51617647
0.34914216 0.88216912 0.50931373
0.36593137 0.88970588 0.51666667
0.38363971 0.8872549 0.52107843
0.3942402 0.88431373 0.51715686
0.39797794 0.87254902 0.50931373
0.41519608 0.87009804 0.51176471
0.43670343 0.87101716 0.51115196
0.45784314 0.87941176 0.51862745
0.47303922 0.87794118 0.51715686
0.50318627 0.88651961 0.52818627
0.53921569 0.89381127 0.54099265
0.56176471 0.90085784 0.53958333
0.58382353 0.90147059 0.54068627
0.60833333 0.90539216 0.54460784
0.64074755 0.90931373 0.54908088
0.67254902 0.91323529 0.55490196
0.70128676 0.91715686 0.56145833
0.72892157 0.91568627 0.56887255
0.75539216 0.92352941 0.58235294
0.77598039 0.92745098 0.59607843
0.79748775 0.9283701 0.60637255
0.81715686 0.93137255 0.61666667
0.42745098 0.94117647 0.56862745
0.43627451 0.94754902 0.575
0.41862745 0.93235294 0.55980392
0.41911765 0.92892157 0.56029412
0.43529412 0.9372549 0.56862745
0.44803922 0.94558824 0.56911765
0.45098039 0.93529412 0.56176471
0.45098039 0.92009804 0.55539216
0.45490196 0.90980392 0.54901961
0.48578431 0.92401961 0.56323529
0.50784314 0.9372549 0.57254902
0.52107843 0.92990196 0.56519608
0.54117647 0.93529412 0.57058824
0.56568627 0.94852941 0.58382353
0.58627451 0.94215686 0.58039216
0.60686275 0.94117647 0.58431373
0.63137255 0.94509804 0.58823529
0.6622549 0.95147059 0.60245098
0.69607843 0.96372549 0.61862745
0.71666667 0.95343137 0.61176471
0.7372549 0.94509804 0.61372549
0.76176471 0.95343137 0.63186275
0.78529412 0.95980392 0.64607843
0.80686275 0.96078431 0.65637255
0.82745098 0.96078431 0.66666667
0 0.24313725 0.31372549
0 0.24313725 0.31372549
0 0.24313725 0.31372549
0 0.23970588 0.31029412
0 0.23921569 0.30906863
0 0.23903186 0.30588235
0 0.23529412 0.30257353
0 0.23474265 0.3004902
0.023529412 0.23382353 0.3004902
0.089215686 0.23529412 0.30533088
0.15061275 0.23529412 0.30833333
0.20392157 0.23529412 0.30833333
0.25147059 0.23455882 0.30833333
0.2995098 0.23137255 0.31243873
0.35551471 0.23137255 0.31727941
0.41427696 0.23137255 0.32457108
0.46911765 0.22745098 0.32941176
0.52205882 0.22352941 0.33333333
0.57352941 0.21960784 0.3372549
0.625 0.21746324 0.33939951
0.67647059 0.21813725 0.34558824
0.72401961 0.21960784 0.35343137
0.77218137 0.22352941 0.36262255
0.82064951 0.22653186 0.3716299
0.85637255 0.22745098 0.37892157
0 0.24405637 0.31372549
0 0.24313725 0.31372549
0 0.24313725 0.31372549
0 0.24313725 0.31243873
0.00045955882 0.24044118 0.30980392
0 0.23921569 0.30588235
0 0.23811275 0.30257353
0.0039215686 0.23529412 0.30106464
0.03627451 0.23529412 0.30140931
0.097694547 0.23682598 0.30533088
0.15735294 0.23811275 0.30939032
0.21128217 0.2377451 0.30980392
0.26053922 0.23529412 0.31056985
0.30931373 0.23529412 0.31354933
0.36211703 0.23382353 0.31934743
0.41741728 0.23137255 0.32514553
0.47303922 0.23137255 0.33186275
0.52508425 0.22745098 0.33635876
0.57689951 0.22329963 0.33763787
0.6283701 0.2212546 0.34051011
0.67938113 0.21933211 0.34604779
0.72715993 0.22224265 0.35477175
0.77507659 0.22708333 0.36331189
0.82156863 0.23024663 0.37254902
0.85637255 0.23382353 0.37892157
0 0.24705882 0.31372549
0 0.24705882 0.31372549
0.0017156863 0.24659926 0.31372549
0.0039215686 0.24411765 0.31239277
0.0039215686 0.24313725 0.30980392
0.0027726716 0.24276961 0.30588235
0.0006127451 0.23921569 0.30477941
0.0085631127 0.23921569 0.30196078
0.056495098 0.23921569 0.30441176
0.11326593 0.24005821 0.307644
0.17083333 0.24019608 0.31041667
0.22575061 0.24019608 0.31358762
0.27371324 0.23939951 0.31372549
0.32205882 0.23921569 0.31668199
0.37325368 0.23627451 0.32230392
0.42463235 0.23529412 0.32872243
0.47904412 0.23529412 0.33431373
0.53088235 0.23235294 0.33763787
0.58235294 0.23155637 0.34117647
0.63543199 0.22843137 0.34394914
0.68529412 0.22843137 0.34969363
0.73445159 0.22879902 0.35625
0.78057598 0.23455882 0.36479779
