site/assets/luts/sha256-6edb9e693c0157c413754046065cca88a27eaab727efd716a196ad84d3cf399a.cube
# LUTr-Schema-Version: 2
# LUTr-ID: sha256-6edb9e693c0157c413754046065cca88a27eaab727efd716a196ad84d3cf399a
# LUTr-Title: generic kodak ektachrome 100 vs
# LUTr-Collection: Natron HaldCLUT
# LUTr-Collection-ID: natron-haldclut-presets
# LUTr-Source: https://github.com/NatronGitHub/clut
# LUTr-Retrieved: 2026-07-27
# LUTr-Source-File: submissions/natron-haldclut-presets/colorslide/generic_kodak_ektachrome_100_vs.png
# LUTr-Source-Format: HALD-PNG
# LUTr-Source-SHA256: 6edb9e693c0157c413754046065cca88a27eaab727efd716a196ad84d3cf399a
# LUTr-License: CC-BY-SA-4.0
# LUTr-License-URL: https://github.com/NatronGitHub/clut#license
# LUTr-License-Basis: repo-license-file
# LUTr-Transform-Class: film-emulation
# LUTr-Tags: creative, film, film-emulation, hald-clut, natron, png, cube
# LUTr-Input-Color-Space: srgb
# LUTr-Input-Gamut: rec709
# LUTr-Input-Transfer: srgb
# LUTr-Output-Color-Space: srgb
# LUTr-Output-Gamut: rec709
# LUTr-Output-Transfer: srgb
# LUTr-Color-Space-Confidence: assumed-display-referred
# LUTr-Domain-Normalized: true
# LUTr-Shaper: none
# LUTr-Original-Grid: 64x64x64
# LUTr-Conversion-Grid: 25x25x25
# LUTr-Conversion-Interpolation: trilinear
# LUTr-Conversion-Method: HALD-PNG LUT image decoded at 16-bit and sampled to 25x25x25 3D CUBE
# LUTr-Conversion-Tool: LUTr scripts/convert-all-to-cube.mjs 2.0.0
# LUTr-Conversion-Date: 2026-07-27
# LUTr-Note: Preserve this metadata and the upstream license notices when redistributing.
TITLE "generic kodak ektachrome 100 vs"
LUT_3D_SIZE 9
DOMAIN_MIN 0 0 0
DOMAIN_MAX 1 1 1
0.0039215686 0.015686275 0.0039215686
0.089215686 0.03872549 0.0044117647
0.23039216 0.026470588 0.035294118
0.40686275 0.0053921569 0.011764706
0.57843137 0.023529412 0.011764706
0.78137255 0.0039215686 0.023529412
0.97352941 0.0039215686 0.0068627451
1 0.0078431373 0.011764706
1 0.0039215686 0.0039215686
0.035294118 0.080882353 0.019607843
0.093137255 0.077389706 0.01127451
0.20992647 0.069607843 0.0034313725
0.38743873 0.065379902 0.015870098
0.58039216 0.055392157 0.0058823529
0.78921569 0.053431373 0.023529412
0.97009804 0.042156863 0.011642157
0.99607843 0.038235294 0.023958333
1 0.03872549 0.034803922
0.031372549 0.19901961 0.038235294
0.094117647 0.18468137 0.030392157
0.21887255 0.18039216 0.030392157
0.38088235 0.17254902 0.023529412
0.57843137 0.16519608 0.026470588
0.78627451 0.14803922 0.018627451
0.94803922 0.14338235 0.019607843
1 0.1372549 0.023529412
1 0.12941176 0.023529412
0.0053921569 0.33921569 0.065196078
0.02745098 0.3377451 0.061458333
0.13088235 0.32990196 0.056740196
0.34859069 0.32205882 0.053431373
0.5627451 0.31151961 0.054901961
0.76323529 0.30398284 0.048590686
0.92291667 0.29031863 0.037377451
0.99362745 0.28939951 0.037745098
0.99215686 0.29460784 0.045588235
0.0039215686 0.5 0.082352941
0.0078431373 0.5 0.082352941
0.053921569 0.4995098 0.082352941
0.30269608 0.4870098 0.08627451
0.52647059 0.47745098 0.076470588
0.74264706 0.47328431 0.067401961
0.91127451 0.4627451 0.064705882
0.99215686 0.46102941 0.062745098
0.99215686 0.46666667 0.064705882
0 0.66764706 0.08627451
0.0078431373 0.65833333 0.08872549
0.018627451 0.65625 0.082352941
0.16801471 0.6528799 0.083272059
0.49730392 0.64264706 0.074509804
0.71176471 0.63627451 0.07689951
0.86911765 0.63872549 0.087745098
0.99528186 0.62941176 0.069117647
1 0.62941176 0.070588235
0.00098039216 0.8 0.053921569
0.0078431373 0.79227941 0.052941176
0.011764706 0.79215686 0.068627451
0.16715686 0.79889706 0.059681373
0.47794118 0.79264706 0.069607843
0.68235294 0.78039216 0.069607843
0.84313725 0.77328431 0.053676471
0.9692402 0.76176471 0.049509804
0.99607843 0.76862745 0.042156863
0 0.91960784 0.044117647
0 0.92352941 0.040196078
0.0037990196 0.91262255 0.063235294
0.20441176 0.91176471 0.034803922
0.46666667 0.90759804 0.025
0.65392157 0.89607843 0.041360294
0.8122549 0.89558824 0.043627451
0.96323529 0.88823529 0.016053922
1 0.89166667 0.012745098
0 1 0.098039216
0 0.99607843 0.086764706
0 0.99607843 0.10098039
0.22058824 0.99607843 0.10588235
0.44901961 0.99607843 0.084313725
0.62696078 1 0.095588235
0.77745098 0.99215686 0.081372549
0.91568627 0.9877451 0.071078431
0.99607843 0.96862745 0.078431373
0.0083333333 0.011764706 0.073039216
0.1 0.031433824 0.073958333
0.23039216 0.010784314 0.065196078
0.39362745 0.019301471 0.065196078
0.59411765 0.011519608 0.053676471
0.79313725 0.0041053922 0.046078431
0.96556373 0.0069852941 0.05
1 0.0078431373 0.05
1 0.0078431373 0.042156863
0.043627451 0.080882353 0.085232843
0.09308364 0.076960784 0.080392157
0.21997549 0.076593137 0.076531863
0.38155637 0.064928002 0.069546569
0.57864583 0.063480392 0.061764706
0.79084712 0.048200061 0.057169118
0.96164216 0.037791054 0.04989277
0.99607843 0.03817402 0.05
1 0.026041667 0.042218137
0.053921569 0.1872549 0.096078431
0.098406863 0.1807598 0.091896446
0.20863971 0.18296569 0.089093137
0.37561275 0.17526042 0.086136642
0.57064951 0.16207108 0.078615196
0.78676471 0.15183824 0.076868873
0.95719975 0.14117647 0.069485294
0.99264706 0.1372549 0.069485294
1 0.13333333 0.065563725
0.028431373 0.33645833 0.11145833
0.034313725 0.32990196 0.10735294
0.12830882 0.32990196 0.10490196
0.36079197 0.32254136 0.10478707
0.55833333 0.31216299 0.096476716
0.76231618 0.30189951 0.096943934
0.93734681 0.29313725 0.090824142
0.99607843 0.29313725 0.087438725
0.99607843 0.29705882 0.089031863
0.0095588235 0.49607843 0.12401961
0.011764706 0.48848039 0.11865809
0.024080882 0.4973652 0.11887255
0.29754902 0.49019608 0.11666667
0.52941176 0.48210784 0.1127451
0.73789828 0.47573529 0.1127451
0.9127451 0.46887255 0.10710784
0.99215686 0.46277574 0.10490196
0.99215686 0.4629902 0.10882353
0.0039215686 0.66617647 0.11715686
0.012032782 0.65441176 0.11930147
0.021660539 0.6501685 0.11930147
0.20728401 0.65680147 0.1131204
0.49745711 0.6502451 0.11020221
0.70066636 0.63872549 0.11488971
0.87305453 0.63664216 0.11043199
0.99070925 0.62287837 0.10490196
0.99215686 0.6153799 0.10490196
0.00049019608 0.79607843 0.11617647
0.0039215686 0.79618566 0.11344975
0.00073529412 0.80585172 0.1015625
0.16321998 0.79839154 0.10428922
0.4754902 0.79215686 0.10459559
0.67798713 0.78592218 0.10231311
0.8385723 0.77328431 0.10076593
0.97265625 0.77254902 0.092585784
0.98566176 0.76862745 0.084313725
0 0.91568627 0.1245098
0.0039215686 0.92352941 0.12756587
0.0039215686 0.91643689 0.12058824
0.16811428 0.91129749 0.1127451
0.46688113 0.91148897 0.10465686
0.65193781 0.90373775 0.096407782
0.81617647 0.89439338 0.10415135
0.95484835 0.88823529 0.091352635
1 0.89215686 0.076960784
0 0.99215686 0.14803922
0.0039215686 0.99607843 0.15189951
0.0077205882 0.99264706 0.15159314
0.19883578 0.98694853 0.14019608
0.45098039 0.99607843 0.13970588
0.62745098 0.99607843 0.13578431
0.78137255 0.9807598 0.13970588
0.93970588 0.98829657 0.12745098
1 0.98823529 0.12401961
0.011764706 0.011764706 0.16470588
0.092156863 0.035294118 0.16948529
0.22671569 0.032107843 0.16642157
0.39901961 0.023529412 0.15110294
0.60147059 0.023529412 0.14607843
0.80637255 0.011397059 0.14509804
0.95808824 0.0078431373 0.14117647
0.99607843 0.0078431373 0.14068627
1 0 0.12843137
0.019117647 0.076960784 0.16519608
0.088832721 0.080499387 0.16960784
0.20919118 0.073468137 0.16559436
0.3872549 0.065119485 0.15681679
0.58995098 0.06127451 0.15379902
0.79705882 0.043887868 0.14822304
0.97331495 0.037009804 0.14215686
0.99607843 0.04564951 0.14607843
1 0.052941176 0.14473039
0.057843137 0.18039216 0.17965686
0.097181373 0.18431373 0.17965686
0.20631127 0.18039216 0.17965686
0.38167892 0.17435662 0.16945466
0.57598039 0.16764706 0.1689951
0.78391544 0.15183824 0.16936275
0.95863971 0.14117647 0.15925245
0.99252451 0.13716299 0.16366422
1 0.13553922 0.14926471
0.027818627 0.3377451 0.1995098
0.050980392 0.32781863 0.19113051
0.14105392 0.32843137 0.19050245
0.36519608 0.32136949 0.18474265
0.56011029 0.31525735 0.19313725
0.76384804 0.30098039 0.18039216
0.94362745 0.2926777 0.17643995
0.99327512 0.29068627 0.175
1 0.29068627 0.16458333
0.011764706 0.50147059 0.21421569
0.0049019608 0.49558824 0.21029412
0.049264706 0.49840686 0.20772059
0.29019608 0.48988971 0.20128676
0.5254902 0.48161765 0.20098039
0.72990196 0.47598039 0.19883578
0.90539216 0.47169118 0.20441176
0.99607843 0.46207108 0.19564951
0.99607843 0.45686275 0.18284314
0 0.67009804 0.22794118
0.0039215686 0.6584712 0.22841605
0.018780637 0.65808824 0.21997549
0.20032169 0.65911458 0.21176471
0.49160539 0.6504902 0.21415441
0.69716605 0.64186581 0.21029412
0.8645527 0.63088235 0.21112132
0.98693321 0.62575061 0.20093444
0.99607843 0.61911765 0.2
0 0.80612745 0.23995098
0 0.80134804 0.23921569
0.0086397059 0.8 0.2276348
0.17000613 0.79561887 0.21914828
0.475 0.7939951 0.21421569
0.66666667 0.78823529 0.21495098
0.83210784 0.77647059 0.20839461
0.96752451 0.77647059 0.20487132
0.99289216 0.77647059 0.20686275
0 0.92352941 0.24607843
0.0039215686 0.92352941 0.24318321
0.0077512255 0.9192402 0.23958333
0.15945159 0.90785846 0.23480392
0.46488971 0.90631127 0.23578431
0.64946385 0.90392157 0.2314185
0.80431985 0.9 0.22686887
0.94411765 0.89214154 0.21842831
1 0.89215686 0.21213235
0 0.99607843 0.25
0.0039215686 0.99607843 0.25085784
0.0078431373 0.99607843 0.2620098
0.19803922 0.99215686 0.2560049
0.45294118 0.99215686 0.25833333
0.62303922 0.99105392 0.25
0.78357843 0.98406863 0.24411765
0.91666667 0.98468137 0.23529412
1 0.99607843 0.23529412
0.010294118 0.0078431373 0.29068627
0.10441176 0.0026348039 0.28707108
0.22463235 0.0099264706 0.28921569
0.38425245 0.013296569 0.28676471
0.58186275 0.019607843 0.28039216
0.79705882 0.010845588 0.28676471
0.96470588 0.0078431373 0.27830882
0.99479167 0.0056985294 0.28284314
0.99607843 0.0039215686 0.28284314
0.033333333 0.08872549 0.30606618
0.10294118 0.085562194 0.29871324
0.2115962 0.073161765 0.29255515
0.38333333 0.065747549 0.29449295
0.57843137 0.057352941 0.28455882
0.79080116 0.047234988 0.28676471
0.96824449 0.035278799 0.27807904
0.99393382 0.045588235 0.28257506
1 0.046078431 0.28284314
0.050980392 0.18529412 0.31139706
0.10013787 0.18877145 0.30968137
0.20009191 0.18054534 0.30618873
0.37794118 0.17254902 0.30614277
0.57469363 0.1598652 0.29963235
0.7817402 0.15085784 0.29293811
0.95744485 0.14019608 0.28367034
1 0.1307598 0.28394608
1 0.13627451 0.28615196
0.021078431 0.34019608 0.32843137
0.026953125 0.3377451 0.33235294
0.12810968 0.33028493 0.32843137
0.35588235 0.31848192 0.32079504
0.55683211 0.3122549 0.31859681
0.76289062 0.30340839 0.31121324
0.93227635 0.29460784 0.30245098
0.98235294 0.28921569 0.30153186
0.990625 0.28676471 0.30153186
0.0046568627 0.51029412 0.34828431
0.0010723039 0.50539216 0.34901961
0.039583333 0.49803922 0.34754902
0.29626225 0.49047181 0.33893995
0.53137255 0.47843137 0.33284314
0.73235294 0.4745098 0.32840074
0.90876225 0.46721814 0.32640931
0.99607843 0.46666667 0.32279412
0.99607843 0.46078431 0.31421569
0 0.66862745 0.36758578
0 0.6622549 0.35974265
0.011397059 0.6622549 0.35551471
0.18382353 0.65833333 0.35040594
0.50045956 0.65199142 0.34978554
0.70392157 0.64656863 0.34221814
0.87231924 0.64056373 0.33921569
0.99136029 0.63235294 0.3377451
0.99852941 0.63088235 0.33137255
0 0.80784314 0.37904412
0 0.80399816 0.37120098
0 0.8 0.36617647
0.16412377 0.79833027 0.36519608
0.4754902 0.7963848 0.35943627
0.67317708 0.78823529 0.35833333
0.83446691 0.78223039 0.35735294
0.96568627 0.77990196 0.35352328
0.99607843 0.78039216 0.34767157
0 0.93088235 0.39283088
0 0.92699908 0.38907016
0 0.9192402 0.38530944
0.17370558 0.91158088 0.38118107
0.46470588 0.90784314 0.38137255
0.65091912 0.90998775 0.38099724
0.80441176 0.90384498 0.37745098
0.94705882 0.89585631 0.36868873
0.99607843 0.89197304 0.36127451
0 0.99607843 0.39656863
0 0.99607843 0.38890931
0 0.98676471 0.39411765
0.18682598 0.98915441 0.39411765
0.45294118 0.99607843 0.39803922
0.63333333 0.99068627 0.39656863
0.78921569 0.98039216 0.39375
0.94607843 0.99246324 0.38216912
0.98823529 0.98676471 0.38088235
0.0078431373 0.0039215686 0.43921569
0.1004902 0.023529412 0.44509804
0.21862745 0.015196078 0.4372549
0.37941176 0.025 0.44117647
0.57352941 0.012745098 0.43039216
0.79044118 0 0.4254902
0.97892157 0 0.4127451
0.99607843 0.0039215686 0.42156863
1 0.0019607843 0.41764706
0.026960784 0.084803922 0.45294118
0.096292892 0.084803922 0.44552696
0.21084559 0.073958333 0.44117647
0.38170956 0.068811275 0.44479167
0.57757353 0.057352941 0.43333333
0.78939951 0.05278799 0.43048407
0.96966912 0.032169118 0.42156863
0.99414828 0.038235294 0.42328431
1 0.03995098 0.41764706
0.047058824 0.18823529 0.4622549
0.10140931 0.18480392 0.45980392
0.20526961 0.19129902 0.45588235
0.37867647 0.17383578 0.45012255
0.57843137 0.16470588 0.44877451
0.78345588 0.15116422 0.43909314
0.95343137 0.13811275 0.43762255
0.9908701 0.13915441 0.43609069
1 0.13676471 0.42843137
0.017156863 0.33112745 0.47647059
0.030238971 0.3377451 0.47892157
0.10735294 0.33474265 0.47769608
0.35435049 0.32113971 0.4716299
0.55318627 0.31384804 0.46470588
0.76078431 0.31029412 0.45839461
0.92481618 0.29816176 0.45294118
0.99215686 0.2893076 0.44901961
1 0.2875 0.44754902
0 0.50588235 0.4872549
0.0078431373 0.50110294 0.49093137
0.021568627 0.49485294 0.48921569
0.29411765 0.49093137 0.48823529
0.52156863 0.48235294 0.48627451
0.73737745 0.47769608 0.47573529
0.90784314 0.46617647 0.46862745
0.99264706 0.45980392 0.46838235
1 0.46078431 0.46078431
0 0.66740196 0.50539216
0.0039215686 0.6627451 0.50392157
0.017156863 0.65441176 0.50465686
0.19310662 0.65441176 0.50539216
0.49742647 0.6504902 0.50269608
0.70631127 0.64414828 0.49362745
0.87696078 0.6370098 0.48841912
0.98520221 0.63088235 0.48578431
1 0.62965686 0.48504902
0 0.80784314 0.52745098
0 0.80416667 0.51960784
0.0057598039 0.80073529 0.52009804
0.15447304 0.8 0.51960784
0.45833333 0.79607843 0.52034314
0.675 0.78823529 0.5127451
0.83921569 0.78112745 0.50882353
0.96531863 0.77647059 0.50490196
1 0.77647059 0.50441176
0 0.92352941 0.53921569
0 0.92328431 0.53529412
0.0058210784 0.91525735 0.53229167
0.16764706 0.9114277 0.53137255
0.45490196 0.91519608 0.53161765
0.65867034 0.91014093 0.53186275
0.80833333 0.90386029 0.53051471
0.94730392 0.89929534 0.52310049
1 0.89607843 0.51593137
0 0.99607843 0.53921569
0 0.99607843 0.53529412
0 0.99411765 0.54313725
0.20612745 0.99534314 0.54705882
0.45 0.99215686 0.54215686
0.63872549 0.98823529 0.54117647
0.78872549 0.98039216 0.53921569
0.93382353 0.97647059 0.53333333
1 0.98039216 0.53137255
0.006372549 0.006372549 0.59558824
0.1 0.021078431 0.59411765
0.2189951 0.006372549 0.59019608
0.38425245 0.014215686 0.59319853
0.58112745 0.0078431373 0.5870098
0.77745098 0.0039215686 0.57598039
0.97879902 0 0.57205882
1 0.0078431373 0.56813725
1 0.0078431373 0.57205882
0.02745098 0.080392157 0.60196078
0.092317708 0.077389706 0.59803922
0.21086091 0.073115809 0.59220282
0.3872549 0.069117647 0.59400276
0.58627451 0.055392157 0.58872549
0.7866345 0.049816176 0.57732077
0.96297488 0.037699142 0.57420343
1 0.038664216 0.57028186
1 0.044117647 0.57058824
0.050612745 0.19215686 0.60980392
0.09375 0.18800551 0.60306373
0.19644608 0.18897059 0.6078125
0.37610294 0.17268689 0.60306373
0.57303922 0.16470588 0.59650735
0.78212316 0.15539216 0.58958333
0.96148897 0.14117647 0.58958333
0.99362745 0.14113051 0.58538603
0.99938725 0.13970588 0.57990196
0.027389706 0.33082108 0.62248775
0.030392157 0.33370864 0.62064951
0.12867647 0.33644301 0.62503064
0.34264706 0.32205882 0.61672794
0.55245098 0.31348039 0.61672794
0.75896906 0.30224418 0.60810355
0.93578431 0.2916973 0.6028799
0.99852941 0.29020374 0.59944087
1 0.29068627 0.5911152
0.0039215686 0.50588235 0.63676471
0.0017769608 0.49509804 0.6379902
0.074693627 0.49362745 0.64025735
0.29779412 0.49047181 0.6379902
0.53014706 0.48762255 0.63370098
0.73403799 0.48235294 0.62622549
0.90343137 0.46421569 0.62230392
0.99436275 0.45554534 0.61553309
1 0.45294118 0.60931373
0.0039215686 0.67009804 0.65588235
0.0039215686 0.66617647 0.65441176
0.0078431373 0.66507353 0.65833333
0.20631127 0.65441176 0.65383732
0.49779412 0.64779412 0.65003064
0.70539216 0.64264706 0.64391085
0.87342218 0.63419118 0.63221507
0.97321538 0.62303922 0.63206189
1 0.62303922 0.63235294
0 0.81176471 0.67254902
0 0.80784314 0.66996017
0.0046568627 0.80784314 0.67254902
0.14359681 0.8 0.66678922
0.45759804 0.79607843 0.66488971
0.66620711 0.78390012 0.66286765
0.83449755 0.78039216 0.65502451
0.96573223 0.77647059 0.65110294
1 0.77647059 0.64754902
0 0.91960784 0.68039216
0 0.92303922 0.67665441
0.013602941 0.9191636 0.67432598
0.18242188 0.91176471 0.67824755
0.46265319 0.90735294 0.67432598
0.66096048 0.90343137 0.67254902
0.81127451 0.89768689 0.67032782
0.94340533 0.89215686 0.6662837
1 0.89558824 0.66862745
0 1 0.69362745
0 0.99607843 0.68039216
0.0057598039 0.99215686 0.68431373
0.1745098 0.98578431 0.68186275
0.44436275 0.99411765 0.67916667
0.62941176 0.99215686 0.68039216
0.7810049 0.99362745 0.67794118
0.92401961 0.98676471 0.66862745
1 0.98039216 0.66862745
0.023529412 0.019607843 0.71764706
0.1004902 0.0078431373 0.71372549
0.21764706 0.020588235 0.71372549
0.39509804 0.012377451 0.71727941
0.58872549 0.01372549 0.71127451
0.78137255 0.011764706 0.69803922
0.96568627 0.015686275 0.69019608
1 0.015686275 0.69019608
1 0.0088235294 0.69411765
0.032230392 0.084803922 0.72806373
0.092647059 0.080943627 0.72112439
0.20857843 0.073988971 0.72058824
0.3876685 0.06629902 0.72156863
0.58627451 0.056801471 0.71452206
0.78529412 0.045894608 0.70196078
0.96703431 0.036213235 0.70196078
0.99607843 0.038235294 0.69636949
1 0.033823529 0.69313725
0.046323529 0.19215686 0.73333333
0.092279412 0.18431373 0.73553922
0.19172794 0.18651961 0.73216912
0.37107843 0.16862745 0.72732843
0.57303922 0.16323529 0.7245098
0.7861826 0.14917279 0.71363358
0.96348039 0.1403799 0.71427696
0.99721201 0.13823529 0.70946691
1 0.13333333 0.70416667
0.026470588 0.33382353 0.74865196
0.023973652 0.32990196 0.75147059
0.11963848 0.3377451 0.75101103
0.33664216 0.32205882 0.74578738
0.55808824 0.30729167 0.74025735
0.76254596 0.29797794 0.73042279
0.93612132 0.28958333 0.72821691
0.99607843 0.28737745 0.72890625
1 0.28921569 0.72512255
0.0068627451 0.50588235 0.77009804
0.0039215686 0.50196078 0.76642157
0.020588235 0.49460784 0.76654412
0.30557598 0.4870098 0.76243873
0.53504902 0.48308824 0.75563725
0.73057598 0.47843137 0.7504902
0.89901961 0.4627451 0.74852941
0.99215686 0.45882353 0.74117647
1 0.45882353 0.74068627
0.0035539216 0.67009804 0.78333333
0 0.66977635 0.78031556
0.01875 0.65814951 0.77757353
0.19973958 0.6504902 0.77647059
0.48872549 0.64656863 0.77224265
0.69718137 0.64264706 0.76931679
0.86335784 0.63480392 0.76099877
0.98841912 0.62794118 0.75833333
0.99607843 0.62696078 0.75796569
0 0.80784314 0.79117647
0 0.80719975 0.78878676
0.0015318627 0.80171569 0.79197304
0.15882353 0.79607843 0.78851103
0.46666667 0.78872549 0.78235294
0.6736826 0.78321078 0.77965686
0.83523284 0.77745098 0.77573529
0.96568627 0.77340686 0.77328431
0.99705882 0.77328431 0.77181373
0 0.91960784 0.79644608
0 0.92218137 0.79912684
0 0.9145527 0.80294118
0.16897978 0.91127451 0.8
0.46470588 0.90784314 0.79387255
0.65899203 0.90350797 0.78823529
0.80735294 0.89672181 0.78860294
0.93964461 0.89215686 0.79119179
1 0.89607843 0.79215686
0 0.99705882 0.80392157
0 0.99509804 0.80686275
0.01372549 0.98431373 0.80294118
0.20428922 0.99497549 0.80686275
0.44656863 0.98431373 0.80392157
0.62806373 0.98284314 0.80294118
0.78137255 0.99191176 0.79828431
0.92794118 0.97647059 0.79215686
1 0.97254902 0.79117647
0.015686275 0.026960784 0.82892157
0.096568627 0.019607843 0.825
0.21776961 0.032843137 0.8185049
0.38560049 0.0060661765 0.81734069
0.6 0.011764706 0.81323529
0.78970588 0.0078431373 0.80196078
0.96127451 0.015318627 0.79803922
1 0.020036765 0.80196078
1 0.019607843 0.80196078
0.030882353 0.080882353 0.83241422
0.092218137 0.080882353 0.8258655
0.20654105 0.069117647 0.82849265
0.38376225 0.066973039 0.8223652
0.57671569 0.063970588 0.81691176
0.78155637 0.047954963 0.80974265
0.95948223 0.038235294 0.80571385
1 0.029963235 0.80196078
1 0.026960784 0.80196078
0.054901961 0.19166667 0.84497549
0.090196078 0.18311887 0.83714767
0.19025735 0.17962623 0.83970588
0.37143076 0.16885723 0.83417586
0.5745098 0.16341912 0.82892157
0.77843137 0.15294118 0.82463235
0.95392157 0.14445466 0.81752451
1 0.14117647 0.81747855
1 0.14117647 0.81629902
0.026776961 0.33382353 0.85637255
0.032735907 0.3377451 0.85275735
0.13517157 0.33368566 0.85637255
0.34019608 0.32058824 0.84964001
0.56412377 0.30891544 0.84460784
0.75703891 0.30006127 0.83841146
0.92801777 0.29456189 0.83284314
1 0.29283088 0.83137255
1 0.29068627 0.83137255
0.0041666667 0.5 0.87401961
0.0022058824 0.50196078 0.86663603
0.059375 0.4963848 0.86685049
0.29132966 0.48912377 0.86446078
0.53455882 0.48247549 0.86544118
0.73480392 0.4745098 0.85441176
0.89901961 0.46789216 0.84656863
0.99457721 0.46102941 0.84705882
1 0.45882353 0.84656863
0 0.66047794 0.88952206
0.0034696691 0.66176471 0.87992494
0.0096813725 0.65819547 0.88003983
0.17953431 0.65441176 0.88167892
0.49675245 0.64901961 0.87622549
0.70657169 0.64417892 0.8712546
0.86321998 0.6377451 0.86536458
0.99117647 0.62303922 0.86437653
0.99871324 0.62322304 0.86047794
0 0.8 0.89963235
0 0.80392157 0.8917739
0.0071997549 0.8 0.89301471
0.16024816 0.7935049 0.88952206
0.47346814 0.79258578 0.88756127
0.6745098 0.78439032 0.88390012
0.83431373 0.78039216 0.87598039
0.97314645 0.77941176 0.87598039
0.99215686 0.77254902 0.87218137
0 0.91170343 0.90386029
0.00043658088 0.91514246 0.8995098
0.011657475 0.91519608 0.8995098
0.15098039 0.91127451 0.89989277
0.46121324 0.90735294 0.89957108
0.65408241 0.90392157 0.89564951
0.80441176 0.89595588 0.88866422
0.95533854 0.89167433 0.88823529
0.99215686 0.8877451 0.88823529
0 0.9877451 0.90343137
0.0039215686 0.98425245 0.90686275
0.0039215686 0.99117647 0.91176471
0.19705882 0.99215686 0.91145833
0.43921569 0.99607843 0.90367647
0.62273284 0.99430147 0.90343137
0.77352941 0.98431373 0.8995098
0.9401348 0.99307598 0.89607843
0.98382353 0.98823529 0.89558824
0 0 0.92156863
0.092156863 0.030882353 0.91813725
0.22647059 0.03627451 0.90980392
0.38578431 0.0024509804 0.91127451
0.6 0.011764706 0.89215686
0.80098039 0.0024509804 0.89803922
0.98137255 0.00098039216 0.89411765
0.99607843 0.023529412 0.89019608
1 0.019607843 0.89411765
0.019117647 0.080392157 0.92598039
0.08872549 0.073529412 0.91770833
0.20134804 0.067034314 0.92071078
0.38333333 0.063235294 0.91715686
0.58235294 0.061764706 0.89558824
0.78970588 0.046078431 0.90147059
0.97352941 0.038112745 0.90098039
1 0.023529412 0.90196078
1 0.026960784 0.89411765
0.05 0.18137255 0.92843137
0.086151961 0.18039216 0.92928922
0.19705882 0.17573529 0.9254902
0.37046569 0.16862745 0.91911765
0.57107843 0.1627451 0.89705882
0.77745098 0.15294118 0.90882353
0.95857843 0.14509804 0.88651961
0.99607843 0.14509804 0.88762255
1 0.14509804 0.90490196
0.040686275 0.32843137 0.93333333
0.034620098 0.3377451 0.92922794
0.11948529 0.32941176 0.92794118
0.34019608 0.32205882 0.93241422
0.54852941 0.30955882 0.9247549
0.75839461 0.29761029 0.92518382
0.92892157 0.29068627 0.91078431
1 0.29068627 0.9122549
1 0.28921569 0.91127451
0.01372549 0.49803922 0.95098039
0.0039215686 0.49607843 0.94901961
0.014215686 0.49852941 0.96176471
0.29460784 0.49093137 0.95882353
0.52941176 0.48823529 0.94607843
0.72843137 0.47573529 0.94509804
0.88970588 0.4627451 0.93480392
0.99656863 0.45882353 0.93137255
1 0.45294118 0.93529412
0 0.65294118 0.96862745
0.0039215686 0.6504902 0.9622549
0.01752451 0.65404412 0.95
0.2033701 0.65441176 0.96176471
0.49509804 0.6504902 0.96078431
0.70147059 0.64264706 0.96323529
0.85833333 0.63590686 0.95833333
0.99166667 0.62696078 0.9504902
1 0.61911765 0.94656863
0 0.79313725 0.98137255
0 0.80085784 0.98480392
0.0039215686 0.8 0.97843137
0.15441176 0.79362745 0.97647059
0.45490196 0.78823529 0.97254902
0.67058824 0.78823529 0.98223039
0.83921569 0.78039216 0.95686275
0.97058824 0.77647059 0.9682598
0.99607843 0.77254902 0.97156863
0 0.91519608 0.98823529
0 0.90784314 0.98382353
0.0078431373 0.91127451 0.97647059
0.1872549 0.91145833 0.97647059
0.47009804 0.90784314 0.98651961
0.65098039 0.90373775 0.95214461
0.80821078 0.89987745 0.98909314
0.95882353 0.89172794 0.98137255
0.99215686 0.88823529 0.97647059
0 1 0.99607843
0.0034313725 0.98823529 0.98039216
0.0039215686 0.99215686 0.97647059
0.19264706 0.99607843 0.99607843
0.44901961 1 0.99803922
0.62058824 0.97107843 0.98039216
0.78333333 0.97843137 0.99215686
0.90441176 0.99215686 0.99215686
1 1 0.99215686
