site/assets/luts/sha256-48a591b63e0304556643e3bdf1f88b0f67444d684f398663ce92529578d8dcdb.cube
# LUTr-Schema-Version: 2
# LUTr-ID: sha256-48a591b63e0304556643e3bdf1f88b0f67444d684f398663ce92529578d8dcdb
# LUTr-Title: polaroid px-680 warm
# LUTr-Collection: Natron HaldCLUT
# LUTr-Collection-ID: natron-haldclut-presets
# LUTr-Source: https://github.com/NatronGitHub/clut
# LUTr-Retrieved: 2026-07-27
# LUTr-Source-File: submissions/natron-haldclut-presets/instant_consumer/polaroid_px-680_warm.png
# LUTr-Source-Format: HALD-PNG
# LUTr-Source-SHA256: 48a591b63e0304556643e3bdf1f88b0f67444d684f398663ce92529578d8dcdb
# LUTr-License: CC-BY-SA-4.0
# LUTr-License-URL: https://github.com/NatronGitHub/clut#license
# LUTr-License-Basis: repo-license-file
# LUTr-Transform-Class: film-emulation
# LUTr-Tags: creative, film, film-emulation, hald-clut, natron, png, warm, cube
# LUTr-Input-Color-Space: srgb
# LUTr-Input-Gamut: rec709
# LUTr-Input-Transfer: srgb
# LUTr-Output-Color-Space: srgb
# LUTr-Output-Gamut: rec709
# LUTr-Output-Transfer: srgb
# LUTr-Color-Space-Confidence: assumed-display-referred
# LUTr-Domain-Normalized: true
# LUTr-Shaper: none
# LUTr-Original-Grid: 64x64x64
# LUTr-Conversion-Grid: 25x25x25
# LUTr-Conversion-Interpolation: trilinear
# LUTr-Conversion-Method: HALD-PNG LUT image decoded at 16-bit and sampled to 25x25x25 3D CUBE
# LUTr-Conversion-Tool: LUTr scripts/convert-all-to-cube.mjs 2.0.0
# LUTr-Conversion-Date: 2026-07-27
# LUTr-Note: Preserve this metadata and the upstream license notices when redistributing.
TITLE "polaroid px-680 warm"
LUT_3D_SIZE 9
DOMAIN_MIN 0 0 0
DOMAIN_MAX 1 1 1
0.25490196 0.21176471 0.082352941
0.2622549 0.21176471 0.082352941
0.27745098 0.20784314 0.08627451
0.36813725 0.21568627 0.075980392
0.53921569 0.2254902 0.066666667
0.72107843 0.23823529 0.053431373
0.85392157 0.28627451 0.02745098
0.94215686 0.39019608 0.1
0.99215686 0.49019608 0.2
0.25490196 0.21176471 0.082352941
0.26574755 0.21476716 0.082352941
0.29215686 0.22340686 0.082352941
0.37598039 0.22303922 0.072365196
0.54289216 0.24411765 0.061029412
0.72352941 0.26715686 0.043627451
0.85098039 0.33480392 0.043137255
0.93523284 0.41617647 0.11427696
0.98088235 0.48284314 0.18088235
0.24803922 0.23921569 0.078431373
0.2622549 0.26470588 0.075857843
0.29142157 0.2504902 0.074509804
0.42242647 0.2942402 0.045588235
0.57303922 0.30147059 0.028921569
0.73247549 0.32205882 0.0073529412
0.85098039 0.38112745 0.020588235
0.92610294 0.45526961 0.11519608
0.97254902 0.51960784 0.19509804
0.22892157 0.35490196 0.070588235
0.2504902 0.34852941 0.066666667
0.31078431 0.35428922 0.059436275
0.43578431 0.37696078 0.039215686
0.60735294 0.41715686 0.011764706
0.73082108 0.41672794 0.014215686
0.83823529 0.45 0.017156863
0.9122549 0.50784314 0.087254902
0.96617647 0.56715686 0.19754902
0.20980392 0.44117647 0.049019608
0.25245098 0.45269608 0.064705882
0.30588235 0.45588235 0.069607843
0.41544118 0.47107843 0.049754902
0.57647059 0.50980392 0.035294118
0.71519608 0.54534314 0.029166667
0.82254902 0.5627451 0.052941176
0.89901961 0.56715686 0.083333333
0.94705882 0.60196078 0.15882353
0.26960784 0.55098039 0.10098039
0.29264706 0.55735294 0.10882353
0.34571078 0.56066176 0.12242647
0.43235294 0.57395833 0.12297794
0.55294118 0.60245098 0.12990196
0.68137255 0.63578431 0.14368873
0.79460784 0.6627451 0.16556373
0.87971814 0.67910539 0.20294118
0.9254902 0.68823529 0.24117647
0.34803922 0.6627451 0.18235294
0.35539216 0.65784314 0.17463235
0.38235294 0.65392157 0.16642157
0.46470588 0.66960784 0.19754902
0.56323529 0.69117647 0.21666667
0.675 0.71776961 0.25637255
0.76838235 0.73235294 0.2745098
0.85625 0.75098039 0.32120098
0.90588235 0.7627451 0.36078431
0.44068627 0.75833333 0.27647059
0.44901961 0.75784314 0.27696078
0.4745098 0.75441176 0.28370098
0.52990196 0.76207108 0.30814951
0.60931373 0.77377451 0.33553922
0.71158088 0.78498775 0.38039216
0.78676471 0.78921569 0.39901961
0.85637255 0.80533088 0.4377451
0.90980392 0.81617647 0.48039216
0.61176471 0.83137255 0.43529412
0.62745098 0.83137255 0.44705882
0.64215686 0.82843137 0.45098039
0.68578431 0.83529412 0.47303922
0.7254902 0.83529412 0.49411765
0.77941176 0.83676471 0.51911765
0.82156863 0.83235294 0.51960784
0.87892157 0.84705882 0.56911765
0.90980392 0.84705882 0.58823529
0.25490196 0.21176471 0.090196078
0.2627451 0.21176471 0.089705882
0.27352941 0.20784314 0.08627451
0.38449755 0.20410539 0.090196078
0.54117647 0.20612745 0.085784314
0.725 0.24509804 0.099816176
0.86078431 0.33921569 0.13382353
0.93088235 0.42751225 0.1995098
0.98431373 0.50931373 0.26127451
0.25882353 0.22254902 0.09754902
0.26665901 0.22217371 0.097173713
0.29705882 0.21960784 0.090196078
0.40339308 0.22330729 0.093627451
0.56764706 0.23501838 0.089705882
0.73106618 0.27963388 0.10196078
0.85795037 0.35372243 0.12904412
0.93823529 0.43965227 0.1877451
0.98045343 0.51372549 0.25435049
0.2622549 0.26727941 0.10539216
0.26666667 0.2533701 0.09754902
0.32043505 0.27022059 0.093627451
0.44575674 0.29394914 0.085064338
0.6004902 0.30539216 0.077941176
0.73625919 0.34719669 0.08515625
0.85392157 0.40735294 0.12625613
0.93426777 0.47696078 0.1838848
0.98517157 0.55625 0.27046569
0.23970588 0.35459559 0.089215686
0.27100184 0.3622549 0.097526042
0.32414216 0.36678922 0.09754902
0.45882353 0.39019608 0.085294118
0.62156863 0.42288603 0.060968137
0.73621324 0.4227405 0.056372549
0.84229473 0.46519608 0.092386642
0.918053 0.52089461 0.16660539
0.96862745 0.58106618 0.2536152
0.26372549 0.46617647 0.10514706
0.27435662 0.47251838 0.10251225
0.3411152 0.47297794 0.11488971
0.45073529 0.48520221 0.11847426
0.59080882 0.52414216 0.10833333
0.72916667 0.55196078 0.10588235
0.82843137 0.55931373 0.13033088
0.9044424 0.5747549 0.15094975
0.94705882 0.61715686 0.22965686
0.2963848 0.56256127 0.13921569
0.31922488 0.56519608 0.14322151
0.37207414 0.56911765 0.15384498
0.45251991 0.58291207 0.15834099
0.56292892 0.60637255 0.1747549
0.69803922 0.64332108 0.19939491
0.8122549 0.67596507 0.21556373
0.88204657 0.67650888 0.24724265
0.9254902 0.69068627 0.27794118
0.35490196 0.67352941 0.19767157
0.37009804 0.66144301 0.19733456
0.40974265 0.66072304 0.20413603
0.48079044 0.67339154 0.23132659
0.56936275 0.69411765 0.25147059
0.67830882 0.71776961 0.27838542
0.77846201 0.73627451 0.30931373
0.86393995 0.75762868 0.35206801
0.92107843 0.76666667 0.38737745
0.46078431 0.75441176 0.29908088
0.46035539 0.75795037 0.29558824
0.490625 0.75441176 0.3024663
0.53943781 0.75784314 0.32156863
0.61495098 0.76810662 0.35245098
0.70234375 0.78268229 0.38429075
0.77666973 0.79780944 0.41196385
0.8528799 0.80833333 0.45299479
0.91721814 0.82009804 0.50343137
0.6122549 0.82401961 0.43921569
0.63523284 0.83529412 0.45833333
0.64215686 0.82757353 0.45098039
0.6653799 0.82371324 0.45882353
0.70588235 0.82181373 0.47254902
0.77598039 0.83547794 0.51960784
0.82941176 0.84313725 0.54963235
0.87892157 0.84705882 0.57647059
0.91372549 0.85833333 0.61470588
0.25784314 0.20784314 0.1
0.27438725 0.21568627 0.11911765
0.28823529 0.2125 0.11568627
0.37009804 0.20784314 0.1245098
0.56372549 0.19705882 0.15245098
0.73823529 0.22683824 0.18137255
0.85784314 0.36691176 0.25318627
0.93039216 0.47058824 0.31470588
0.96960784 0.54019608 0.35294118
0.2627451 0.23088235 0.13480392
0.27058824 0.21960784 0.1178462
0.30713848 0.23278186 0.12723652
0.40651042 0.23111213 0.145144
0.58290441 0.2379902 0.16930147
0.74362745 0.28368566 0.19215686
0.85784314 0.38933824 0.24901961
0.93382353 0.48874081 0.30943627
0.96960784 0.55833333 0.35686275
0.26666667 0.27647059 0.15318627
0.28581495 0.27950368 0.15370711
0.34215686 0.29338235 0.14944853
0.4604473 0.30257353 0.15686275
0.62058824 0.31703431 0.17058824
0.75098039 0.37156863 0.20621936
0.85710784 0.44742647 0.25612745
0.9299326 0.51712623 0.30686275
0.97034314 0.58259804 0.36102941
0.28198529 0.3627451 0.16421569
0.30723039 0.37147672 0.17205882
0.36534926 0.37938113 0.17205882
0.49754902 0.40551471 0.18676471
0.63676471 0.42677696 0.18676471
0.74774816 0.44522059 0.19039522
0.84574142 0.48933824 0.22809436
0.91470588 0.55539216 0.28137255
0.95894608 0.61323529 0.34718137
0.32205882 0.47401961 0.19019608
0.33480392 0.47843137 0.18946078
0.39375 0.48688725 0.19852941
0.48468137 0.50183824 0.20563725
0.61789216 0.5372549 0.21813725
0.73970588 0.56734069 0.2247549
0.8314951 0.5689951 0.23664216
0.90104167 0.59583333 0.25955882
0.94411765 0.63872549 0.31519608
0.36017157 0.57414216 0.21262255
0.37058824 0.57561275 0.2105239
0.41167279 0.58079044 0.21740196
0.49019608 0.59448529 0.23549326
0.58921569 0.61746324 0.25269608
0.71421569 0.65539216 0.27164522
0.81308211 0.67720588 0.29191176
0.8872549 0.68578431 0.31622243
0.93541667 0.6995098 0.33823529
0.40294118 0.67965686 0.25563725
0.40775123 0.6666973 0.25098039
0.44080882 0.6689951 0.25765931
0.50045956 0.68128064 0.27748162
0.58811275 0.69840686 0.30147059
0.68284314 0.72071078 0.33005515
0.78308824 0.74240196 0.35808824
0.87833946 0.77288603 0.40082721
0.9245098 0.76740196 0.4247549
0.46911765 0.75833333 0.32267157
0.47843137 0.76127451 0.32512255
0.50597426 0.75833333 0.33268995
0.55098039 0.76176471 0.35159314
0.61893382 0.77107843 0.37941176
0.69946385 0.77892157 0.40988051
0.78219975 0.79791667 0.44117647
0.85620404 0.80833333 0.47941176
0.91360294 0.8192402 0.52205882
0.62745098 0.83137255 0.45882353
0.63897059 0.83566176 0.47034314
0.64558824 0.82990196 0.46593137
0.6877451 0.83137255 0.4877451
0.73578431 0.83578431 0.51813725
0.76617647 0.82745098 0.51666667
0.83333333 0.84313725 0.56593137
0.8754902 0.84313725 0.5807598
0.91372549 0.85098039 0.61470588
0.2627451 0.20784314 0.16568627
0.3 0.21911765 0.18903186
0.33627451 0.2192402 0.19497549
0.43676471 0.2504902 0.22254902
0.56911765 0.24607843 0.25490196
0.73039216 0.24221814 0.28578431
0.86421569 0.32095588 0.32058824
0.94166667 0.44822304 0.37990196
0.96470588 0.5872549 0.45735294
0.26697304 0.23743873 0.20539216
0.30392157 0.2408701 0.22469363
0.35981924 0.24652267 0.22647059
0.45165441 0.26666667 0.23676471
0.59273897 0.27729779 0.27003676
0.73950674 0.29919577 0.30363051
0.8627451 0.37492341 0.33760723
0.93382353 0.50128676 0.40116422
0.95949755 0.6026348 0.46243873
0.26237745 0.28578431 0.22953431
0.30294118 0.29845282 0.24220282
0.38713235 0.31351103 0.25588235
0.49685968 0.34221814 0.27401961
0.62628676 0.34191176 0.29509804
0.74705882 0.39417892 0.33540135
0.85738358 0.48409926 0.38446691
0.92250306 0.54332108 0.40735294
0.95257353 0.63137255 0.46433824
0.28872549 0.3745098 0.24810049
0.32720588 0.37935049 0.25686275
0.41421569 0.40623468 0.28085172
0.53535539 0.43333333 0.30118719
0.65147059 0.44978554 0.31568627
0.75827206 0.49509804 0.34068627
0.84587929 0.55159314 0.38333333
0.90902267 0.60410539 0.41029412
0.94901961 0.65680147 0.45349265
0.35563725 0.47132353 0.26568627
0.38216912 0.47818627 0.27558211
0.4435049 0.49901961 0.29313725
0.54120711 0.52643995 0.31568627
0.64914216 0.55257353 0.33308824
0.74754902 0.57058824 0.33844975
0.83578431 0.5848652 0.34289216
0.89509804 0.63498775 0.38808211
0.93848039 0.6754902 0.4254902
0.44552696 0.58327206 0.3122549
0.46647518 0.58872549 0.31862745
0.46790748 0.5877451 0.30386029
0.52932751 0.60709252 0.31981464
0.61862745 0.63143382 0.34414828
0.72185202 0.65596661 0.36715686
0.81623775 0.67990196 0.3817402
0.88333333 0.70006127 0.39724265
0.92849265 0.70398284 0.40882353
0.46715686 0.68137255 0.33382353
0.4792739 0.67745098 0.33419118
0.48333333 0.67352941 0.32598039
0.54166667 0.69105392 0.35042892
0.61292892 0.70422794 0.36568627
0.70098039 0.725 0.39517463
0.79457721 0.74632353 0.42172181
0.86764706 0.76181066 0.4504902
0.92340686 0.77058824 0.47781863
0.50508578 0.7622549 0.378125
0.51933977 0.75784314 0.38235294
0.52642463 0.76213235 0.37637868
0.58578431 0.76568627 0.40508578
0.63921569 0.76960784 0.42270221
0.71176471 0.78598346 0.44663756
0.78935355 0.79661458 0.47941176
0.86419271 0.80833333 0.51666667
0.91372549 0.82009804 0.54852941
0.64215686 0.83676471 0.49166667
0.62745098 0.82352941 0.47696078
0.65747549 0.83039216 0.49166667
0.68872549 0.8283701 0.50441176
0.72352941 0.82745098 0.51691176
0.78094363 0.83621324 0.55202206
0.83235294 0.83958333 0.57647059
0.88314951 0.85098039 0.60931373
0.91519608 0.84852941 0.62107843
0.29803922 0.22352941 0.31372549
0.33284314 0.23333333 0.32916667
0.4254902 0.26078431 0.33235294
0.55294118 0.32132353 0.35220588
0.64509804 0.34313725 0.37843137
0.72401961 0.34240196 0.39877451
0.83872549 0.375 0.43382353
0.92058824 0.45441176 0.46127451
0.96862745 0.55686275 0.49803922
0.30392157 0.25441176 0.33504902
0.34166667 0.25931373 0.33673407
0.43811275 0.27910539 0.35196078
0.55857843 0.33765319 0.36936275
0.64558824 0.37132353 0.38578431
0.73480392 0.37328431 0.40735294
0.84944853 0.39558824 0.43995098
0.92254902 0.48829657 0.46865809
0.95882353 0.56446078 0.49803922
0.29901961 0.31715686 0.35637255
0.35281863 0.32150735 0.36004902
0.45441176 0.34313725 0.37071078
0.57420343 0.39283088 0.39515931
0.66960784 0.44534314 0.41421569
0.7495098 0.44601716 0.42879902
0.84301471 0.46936275 0.45330882
0.91495098 0.54718137 0.48560049
0.94509804 0.61470588 0.51813725
0.3127451 0.40220588 0.36470588
0.34659926 0.40382966 0.36731005
0.44656863 0.42671569 0.38204657
0.58066789 0.46127451 0.41075368
0.68112745 0.51078431 0.42965686
0.75343137 0.53627451 0.44338235
0.8372549 0.56709559 0.47438725
0.90422794 0.62754289 0.50554534
0.94117647 0.69044118 0.54681373
0.37156863 0.48823529 0.35784314
0.41004902 0.49411765 0.36740196
0.47230392 0.51102941 0.38382353
0.57659314 0.54203431 0.41458333
0.67647059 0.57598039 0.44068627
0.76372549 0.60343137 0.45955882
0.83431373 0.63259804 0.47058824
0.89289216 0.67904412 0.50637255
0.93431373 0.71568627 0.5372549
0.42843137 0.57377451 0.36691176
0.45661765 0.58088235 0.3731924
0.50091912 0.59197304 0.38743873
0.56963848 0.6174326 0.4122549
0.65343137 0.64485294 0.43529412
0.74215686 0.67034314 0.46078431
0.82702206 0.68737745 0.46697304
0.88333333 0.70965074 0.48177083
0.92794118 0.73676471 0.51421569
0.49411765 0.6754902 0.40245098
0.49963235 0.67371324 0.39859069
0.52340686 0.67720588 0.40428922
0.57193627 0.69276961 0.42414216
0.64509804 0.71176471 0.44509804
0.72254902 0.73247549 0.46715686
0.7995098 0.74705882 0.49215686
0.87150735 0.75931373 0.50778186
0.91176471 0.77205882 0.52745098
0.5370098 0.75784314 0.43455882
0.55591299 0.75833333 0.44068627
0.55980392 0.76182598 0.43247549
0.61078431 0.76960784 0.45441176
0.6620098 0.77573529 0.47083333
0.72377451 0.78265931 0.49525123
0.79877451 0.79528186 0.5307598
0.86813725 0.8122549 0.56421569
0.91764706 0.82009804 0.57671569
0.64313725 0.82352941 0.50980392
0.65441176 0.82941176 0.51764706
0.65539216 0.82058824 0.50882353
0.69191176 0.82990196 0.5247549
0.73529412 0.83529412 0.54705882
0.7754902 0.83014706 0.56617647
0.82941176 0.83529412 0.59509804
0.88333333 0.84534314 0.62573529
0.90980392 0.83529412 0.60588235
0.38088235 0.26421569 0.45441176
0.40753676 0.26176471 0.46078431
0.5127451 0.30539216 0.47438725
0.62205882 0.35784314 0.48676471
0.70612745 0.45808824 0.5
0.77058824 0.49901961 0.51084559
0.83039216 0.49031863 0.52095588
0.90147059 0.52647059 0.54197304
0.94754902 0.5872549 0.55980392
0.39362745 0.29344363 0.46813725
0.43586857 0.30369945 0.4723269
0.52696078 0.3287837 0.48039216
0.62531403 0.39411765 0.49342831
0.72025123 0.4877451 0.51078431
0.77977175 0.53480392 0.51942402
0.8372549 0.51951593 0.52691483
0.90539216 0.53903186 0.54456955
0.93069853 0.57303922 0.55931373
0.40588235 0.36470588 0.48039216
0.43676471 0.36168811 0.48334865
0.53051471 0.39178922 0.49206495
0.63535539 0.44578738 0.5049326
0.72806373 0.52714461 0.51960784
0.78134191 0.57254902 0.52953431
0.84491422 0.56887255 0.53820466
0.90280331 0.58039216 0.55373775
0.9442402 0.6442402 0.57941176
0.37150735 0.44074755 0.47346814
0.42303922 0.44074755 0.47254902
0.50758272 0.45503983 0.48869485
0.61790748 0.50420496 0.50510876
0.72254902 0.57647059 0.52570466
0.78780637 0.62624081 0.54074755
0.84241728 0.6216299 0.54656863
0.89578738 0.63528646 0.56636029
0.93333333 0.67401961 0.58186275
0.39362745 0.51911765 0.46397059
0.42892157 0.52123162 0.46715686
0.48627451 0.52873775 0.47199755
0.59512868 0.55686275 0.5002451
0.69387255 0.60833333 0.52193627
0.78284314 0.66519608 0.54390319
0.83835784 0.67316176 0.55373775
0.88832721 0.69577206 0.57582721
0.92696078 0.72352941 0.59509804
0.43431373 0.59264706 0.45147059
0.46452972 0.59637714 0.45813419
0.50098039 0.59725797 0.46323529
0.58177849 0.6214231 0.48682598
0.67254902 0.65661765 0.51124387
0.76638327 0.68768382 0.54054075
0.83794424 0.71741728 0.55441176
0.88676471 0.74675245 0.58884038
0.91672794 0.75588235 0.59270833
0.4622549 0.66176471 0.44313725
0.48132659 0.66879596 0.45254289
0.51642157 0.67098652 0.45735294
0.58310355 0.69068627 0.47987132
0.66911765 0.71960784 0.51078431
0.74036458 0.7404565 0.53382353
0.82123162 0.75992647 0.56234681
0.87928922 0.7713848 0.5760723
0.91875 0.78737745 0.59938725
0.52598039 0.74901961 0.48137255
0.53535539 0.75236673 0.48529412
0.56764706 0.76047794 0.49175858
0.62579657 0.76751685 0.50360754
0.6846201 0.77745098 0.52352941
0.74460784 0.78577665 0.54951746
0.80980392 0.79791667 0.5730239
0.87156863 0.81247702 0.60245098
0.91372549 0.8213848 0.61783088
0.65833333 0.82990196 0.56078431
0.64607843 0.82616422 0.55441176
0.64816176 0.8192402 0.54620098
0.69846814 0.83229167 0.56617647
0.73529412 0.83137255 0.57598039
0.78241422 0.83529412 0.59810049
0.83664216 0.84068627 0.62536765
0.88333333 0.84313725 0.64509804
0.9254902 0.84852941 0.66176471
0.49411765 0.34117647 0.57941176
0.53272059 0.35539216 0.57941176
0.60416667 0.39019608 0.58406863
0.68382353 0.44264706 0.59117647
0.75882353 0.54607843 0.59901961
0.81813725 0.63590686 0.60625
0.85612745 0.64705882 0.61078431
0.89473039 0.64056373 0.6189951
0.92941176 0.65784314 0.63333333
0.51335784 0.38235294 0.58419118
0.55153186 0.38333333 0.5911152
0.60793505 0.40928309 0.59108456
0.6877451 0.4696538 0.59479167
0.76531863 0.55379902 0.59901961
0.82022059 0.65035233 0.61017157
0.85358456 0.65367647 0.61335784
0.89460784 0.6557598 0.62244179
0.92463235 0.66813725 0.63333333
0.51372549 0.42843137 0.59044118
0.54705882 0.4390625 0.58373162
0.61176471 0.45882353 0.59338235
0.6877451 0.51176471 0.59803922
0.76887255 0.58259804 0.60441176
0.82288603 0.6760723 0.61764706
0.85594363 0.69123775 0.62230392
0.88783701 0.67668505 0.62282475
0.90661765 0.67867647 0.6254902
0.48137255 0.49215686 0.57585784
0.51876532 0.49675245 0.57526042
0.59068627 0.51213235 0.58655025
0.67058824 0.55686275 0.59509804
0.75931373 0.61623775 0.60710784
0.817019 0.6971201 0.61973039
0.85588235 0.71911765 0.62956495
0.88676471 0.70723039 0.63218444
0.91703431 0.71029412 0.63688725
0.44313725 0.55784314 0.56176471
0.44797794 0.55098039 0.55851716
0.52352941 0.56568627 0.56531863
0.61985294 0.59068627 0.58045343
0.73651961 0.64215686 0.60441176
0.80557598 0.70949755 0.6213848
0.85294118 0.73860294 0.63333333
0.88284314 0.73504902 0.64117647
0.91911765 0.75245098 0.6504902
0.46090686 0.62892157 0.55379902
0.47268689 0.62561275 0.55196078
0.50563725 0.62352941 0.5504902
0.57990196 0.64166667 0.56473652
0.66960784 0.66862745 0.58302696
0.77457108 0.71856618 0.60796569
0.85266544 0.7560049 0.63085172
0.89068627 0.76738664 0.64915748
0.91127451 0.775 0.65294118
0.46372549 0.68529412 0.53137255
0.47527574 0.6859375 0.53416054
0.51446078 0.68921569 0.53308824
0.5776348 0.70143995 0.5495098
0.65269608 0.72107843 0.57009804
0.74558824 0.7442402 0.59549632
0.83743873 0.77113971 0.62622549
0.89068627 0.78933824 0.65294118
0.9254902 0.8002451 0.6625
0.47193627 0.74215686 0.52009804
0.47403493 0.74710478 0.52028186
0.52377451 0.74742647 0.52821691
0.57679228 0.75828738 0.53903186
0.64920343 0.77156863 0.56029412
0.74767157 0.78890931 0.59367341
0.81927083 0.80147059 0.62647059
0.88296569 0.81666667 0.65462623
0.91764706 0.82794118 0.67267157
0.58529412 0.81960784 0.57745098
0.61115196 0.8307598 0.58468137
0.61372549 0.82745098 0.58529412
0.65281863 0.82745098 0.59166667
0.72647059 0.83333333 0.61078431
0.78578431 0.83529412 0.63235294
0.83333333 0.84240196 0.65686275
0.8872549 0.84754902 0.68480392
0.93235294 0.8627451 0.71764706
0.64117647 0.48921569 0.67941176
0.65637255 0.48480392 0.67941176
0.69375 0.51164216 0.67598039
0.74332108 0.55980392 0.67579657
0.80833333 0.63088235 0.67941176
0.84901961 0.69442402 0.6754902
0.87205882 0.73872549 0.67205882
0.90637255 0.73823529 0.6872549
0.9254902 0.73823529 0.69117647
0.64509804 0.49607843 0.6872549
0.65637255 0.50343137 0.67941176
0.69889706 0.52964154 0.6754902
0.75474112 0.57502298 0.67595741
0.80857843 0.63112745 0.67941176
0.85116422 0.69738817 0.67941176
0.87581189 0.75484069 0.68262868
0.90294118 0.75305607 0.69117647
0.9254902 0.73866422 0.69117647
0.63039216 0.52904412 0.67598039
0.64940257 0.53474265 0.67561275
0.69362745 0.55686275 0.67484681
0.7489277 0.60147059 0.67941176
0.80851716 0.65931373 0.67990196
0.84541973 0.71360294 0.68333333
0.87598039 0.76161152 0.69117647
0.89901961 0.7573989 0.69117647
0.91078431 0.74914216 0.69117647
0.60765931 0.57156863 0.66813725
0.62228094 0.57123928 0.67318474
0.67156863 0.59558824 0.67205882
0.7323606 0.62678462 0.6754902
0.80015319 0.68275123 0.67990196
0.84117647 0.72664675 0.6872549
0.8759038 0.76470588 0.69509804
0.89810049 0.77710631 0.69901961
0.90588235 0.76813725 0.69509804
0.53553922 0.62083333 0.65441176
0.5620098 0.62303922 0.65833333
0.61403186 0.62971814 0.6622549
0.68155637 0.65009191 0.66608456
0.77328431 0.69607843 0.67585784
0.83088235 0.73808211 0.68480392
0.87205882 0.77352941 0.69166667
0.89852941 0.78572304 0.70294118
0.90980392 0.79068627 0.70661765
0.47971814 0.66697304 0.64313725
0.48838082 0.66666667 0.64068627
0.52726716 0.66666667 0.64068627
0.59442402 0.67567402 0.64852941
0.70701593 0.70882353 0.66136642
0.80772825 0.75497089 0.68118873
0.87068015 0.78457414 0.69509804
0.89901961 0.79807751 0.70844056
0.91011029 0.80196078 0.71078431
0.49166667 0.72401961 0.62806373
0.50298713 0.7245098 0.62892157
0.54396446 0.72821691 0.63284314
0.5967065 0.73235294 0.63874081
0.66053922 0.73921569 0.64779412
0.761106 0.76752451 0.66524203
0.84938725 0.79258578 0.68802083
0.89852941 0.81268382 0.71127451
0.92254902 0.82107843 0.72352941
0.50294118 0.77444853 0.61764706
0.50821844 0.77745098 0.61764706
0.5395527 0.78137255 0.62107843
0.59397212 0.78137255 0.62453278
0.65294118 0.78550858 0.63259804
0.74209559 0.79471507 0.64934896
0.82941176 0.80968137 0.68431373
0.89123009 0.82499234 0.71214001
0.92457108 0.83621324 0.72990196
0.52009804 0.82794118 0.6254902
0.52395833 0.82359069 0.62156863
0.56519608 0.82745098 0.62892157
0.61145833 0.82530637 0.63137255
0.67230392 0.82352941 0.63627451
0.73743873 0.82892157 0.65079657
0.82941176 0.84705882 0.69178922
0.89509804 0.85490196 0.72696078
0.91764706 0.85882353 0.74166667
0.76078431 0.64705882 0.75294118
0.76813725 0.65098039 0.75294118
0.7872549 0.6627451 0.74509804
0.81421569 0.6872549 0.74117647
0.85098039 0.72745098 0.74509804
0.8745098 0.75441176 0.73578431
0.8872549 0.76960784 0.71372549
0.91813725 0.80882353 0.74215686
0.92156863 0.80784314 0.74509804
0.76078431 0.65882353 0.75245098
0.76464461 0.66176471 0.74901961
0.79117647 0.67745098 0.74901961
0.81372549 0.69215686 0.74117647
0.84509804 0.72696078 0.74117647
0.87579657 0.75422794 0.73688725
0.89803922 0.78480392 0.73382353
0.91764706 0.80441176 0.74117647
0.92156863 0.80392157 0.74117647
0.75686275 0.6745098 0.75
0.76813725 0.68480392 0.75294118
0.77941176 0.68235294 0.74215686
0.81421569 0.70980392 0.74509804
0.84901961 0.73921569 0.74901961
0.87598039 0.76335784 0.74117647
0.90196078 0.78921569 0.74509804
0.92071078 0.8122549 0.74901961
0.9254902 0.81176471 0.74509804
0.7372549 0.69509804 0.75147059
0.74001225 0.69019608 0.74509804
0.76911765 0.70490196 0.74840686
0.79154412 0.70661765 0.73265931
0.84117647 0.7502451 0.74828431
0.86813725 0.77009804 0.74509804
0.89901961 0.79705882 0.74901961
0.91942402 0.81568627 0.75294118
0.92941176 0.81813725 0.75294118
0.69215686 0.71176471 0.74509804
0.70735294 0.71176471 0.74509804
0.73970588 0.72254902 0.74852941
0.76838235 0.72990196 0.73921569
0.8245098 0.75588235 0.74705882
0.86495098 0.78063725 0.7497549
0.89509804 0.80098039 0.74901961
0.91789216 0.81593137 0.74705882
0.92941176 0.82352941 0.75686275
0.60147059 0.72941176 0.71715686
0.63394608 0.74227941 0.73903186
0.64669118 0.73480392 0.73051471
0.71519608 0.74901961 0.73915441
0.79068627 0.7627451 0.74509804
0.84368873 0.78278186 0.74656863
0.89154412 0.80821078 0.75686275
0.91813725 0.82401961 0.75539216
0.92941176 0.83137255 0.76078431
0.57058824 0.76666667 0.71470588
0.58958333 0.77401961 0.72585784
0.61862745 0.77745098 0.73333333
0.66127451 0.78284314 0.73982843
0.68823529 0.76176471 0.70294118
0.79791667 0.79007353 0.74203431
0.86764706 0.8127451 0.75686275
0.91372549 0.82745098 0.75772059
0.9372549 0.84705882 0.77254902
0.62401961 0.82009804 0.73333333
0.63180147 0.82009804 0.72984069
0.64448529 0.81715686 0.72990196
0.67352941 0.8127451 0.72598039
0.71789216 0.81617647 0.73553922
0.77156863 0.81617647 0.73872549
0.83688725 0.82487745 0.75428922
0.89852941 0.83927696 0.76078431
0.92107843 0.85098039 0.75686275
0.69019608 0.85882353 0.75686275
0.6995098 0.86568627 0.7627451
0.68627451 0.85098039 0.74509804
0.7122549 0.85098039 0.74901961
0.74509804 0.85098039 0.74705882
0.79362745 0.85490196 0.75392157
0.82941176 0.84705882 0.74705882
0.89509804 0.85539216 0.76029412
0.91372549 0.8627451 0.75686275
