site/assets/luts/sha256-801c8de4836711991e0a853437871336dd9a07fd66826ba30872c3784c767967.cube
# LUTr-Schema-Version: 2
# LUTr-ID: sha256-801c8de4836711991e0a853437871336dd9a07fd66826ba30872c3784c767967
# LUTr-Title: fuji fp-100c cool
# LUTr-Collection: Natron HaldCLUT
# LUTr-Collection-ID: natron-haldclut-presets
# LUTr-Source: https://github.com/NatronGitHub/clut
# LUTr-Retrieved: 2026-07-27
# LUTr-Source-File: submissions/natron-haldclut-presets/instant_pro/fuji_fp-100c_cool.png
# LUTr-Source-Format: HALD-PNG
# LUTr-Source-SHA256: 801c8de4836711991e0a853437871336dd9a07fd66826ba30872c3784c767967
# LUTr-License: CC-BY-SA-4.0
# LUTr-License-URL: https://github.com/NatronGitHub/clut#license
# LUTr-License-Basis: repo-license-file
# LUTr-Transform-Class: film-emulation
# LUTr-Tags: creative, film, film-emulation, hald-clut, natron, png, cool, cube
# LUTr-Input-Color-Space: srgb
# LUTr-Input-Gamut: rec709
# LUTr-Input-Transfer: srgb
# LUTr-Output-Color-Space: srgb
# LUTr-Output-Gamut: rec709
# LUTr-Output-Transfer: srgb
# LUTr-Color-Space-Confidence: assumed-display-referred
# LUTr-Domain-Normalized: true
# LUTr-Shaper: none
# LUTr-Original-Grid: 64x64x64
# LUTr-Conversion-Grid: 25x25x25
# LUTr-Conversion-Interpolation: trilinear
# LUTr-Conversion-Method: HALD-PNG LUT image decoded at 16-bit and sampled to 25x25x25 3D CUBE
# LUTr-Conversion-Tool: LUTr scripts/convert-all-to-cube.mjs 2.0.0
# LUTr-Conversion-Date: 2026-07-27
# LUTr-Note: Preserve this metadata and the upstream license notices when redistributing.
TITLE "fuji fp-100c cool"
LUT_3D_SIZE 25
DOMAIN_MIN 0 0 0
DOMAIN_MAX 1 1 1
0.011764706 0.054901961 0.074509804
0.028431373 0.058823529 0.082352941
0.044117647 0.062745098 0.085294118
0.054411765 0.059313725 0.078921569
0.084313725 0.058823529 0.078431373
0.12745098 0.054411765 0.082352941
0.16862745 0.048039216 0.082352941
0.20882353 0.043137255 0.079901961
0.26666667 0.039215686 0.08627451
0.3245098 0.031372549 0.094117647
0.38529412 0.017647059 0.099019608
0.44068627 0.0044117647 0.10196078
0.49215686 0.0039215686 0.094117647
0.54362745 0.0039215686 0.094117647
0.59509804 0.0039215686 0.094117647
0.6504902 0 0.090196078
0.69411765 0 0.098039216
0.73529412 0.0039215686 0.10833333
0.78039216 0.0039215686 0.11862745
0.81813725 0.0073529412 0.12156863
0.85294118 0.0078431373 0.11764706
0.8877451 0.010784314 0.11470588
0.91862745 0.069607843 0.13529412
0.9495098 0.12647059 0.15196078
0.97254902 0.17254902 0.16862745
0.011764706 0.071568627 0.080882353
0.032352941 0.069117647 0.085723039
0.048651961 0.069117647 0.08872549
0.066666667 0.069117647 0.084987745
0.099019608 0.067156863 0.083578431
0.1377451 0.064705882 0.084987745
0.17892157 0.060171569 0.085171569
0.21764706 0.055882353 0.085355392
0.26911765 0.041666667 0.08872549
0.32542892 0.032291667 0.092647059
0.38235294 0.018627451 0.095588235
0.44068627 0.0044117647 0.091666667
0.49215686 0 0.088970588
0.54362745 0.0042279412 0.091973039
0.59754902 0.011764706 0.094117647
0.65202206 0.013664216 0.095036765
0.69803922 0.0024509804 0.1004902
0.74074755 0.0023897059 0.10833333
0.78223039 0.0039215686 0.11862745
0.82156863 0.0073529412 0.1254902
0.85612745 0.02745098 0.12401961
0.8877451 0.056862745 0.1245098
0.91862745 0.093259804 0.13590686
0.9495098 0.14558824 0.15441176
0.97254902 0.18676471 0.16862745
0.011764706 0.087254902 0.083333333
0.032352941 0.084313725 0.08627451
0.056862745 0.080392157 0.089215686
0.07745098 0.079411765 0.08627451
0.10980392 0.079411765 0.085784314
0.14852941 0.076470588 0.087622549
0.18946078 0.075490196 0.090196078
0.23186275 0.071078431 0.090563725
0.28333333 0.061764706 0.096078431
0.33541667 0.050367647 0.094117647
0.39044118 0.037254902 0.093137255
0.44522059 0.014093137 0.086764706
0.49803922 0.011764706 0.089215686
0.55257353 0.023406863 0.095098039
0.60784314 0.032352941 0.094117647
0.65784314 0.029779412 0.098406863
0.70294118 0.0098039216 0.10196078
0.74742647 0.0012254902 0.10833333
0.78431373 0.017892157 0.11960784
0.82205882 0.038848039 0.13026961
0.85686275 0.069607843 0.13431373
0.8877451 0.10306373 0.13480392
0.91862745 0.13357843 0.14436275
0.95232843 0.17071078 0.15257353
0.97647059 0.20980392 0.16470588
0.0083333333 0.10490196 0.08627451
0.028737745 0.10116422 0.087561275
0.056862745 0.1 0.085294118
0.080882353 0.094056373 0.07935049
0.11544118 0.093137255 0.082352941
0.1622549 0.093137255 0.090625
0.20343137 0.090563725 0.093995098
0.24558824 0.089031863 0.094117647
0.29754902 0.08872549 0.094117647
0.34901961 0.086090686 0.090686275
0.40526961 0.075857843 0.090563725
0.46280637 0.067708333 0.093198529
0.51470588 0.065931373 0.09754902
0.56666667 0.060294118 0.10281863
0.62071078 0.05379902 0.095098039
0.66813725 0.049816176 0.09932598
0.71323529 0.048039216 0.10539216
0.75226716 0.056372549 0.11176471
0.78811275 0.077083333 0.12218137
0.82506127 0.098039216 0.12984069
0.85686275 0.11911765 0.13921569
0.8877451 0.14460784 0.14466912
0.91862745 0.17254902 0.14889706
0.95343137 0.2026348 0.15441176
0.98039216 0.23382353 0.16078431
0.0039215686 0.11960784 0.090196078
0.025735294 0.12279412 0.090196078
0.050980392 0.12745098 0.088235294
0.076960784 0.12745098 0.088235294
0.12352941 0.12941176 0.088235294
0.17083333 0.12990196 0.092401961
0.21372549 0.12941176 0.092647059
0.25784314 0.12941176 0.088235294
0.31176471 0.12941176 0.088235294
0.36323529 0.12303922 0.08504902
0.41911765 0.11960784 0.088235294
0.47745098 0.12352941 0.10147059
0.53137255 0.1245098 0.10784314
0.58259804 0.11519608 0.10367647
0.63235294 0.10441176 0.1004902
0.67843137 0.10539216 0.10147059
0.71960784 0.11764706 0.10980392
0.76078431 0.12401961 0.11372549
0.79558824 0.13872549 0.12009804
0.82965686 0.15784314 0.12720588
0.86078431 0.1745098 0.1372549
0.88970588 0.19509804 0.14558824
0.92058824 0.21372549 0.15294118
0.95343137 0.23970588 0.15686275
0.98235294 0.26078431 0.16078431
0 0.15490196 0.094607843
0.016176471 0.15863971 0.094301471
0.041666667 0.16237745 0.094240196
0.079901961 0.16574755 0.097610294
0.12745098 0.17009804 0.098039216
0.17457108 0.17058824 0.089705882
0.21703431 0.1745098 0.082843137
0.26636029 0.1745098 0.079227941
0.32205882 0.1745098 0.081862745
0.37745098 0.17401961 0.077941176
0.43382353 0.1754902 0.083333333
0.49172794 0.17892157 0.096629902
0.54583333 0.17941176 0.10563725
0.59509804 0.17457108 0.10196078
0.64264706 0.17156863 0.10232843
0.68627451 0.17156863 0.10588235
0.72990196 0.1754902 0.10980392
0.76844363 0.18578431 0.11372549
0.80294118 0.19203431 0.11458333
0.83431373 0.20582108 0.12107843
0.86470588 0.22573529 0.13308824
0.89166667 0.24172794 0.14558824
0.92254902 0.25588235 0.15294118
0.95324755 0.27892157 0.15833333
0.97598039 0.29166667 0.16519608
0 0.19607843 0.098039216
0.0034313725 0.19607843 0.098039216
0.028431373 0.19779412 0.09877451
0.076102941 0.20343137 0.10196078
0.12598039 0.20784314 0.098039216
0.1745098 0.21176471 0.089338235
0.21887255 0.21470588 0.075490196
0.27156863 0.22009804 0.067647059
0.33235294 0.22647059 0.067647059
0.39019608 0.23223039 0.065808824
0.44705882 0.23651961 0.081617647
0.50502451 0.23431373 0.086764706
0.55784314 0.23431373 0.095098039
0.60796569 0.23296569 0.099019608
0.65294118 0.23259804 0.10490196
0.69656863 0.23333333 0.10588235
0.7372549 0.2372549 0.10980392
0.77389706 0.2439951 0.11911765
0.80686275 0.24926471 0.11740196
0.8377451 0.25723039 0.12389706
0.86470588 0.27058824 0.13431373
0.8942402 0.28590686 0.14522059
0.92254902 0.29705882 0.15196078
0.95196078 0.31335784 0.15833333
0.96568627 0.32254902 0.16568627
0 0.23480392 0.10343137
0 0.23480392 0.10343137
0.020955882 0.23933824 0.10343137
0.070588235 0.24607843 0.10343137
0.11887255 0.25245098 0.10343137
0.16715686 0.25833333 0.095281863
0.21862745 0.2622549 0.085171569
0.2754902 0.27009804 0.070036765
0.33872549 0.27794118 0.057352941
0.39748775 0.28578431 0.049509804
0.45404412 0.29154412 0.060171569
0.5122549 0.28970588 0.070588235
0.57132353 0.29117647 0.082843137
0.61911765 0.28970588 0.091176471
0.66029412 0.28970588 0.11213235
0.70392157 0.29117647 0.1127451
0.74117647 0.29509804 0.12058824
0.77689951 0.3 0.12248775
0.81078431 0.30539216 0.12794118
0.83952206 0.30900735 0.13823529
0.86740196 0.31911765 0.14534314
0.89558824 0.32941176 0.1504902
0.92647059 0.33970588 0.15232843
0.95386029 0.34852941 0.15441176
0.95539216 0.35343137 0.15931373
0 0.29019608 0.11372549
0 0.29019608 0.11372549
0.014705882 0.29509804 0.12254902
0.056372549 0.29754902 0.11764706
0.11176471 0.3 0.11372549
0.16323529 0.30588235 0.10931373
0.21862745 0.3127451 0.096078431
0.2754902 0.31911765 0.079411765
0.3372549 0.32941176 0.058823529
0.39901961 0.33578431 0.034313725
0.45588235 0.34117647 0.024509804
0.51470588 0.34117647 0.042156863
0.57254902 0.34509804 0.062745098
0.62205882 0.34509804 0.079901961
0.66666667 0.34901961 0.11078431
0.70784314 0.34901961 0.12156863
0.74509804 0.35294118 0.12941176
0.77990196 0.35539216 0.12401961
0.81078431 0.35784314 0.13921569
0.84166667 0.36078431 0.15245098
0.86862745 0.37058824 0.15882353
0.89558824 0.37696078 0.16078431
0.92647059 0.3872549 0.16372549
0.94656863 0.39607843 0.17009804
0.94901961 0.39607843 0.17254902
0.0039215686 0.34411765 0.12401961
0.0039215686 0.34411765 0.12401961
0.006372549 0.34595588 0.12585784
0.026470588 0.34577206 0.12205882
0.099019608 0.34558824 0.11887255
0.15949755 0.35 0.11323529
0.21470588 0.35845588 0.10183824
0.27064951 0.36666667 0.089705882
0.33088235 0.3745098 0.069117647
0.3911152 0.38088235 0.043688725
0.4504902 0.38627451 0.014338235
0.50882353 0.39215686 0.017769608
0.56421569 0.39534314 0.038970588
0.61519608 0.39442402 0.049019608
0.65931373 0.39987745 0.081372549
0.70294118 0.4028799 0.10386029
0.74901961 0.40686275 0.11519608
0.78382353 0.40833333 0.12794118
0.81470588 0.40833333 0.14276961
0.84558824 0.4122549 0.15637255
0.87181373 0.41887255 0.16397059
0.89901961 0.428125 0.1713848
0.92463235 0.43517157 0.18223039
0.93964461 0.44362745 0.19068627
0.94264706 0.44509804 0.19313725
0.0039215686 0.39705882 0.12941176
0.0039215686 0.39705882 0.13002451
0 0.39534314 0.12867647
0.00085784314 0.39313725 0.12389706
0.076470588 0.39313725 0.12696078
0.15061275 0.39264706 0.12708333
0.20588235 0.40294118 0.11985294
0.25845588 0.40931373 0.10637255
0.3127451 0.41568627 0.088235294
0.37352941 0.42205882 0.065196078
0.43529412 0.42843137 0.03995098
0.49705882 0.43480392 0.024632353
0.55392157 0.44117647 0.016666667
0.60882353 0.44313725 0.010171569
0.65 0.44313725 0.037990196
0.69448529 0.44705882 0.066666667
0.73921569 0.44705882 0.087254902
0.77745098 0.45098039 0.11139706
0.81544118 0.45906863 0.14142157
0.8495098 0.46458333 0.16115196
0.8745098 0.47156863 0.17156863
0.8995098 0.47585784 0.18198529
0.92352941 0.48529412 0.19926471
0.93272059 0.49019608 0.20882353
0.93627451 0.49019608 0.2127451
0 0.44460784 0.13333333
0 0.44460784 0.13333333
0 0.44460784 0.13676471
0.0038602941 0.44460784 0.13676471
0.055882353 0.44264706 0.14068627
0.13382353 0.44068627 0.14417892
0.19901961 0.44411765 0.14411765
0.2504902 0.44920343 0.13186275
0.30245098 0.45343137 0.10882353
0.35686275 0.46078431 0.084313725
0.41862745 0.46875 0.060171569
0.47689951 0.47297794 0.032352941
0.53431373 0.47867647 0.01372549
0.59166667 0.48131127 0.0039215686
0.63884804 0.48431373 0.014583333
0.68106618 0.48449755 0.034497549
0.72598039 0.48823529 0.049509804
0.76715686 0.49215686 0.072242647
0.80833333 0.50098039 0.11176471
0.8495098 0.51176471 0.14944853
0.87647059 0.51936275 0.17647059
0.9033701 0.52352941 0.19607843
0.9245098 0.53125 0.21029412
0.92726716 0.53529412 0.21697304
0.92990196 0.53529412 0.21960784
0 0.49019608 0.13921569
0 0.49019608 0.13921569
0 0.48970588 0.14705882
0 0.48823529 0.14877451
0.044117647 0.48627451 0.15196078
0.12107843 0.48235294 0.15882353
0.19313725 0.48235294 0.16029412
0.24656863 0.4870098 0.14803922
0.29803922 0.49019608 0.12352941
0.34877451 0.49460784 0.10098039
0.40343137 0.50245098 0.079901961
0.45833333 0.50931373 0.044852941
0.50980392 0.51568627 0.014705882
0.56764706 0.51960784 0.01372549
0.62401961 0.52303922 0.012254902
0.67058824 0.5254902 0.01372549
0.71372549 0.52745098 0.011764706
0.75686275 0.53186275 0.021568627
0.79411765 0.5377451 0.067156863
0.83357843 0.54656863 0.10808824
0.86764706 0.55588235 0.14509804
0.90539216 0.56715686 0.19044118
0.92303922 0.57254902 0.21519608
0.93284314 0.57647059 0.22303922
0.94313725 0.57647059 0.23137255
0 0.53137255 0.15392157
0 0.52873775 0.15392157
0 0.52732843 0.15428922
0.0039215686 0.52352941 0.15686275
0.044362745 0.52132353 0.15882353
0.11623775 0.51960784 0.16476716
0.18835784 0.5192402 0.16862745
0.24215686 0.51697304 0.15802696
0.29362745 0.51911765 0.1377451
0.34540441 0.528125 0.12254902
0.39656863 0.53884804 0.10931373
0.44803922 0.54607843 0.074509804
0.4995098 0.54877451 0.043382353
0.55533088 0.55490196 0.020526961
0.61029412 0.56176471 0.011887255
0.65765931 0.56666667 0.0060661765
0.70147059 0.56666667 0.00049019608
0.74479167 0.56881127 0.006372549
0.78382353 0.57414216 0.020833333
0.82156863 0.58143382 0.054840686
0.85637255 0.58970588 0.10392157
0.89117647 0.59803922 0.15392157
0.92169118 0.60833333 0.19852941
0.94430147 0.61341912 0.23026961
0.95784314 0.61715686 0.24411765
0 0.56862745 0.17058824
0 0.56862745 0.17058824
0 0.56397059 0.16593137
0.00085784314 0.55821078 0.16078431
0.028921569 0.55539216 0.16078431
0.099509804 0.55392157 0.16482843
0.16936275 0.55318627 0.16568627
0.23223039 0.55 0.15931373
0.28627451 0.55 0.14803922
0.33872549 0.56029412 0.13958333
0.38921569 0.57083333 0.13431373
0.4377451 0.57745098 0.1122549
0.48921569 0.58284314 0.08627451
0.54460784 0.58958333 0.057352941
0.59607843 0.59901961 0.025
0.6442402 0.60490196 0.0024509804
0.6872549 0.60392157 0.0039215686
0.73125 0.60453431 0.0078431373
0.77352941 0.60955882 0.0031862745
0.81384804 0.61360294 0.012867647
0.84607843 0.62058824 0.067647059
0.88088235 0.62855392 0.12303922
0.91102941 0.63529412 0.16764706
0.94264706 0.64558824 0.21384804
0.9745098 0.65490196 0.25784314
0 0.60441176 0.18186275
0 0.6028799 0.18186275
0.0014705882 0.60196078 0.17732843
0.0042279412 0.59607843 0.17463235
0.021078431 0.59313725 0.17034314
0.092647059 0.59019608 0.16911765
0.16360294 0.58627451 0.16764706
0.23045343 0.58480392 0.16525735
0.2877451 0.58480392 0.1622549
0.334375 0.59117647 0.15343137
0.38382353 0.60110294 0.14558824
0.43155637 0.60814951 0.12941176
0.48088235 0.61421569 0.11470588
0.52892157 0.6245098 0.097242647
0.57855392 0.63088235 0.059313725
0.62647059 0.63578431 0.01997549
0.67156863 0.63578431 0.006372549
0.71574755 0.63878676 0.0039215686
0.76029412 0.64362745 0.0039215686
0.80441176 0.64724265 0.0073529412
0.83970588 0.6495098 0.034803922
0.87205882 0.65588235 0.090870098
0.90294118 0.66617647 0.13897059
0.93627451 0.67647059 0.17892157
0.96323529 0.68284314 0.22156863
0 0.63921569 0.19607843
0 0.63921569 0.19362745
0.00098039216 0.63529412 0.18823529
0.0039215686 0.63186275 0.18431373
0.031372549 0.62941176 0.18039216
0.10539216 0.62696078 0.18088235
0.18137255 0.62352941 0.18431373
0.24656863 0.61960784 0.18039216
0.29411765 0.61960784 0.18039216
0.33921569 0.62598039 0.17009804
0.38039216 0.63137255 0.15882353
0.42156863 0.63529412 0.14558824
0.46862745 0.64509804 0.13529412
0.51568627 0.65490196 0.12058824
0.56078431 0.65882353 0.08627451
0.60735294 0.6627451 0.043627451
0.65490196 0.66666667 0.0039215686
0.70245098 0.67058824 0.006372549
0.74901961 0.6754902 0.010784314
0.79411765 0.67843137 0.0078431373
0.83137255 0.68235294 0.01372549
0.86764706 0.68676471 0.041666667
0.89509804 0.69411765 0.08627451
0.92990196 0.70343137 0.13431373
0.95686275 0.70980392 0.18823529
0 0.67401961 0.20637255
0 0.67401961 0.20637255
0.0045343137 0.67193627 0.20245098
0.021752451 0.66881127 0.20128676
0.068627451 0.66544118 0.19705882
0.13235294 0.66439951 0.19852941
0.20404412 0.66078431 0.19852941
0.25594363 0.65778186 0.19852941
0.30196078 0.65686275 0.19705882
0.34558824 0.65833333 0.19068627
0.38394608 0.66323529 0.17941176
0.421875 0.66832108 0.16862745
0.46593137 0.67401961 0.15637255
0.51176471 0.68204657 0.13707108
0.55625 0.68688725 0.10833333
0.60196078 0.69209559 0.072426471
0.64705882 0.69754902 0.039705882
0.690625 0.70484069 0.029105392
0.73517157 0.70637255 0.015318627
0.77990196 0.7127451 0.012071078
0.82107843 0.71323529 0.0090686275
0.85814951 0.71746324 0.0083946078
0.89264706 0.72401961 0.026102941
0.92444853 0.73186275 0.075428922
0.95686275 0.74068627 0.15980392
0 0.70882353 0.22058824
0 0.70882353 0.21666667
0.0083333333 0.70490196 0.21666667
0.05245098 0.70490196 0.21629902
0.10735294 0.70196078 0.21519608
0.1627451 0.70196078 0.21372549
0.21666667 0.69877451 0.21372549
0.26176471 0.69595588 0.21372549
0.30686275 0.69313725 0.2127451
0.35196078 0.69313725 0.20919118
0.39289216 0.69705882 0.20122549
0.42953431 0.70098039 0.19546569
0.47058824 0.70686275 0.18529412
0.5127451 0.71286765 0.17058824
0.55686275 0.71666667 0.14313725
0.60196078 0.72205882 0.11960784
0.64313725 0.72843137 0.094117647
0.68431373 0.73480392 0.053921569
0.7252451 0.7379902 0.027941176
0.76568627 0.74375 0.025612745
0.80882353 0.74803922 0.021078431
0.84767157 0.75196078 0.016176471
0.88529412 0.75588235 0.0088235294
0.92107843 0.76127451 0.013112745
0.94803922 0.76764706 0.1
0.018137255 0.74313725 0.24166667
0.019791667 0.74099265 0.23560049
0.045098039 0.74227941 0.23394608
0.097058824 0.73927696 0.23431373
0.14877451 0.73921569 0.2377451
0.20006127 0.73921569 0.2377451
0.2377451 0.73541667 0.2377451
0.27892157 0.73167892 0.23645833
0.32058824 0.72794118 0.23382353
0.36568627 0.72745098 0.23204657
0.40208333 0.72892157 0.22892157
0.43676471 0.73529412 0.22254902
0.4745098 0.73970588 0.2127451
0.51568627 0.74411765 0.20147059
0.55686275 0.7504902 0.18296569
0.6004902 0.75539216 0.16893382
0.63921569 0.7627451 0.14656863
0.68302696 0.76697304 0.11127451
0.72193627 0.77107843 0.08872549
0.7627451 0.775 0.068627451
0.80220588 0.78063725 0.045098039
0.84074755 0.78633578 0.019117647
0.87843137 0.78933824 0.011397059
0.91599265 0.79215686 0.0067401961
0.9377451 0.79460784 0.0039215686
0.08627451 0.77647059 0.26862745
0.10294118 0.77769608 0.26862745
0.12941176 0.78039216 0.26862745
0.16151961 0.77867647 0.26519608
0.19509804 0.77647059 0.2627451
0.24068627 0.77426471 0.2627451
0.27156863 0.77107843 0.26470588
0.30710784 0.76862745 0.26862745
0.34705882 0.76862745 0.26666667
0.3875 0.76470588 0.26911765
0.42696078 0.76470588 0.26960784
0.45931373 0.76838235 0.25931373
0.49019608 0.77352941 0.24509804
0.525 0.77843137 0.23504902
0.5627451 0.78235294 0.22647059
0.60196078 0.7877451 0.21348039
0.63921569 0.79411765 0.19607843
0.68039216 0.8004902 0.17156863
0.72156863 0.80294118 0.15490196
0.7627451 0.80955882 0.13627451
0.80196078 0.81372549 0.10784314
0.8372549 0.81764706 0.054166667
0.8754902 0.82156863 0.010784314
0.90955882 0.8254902 0.0046568627
0.92745098 0.82156863 0.015686275
0.18137255 0.81323529 0.29558824
0.19117647 0.81372549 0.29558824
0.21066176 0.81764706 0.29571078
0.23425245 0.81721814 0.29650735
0.25833333 0.81372549 0.29313725
0.28284314 0.81372549 0.29362745
0.31372549 0.80980392 0.29963235
0.34803922 0.8096201 0.30459559
0.37892157 0.80588235 0.30833333
0.4153799 0.80539216 0.30833333
0.45637255 0.80196078 0.31580882
0.49068627 0.80582108 0.30582108
0.52328431 0.80955882 0.29926471
0.55539216 0.81372549 0.29699755
0.57598039 0.81629902 0.28247549
0.61439951 0.82107843 0.26666667
0.65637255 0.8254902 0.25441176
0.69332108 0.82892157 0.23756127
0.72892157 0.83382353 0.21813725
0.76372549 0.84411765 0.20784314
0.80220588 0.84852941 0.17426471
0.84166667 0.84859069 0.12009804
0.87892157 0.85539216 0.069852941
0.91060049 0.85637255 0.048835784
0.9377451 0.86029412 0.045098039
0.28039216 0.85098039 0.35
0.28492647 0.85490196 0.35
0.29436275 0.85588235 0.35392157
0.30980392 0.85502451 0.35747549
0.33382353 0.85490196 0.36176471
0.35490196 0.85490196 0.36568627
0.37622549 0.85416667 0.36568627
0.40134804 0.84705882 0.36605392
0.42647059 0.84313725 0.3627451
0.45980392 0.84313725 0.3685049
0.49803922 0.84632353 0.37377451
0.53186275 0.84705882 0.36973039
0.55882353 0.84705882 0.36568627
0.59019608 0.85183824 0.36605392
0.60980392 0.85171569 0.35098039
0.64154412 0.85526961 0.33468137
0.68333333 0.85980392 0.32647059
0.71519608 0.85980392 0.30943627
0.74607843 0.86838235 0.29681373
0.7807598 0.87794118 0.28921569
0.8122549 0.87941176 0.27254902
0.85147059 0.88333333 0.23333333
0.8870098 0.8870098 0.20098039
0.91813725 0.89056373 0.175
0.94117647 0.89509804 0.15098039
0.3754902 0.89607843 0.42745098
0.37794118 0.89607843 0.42898284
0.3807598 0.89607843 0.42708333
0.39136029 0.89607843 0.42941176
0.4129902 0.89803922 0.43382353
0.43088235 0.8995098 0.4377451
0.44754902 0.89607843 0.4377451
0.46666667 0.89123775 0.43627451
0.47941176 0.88039216 0.4245098
0.50882353 0.88676471 0.43235294
0.54460784 0.88970588 0.44056373
0.57352941 0.88841912 0.4377451
0.6 0.88823529 0.43848039
0.62696078 0.89362745 0.4408701
0.64705882 0.89215686 0.42414216
0.6778799 0.89607843 0.41666667
0.71029412 0.9 0.41323529
0.73670343 0.89405637 0.38713235
0.77205882 0.90882353 0.39411765
0.80294118 0.91176471 0.3872549
0.83235294 0.91495098 0.37279412
0.86323529 0.91832108 0.35686275
0.89656863 0.92316176 0.33982843
0.9283701 0.92745098 0.31868873
0.94509804 0.92990196 0.3004902
0.45490196 0.93333333 0.49411765
0.45882353 0.93333333 0.49803922
0.45882353 0.93235294 0.49313725
0.46617647 0.93284314 0.49019608
0.48039216 0.93333333 0.49411765
0.49068627 0.93284314 0.49411765
0.50098039 0.92941176 0.49411765
0.51911765 0.9254902 0.49264706
0.52941176 0.91764706 0.48235294
0.55637255 0.92009804 0.48872549
0.59215686 0.93137255 0.50392157
0.61470588 0.92941176 0.49852941
0.6372549 0.92745098 0.50392157
0.66813725 0.9372549 0.51715686
0.68823529 0.93333333 0.50196078
0.7127451 0.93578431 0.49901961
0.7372549 0.9372549 0.49411765
0.7627451 0.93284314 0.475
0.79509804 0.94509804 0.4872549
0.82205882 0.94460784 0.4745098
0.84901961 0.94509804 0.46078431
0.87598039 0.94901961 0.4504902
0.90686275 0.95588235 0.44705882
0.94166667 0.96617647 0.45784314
0.94901961 0.96078431 0.43921569
0.018137255 0.058823529 0.091176471
0.02935049 0.06127451 0.094178922
0.044117647 0.062745098 0.09620098
0.060477941 0.062745098 0.092647059
0.08627451 0.06004902 0.091176471
0.125 0.057046569 0.092647059
0.16470588 0.051593137 0.092647059
0.21519608 0.041666667 0.092647059
0.27058824 0.035294118 0.095098039
0.32751225 0.031372549 0.096568627
0.38529412 0.017647059 0.10257353
0.44068627 0.0022671569 0.10588235
0.49215686 0.0019607843 0.10441176
0.54607843 0.0039215686 0.10863971
0.59901961 0.0039215686 0.11078431
0.6504902 0 0.11078431
0.69411765 0.0039215686 0.11470588
0.73529412 0.0039215686 0.11954657
0.78039216 0.0039215686 0.12438725
0.82156863 0.0073529412 0.12794118
0.85490196 0.015441176 0.13039216
0.8877451 0.040686275 0.13480392
0.91862745 0.087377451 0.14264706
0.9495098 0.13290441 0.15686275
0.97647059 0.17254902 0.16862745
0.015686275 0.068198529 0.094178922
0.032352941 0.069117647 0.096361826
0.050719975 0.069117647 0.09833027
0.068137255 0.069117647 0.096086091
0.097794118 0.067156863 0.09463848
0.13529412 0.065012255 0.096017157
0.17522978 0.06127451 0.096017157
0.22248775 0.054411765 0.095098039
0.27395833 0.041666667 0.095098039
0.32751225 0.031717218 0.095036765
0.38567708 0.019010417 0.10062806
0.44202665 0.011136642 0.10257353
0.49552696 0.0039215686 0.10367647
0.54908088 0.0039215686 0.10735294
0.60215993 0.0048406863 0.11078431
0.65202206 0.0048406863 0.11170343
0.69656863 0.0039215686 0.11470588
0.73979013 0.0033471201 0.11897212
0.7810049 0 0.12438725
0.82198989 0.004419424 0.1276348
0.85658701 0.031158088 0.13085172
0.8877451 0.064820772 0.13706342
0.91862745 0.10317096 0.14643076
0.9495098 0.15083487 0.15952053
0.97555147 0.18921569 0.16862745
0.015318627 0.085416667 0.095098039
0.031985294 0.084313725 0.096951593
0.05502451 0.081219363 0.098406863
0.077987132 0.079411765 0.096476716
0.10833333 0.079411765 0.094791667
0.14822304 0.078079044 0.096568627
0.18958333 0.075643382 0.096568627
0.23362439 0.071078431 0.09564951
