site/assets/luts/sha256-bf6187f15c6d420c58514794827036308eee56842fdad838671a14abe54b41c1.cube
# LUTr-Schema-Version: 2
# LUTr-ID: sha256-bf6187f15c6d420c58514794827036308eee56842fdad838671a14abe54b41c1
# LUTr-Title: polaroid 690 ++
# LUTr-Collection: Natron HaldCLUT
# LUTr-Collection-ID: natron-haldclut-presets
# LUTr-Source: https://github.com/NatronGitHub/clut
# LUTr-Retrieved: 2026-07-27
# LUTr-Source-File: submissions/natron-haldclut-presets/instant_pro/polaroid_690_++.png
# LUTr-Source-Format: HALD-PNG
# LUTr-Source-SHA256: bf6187f15c6d420c58514794827036308eee56842fdad838671a14abe54b41c1
# LUTr-License: CC-BY-SA-4.0
# LUTr-License-URL: https://github.com/NatronGitHub/clut#license
# LUTr-License-Basis: repo-license-file
# LUTr-Transform-Class: film-emulation
# LUTr-Tags: creative, film, film-emulation, hald-clut, natron, png, cube
# LUTr-Input-Color-Space: srgb
# LUTr-Input-Gamut: rec709
# LUTr-Input-Transfer: srgb
# LUTr-Output-Color-Space: srgb
# LUTr-Output-Gamut: rec709
# LUTr-Output-Transfer: srgb
# LUTr-Color-Space-Confidence: assumed-display-referred
# LUTr-Domain-Normalized: true
# LUTr-Shaper: none
# LUTr-Original-Grid: 64x64x64
# LUTr-Conversion-Grid: 25x25x25
# LUTr-Conversion-Interpolation: trilinear
# LUTr-Conversion-Method: HALD-PNG LUT image decoded at 16-bit and sampled to 25x25x25 3D CUBE
# LUTr-Conversion-Tool: LUTr scripts/convert-all-to-cube.mjs 2.0.0
# LUTr-Conversion-Date: 2026-07-27
# LUTr-Note: Preserve this metadata and the upstream license notices when redistributing.
TITLE "polaroid 690 ++"
LUT_3D_SIZE 25
DOMAIN_MIN 0 0 0
DOMAIN_MAX 1 1 1
0.32156863 0.26666667 0.22352941
0.32941176 0.27058824 0.22745098
0.33823529 0.27058824 0.23137255
0.34509804 0.27058824 0.23137255
0.35294118 0.27058824 0.23137255
0.36078431 0.27009804 0.23137255
0.36764706 0.26666667 0.23137255
0.37696078 0.2627451 0.22745098
0.40784314 0.2627451 0.22745098
0.44264706 0.2627451 0.22990196
0.47352941 0.26176471 0.23039216
0.50098039 0.25539216 0.22745098
0.52745098 0.25098039 0.2254902
0.5627451 0.24656863 0.22352941
0.60686275 0.23921569 0.22352941
0.64901961 0.23137255 0.22352941
0.69411765 0.22352941 0.22352941
0.73529412 0.21323529 0.22352941
0.77647059 0.20196078 0.22352941
0.81372549 0.18872549 0.22352941
0.85098039 0.17843137 0.21960784
0.88823529 0.16813725 0.21960784
0.9254902 0.16078431 0.21568627
0.9627451 0.15147059 0.21176471
1 0.14117647 0.20784314
0.32401961 0.27303922 0.22598039
0.32941176 0.27303922 0.22745098
0.33823529 0.2745098 0.23137255
0.34724265 0.2745098 0.23137255
0.35490196 0.2745098 0.23382353
0.36127451 0.27303922 0.23137255
0.37009804 0.27058824 0.23137255
0.38578431 0.26911765 0.22898284
0.41176471 0.26911765 0.22745098
0.44264706 0.26666667 0.22745098
0.47352941 0.26629902 0.22745098
0.50441176 0.26145833 0.22745098
0.53382353 0.25735294 0.22352941
0.57156863 0.25294118 0.22352941
0.61421569 0.24656863 0.22352941
0.65539216 0.23682598 0.22598039
0.69803922 0.22745098 0.22598039
0.73921569 0.21960784 0.22352941
0.78039216 0.20931373 0.22352941
0.82028186 0.19901961 0.21979167
0.85808824 0.18872549 0.21960784
0.89460784 0.1745098 0.21960784
0.93284314 0.16715686 0.21568627
0.96819853 0.16268382 0.21176471
0.98578431 0.16176471 0.21029412
0.32941176 0.27941176 0.22745098
0.33186275 0.27941176 0.22806373
0.33823529 0.28235294 0.23137255
0.34767157 0.28235294 0.23394608
0.35490196 0.27941176 0.23529412
0.36482843 0.27843137 0.23529412
0.3747549 0.2754902 0.23235294
0.39546569 0.2754902 0.23137255
0.42058824 0.2754902 0.22745098
0.44473039 0.27156863 0.22745098
0.47254902 0.27132353 0.22647059
0.50441176 0.26764706 0.22352941
0.54362745 0.26715686 0.22352941
0.58333333 0.26323529 0.22352941
0.6245098 0.25686275 0.22352941
0.66568627 0.24656863 0.22463235
0.70686275 0.23627451 0.22745098
0.74803922 0.22879902 0.22352941
0.78823529 0.22058824 0.21960784
0.82941176 0.21323529 0.21605392
0.86764706 0.20147059 0.21568627
0.90490196 0.18982843 0.21568627
0.94313725 0.18627451 0.21568627
0.96727941 0.18627451 0.21176471
0.9754902 0.18627451 0.21176471
0.32941176 0.28970588 0.23137255
0.33314951 0.28970588 0.23137255
0.33737745 0.28970588 0.23137255
0.34460784 0.28670343 0.23137255
0.35490196 0.28578431 0.23529412
0.36519608 0.28235294 0.23529412
0.37843137 0.28186275 0.23529412
0.4026348 0.28186275 0.23137255
0.42745098 0.28186275 0.22745098
0.45147059 0.28186275 0.22745098
0.47683824 0.28137255 0.22352941
0.51127451 0.2783701 0.22352941
0.55588235 0.27769608 0.22352941
0.59362745 0.27352941 0.22352941
0.63480392 0.26715686 0.22352941
0.6723652 0.25814951 0.22352941
0.71323529 0.25392157 0.22401961
0.75802696 0.24754902 0.2213848
0.79558824 0.2372549 0.21862745
0.83676471 0.22696078 0.21268382
0.87794118 0.21862745 0.21176471
0.91911765 0.21421569 0.21268382
0.95428922 0.20772059 0.21311275
0.96470588 0.20686275 0.21176471
0.96519608 0.20686275 0.21176471
0.33333333 0.29607843 0.23137255
0.33333333 0.29411765 0.23137255
0.33431373 0.29411765 0.23137255
0.34289216 0.29411765 0.23137255
0.35490196 0.29215686 0.23235294
0.36519608 0.29411765 0.23529412
0.38235294 0.29411765 0.23235294
0.40686275 0.29607843 0.23137255
0.43137255 0.29803922 0.22745098
0.45784314 0.29803922 0.22745098
0.48970588 0.30196078 0.22696078
0.52745098 0.29852941 0.22352941
0.56666667 0.29313725 0.22352941
0.60392157 0.28578431 0.22132353
0.64509804 0.27892157 0.21960784
0.68627451 0.27843137 0.21960784
0.72745098 0.2745098 0.21960784
0.76862745 0.26813725 0.21960784
0.80980392 0.26029412 0.21568627
0.85098039 0.25686275 0.21176471
0.89215686 0.25098039 0.21176471
0.93333333 0.23676471 0.21176471
0.96029412 0.22990196 0.21176471
0.96078431 0.23333333 0.21176471
0.96078431 0.23333333 0.21176471
0.33333333 0.30245098 0.23088235
0.33333333 0.30245098 0.22745098
0.33333333 0.29852941 0.22745098
0.3411152 0.30202206 0.23045343
0.35490196 0.30661765 0.23137255
0.36911765 0.31035539 0.23137255
0.38284314 0.31078431 0.2310049
0.40833333 0.31078431 0.22745098
0.43578431 0.31421569 0.22745098
0.47058824 0.31715686 0.22745098
0.50245098 0.32254902 0.22745098
0.54019608 0.32254902 0.22352941
0.57916667 0.31495098 0.22352941
0.61862745 0.31127451 0.22310049
0.66372549 0.31164216 0.21973039
0.70098039 0.30998775 0.21960784
0.74215686 0.30343137 0.21960784
0.78333333 0.29099265 0.21568627
0.82401961 0.28517157 0.21433824
0.86519608 0.2877451 0.21176471
0.90637255 0.28578431 0.20784314
0.94264706 0.27555147 0.20784314
0.96372549 0.27169118 0.20784314
0.96881127 0.27254902 0.20735294
0.96911765 0.27303922 0.20735294
0.33333333 0.32254902 0.22745098
0.33333333 0.32254902 0.22745098
0.33651961 0.32254902 0.22745098
0.34460784 0.32254902 0.22745098
0.35833333 0.325 0.23284314
0.37205882 0.32745098 0.22745098
0.38627451 0.32745098 0.22745098
0.41188725 0.32781863 0.22745098
0.44607843 0.33137255 0.22745098
0.47941176 0.3377451 0.22745098
0.51348039 0.34387255 0.22671569
0.55306373 0.3435049 0.22352941
0.59117647 0.34215686 0.22352941
0.63578431 0.34522059 0.22352941
0.68333333 0.34607843 0.22352941
0.72156863 0.34571078 0.21960784
0.7627451 0.34117647 0.21960784
0.80208333 0.33627451 0.21384804
0.84044118 0.32916667 0.21176471
0.87941176 0.3254902 0.20796569
0.91960784 0.32009804 0.20490196
0.94865196 0.31372549 0.20490196
0.96372549 0.31593137 0.20392157
0.97365196 0.31764706 0.20098039
0.97647059 0.31764706 0.20098039
0.3372549 0.35343137 0.23137255
0.3372549 0.35343137 0.23137255
0.34154412 0.35343137 0.2307598
0.35 0.35343137 0.2276348
0.3627451 0.35073529 0.22745098
0.37481618 0.34932598 0.22726716
0.38835784 0.34558824 0.22352941
0.41856618 0.3495098 0.22352941
0.45245098 0.35588235 0.22352941
0.4872549 0.36072304 0.22598039
0.52267157 0.36801471 0.22352941
0.56029412 0.37303922 0.22224265
0.60343137 0.37303922 0.22205882
0.65490196 0.37696078 0.22352941
0.70343137 0.38088235 0.22414216
0.74215686 0.38327206 0.21813725
0.78333333 0.38235294 0.21421569
0.82058824 0.38082108 0.20784314
0.85784314 0.37352941 0.20784314
0.89509804 0.36323529 0.20422794
0.93161765 0.35416667 0.20122549
0.95128676 0.35508578 0.2
0.96482843 0.35882353 0.19889706
0.97849265 0.35882353 0.19607843
0.98578431 0.35882353 0.19460784
0.3372549 0.38039216 0.23137255
0.3372549 0.38039216 0.23137255
0.34607843 0.38039216 0.23137255
0.35637255 0.38039216 0.23137255
0.36666667 0.38039216 0.22745098
0.38088235 0.37647059 0.22696078
0.39411765 0.37647059 0.22352941
0.42009804 0.37794118 0.22352941
0.45490196 0.38431373 0.22352941
0.48970588 0.39068627 0.22107843
0.52941176 0.39705882 0.21960784
0.56715686 0.40343137 0.21960784
0.61176471 0.40588235 0.21764706
0.66127451 0.40833333 0.21960784
0.70980392 0.41470588 0.21666667
0.75637255 0.42107843 0.21176471
0.80392157 0.42352941 0.20392157
0.84264706 0.42352941 0.2
0.87745098 0.41470588 0.20392157
0.90833333 0.40833333 0.20392157
0.94313725 0.40392157 0.20392157
0.96127451 0.40441176 0.2
0.97156863 0.40784314 0.2
0.98578431 0.40392157 0.19460784
0.99607843 0.4 0.18823529
0.33970588 0.41127451 0.22892157
0.340625 0.41127451 0.22892157
0.35 0.41127451 0.23137255
0.36029412 0.41127451 0.23137255
0.37058824 0.40931373 0.22745098
0.38118873 0.40471814 0.22696078
0.39987745 0.40343137 0.22352941
0.42702206 0.40882353 0.22107843
0.45490196 0.41519608 0.21715686
0.49215686 0.41911765 0.21715686
0.53333333 0.42512255 0.21568627
0.5745098 0.43431373 0.21354167
0.61764706 0.4379902 0.2125
0.66501225 0.44295343 0.20931373
0.7127451 0.4495098 0.20637255
0.76029412 0.45533088 0.20300245
0.81176471 0.46078431 0.19754902
0.85741422 0.46470588 0.19699755
0.88884804 0.4622549 0.20208333
0.91862745 0.45931373 0.20392157
0.9495098 0.45661765 0.20392157
0.97156863 0.45931373 0.2
0.98541667 0.46176471 0.19705882
0.99307598 0.45931373 0.19607843
0.99607843 0.45539216 0.19852941
0.34117647 0.44215686 0.22254902
0.34571078 0.44215686 0.22316176
0.35490196 0.44215686 0.22352941
0.36519608 0.44215686 0.22647059
0.375 0.43823529 0.22352941
0.38492647 0.43431373 0.22352941
0.40514706 0.43431373 0.22034314
0.43039216 0.43823529 0.21752451
0.45490196 0.44509804 0.21176471
0.49215686 0.45 0.21176471
0.53406863 0.45490196 0.21078431
0.57487745 0.46262255 0.20821078
0.61960784 0.47156863 0.20539216
0.66519608 0.47879902 0.20257353
0.7127451 0.48455882 0.19901961
0.76029412 0.49166667 0.19509804
0.80784314 0.49803922 0.19117647
0.85294118 0.50588235 0.18762255
0.89313725 0.50980392 0.19191176
0.92879902 0.51078431 0.19852941
0.96372549 0.51078431 0.20294118
0.98578431 0.51470588 0.19987745
0.99313725 0.51470588 0.19926471
0.99607843 0.51041667 0.20490196
0.99607843 0.50686275 0.20882353
0.34460784 0.47303922 0.21617647
0.35098039 0.47303922 0.21617647
0.36127451 0.47303922 0.21960784
0.36856618 0.47303922 0.22003676
0.37843137 0.47279412 0.21985294
0.39215686 0.46819853 0.21917892
0.40968137 0.46776961 0.21580882
0.43400735 0.47058824 0.21207108
0.45882353 0.47647059 0.20784314
0.49215686 0.48088235 0.20441176
0.53333333 0.48578431 0.20428922
0.5745098 0.49607843 0.20091912
0.62132353 0.50416667 0.19828431
0.66519608 0.5127451 0.19264706
0.7127451 0.52254902 0.18970588
0.75900735 0.52892157 0.18694853
0.80441176 0.53578431 0.18431373
0.84932598 0.54558824 0.18088235
0.89056373 0.55098039 0.17794118
0.9283701 0.55490196 0.18480392
0.97254902 0.5625 0.19264706
0.99607843 0.56617647 0.19957108
0.99607843 0.56237745 0.20637255
0.99264706 0.55863971 0.21305147
0.99607843 0.55490196 0.21911765
0.34509804 0.50196078 0.21176471
0.35147059 0.50514706 0.2129902
0.36176471 0.50833333 0.21568627
0.37205882 0.50980392 0.21911765
0.38431373 0.50588235 0.21470588
0.39656863 0.5 0.21151961
0.41323529 0.49901961 0.20980392
0.43897059 0.50269608 0.20784314
0.4627451 0.50784314 0.20588235
0.49362745 0.5129902 0.20073529
0.52745098 0.52009804 0.19754902
0.57230392 0.52696078 0.19411765
0.61960784 0.5372549 0.19019608
0.66470588 0.54754902 0.18578431
0.70931373 0.55784314 0.17941176
0.75367647 0.56421569 0.17696078
0.8 0.5745098 0.1745098
0.84632353 0.58284314 0.17058824
0.89019608 0.59068627 0.16666667
0.93137255 0.59558824 0.17009804
0.96372549 0.59901961 0.18039216
0.98848039 0.60196078 0.19460784
0.99215686 0.60196078 0.20686275
0.99215686 0.60392157 0.21789216
0.99607843 0.60392157 0.22745098
0.3495098 0.53921569 0.20784314
0.35588235 0.54136029 0.21029412
0.36568627 0.5439951 0.21531863
0.37598039 0.54656863 0.21568627
0.38676471 0.54068627 0.21151961
0.4004902 0.53131127 0.20692402
0.41409314 0.52732843 0.20343137
0.44215686 0.53627451 0.20343137
0.46666667 0.54264706 0.20343137
0.49754902 0.546875 0.19754902
0.525 0.55183824 0.19080882
0.57009804 0.56176471 0.18780637
0.61764706 0.57254902 0.18235294
0.66121324 0.58278186 0.17640931
0.70539216 0.59264706 0.16911765
0.74834559 0.59932598 0.16421569
0.79558824 0.60931373 0.16421569
0.84099265 0.61960784 0.16029412
0.88590686 0.62585784 0.15686275
0.92702206 0.63235294 0.16029412
0.95122549 0.63308824 0.17401961
0.97696078 0.63676471 0.18823529
0.98688725 0.63676471 0.19889706
0.99185049 0.64068627 0.21421569
0.99607843 0.64068627 0.22647059
0.35294118 0.57647059 0.20098039
0.3622549 0.57745098 0.2067402
0.36960784 0.57818627 0.20955882
0.37892157 0.58039216 0.2127451
0.39313725 0.575 0.20637255
0.40355392 0.56813725 0.20085784
0.42058824 0.56470588 0.19926471
0.44546569 0.57071078 0.2
0.47058824 0.57745098 0.2
0.5004902 0.5810049 0.1942402
0.53235294 0.58602941 0.1872549
0.57352941 0.59644608 0.18431373
0.61764706 0.60686275 0.18088235
0.66078431 0.61715686 0.17303922
0.70196078 0.62671569 0.1627451
0.74129902 0.63382353 0.15392157
0.78921569 0.64117647 0.15392157
0.83615196 0.6504902 0.15392157
0.87941176 0.65588235 0.15514706
0.92058824 0.66323529 0.1564951
0.95441176 0.66764706 0.16715686
0.97303922 0.66764706 0.17830882
0.98333333 0.66764706 0.19215686
0.99215686 0.67156863 0.20245098
0.99607843 0.67156863 0.20980392
0.35686275 0.6122549 0.19460784
0.36470588 0.6122549 0.19852941
0.375 0.6122549 0.20245098
0.38529412 0.6122549 0.20245098
0.39803922 0.61102941 0.19852941
0.41243873 0.60588235 0.19460784
0.43088235 0.60588235 0.19460784
0.45447304 0.60680147 0.19515931
0.47843137 0.6122549 0.19460784
0.50686275 0.61317402 0.18915441
0.54227941 0.6182598 0.18223039
0.57990196 0.62745098 0.18039216
0.62107843 0.6377451 0.17769608
0.6622549 0.64785539 0.16813725
0.70343137 0.65441176 0.15747549
0.74313725 0.66231618 0.15
0.78676471 0.66960784 0.14362745
0.83186275 0.67653186 0.14215686
0.8745098 0.68382353 0.14644608
0.91421569 0.69264706 0.15490196
0.95612745 0.69779412 0.1620098
0.97303922 0.69852941 0.17156863
0.98664216 0.69852941 0.1807598
0.99454657 0.69852941 0.19068627
0.99754902 0.69852941 0.19460784
0.36862745 0.64705882 0.19215686
0.375 0.64705882 0.19215686
0.38529412 0.64705882 0.19215686
0.39215686 0.64705882 0.19215686
0.40196078 0.64705882 0.18823529
0.41666667 0.64656863 0.18431373
0.4372549 0.64313725 0.18823529
0.46176471 0.64313725 0.18823529
0.48627451 0.64313725 0.18431373
0.51323529 0.64705882 0.18039216
0.54901961 0.65196078 0.17647059
0.58627451 0.6622549 0.17303922
0.62352941 0.66666667 0.16666667
0.66470588 0.675 0.16029412
0.70588235 0.68235294 0.15294118
0.74705882 0.69019608 0.14509804
0.78823529 0.69803922 0.1372549
0.8254902 0.70441176 0.12941176
0.86666667 0.71078431 0.13431373
0.90784314 0.71764706 0.14803922
0.95098039 0.72352941 0.15686275
0.96960784 0.7254902 0.16470588
0.98627451 0.7254902 0.17156863
1 0.7254902 0.17794118
1 0.7254902 0.18039216
0.38529412 0.68431373 0.18823529
0.38921569 0.68278186 0.18578431
0.39558824 0.68431373 0.18578431
0.40459559 0.68431373 0.18216912
0.41151961 0.68186275 0.17916667
0.42567402 0.68167892 0.17696078
0.44754902 0.67855392 0.18039216
0.47205882 0.67794118 0.18039216
0.49656863 0.68039216 0.17647059
0.52107843 0.68339461 0.17064951
0.55477941 0.68676471 0.16617647
0.59050245 0.68970588 0.1627451
0.6254902 0.69558824 0.15637255
0.66096814 0.70324755 0.15
0.70526961 0.71041667 0.14362745
0.74797794 0.71770833 0.14117647
0.79068627 0.725 0.13578431
0.82849265 0.72984069 0.13094363
0.86666667 0.73529412 0.13223039
0.90784314 0.74197304 0.14197304
0.94313725 0.74730392 0.15245098
0.96568627 0.75 0.16078431
0.98627451 0.75183824 0.16580882
0.9966299 0.75245098 0.17101716
0.99754902 0.75392157 0.17254902
0.40098039 0.72156863 0.18431373
0.40379902 0.72156863 0.1814951
0.40980392 0.72156863 0.17622549
0.42058824 0.72071078 0.17647059
0.43382353 0.71715686 0.18088235
0.4504902 0.71666667 0.18137255
0.46691176 0.71372549 0.18112745
0.4872549 0.71372549 0.18039216
0.51176471 0.71666667 0.17254902
0.53627451 0.71666667 0.16678922
0.56642157 0.71764706 0.16470588
0.6004902 0.72058824 0.16090686
0.63676471 0.72647059 0.15490196
0.67058824 0.73284314 0.14607843
0.71078431 0.73848039 0.14607843
0.75306373 0.74522059 0.15
0.79607843 0.75098039 0.15
0.83333333 0.75551471 0.14362745
0.87034314 0.76053922 0.14019608
0.90784314 0.76629902 0.13651961
0.94313725 0.77058824 0.14901961
0.96960784 0.77463235 0.15661765
0.98651961 0.7745098 0.1629902
0.99215686 0.7754902 0.16580882
0.99509804 0.77843137 0.16764706
0.42598039 0.75539216 0.19166667
0.43204657 0.75539216 0.18921569
0.43860294 0.75882353 0.1872549
0.44552696 0.75539216 0.18376225
0.46151961 0.75147059 0.18431373
0.47751225 0.75098039 0.18431373
0.49203431 0.75098039 0.1817402
0.51176471 0.74754902 0.17910539
0.53578431 0.74754902 0.17254902
0.55900735 0.74754902 0.17205882
0.58627451 0.74852941 0.17120098
0.62107843 0.75147059 0.1651348
0.65588235 0.75735294 0.16053922
0.69068627 0.76323529 0.159375
0.725 0.76629902 0.15637255
0.76439951 0.77254902 0.16029412
0.7995098 0.7754902 0.16029412
0.83480392 0.78155637 0.15392157
0.87058824 0.78419118 0.14362745
0.90784314 0.7872549 0.1307598
0.94117647 0.79509804 0.14877451
0.96960784 0.79859069 0.15533088
0.99117647 0.79901961 0.15735294
0.99215686 0.79901961 0.16096814
0.99215686 0.79901961 0.16470588
0.4627451 0.79019608 0.20588235
0.46911765 0.79142157 0.20588235
0.475 0.79362745 0.20490196
0.48014706 0.79019608 0.19803922
0.49019608 0.78627451 0.18921569
0.50490196 0.78431373 0.18823529
0.52156863 0.78431373 0.18284314
0.53627451 0.78235294 0.17647059
0.55882353 0.78235294 0.17254902
0.58333333 0.78235294 0.1745098
0.60882353 0.78088235 0.17254902
0.64166667 0.78578431 0.16911765
0.67647059 0.78823529 0.16666667
0.70931373 0.79240196 0.16838235
0.74019608 0.79558824 0.16666667
0.775 0.80073529 0.16666667
0.80980392 0.80392157 0.16666667
0.84191176 0.80906863 0.16421569
0.8754902 0.8122549 0.15588235
0.90833333 0.81372549 0.14754902
0.93921569 0.82156863 0.16078431
0.96789216 0.82573529 0.16911765
0.99117647 0.8254902 0.1745098
0.99215686 0.8254902 0.17843137
0.99215686 0.82941176 0.18039216
0.5 0.825 0.21568627
0.50606618 0.825 0.21617647
0.50747549 0.825 0.20821078
0.51170343 0.82156863 0.2004902
0.52107843 0.82107843 0.19509804
0.53186275 0.82107843 0.18829657
0.5495098 0.81764706 0.18921569
0.56390931 0.81715686 0.17928922
0.58578431 0.81715686 0.17794118
0.61011029 0.81501225 0.18088235
0.6317402 0.81323529 0.1754902
0.6622549 0.81323529 0.17254902
0.69485294 0.81911765 0.17745098
0.72401961 0.82156863 0.18082108
0.75490196 0.825 0.17267157
0.7877451 0.82892157 0.17469363
0.81617647 0.83284314 0.18088235
0.85098039 0.83658088 0.17463235
0.8817402 0.84068627 0.18468137
0.9122549 0.84368873 0.17401961
0.93921569 0.84828431 0.18357843
0.96525735 0.8528799 0.19846814
0.98970588 0.85637255 0.20539216
0.99607843 0.85637255 0.20931373
0.99607843 0.85980392 0.20931373
0.5372549 0.85980392 0.22254902
0.54117647 0.85919118 0.2254902
0.54509804 0.85882353 0.22328431
0.54852941 0.85625 0.22279412
0.55882353 0.85490196 0.22352941
0.56911765 0.85453431 0.22254902
0.58406863 0.85196078 0.22328431
0.60147059 0.85196078 0.22254902
0.61960784 0.85196078 0.21862745
0.64117647 0.85098039 0.21041667
0.66176471 0.84779412 0.19509804
0.68578431 0.84705882 0.19105392
0.71519608 0.85147059 0.20245098
0.74460784 0.85502451 0.20428922
0.77230392 0.85588235 0.19534314
0.79914216 0.85735294 0.19901961
0.82941176 0.85980392 0.20392157
0.85943627 0.86433824 0.19816176
0.88823529 0.86936275 0.21764706
0.91654412 0.87156863 0.20870098
0.9377451 0.87745098 0.21666667
0.96188725 0.88333333 0.22806373
0.98627451 0.88651961 0.23627451
0.99607843 0.8872549 0.24019608
0.99607843 0.8872549 0.24019608
0.58235294 0.89460784 0.2754902
0.58535539 0.89460784 0.28094363
0.58835784 0.89460784 0.28431373
0.59381127 0.89246324 0.28480392
0.60073529 0.89068627 0.27794118
0.61029412 0.88805147 0.27745098
0.62242647 0.88676471 0.27046569
0.63780637 0.88676471 0.27009804
0.65539216 0.88823529 0.27009804
0.67444853 0.88676471 0.25980392
0.69264706 0.88284314 0.24767157
0.71323529 0.88431373 0.24803922
0.74289216 0.88823529 0.25318627
0.76734069 0.89068627 0.25294118
0.79252451 0.89215686 0.25735294
0.81764706 0.89215686 0.25778186
0.84313725 0.89068627 0.25196078
0.86911765 0.89705882 0.25441176
0.8942402 0.90281863 0.26752451
0.91813725 0.90606618 0.275
0.93872549 0.91029412 0.28284314
0.95814951 0.91439951 0.29264706
0.98198529 0.9192402 0.29705882
0.99460784 0.92205882 0.29803922
0.99460784 0.92205882 0.29803922
0.62745098 0.92941176 0.32941176
0.62352941 0.9254902 0.32303922
0.62843137 0.9254902 0.32156863
0.63529412 0.92598039 0.32205882
0.63921569 0.92156863 0.3254902
0.64754902 0.92107843 0.325
0.65392157 0.91470588 0.31470588
0.66960784 0.91519608 0.30980392
0.68627451 0.92156863 0.30980392
0.7004902 0.91764706 0.30343137
0.71568627 0.91372549 0.29411765
0.74019608 0.91715686 0.29754902
0.76470588 0.91764706 0.29607843
0.78186275 0.91421569 0.28676471
0.8127451 0.92352941 0.29705882
0.83676471 0.9254902 0.30196078
0.85490196 0.9254902 0.30196078
0.87794118 0.9254902 0.30833333
0.90098039 0.93431373 0.31960784
0.9245098 0.9377451 0.33333333
0.94117647 0.9372549 0.33529412
0.96127451 0.94166667 0.34558824
0.97843137 0.94803922 0.35588235
0.98823529 0.94901961 0.36078431
0.98823529 0.94901961 0.35686275
0.3254902 0.26911765 0.23382353
0.32941176 0.27058824 0.23382353
0.33823529 0.27340686 0.23419118
0.34509804 0.2745098 0.23743873
0.35294118 0.2745098 0.2377451
0.36109069 0.27058824 0.23529412
0.36764706 0.26948529 0.23419118
0.38241422 0.26519608 0.23382353
0.40784314 0.2627451 0.23137255
0.43872549 0.25882353 0.23137255
0.46960784 0.25821078 0.23137255
0.49834559 0.25275735 0.23137255
0.52745098 0.24901961 0.22990196
0.5653799 0.24528186 0.22990196
0.60784314 0.23958333 0.22745098
0.65294118 0.23382353 0.22745098
0.69411765 0.22352941 0.22745098
0.73529412 0.21323529 0.22598039
0.77254902 0.20012255 0.22352941
0.81372549 0.18872549 0.22352941
0.85220588 0.17720588 0.22352941
0.89215686 0.16421569 0.22175245
0.93002451 0.15330882 0.21960784
0.96427696 0.14509804 0.21568627
0.97941176 0.1372549 0.21421569
0.3254902 0.27303922 0.23382353
0.33094363 0.27395833 0.23382353
0.33823529 0.27489277 0.23419118
0.34724265 0.27696078 0.23529412
0.35490196 0.27650123 0.23621324
0.36127451 0.27444087 0.23529412
0.37115502 0.27120098 0.23419118
0.38748468 0.26911765 0.23382353
0.41421569 0.26574755 0.23137255
0.44207261 0.26423866 0.23137255
0.47107843 0.26251532 0.23114277
0.50147825 0.25813419 0.22997089
0.53428309 0.25566789 0.22990196
0.57303922 0.24980086 0.22825521
0.61490502 0.24375 0.22745098
0.65839461 0.23740043 0.22745098
0.69803922 0.22745098 0.22745098
0.73864124 0.21773131 0.22710631
0.77947304 0.20931373 0.22352941
0.82016697 0.19901961 0.22212776
0.85885417 0.18526348 0.22205882
0.89841452 0.17028186 0.22041207
0.93639706 0.15885417 0.21960784
0.96427696 0.15539216 0.21568627
0.97457108 0.15392157 0.21421569
0.32941176 0.28333333 0.23382353
0.33186275 0.28235294 0.23382353
0.33823529 0.28235294 0.23446691
0.34852941 0.27977941 0.23529412
0.35490196 0.27941176 0.23529412
0.36470588 0.27843137 0.23529412
0.3745098 0.2754902 0.23446691
0.39546569 0.27487745 0.23321078
0.42058824 0.27267157 0.23137255
0.44731924 0.27156863 0.23114277
0.47371324 0.26847426 0.22990196
0.50695466 0.26764706 0.22990196
0.54362745 0.26372549 0.22745098
0.58333333 0.25949755 0.22745098
0.6245098 0.25294118 0.22745098
0.66568627 0.24411765 0.22745098
0.70686275 0.23566176 0.22745098
0.74590993 0.22703738 0.22601103
0.78777574 0.21960784 0.22288603
