site/assets/luts/sha256-4487e5dfba0b4b4521ffecc4ae5922e25e8f82fd200948e58b96f6d1dde63b56.cube
# LUTr-Schema-Version: 2
# LUTr-ID: sha256-4487e5dfba0b4b4521ffecc4ae5922e25e8f82fd200948e58b96f6d1dde63b56
# LUTr-Title: polaroid px-100uv+ cold
# LUTr-Collection: Natron HaldCLUT
# LUTr-Collection-ID: natron-haldclut-presets
# LUTr-Source: https://github.com/NatronGitHub/clut
# LUTr-Retrieved: 2026-07-27
# LUTr-Source-File: submissions/natron-haldclut-presets/instant_consumer/polaroid_px-100uv+_cold.png
# LUTr-Source-Format: HALD-PNG
# LUTr-Source-SHA256: 4487e5dfba0b4b4521ffecc4ae5922e25e8f82fd200948e58b96f6d1dde63b56
# LUTr-License: CC-BY-SA-4.0
# LUTr-License-URL: https://github.com/NatronGitHub/clut#license
# LUTr-License-Basis: repo-license-file
# LUTr-Transform-Class: film-emulation
# LUTr-Tags: creative, film, film-emulation, hald-clut, natron, png, cool, cube
# LUTr-Input-Color-Space: srgb
# LUTr-Input-Gamut: rec709
# LUTr-Input-Transfer: srgb
# LUTr-Output-Color-Space: srgb
# LUTr-Output-Gamut: rec709
# LUTr-Output-Transfer: srgb
# LUTr-Color-Space-Confidence: assumed-display-referred
# LUTr-Domain-Normalized: true
# LUTr-Shaper: none
# LUTr-Original-Grid: 64x64x64
# LUTr-Conversion-Grid: 25x25x25
# LUTr-Conversion-Interpolation: trilinear
# LUTr-Conversion-Method: HALD-PNG LUT image decoded at 16-bit and sampled to 25x25x25 3D CUBE
# LUTr-Conversion-Tool: LUTr scripts/convert-all-to-cube.mjs 2.0.0
# LUTr-Conversion-Date: 2026-07-27
# LUTr-Note: Preserve this metadata and the upstream license notices when redistributing.
TITLE "polaroid px-100uv+ cold"
LUT_3D_SIZE 5
DOMAIN_MIN 0 0 0
DOMAIN_MAX 1 1 1
0.2 0.27058824 0.27843137
0.21372549 0.28431373 0.29215686
0.30980392 0.36666667 0.3745098
0.46078431 0.49705882 0.48823529
0.61176471 0.63137255 0.60392157
0.23039216 0.30098039 0.30882353
0.25686275 0.31960784 0.33137255
0.33676471 0.3872549 0.39509804
0.47254902 0.5 0.5
0.57745098 0.6 0.58039216
0.37254902 0.41568627 0.41960784
0.38039216 0.42303922 0.42745098
0.42352941 0.45784314 0.4627451
0.50980392 0.53333333 0.52696078
0.63921569 0.65490196 0.62745098
0.53235294 0.55196078 0.54313725
0.53210784 0.55490196 0.54313725
0.55 0.57254902 0.55882353
0.61642157 0.63431373 0.60980392
0.70784314 0.72254902 0.67941176
0.75294118 0.76862745 0.71372549
0.72058824 0.73333333 0.68921569
0.73137255 0.74313725 0.69607843
0.78039216 0.79215686 0.73431373
0.81568627 0.81960784 0.76078431
0.25784314 0.32352941 0.33137255
0.2745098 0.33529412 0.34289216
0.37941176 0.4245098 0.42647059
0.50686275 0.53823529 0.5254902
0.63431373 0.65392157 0.62254902
0.2872549 0.34681373 0.35392157
0.3245098 0.37426471 0.38155637
0.40698529 0.4439951 0.44705882
0.52028186 0.54215686 0.53651961
0.6372549 0.65686275 0.6254902
0.41862745 0.45392157 0.45637255
0.4254902 0.45980392 0.45980392
0.46936275 0.49705882 0.49705882
0.55110294 0.57156863 0.55980392
0.66127451 0.67745098 0.64264706
0.56666667 0.58921569 0.57058824
0.56666667 0.59019608 0.57132353
0.58039216 0.60147059 0.58137255
0.63333333 0.65220588 0.62193627
0.67941176 0.69509804 0.65588235
0.74509804 0.75980392 0.70882353
0.75661765 0.77083333 0.71740196
0.75245098 0.76568627 0.71519608
0.78529412 0.79681373 0.74044118
0.83627451 0.84019608 0.78039216
0.4254902 0.45882353 0.45882353
0.44411765 0.47598039 0.4745098
0.48431373 0.51176471 0.50588235
0.56470588 0.58578431 0.57009804
0.69019608 0.70784314 0.66862745
0.44656863 0.47990196 0.47598039
0.46482843 0.49387255 0.48995098
0.50294118 0.52671569 0.52009804
0.58823529 0.60735294 0.5872549
0.69607843 0.71323529 0.67254902
0.48627451 0.51470588 0.50882353
0.51348039 0.5370098 0.52916667
0.55539216 0.575 0.5622549
0.61960784 0.63921569 0.6127451
0.71176471 0.72843137 0.68431373
0.62843137 0.64754902 0.61911765
0.63884804 0.65526961 0.62536765
0.65416667 0.67058824 0.63921569
0.69019608 0.70588235 0.66470588
0.75784314 0.77107843 0.71862745
0.79019608 0.80196078 0.74313725
0.77843137 0.78823529 0.73333333
0.78431373 0.79411765 0.73921569
0.80833333 0.81960784 0.75686275
0.82352941 0.83137255 0.76862745
0.62254902 0.64215686 0.61372549
0.63039216 0.65 0.61862745
0.65784314 0.67303922 0.64166667
0.68235294 0.69632353 0.66176471
0.76960784 0.78137255 0.72647059
0.63039216 0.64926471 0.62083333
0.64215686 0.65784314 0.62867647
0.66911765 0.68247549 0.64938725
0.69552696 0.71176471 0.66936275
0.7627451 0.77671569 0.72254902
0.64019608 0.65539216 0.62941176
0.65220588 0.67058824 0.63676471
0.68578431 0.70122549 0.66372549
0.71740196 0.73198529 0.68786765
0.77941176 0.79019608 0.73578431
0.68529412 0.70196078 0.66176471
0.71053922 0.7245098 0.68137255
0.72156863 0.7377451 0.69166667
0.76427696 0.77585784 0.72279412
0.82058824 0.8254902 0.76666667
0.81568627 0.82352941 0.76470588
0.82426471 0.83137255 0.76960784
0.82745098 0.83480392 0.77205882
0.83235294 0.83921569 0.77647059
0.83529412 0.84019608 0.77647059
0.81568627 0.82352941 0.76470588
0.81960784 0.82745098 0.76862745
0.83137255 0.83921569 0.77647059
0.83529412 0.84019608 0.78039216
0.85098039 0.85490196 0.79215686
0.80784314 0.81568627 0.75686275
0.81789216 0.82328431 0.76446078
0.8377451 0.84313725 0.78039216
0.84705882 0.85098039 0.7875
0.85882353 0.8627451 0.79607843
0.8254902 0.83137255 0.76862745
0.83137255 0.83529412 0.77254902
0.83137255 0.8372549 0.77647059
0.85343137 0.85539216 0.79215686
0.85490196 0.85490196 0.79215686
0.84313725 0.84705882 0.78431373
0.84313725 0.84705882 0.78504902
0.83578431 0.84166667 0.77843137
0.85490196 0.85882353 0.79215686
0.83921569 0.84019608 0.78039216
0.85490196 0.85490196 0.79215686
0.85882353 0.8627451 0.79901961
0.85882353 0.8627451 0.79607843
0.86666667 0.86666667 0.8
0.85882353 0.85882353 0.79215686
