site/assets/luts/sha256-478115888b88129e1e2a88b130291185e4fcf5798eedfa0c80f72c50c033d634.cube
# LUTr-Schema-Version: 2
# LUTr-ID: sha256-478115888b88129e1e2a88b130291185e4fcf5798eedfa0c80f72c50c033d634
# LUTr-Title: deuteranope correct lut
# LUTr-Collection: Colour-Blind LUTs
# LUTr-Collection-ID: andrewwillmott-colour-blind-luts
# LUTr-Source: https://github.com/andrewwillmott/colour-blind-luts
# LUTr-Retrieved: 2026-07-27
# LUTr-Source-File: submissions/andrewwillmott-colour-blind-luts/luts/deuteranope_correct_lut.png
# LUTr-Source-Format: HALD-PNG
# LUTr-Source-SHA256: 478115888b88129e1e2a88b130291185e4fcf5798eedfa0c80f72c50c033d634
# LUTr-License: Unlicense
# LUTr-License-URL: https://github.com/andrewwillmott/colour-blind-luts/blob/master/LICENSE
# LUTr-License-Basis: repo-license-file
# LUTr-Transform-Class: accessibility
# LUTr-Tags: technical, accessibility, color-vision, simulation, correction, png, deuteranopia, cube
# LUTr-Input-Color-Space: srgb
# LUTr-Input-Gamut: rec709
# LUTr-Input-Transfer: srgb
# LUTr-Output-Color-Space: srgb
# LUTr-Output-Gamut: rec709
# LUTr-Output-Transfer: srgb
# LUTr-Color-Space-Confidence: assumed-display-referred
# LUTr-Domain-Normalized: true
# LUTr-Shaper: none
# LUTr-Original-Grid: 32x32x32
# LUTr-Conversion-Grid: 32x32x32
# LUTr-Conversion-Interpolation: none
# LUTr-Conversion-Method: HALD-PNG LUT image decoded at 16-bit and sampled to 32x32x32 3D CUBE
# LUTr-Conversion-Tool: LUTr scripts/convert-all-to-cube.mjs 2.0.0
# LUTr-Conversion-Date: 2026-07-27
# LUTr-Note: Preserve this metadata and the upstream license notices when redistributing.
TITLE "deuteranope correct lut"
LUT_3D_SIZE 8
DOMAIN_MIN 0.000000 0.000000 0.000000
DOMAIN_MAX 0.903226 0.903226 0.903226
0.011657893 0.015640497 0.011657893
0.16023499 0 0.14047456
0.30870527 0.000015259022 0.26941329
0.45331502 0 0.39432364
0.59784848 0 0.52315557
0.74639506 0 0.6480354
0.89102007 0 0.77688258
0.99650568 0 0.90180819
0 0.15237659 0.000015259022
0.14059663 0.1406424 0.015548943
0.29691005 0.08986038 0.23422599
0.44545663 0 0.37474632
0.59398795 0 0.50749981
0.74244297 0 0.63631647
0.88700694 0 0.76508736
0.99645991 0 0.89399557
0 0.28519112 0.00016784924
0 0.28130007 0.00012207218
0.26544594 0.26567483 0.01559472
0.42586404 0.23050278 0.30463111
0.58217746 0.16015869 0.46071565
0.730663 0 0.605066
0.87920958 0 0.74175631
0.99650568 0 0.87455558
0 0.42191196 0.0001373312
0 0.41803616 0.00019836728
0.18730449 0.41019303 0.000076295109
0.38658732 0.39067674 0.011734188
0.55463493 0.35550469 0.36308843
0.71096361 0.3085832 0.53887236
0.86343175 0.23044175 0.69098955
0.99647517 0 0.83147936
0 0.55872435 0.00028992142
0 0.554757 0.00016784924
0 0.5469749 0.00030518044
0.32011902 0.53528649 0.000076295109
0.51541924 0.51572442 0.015640497
0.67971313 0.48444343 0.41791409
0.83993286 0.44141299 0.60521859
0.99626154 0.38673991 0.76531624
0 0.69541466 0.00038147555
0 0.69156939 0.00032043946
0 0.68758679 0.00032043946
0.19110399 0.67592889 0.00022888533
0.45287251 0.6602884 0.00012207218
0.64034485 0.6368658 0.015625238
0.80849928 0.60941482 0.46468299
0.96874952 0.57430381 0.66781109
0 0.82825971 0.00041199359
0 0.82825971 0.00041199359
0 0.82436866 0.0003509575
0 0.81651026 0.00041199359
0.3550927 0.80488289 0.00024414435
0.57773709 0.78535134 0.000030518044
0.76142519 0.76578927 0.011688411
0.93347066 0.73450828 0.50774395
0 0.96498054 0.00038147555
0 0.96498054 0.00038147555
0 0.96112001 0.00044251164
0 0.95327687 0.00038147555
0.15197986 0.94547951 0.00038147555
0.49564355 0.92991531 0.00016784924
0.70663005 0.91038376 0.000061036088
0.88628977 0.89083696 0.011612116
0.011825742 0.015609979 0.13675135
0.16021973 0 0.19136339
0.30864424 0 0.29672694
0.4532845 0 0.41376364
0.59792477 0 0.53485924
0.7463798 0 0.65984588
0.89089799 0 0.78474098
0.99649042 0 0.90955978
0 0.15237659 0.000015259022
0.14065766 0.14065766 0.14065766
0.29695583 0.089829862 0.26547646
0.44542611 0 0.39430838
0.59397269 0 0.51918822
0.74245823 0 0.64805066
0.88699168 0 0.77689784
0.99650568 0 0.90180819
0 0.28519112 0.00016784924
0 0.28130007 0.00012207218
0.26559854 0.26565957 0.14056611
0.42575723 0.23048753 0.32806897
0.58219272 0.16012818 0.47641718
0.73075456 0 0.61676967
0.87925536 0 0.74958419
0.99644465 0 0.87843137
0 0.42191196 0.0001373312
0 0.41803616 0.00019836728
0.18730449 0.41019303 0.000076295109
0.39046311 0.390692 0.14061189
0.55477226 0.35550469 0.38272679
0.71105516 0.30856794 0.55056077
0.86347753 0.23044175 0.6989395
0.99652094 0 0.83942931
0 0.55872435 0.00028992142
0 0.554757 0.00016784924
0 0.5469749 0.00030518044
0.32011902 0.53528649 0.000076295109
0.51548028 0.51575494 0.14061189
0.67963684 0.4844892 0.43347829
0.8399176 0.44141299 0.61702907
0.99624628 0.38678569 0.77700465
0 0.69541466 0.00038147555
0 0.69156939 0.00032043946
0 0.68758679 0.00032043946
0.19110399 0.67592889 0.00022888533
0.45287251 0.6602884 0.00012207218
0.64040589 0.64078737 0.13678187
0.80860609 0.60947585 0.48032349
0.96873426 0.57425803 0.67556268
0 0.82825971 0.00041199359
0 0.82825971 0.00041199359
0 0.82436866 0.0003509575
0 0.81651026 0.00041199359
0.3550927 0.80488289 0.00024414435
0.57773709 0.78535134 0.000030518044
0.76142519 0.76580453 0.14065766
0.93354696 0.73449302 0.51943236
0 0.96498054 0.00038147555
0 0.96498054 0.00038147555
0 0.96112001 0.00044251164
0 0.95327687 0.00038147555
0.15197986 0.94547951 0.00038147555
0.49564355 0.92991531 0.00016784924
0.70663005 0.91038376 0.000061036088
0.88638132 0.89080644 0.14058137
0.011749447 0.015579461 0.2655375
0.16031128 0 0.29295796
0.30875105 0 0.36317998
0.45333028 0 0.46077668
0.59786374 0 0.5738613
0.74639506 0 0.68711376
0.89097429 0 0.80813306
0.99652094 0 0.92919814
0.000076295109 0.1523003 0.23057908
0.1406424 0.14061189 0.26555276
0.29698634 0.089784085 0.34355688
0.4455024 0 0.44507515
0.59397269 0 0.55826658
0.74248875 0 0.67937743
0.88706798 0 0.80028992
0.99647517 0 0.92138552
0 0.28519112 0.00016784924
0 0.28126955 0.13296712
0.26559854 0.26559854 0.26559854
0.42584878 0.23042649 0.39046311
0.58222324 0.16012818 0.51935607
0.73069352 0 0.64802014
0.87925536 0 0.77302205
0.99650568 0 0.90180819
0 0.42191196 0.0001373312
0 0.41803616 0.00019836728
0.18730449 0.41019303 0.000076295109
0.3906157 0.39067674 0.26558328
0.55471122 0.35544366 0.43743038
0.71110094 0.30859846 0.58576333
0.86349279 0.23047227 0.72619211
0.99641413 0 0.8627451
0 0.55872435 0.00028992142
0 0.554757 0.00016784924
0 0.5469749 0.00030518044
0.32011902 0.53528649 0.000076295109
0.51548028 0.51570916 0.26562905
0.67971313 0.48441291 0.48041505
0.83996338 0.44139773 0.64817273
0.99624628 0.38670939 0.80044251
0 0.69541466 0.00038147555
0 0.69156939 0.00032043946
0 0.68758679 0.00032043946
0.19110399 0.67592889 0.00022888533
0.45287251 0.6602884 0.00012207218
0.64039063 0.63683528 0.26561379
0.80846876 0.60943008 0.52332341
0.96878004 0.57422751 0.70681315
0 0.82825971 0.00041199359
0 0.82825971 0.00041199359
0 0.82436866 0.0003509575
0 0.81651026 0.00041199359
0.3550927 0.80488289 0.00024414435
0.57773709 0.78535134 0.000030518044
0.76148623 0.76577401 0.26169223
0.93347066 0.7344625 0.55843442
0 0.96498054 0.00038147555
0 0.96498054 0.00038147555
0 0.96112001 0.00044251164
0 0.95327687 0.00038147555
0.15197986 0.94547951 0.00038147555
0.49564355 0.92991531 0.00016784924
0.70663005 0.91038376 0.000061036088
0.88644236 0.89077592 0.26161593
0.015777829 0.015533684 0.39053941
0.16031128 0 0.40616464
0.30879683 0 0.46077668
0.45334554 0 0.5388571
0.59790951 0 0.63250172
0.74641032 0 0.7379263
0.89106584 0 0.84721141
0.99650568 0 0.96432441
0.000045777066 0.15226978 0.36729992
0.14070344 0.14062715 0.39064622
0.29703212 0.089799344 0.44127565
0.44551766 0 0.52315557
0.59395743 0 0.62076753
0.74248875 0 0.73008316
0.88715953 0 0.83947509
0.9965362 0 0.95657282
0 0.28511482 0.2970016
0.000015259022 0.28123903 0.32431525
0.26572061 0.26170748 0.39063096
0.42586404 0.23039597 0.48035401
0.5821622 0.16009766 0.58574807
0.73078508 0 0.69890898
0.87928588 0 0.81596094
0.99650568 0 0.93694972
0 0.42191196 0.0001373312
0 0.41799039 0.11735714
0.18739605 0.41020829 0.25789273
0.38675517 0.39064622 0.39058518
0.55480278 0.35547417 0.51557183
0.71107042 0.30861372 0.64440375
0.86355383 0.23039597 0.77314412
0.99650568 0 0.90180819
0 0.55872435 0.00028992142
0 0.554757 0.00016784924
0 0.5469749 0.00030518044
0.32011902 0.53524071 0.15248341
0.51554131 0.51573968 0.39060044
0.67969787 0.48441291 0.55461967
0.83994812 0.44145876 0.69906157
0.99633783 0.38669413 0.83952087
0 0.69541466 0.00038147555
0 0.69156939 0.00032043946
0 0.68758679 0.00032043946
0.19110399 0.67592889 0.00022888533
0.45287251 0.6602884 0.00012207218
0.64049744 0.64071107 0.39064622
0.80857557 0.60941482 0.58977646
0.96882582 0.57428855 0.75370413
0 0.82825971 0.00041199359
0 0.82825971 0.00041199359
0 0.82436866 0.0003509575
0 0.81651026 0.00041199359
0.3550927 0.80488289 0.00024414435
0.57773709 0.78535134 0.000030518044
0.76157778 0.76572824 0.39066148
0.93347066 0.73443198 0.62095064
0 0.96498054 0.00038147555
0 0.96498054 0.00038147555
0 0.96112001 0.00044251164
0 0.95327687 0.00038147555
0.15197986 0.94547951 0.00038147555
0.49564355 0.92991531 0.00016784924
0.70663005 0.91038376 0.000061036088
0.88644236 0.89079118 0.39058518
0.011902037 0.015503166 0.51552605
0.16043336 0 0.52726024
0.30882734 0 0.56623178
0.45334554 0 0.62862593
0.59800107 0 0.71064317
0.74650187 0 0.80437934
0.89095903 0 0.90577554
0.99645991 0 0.99559014
0.000091554131 0.15226978 0.50002289
0.13693446 0.14055085 0.51564813
0.29710842 0.089784085 0.55454337
0.44556344 0 0.61692226
0.59398795 0 0.69884794
0.74259556 0 0.7965362
0.88711376 0 0.89799344
0.99645991 0 0.99559014
0.000045777066 0.28511482 0.45322347
0.000045777066 0.28123903 0.46884871
0.26572061 0.26167697 0.51554131
0.42584878 0.23041123 0.58193332
0.5822385 0.16009766 0.67164111
0.73075456 0 0.76917678
0.8792401 0 0.87460136
0.99658198 0 0.98783856
0 0.42185092 0.35172045
0 0.41800565 0.37517357
0.18753338 0.41016251 0.42980087
0.38680095 0.39058518 0.51174182
0.55478752 0.35544366 0.61309224
0.71108568 0.3085832 0.72248417
0.86355383 0.23036545 0.83564508
0.99652094 0 0.952636
0 0.55872435 0.00028992142
0 0.554757 0.094010834
0 0.5468986 0.25029374
0.32021057 0.53524071 0.3829099
0.51165026 0.51563287 0.51165026
0.67969787 0.48441291 0.64440375
0.8399176 0.44138247 0.76931411
0.99630732 0.38670939 0.89814603
0 0.69541466 0.00038147555
0 0.69156939 0.00032043946
0 0.68758679 0.00032043946
0.19110399 0.67592889 0.00022888533
0.45300984 0.66022736 0.32431525
0.64054322 0.63675898 0.51561761
0.80859083 0.60946059 0.6717937
0.96882582 0.57425803 0.81622034
0 0.82825971 0.00041199359
0 0.82825971 0.00041199359
0 0.82436866 0.0003509575
0 0.81651026 0.00041199359
0.3550927 0.80488289 0.00024414435
0.5778439 0.78532082 0.24615854
0.76163882 0.76177615 0.51563287
0.93356222 0.7344625 0.69910735
0 0.96498054 0.00038147555
0 0.96498054 0.00038147555
0 0.96112001 0.00044251164
0 0.95327687 0.00038147555
0.15197986 0.94547951 0.00038147555
0.49564355 0.92991531 0.00016784924
0.70666056 0.91030747 0.093827726
0.89045548 0.89073014 0.51558709
0.012024109 0.011596857 0.64069581
0.16038758 0 0.64841688
0.30882734 0 0.67945373
0.45343709 0 0.73020523
0.59801633 0 0.80053407
0.74653239 0 0.88245975
0.89100481 0 0.97610437
0.99645991 0 0.99559014
0.00018310826 0.15223926 0.62899214
0.1369192 0.14052033 0.64054322
0.29712367 0.089768826 0.67182422
0.44567025 0 0.72245365
0.59409476 0 0.79269093
0.74261082 0 0.87461662
0.88708324 0 0.96826123
0.99645991 0 0.99559014
0.0001373312 0.28513008 0.59388113
0.00010681315 0.28116274 0.60556954
0.26195163 0.26556802 0.64066529
0.42592508 0.23041123 0.6952163
0.58226902 0.16003662 0.7654078
0.73087663 0 0.85119402
0.8793164 0 0.94880598
0.99645991 0 0.99559014
0.000061036088 0.4218204 0.52364385
0.000045777066 0.41792935 0.53926909
0.18759442 0.41013199 0.57821012
0.38680095 0.39063096 0.64057374
0.55481804 0.35539788 0.71854734
0.71114672 0.3085832 0.8083772
0.86353857 0.23038071 0.9098497
0.99645991 0 0.99559014
0 0.55861753 0.39870298
0 0.55469596 0.41820401
0 0.54686809 0.46903182
0.32030213 0.53516442 0.54700542
0.51175708 0.51560235 0.64061952
0.67985046 0.48438239 0.74210727
0.83997864 0.44138247 0.8552224
0.99633783 0.38672465 0.96849012
0 0.69541466 0.00038147555
0 0.69152361 0.027710384
0 0.6876173 0.23857481
0.19124132 0.67582208 0.37512779
0.45305562 0.66015106 0.50786603
0.64065003 0.64065003 0.64065003
0.80868238 0.60935378 0.76943618
0.96884108 0.57422751 0.89430076
0 0.82825971 0.00041199359
0 0.82825971 0.00041199359
0 0.82436866 0.0003509575
0 0.81651026 0.00041199359
0.35523003 0.80483711 0.23454643
0.57795071 0.78527504 0.46489662
0.76169986 0.76571298 0.6367895
0.933608 0.73440146 0.79287404
0 0.96498054 0.00038147555
0 0.96498054 0.00038147555
0 0.96112001 0.00044251164
0 0.95327687 0.00038147555
0.15197986 0.94547951 0.00038147555
0.49564355 0.92991531 0.00016784924
0.70679789 0.91024643 0.41803616
0.88665599 0.89071489 0.63669795
0.012024109 0.015472648 0.76165408
0.16047913 0 0.77331197
0.3088426 0 0.79671931
0.45340658 0 0.83955138
0.59798581 0 0.89805447
0.74653239 0 0.97224384
0.89103532 0 0.99562066
0.99645991 0 0.99559014
0.00024414435 0.15226978 0.75396353
0.13698024 0.14053559 0.76563668
0.29713893 0.089768826 0.78898299
0.44562448 0 0.8317998
0.59418631 0 0.8942855
0.74262608 0 0.96450752
0.8870985 0 0.99563592
0.99645991 0 0.99559014
0.00016784924 0.28509957 0.72672618
0.00015259022 0.28114748 0.73841459
0.2657969 0.26550698 0.76559091
0.42600137 0.23041123 0.80849928
0.58237583 0.16006714 0.87093919
0.73083085 0 0.94496071
0.87930114 0 0.99563592
0.99645991 0 0.99559014
0.000061036088 0.42178988 0.67592889
0.00010681315 0.41789883 0.68767834
0.18757916 0.41010147 0.71493095
0.38684672 0.39055467 0.76173037
0.55486381 0.35544366 0.82795453
0.71123827 0.30853742 0.90997177
0.8635996 0.23038071 0.99575799
0.99645991 0 0.99559014
0.000030518044 0.55857176 0.59006638
0.000015259022 0.55461967 0.60175479
0.000030518044 0.54680705 0.63701839
0.3204242 0.5351339 0.69153887
0.51180285 0.51557183 0.76165408
0.67981994 0.48435187 0.85145342
0.8399939 0.44135195 0.9451133
0.9962768 0.38664836 0.99578851
0 0.69535363 0.44174868
0 0.69143206 0.45737392
0 0.68755627 0.5042649
0.19139391 0.67579156 0.57442588
0.45307088 0.66019684 0.66408789
0.64060426 0.63674372 0.76560616
0.80866712 0.6093843 0.87090867
0.96894789 0.57415122 0.98419165
0 0.82825971 0.00041199359
0 0.82825971 0.00041199359
0 0.82436866 0.21922637
0 0.81643397 0.36757458
0.35530632 0.80477607 0.50023651
0.57798123 0.78521401 0.63288319
0.7616846 0.7656672 0.7616846
0.93359274 0.73441672 0.89445335
0 0.96498054 0.00038147555
0 0.96498054 0.00038147555
0 0.96112001 0.00044251164
0 0.95327687 0.00038147555
0.15197986 0.94547951 0.00038147555
0.49585718 0.92982376 0.41039139
0.70691997 0.91024643 0.60164797
0.88664073 0.89066911 0.7616083
0.012085145 0.011581598 0.89068437
0.16050965 0 0.89440757
0.30896468 0 0.91783017
0.45348287 0 0.95283436
0.59804685 0 0.99577325
0.74650187 0 0.99574273
0.89103532 0 0.99562066
0.99645991 0 0.99559014
0.00027466239 0.15217823 0.88285649
0.13704128 0.14048981 0.88667124
0.29719997 0.089738308 0.91000229
0.44574655 0 0.94894331
0.59417105 0 0.99586481
0.74256504 0 0.99577325
0.8870985 0 0.99563592
0.99645991 0 0.99559014
0.00021362631 0.28506905 0.85957122
0.00025940337 0.28113222 0.86726177
0.26198215 0.26547646 0.88671702
0.42612345 0.23036545 0.92565805
0.58234531 0.16003662 0.98028534
0.73090715 0 0.99572747
0.87930114 0 0.99563592
0.99645991 0 0.99559014
0.00015259022 0.42178988 0.81658656
0.000091554131 0.41788357 0.82439918
0.18760967 0.41008621 0.847776
0.39081407 0.39050889 0.89060807
0.55497063 0.35538262 0.94523537
0.71113146 0.3085069 0.99578851
0.8635996 0.23038071 0.99575799
0.99645991 0 0.99559014
0.000076295109 0.5585565 0.75028611
0.000030518044 0.55465019 0.75809873
0.000091554131 0.54676127 0.78542763
0.32040894 0.53510338 0.82825971
0.51180285 0.51558709 0.89062333
0.67988098 0.48427558 0.96078431
0.84007019 0.44138247 0.99588006
0.9962768 0.38664836 0.99578851
0 0.69529259 0.64878309
0 0.69137102 0.65661097
0 0.68749523 0.68780041
0.19137865 0.67576104 0.73853666
0.45319295 0.66016632 0.80862135
0.63675898 0.640589 0.89054704
0.80880446 0.6093843 0.98031586
0.96893263 0.57419699 0.99589532
0 0.82819867 0.4808423
0 0.82813764 0.49259174
0 0.82424659 0.53548486
0 0.81644923 0.60187686
0.35545892 0.8047303 0.68772412
0.57814908 0.78521401 0.78522927
0.76179141 0.76563668 0.89065385
0.93368429 0.73440146 0.99592584
0 0.96498054 0.00038147555
0 0.96498054 0.00038147555
0 0.96105898 0.19580377
0 0.95324636 0.35591669
0.15213245 0.94535744 0.49256123
0.49594873 0.92979324 0.62912947
0.70685893 0.91021592 0.75779355
0.88664073 0.89069963 0.89057755
