site/assets/luts/sha256-570e3a7f574d669129b97a27b7c76ac9bfc38c0ffb543437824514076f75e2eb.cube
# LUTr-Schema-Version: 2
# LUTr-ID: sha256-570e3a7f574d669129b97a27b7c76ac9bfc38c0ffb543437824514076f75e2eb
# LUTr-Title: summer
# LUTr-Collection: Natron HaldCLUT
# LUTr-Collection-ID: natron-haldclut-presets
# LUTr-Source: https://github.com/NatronGitHub/clut
# LUTr-Retrieved: 2026-07-27
# LUTr-Source-File: submissions/natron-haldclut-presets/various/summer.png
# LUTr-Source-Format: HALD-PNG
# LUTr-Source-SHA256: 570e3a7f574d669129b97a27b7c76ac9bfc38c0ffb543437824514076f75e2eb
# LUTr-License: CC-BY-SA-4.0
# LUTr-License-URL: https://github.com/NatronGitHub/clut#license
# LUTr-License-Basis: repo-license-file
# LUTr-Transform-Class: film-emulation
# LUTr-Tags: creative, film, film-emulation, hald-clut, natron, png, cube
# LUTr-Input-Color-Space: srgb
# LUTr-Input-Gamut: rec709
# LUTr-Input-Transfer: srgb
# LUTr-Output-Color-Space: srgb
# LUTr-Output-Gamut: rec709
# LUTr-Output-Transfer: srgb
# LUTr-Color-Space-Confidence: assumed-display-referred
# LUTr-Domain-Normalized: true
# LUTr-Shaper: none
# LUTr-Original-Grid: 64x64x64
# LUTr-Conversion-Grid: 25x25x25
# LUTr-Conversion-Interpolation: trilinear
# LUTr-Conversion-Method: HALD-PNG LUT image decoded at 16-bit and sampled to 25x25x25 3D CUBE
# LUTr-Conversion-Tool: LUTr scripts/convert-all-to-cube.mjs 2.0.0
# LUTr-Conversion-Date: 2026-07-27
# LUTr-Note: Preserve this metadata and the upstream license notices when redistributing.
TITLE "summer"
LUT_3D_SIZE 25
DOMAIN_MIN 0 0 0
DOMAIN_MAX 1 1 1
0.24705882 0.0039215686 0.24313725
0.28039216 0.014215686 0.25735294
0.3127451 0.015686275 0.27156863
0.34362745 0.012254902 0.27794118
0.3745098 0.017647059 0.27843137
0.40539216 0.02745098 0.2745098
0.43627451 0.02745098 0.26764706
0.46715686 0.018137255 0.25588235
0.49411765 0.0039215686 0.24313725
0.525 0.014215686 0.2495098
0.55980392 0.019607843 0.25196078
0.58676471 0.023529412 0.25490196
0.61764706 0.023529412 0.25490196
0.64852941 0.023039216 0.25490196
0.6754902 0.016666667 0.25490196
0.71029412 0.010294118 0.25098039
0.74117647 0 0.24705882
0.77205882 0.010294118 0.25735294
0.80294118 0.016666667 0.26666667
0.83382353 0.019607843 0.27401961
0.86470588 0.021568627 0.28039216
0.89558824 0.020098039 0.28578431
0.92647059 0.016666667 0.27254902
0.95882353 0.010294118 0.25735294
0.98039216 0.0039215686 0.25098039
0.25735294 0.045098039 0.26127451
0.28039216 0.046017157 0.26764706
0.3127451 0.049019608 0.27794118
0.34148284 0.049019608 0.28609069
0.3745098 0.049019608 0.28357843
0.40539216 0.050980392 0.27794118
0.43627451 0.050490196 0.26764706
0.46715686 0.044178922 0.25735294
0.49803922 0.042647059 0.25098039
0.52892157 0.045098039 0.25098039
0.55980392 0.046568627 0.25490196
0.58707108 0.050306373 0.25735294
0.61764706 0.050490196 0.25882353
0.64852941 0.048713235 0.25882353
0.67610294 0.045465686 0.25772059
0.70784314 0.041176471 0.25490196
0.74117647 0.041176471 0.25490196
0.77205882 0.042095588 0.25827206
0.80294118 0.047181373 0.26666667
0.83382353 0.050306373 0.27401961
0.86470588 0.050490196 0.28039216
0.89558824 0.049203431 0.28204657
0.92647059 0.045465686 0.27156863
0.95251225 0.041176471 0.26464461
0.96372549 0.045098039 0.26519608
0.2627451 0.082352941 0.27941176
0.28333333 0.084191176 0.28002451
0.3127451 0.085539216 0.28627451
0.34105392 0.089215686 0.29019608
0.37303922 0.089215686 0.28823529
0.40539216 0.085294118 0.28186275
0.43627451 0.082352941 0.27156863
0.46715686 0.082352941 0.26335784
0.49803922 0.082352941 0.25588235
0.52892157 0.082352941 0.25588235
0.55980392 0.085539216 0.25882353
0.58811275 0.08627451 0.25882353
0.61764706 0.08627451 0.25980392
0.64852941 0.086151961 0.25980392
0.67941176 0.082352941 0.25882353
0.70845588 0.082352941 0.25919118
0.74117647 0.082352941 0.25980392
0.77205882 0.082352941 0.2627451
0.80294118 0.085539216 0.26666667
0.83737745 0.08627451 0.27401961
0.86862745 0.08627451 0.27843137
0.89558824 0.08627451 0.27843137
0.91862745 0.08627451 0.27622549
0.93529412 0.08627451 0.27977941
0.94705882 0.08627451 0.28431373
0.25882353 0.12352941 0.28970588
0.28186275 0.12352941 0.29234069
0.3127451 0.12352941 0.29276961
0.3466299 0.12009804 0.29019608
0.37622549 0.12009804 0.28651961
0.40539216 0.12009804 0.28186275
0.43627451 0.12009804 0.27536765
0.46715686 0.1213848 0.26881127
0.49803922 0.12352941 0.2622549
0.52892157 0.12352941 0.25882353
0.55980392 0.12352941 0.25968137
0.59068627 0.12395833 0.26268382
0.61764706 0.12401961 0.2627451
0.64852941 0.12352941 0.2627451
0.67941176 0.12352941 0.2627451
0.71029412 0.12352941 0.26617647
0.74117647 0.12352941 0.26617647
0.77205882 0.12352941 0.26666667
0.8064951 0.12352941 0.27022059
0.8377451 0.12702206 0.27401961
0.86862745 0.12745098 0.275
0.89901961 0.12395833 0.27107843
0.92573529 0.12352941 0.27107843
0.94558824 0.12352941 0.27156863
0.95588235 0.12352941 0.2754902
0.26078431 0.16470588 0.28823529
0.28186275 0.16593137 0.29019608
0.31323529 0.16470588 0.29019608
0.34754902 0.16078431 0.28651961
0.37843137 0.15686275 0.28627451
0.40539216 0.15882353 0.28235294
0.43627451 0.16078431 0.27892157
0.46715686 0.16078431 0.27377451
0.49803922 0.16078431 0.26666667
0.52892157 0.16397059 0.2627451
0.55980392 0.16470588 0.2627451
0.59068627 0.16470588 0.2627451
0.61764706 0.16470588 0.26470588
0.64852941 0.16470588 0.26470588
0.67941176 0.16323529 0.26617647
0.71029412 0.16078431 0.27132353
0.74313725 0.16470588 0.27058824
0.77598039 0.16470588 0.27254902
0.80686275 0.16470588 0.2745098
0.8377451 0.16470588 0.27279412
0.86862745 0.16470588 0.27058824
0.8995098 0.16470588 0.26642157
0.93039216 0.1627451 0.26127451
0.9625 0.16078431 0.25686275
0.97647059 0.16078431 0.25882353
0.26666667 0.20980392 0.28578431
0.28333333 0.20980392 0.28627451
0.31372549 0.20882353 0.28627451
0.34405637 0.20245098 0.28578431
0.3745098 0.2002451 0.28406863
0.40539216 0.19803922 0.28235294
0.43627451 0.19803922 0.28235294
0.46715686 0.20147059 0.27714461
0.49803922 0.20196078 0.27058824
0.52892157 0.20196078 0.26666667
0.55980392 0.20281863 0.26323529
0.59068627 0.20588235 0.26623775
0.61764706 0.20588235 0.26666667
0.64852941 0.20196078 0.26666667
0.67977941 0.20196078 0.27009804
0.71421569 0.20196078 0.27843137
0.74509804 0.20588235 0.2745098
0.77628676 0.20588235 0.27843137
0.80735294 0.20588235 0.27843137
0.83823529 0.20588235 0.27542892
0.86862745 0.20367647 0.27279412
0.89957108 0.20196078 0.26709559
0.93345588 0.20196078 0.26286765
0.96648284 0.20196078 0.25539216
0.9877451 0.20196078 0.25539216
0.26666667 0.25098039 0.28235294
0.28578431 0.25098039 0.28235294
0.3127451 0.25073529 0.28235294
0.34362745 0.24705882 0.28235294
0.3745098 0.24313725 0.28235294
0.40539216 0.24178922 0.28235294
0.43627451 0.23921569 0.28014706
0.46715686 0.23921569 0.27843137
0.49803922 0.24019608 0.2745098
0.52892157 0.24313725 0.26813725
0.55588235 0.24313725 0.26666667
0.58676471 0.24313725 0.26666667
0.61764706 0.24313725 0.26666667
0.64852941 0.24313725 0.26666667
0.68308824 0.24313725 0.27352941
0.71421569 0.24313725 0.27843137
0.74509804 0.24705882 0.27843137
0.77990196 0.24705882 0.28198529
0.81078431 0.24705882 0.28235294
0.84166667 0.24705882 0.28137255
0.87254902 0.24460784 0.27794118
0.90343137 0.24313725 0.27696078
0.93431373 0.24313725 0.27279412
0.96409314 0.24313725 0.2692402
0.98137255 0.24313725 0.26568627
0.27058824 0.29362745 0.27843137
0.2872549 0.29362745 0.27843137
0.3127451 0.29215686 0.27843137
0.34362745 0.28841912 0.27843137
0.37181373 0.2870098 0.27843137
0.40147059 0.28431373 0.27843137
0.43480392 0.28247549 0.27843137
0.46568627 0.28039216 0.2778799
0.49803922 0.28039216 0.2745098
0.52591912 0.28192402 0.27058824
0.55588235 0.28431373 0.26666667
0.58676471 0.28431373 0.2653799
0.61764706 0.28431373 0.26519608
0.64852941 0.28431373 0.26666667
0.68333333 0.28431373 0.27352941
0.71421569 0.28431373 0.27843137
0.74901961 0.28431373 0.27843137
0.77990196 0.28823529 0.28719363
0.81078431 0.28823529 0.29166667
0.84166667 0.28823529 0.29166667
0.87254902 0.28823529 0.29044118
0.90343137 0.28431373 0.2877451
0.93431373 0.28431373 0.28419118
0.96127451 0.28284314 0.28082108
0.98039216 0.28039216 0.27990196
0.27058824 0.3372549 0.27843137
0.2872549 0.3372549 0.27843137
0.3127451 0.33333333 0.2745098
0.34019608 0.33333333 0.2745098
0.37058824 0.32941176 0.2745098
0.40147059 0.32941176 0.27843137
0.43235294 0.3254902 0.2754902
0.46323529 0.32401961 0.2745098
0.49411765 0.32156863 0.2745098
0.525 0.32156863 0.27058824
0.55588235 0.3254902 0.26666667
0.58676471 0.3254902 0.2627451
0.61764706 0.32745098 0.2627451
0.64852941 0.32892157 0.26323529
0.68235294 0.3254902 0.27352941
0.71421569 0.3254902 0.2745098
0.74901961 0.32941176 0.27843137
0.77990196 0.32941176 0.29019608
0.81470588 0.32941176 0.29509804
0.84558824 0.32941176 0.30147059
0.87254902 0.32941176 0.30196078
0.90343137 0.3254902 0.29803922
0.93137255 0.3254902 0.29803922
0.95980392 0.32156863 0.29411765
0.98039216 0.32156863 0.29411765
0.26813725 0.37843137 0.27058824
0.28633578 0.37843137 0.27058824
0.31176471 0.37843137 0.27058824
0.33970588 0.37481618 0.27058824
0.37058824 0.3745098 0.27205882
0.40147059 0.37273284 0.2723652
0.43235294 0.37058824 0.2745098
0.46323529 0.36819853 0.27150735
0.49411765 0.36666667 0.27058824
0.525 0.36666667 0.26721814
0.55588235 0.36666667 0.26568627
0.58676471 0.36666667 0.2627451
0.61764706 0.37058824 0.26029412
0.64852941 0.37058824 0.26060049
0.68051471 0.37058824 0.26776961
0.71421569 0.37058824 0.27205882
0.74901961 0.37058824 0.28235294
0.78235294 0.36813725 0.29264706
0.81470588 0.37058824 0.29865196
0.84558824 0.37058824 0.30410539
0.87254902 0.37058824 0.30906863
0.90343137 0.36666667 0.3096201
0.93039216 0.36666667 0.30833333
0.96035539 0.3627451 0.30441176
0.98039216 0.36519608 0.30196078
0.26568627 0.42352941 0.2627451
0.28333333 0.41997549 0.26568627
0.30882353 0.41960784 0.26568627
0.33884804 0.41960784 0.26666667
0.36666667 0.41666667 0.26666667
0.39754902 0.41568627 0.26960784
0.43063725 0.41348039 0.26960784
0.46262255 0.41176471 0.26960784
0.49411765 0.41176471 0.26666667
0.525 0.40882353 0.26605392
0.55588235 0.40784314 0.2627451
0.58676471 0.40870098 0.25919118
0.61764706 0.41176471 0.25784314
0.64852941 0.41176471 0.25796569
0.67941176 0.41176471 0.2625
0.71421569 0.41176471 0.27205882
0.74901961 0.41176471 0.28235294
0.78235294 0.40784314 0.29546569
0.81470588 0.40784314 0.30294118
0.84558824 0.40784314 0.3067402
0.8745098 0.41078431 0.3122549
0.90343137 0.40784314 0.31409314
0.93039216 0.40784314 0.30980392
0.95980392 0.40784314 0.29705882
0.97647059 0.40784314 0.29607843
0.2627451 0.46470588 0.25882353
0.27941176 0.46096814 0.2591299
0.30796569 0.46078431 0.25931373
0.33578431 0.46078431 0.2627451
0.36666667 0.46078431 0.26323529
0.39754902 0.46072304 0.26666667
0.4310049 0.45772059 0.26666667
0.45931373 0.45686275 0.26666667
0.49019608 0.45637255 0.26323529
0.52107843 0.45294118 0.2627451
0.55196078 0.45294118 0.25919118
0.58333333 0.45294118 0.25582108
0.61764706 0.45294118 0.25490196
0.64852941 0.45294118 0.25189951
0.67941176 0.45294118 0.25833333
0.71421569 0.45294118 0.26960784
0.74901961 0.45294118 0.28235294
0.78235294 0.44901961 0.29656863
0.81470588 0.44901961 0.3067402
0.84558824 0.44901961 0.30980392
0.87254902 0.44901961 0.31004902
0.90343137 0.44901961 0.30594363
0.93394608 0.44901961 0.29607843
0.95980392 0.44901961 0.28547794
0.97647059 0.44901961 0.28284314
0.25686275 0.50196078 0.25294118
0.27794118 0.50196078 0.25416667
0.30686275 0.50441176 0.25588235
0.3377451 0.50588235 0.25882353
0.37058824 0.50588235 0.2627451
0.40147059 0.50392157 0.2627451
0.43235294 0.50196078 0.26421569
0.46323529 0.50196078 0.2627451
0.49411765 0.5 0.2627451
0.52181373 0.49803922 0.25955882
0.55196078 0.49803922 0.25833333
0.58284314 0.49632353 0.25490196
0.61764706 0.49411765 0.25
0.64852941 0.49411765 0.24730392
0.67941176 0.49411765 0.25784314
0.71421569 0.49411765 0.26887255
0.74705882 0.49411765 0.28235294
0.77990196 0.49215686 0.29387255
0.8127451 0.49068627 0.30392157
0.84191176 0.49387255 0.30392157
0.87254902 0.49411765 0.29901961
0.90343137 0.49411765 0.29166667
0.93431373 0.49411765 0.28137255
0.9625 0.49411765 0.27303922
0.98235294 0.49411765 0.26470588
0.2504902 0.53921569 0.24656863
0.27794118 0.54313725 0.2495098
0.30882353 0.54705882 0.25490196
0.3401348 0.54754902 0.25882353
0.37107843 0.54754902 0.26078431
0.40189951 0.54705882 0.2627451
0.43235294 0.54411765 0.2627451
0.46323529 0.54313725 0.2627451
0.49411765 0.54313725 0.2627451
0.525 0.54313725 0.25882353
0.55588235 0.54227941 0.25796569
0.58633578 0.53921569 0.25490196
0.61764706 0.53921569 0.25122549
0.64852941 0.53529412 0.24754902
0.67941176 0.53835784 0.25392157
0.71029412 0.53921569 0.26421569
0.74509804 0.53578431 0.2745098
0.778125 0.53529412 0.28480392
0.81078431 0.53529412 0.29497549
0.84166667 0.53529412 0.29362745
0.87254902 0.53529412 0.28578431
0.9033701 0.53529412 0.27745098
0.93382353 0.53529412 0.26715686
0.96127451 0.53578431 0.25704657
0.99166667 0.53921569 0.24754902
0.25686275 0.58333333 0.25
0.2814951 0.58676471 0.25098039
0.3127451 0.58921569 0.25490196
0.34362745 0.59215686 0.25882353
0.3745098 0.59215686 0.2627451
0.40526961 0.58823529 0.2627451
0.43235294 0.58529412 0.2627451
0.46323529 0.58431373 0.25980392
0.49411765 0.58431373 0.25882353
0.525 0.58431373 0.26176471
0.55588235 0.58431373 0.26176471
0.58419118 0.58088235 0.26176471
0.61372549 0.58039216 0.25833333
0.64460784 0.58039216 0.25747549
0.67622549 0.58039216 0.25490196
0.71029412 0.58039216 0.26127451
0.74117647 0.58039216 0.27058824
0.77598039 0.57794118 0.27904412
0.81078431 0.57647059 0.2872549
0.83909314 0.58026961 0.28333333
0.86862745 0.58039216 0.27352941
0.8995098 0.58039216 0.26715686
0.93039216 0.58039216 0.25980392
0.96017157 0.58039216 0.25453431
0.98137255 0.57745098 0.25392157
0.26813725 0.62941176 0.25637255
0.2872549 0.62941176 0.25637255
0.31666667 0.63333333 0.25882353
0.34754902 0.63333333 0.25882353
0.3745098 0.63063725 0.25882353
0.40539216 0.62922794 0.25882353
0.43235294 0.6254902 0.25882353
0.46323529 0.6254902 0.25882353
0.49411765 0.6254902 0.2627451
0.525 0.6254902 0.26758578
0.55588235 0.62512255 0.27169118
0.58284314 0.62156863 0.26685049
0.61372549 0.62156863 0.26813725
0.64460784 0.62156863 0.26421569
0.6754902 0.62156863 0.26029412
0.71029412 0.62156863 0.26029412
0.74117647 0.62156863 0.26519608
0.77598039 0.61856618 0.2721201
0.80686275 0.62156863 0.27696078
0.8377451 0.62156863 0.27303922
0.86715686 0.62156863 0.26519608
0.89558824 0.62303922 0.26403186
0.92647059 0.62156863 0.25882353
0.95496324 0.62101716 0.25729167
0.975 0.61764706 0.26029412
0.28627451 0.67058824 0.27058824
0.29901961 0.6745098 0.2627451
0.32058824 0.67352941 0.26176471
0.34754902 0.67058824 0.25882353
0.3745098 0.67058824 0.25882353
0.40490196 0.66666667 0.25490196
0.43235294 0.66666667 0.25490196
0.46323529 0.6627451 0.25637255
0.49411765 0.6627451 0.26666667
0.525 0.6627451 0.27303922
0.55490196 0.6627451 0.2745098
0.58284314 0.6627451 0.2745098
0.61372549 0.6627451 0.2745098
0.64460784 0.6627451 0.27058824
0.6754902 0.6627451 0.26666667
0.71029412 0.66127451 0.25882353
0.74117647 0.65882353 0.25882353
0.77598039 0.65882353 0.26519608
0.80686275 0.6627451 0.26666667
0.83382353 0.6627451 0.2627451
0.86470588 0.66666667 0.26470588
0.89166667 0.66666667 0.25882353
0.92254902 0.6627451 0.25882353
0.95196078 0.66127451 0.26421569
0.96862745 0.65882353 0.26666667
0.26568627 0.70931373 0.25637255
0.28480392 0.71176471 0.25637255
0.31421569 0.71176471 0.25637255
0.34754902 0.70931373 0.25637255
0.3745098 0.70784314 0.25490196
0.40490196 0.70753676 0.25226716
0.43235294 0.70392157 0.25098039
0.46323529 0.70392157 0.26029412
0.49411765 0.70392157 0.26666667
0.525 0.70392157 0.2721201
0.55196078 0.70392157 0.27794118
0.58284314 0.70392157 0.28216912
0.61372549 0.70392157 0.28357843
0.64460784 0.70392157 0.27665441
0.6754902 0.70392157 0.26948529
0.71029412 0.7 0.26127451
0.74117647 0.7 0.25490196
0.77297794 0.7 0.25637255
0.80294118 0.70392157 0.25637255
0.83382353 0.70392157 0.25490196
0.86078431 0.70465686 0.25759804
0.89136029 0.70539216 0.26145833
0.9189951 0.70392157 0.26629902
0.94859069 0.7033701 0.27303922
0.96470588 0.7 0.27696078
0.25294118 0.74803922 0.25
0.27794118 0.74901961 0.25061275
0.3120098 0.74803922 0.25490196
0.34362745 0.74803922 0.25490196
0.37401961 0.74509804 0.25098039
0.40147059 0.74509804 0.24693627
0.43235294 0.74509804 0.25
0.46323529 0.74509804 0.26029412
0.49313725 0.74509804 0.26764706
0.52107843 0.74509804 0.27732843
0.55196078 0.74901961 0.28431373
0.58284314 0.74644608 0.29105392
0.61372549 0.74509804 0.28872549
0.64460784 0.74509804 0.28198529
0.6754902 0.74509804 0.27254902
0.71029412 0.74117647 0.26519608
0.74117647 0.74117647 0.25490196
0.77205882 0.74509804 0.24644608
0.80269608 0.74509804 0.24877451
0.82990196 0.74509804 0.25539216
0.86029412 0.74509804 0.26127451
0.8877451 0.74509804 0.26801471
0.91862745 0.74509804 0.27377451
0.94803922 0.74362745 0.27879902
0.96078431 0.74117647 0.28235294
0.25 0.78627451 0.24656863
0.27794118 0.78627451 0.2495098
0.31237745 0.78627451 0.25232843
0.34362745 0.78327206 0.25490196
0.3745098 0.78235294 0.25098039
0.40447304 0.78278186 0.2504902
0.43235294 0.78284314 0.25392157
0.46323529 0.7841299 0.26421569
0.49362745 0.78627451 0.27401961
0.52107843 0.78841912 0.28431373
0.55196078 0.79019608 0.29105392
0.58284314 0.79019608 0.29754902
0.61372549 0.79019608 0.29387255
0.64460784 0.78627451 0.28578431
0.6754902 0.78627451 0.27806373
0.71029412 0.78609069 0.26862745
0.74117647 0.78235294 0.25833333
0.77205882 0.78284314 0.2504902
0.80294118 0.78235294 0.25453431
0.82990196 0.78235294 0.25876225
0.86053922 0.78455882 0.26470588
0.8877451 0.78627451 0.27107843
0.91862745 0.78627451 0.27487745
0.94803922 0.78480392 0.27990196
0.96078431 0.78235294 0.28235294
0.26470588 0.82745098 0.25098039
0.28382353 0.82745098 0.25294118
0.31470588 0.825 0.25490196
0.34558824 0.82352941 0.25514706
0.3745098 0.82254902 0.25490196
0.40539216 0.81936275 0.25686275
0.43627451 0.81911765 0.2622549
0.46642157 0.82230392 0.27009804
0.49607843 0.82745098 0.28039216
0.525 0.82990196 0.29068627
0.55196078 0.83137255 0.29852941
0.58284314 0.83137255 0.30367647
0.61372549 0.83137255 0.29901961
0.64460784 0.83112745 0.28970588
0.67843137 0.82745098 0.27941176
0.71029412 0.82598039 0.26911765
0.74117647 0.82352941 0.25882353
0.77205882 0.82352941 0.26078431
0.80294118 0.82352941 0.26519608
0.83039216 0.82352941 0.26666667
0.86078431 0.82352941 0.26862745
0.89166667 0.82377451 0.27058824
0.92058824 0.8254902 0.27254902
0.94877451 0.82352941 0.2752451
0.96470588 0.82352941 0.27843137
0.27892157 0.86470588 0.25490196
0.29136029 0.86470588 0.26066176
0.31666667 0.86470588 0.25882353
0.34754902 0.86470588 0.25882353
0.37843137 0.86078431 0.25906863
0.40931373 0.85686275 0.26366422
0.44019608 0.85637255 0.27009804
0.47107843 0.86047794 0.27647059
0.50196078 0.86470588 0.28676471
0.52910539 0.86862745 0.29656863
0.55625 0.87205882 0.30330882
0.58333333 0.87205882 0.30588235
0.61397059 0.87205882 0.29607843
0.64460784 0.8716299 0.28572304
0.67843137 0.86862745 0.27536765
0.71029412 0.86715686 0.26648284
0.74117647 0.86470588 0.26323529
0.77175245 0.86470588 0.26960784
0.80257353 0.86470588 0.27892157
0.83382353 0.86470588 0.27892157
0.86078431 0.86470588 0.27892157
0.89172794 0.86470588 0.2745098
0.92303922 0.86470588 0.27058824
0.95343137 0.86470588 0.27009804
0.96911765 0.86470588 0.27058824
0.28627451 0.90588235 0.25490196
0.29264706 0.90588235 0.25919118
0.31666667 0.90588235 0.25882353
0.34754902 0.90588235 0.25882353
0.37843137 0.90196078 0.26421569
0.40931373 0.89754902 0.27095588
0.44313725 0.89411765 0.27745098
0.475 0.89620098 0.28566176
0.50490196 0.90294118 0.29313725
0.53284314 0.9064951 0.3004902
0.5620098 0.90980392 0.30588235
0.58982843 0.90723039 0.30588235
0.61764706 0.90980392 0.29264706
0.64852941 0.90980392 0.2814951
0.67941176 0.90980392 0.26862745
0.71029412 0.90833333 0.26335784
0.74117647 0.90588235 0.26666667
0.76813725 0.90588235 0.27696078
0.79901961 0.90588235 0.28627451
0.83382353 0.90588235 0.29313725
0.86470588 0.90294118 0.29117647
0.89558824 0.90196078 0.2817402
0.92647059 0.90294118 0.27132353
0.95735294 0.90588235 0.26372549
0.97941176 0.90588235 0.26372549
0.29411765 0.94705882 0.25490196
0.29411765 0.94705882 0.25490196
0.31458333 0.94705882 0.25588235
0.34705882 0.94362745 0.2622549
0.37843137 0.93848039 0.26936275
0.41323529 0.93382353 0.27647059
0.44411765 0.93137255 0.28529412
0.475 0.93229167 0.29258578
0.50735294 0.9377451 0.29803922
0.53676471 0.94258578 0.30441176
0.56482843 0.94558824 0.30796569
0.59460784 0.94344363 0.30245098
0.62230392 0.94558824 0.28946078
0.65 0.9473652 0.27616422
0.67941176 0.9495098 0.26262255
0.71029412 0.94705882 0.25974265
0.74117647 0.94705882 0.26813725
0.76813725 0.94613971 0.28088235
0.8 0.94497549 0.2932598
0.83382353 0.94313725 0.30165441
0.86470588 0.94044118 0.30073529
0.89558824 0.9377451 0.29068627
0.92757353 0.94105392 0.27585784
0.96127451 0.94460784 0.26311275
0.98578431 0.94705882 0.25735294
0.29803922 0.98039216 0.25490196
0.29803922 0.98284314 0.25245098
0.3127451 0.98333333 0.25588235
0.34754902 0.97303922 0.26617647
0.37843137 0.96666667 0.27254902
0.41323529 0.96421569 0.28235294
0.44411765 0.96078431 0.28921569
0.47892157 0.96078431 0.29558824
0.50980392 0.96470588 0.30196078
0.54068627 0.96862745 0.30588235
0.56764706 0.97254902 0.30980392
0.59852941 0.97254902 0.30245098
0.6254902 0.97254902 0.28823529
0.65245098 0.97647059 0.27352941
0.68333333 0.98333333 0.25980392
0.7127451 0.98284314 0.25784314
0.74117647 0.97647059 0.27058824
0.76813725 0.97401961 0.28480392
0.80294118 0.97254902 0.29901961
0.83382353 0.96911765 0.30539216
0.86666667 0.96666667 0.30784314
0.8995098 0.96470588 0.29705882
0.93039216 0.96764706 0.28039216
0.96127451 0.97401961 0.26519608
0.99607843 0.98823529 0.25098039
0.26127451 0.022058824 0.26764706
0.28431373 0.020526961 0.27009804
0.31458333 0.018627451 0.27696078
0.34148284 0.0083333333 0.27824755
0.37328431 0.0125 0.27843137
0.40539216 0.032414216 0.27843137
0.43627451 0.040073529 0.27769608
0.46715686 0.01997549 0.27009804
0.49656863 0.014215686 0.26617647
0.5283701 0.020588235 0.26709559
0.55882353 0.024142157 0.26764706
0.58676471 0.02745098 0.27126225
0.61764706 0.02745098 0.27156863
0.64803922 0.025980392 0.27156863
0.6754902 0.022426471 0.27156863
0.70637255 0.018137255 0.26764706
0.73872549 0.014215686 0.26764706
0.77205882 0.016666667 0.27156863
0.80294118 0.027205882 0.27585784
0.8341299 0.032598039 0.28069853
0.86470588 0.019607843 0.28235294
0.89558824 0.015870098 0.28627451
0.92316176 0.028063725 0.28125
0.94705882 0.023958333 0.27248775
0.9622549 0.014215686 0.26764706
0.26219363 0.049019608 0.27248775
0.28431373 0.048674939 0.2777114
0.3127451 0.048406863 0.28333333
0.33970588 0.045098039 0.28480392
0.37132353 0.045098039 0.28434436
0.40539216 0.051715686 0.28168658
0.43627451 0.057674632 0.27830882
0.46715686 0.046017157 0.27101716
0.49803922 0.044178922 0.26764706
0.52892157 0.046361826 0.26764706
0.55980392 0.050076593 0.26908701
0.58707108 0.052634804 0.27156863
0.61764706 0.052941176 0.27156863
0.64852941 0.050490196 0.27156863
0.67610294 0.047181373 0.27156863
0.70637255 0.043604473 0.27101716
0.74025735 0.042095588 0.27009804
0.77205882 0.045327819 0.27156863
0.80294118 0.051700368 0.27585784
0.83547028 0.054963235 0.28069853
0.8666973 0.049019608 0.28235294
0.89558824 0.04564951 0.28509498
0.92254902 0.050612745 0.28125
0.94671415 0.04754902 0.27436428
0.96133578 0.045098039 0.27401961
0.26213235 0.084191176 0.27941176
0.28310355 0.086136642 0.2848652
0.3127451 0.08627451 0.28734681
0.33982843 0.08627451 0.29019608
0.37181373 0.08627451 0.28823529
0.40539216 0.085294118 0.28445159
0.43627451 0.085294118 0.27977941
0.46715686 0.082352941 0.27415748
0.49803922 0.082352941 0.27156863
0.52892157 0.083501838 0.26973039
0.55980392 0.08627451 0.27156863
0.59068627 0.08627451 0.27290135
0.61764706 0.087193627 0.27457108
0.64852941 0.086228554 0.27365196
0.67941176 0.083088235 0.2731924
