site/assets/luts/sha256-4fd68ff1fcbc9fe8c5fa6ee3dd018887729c39181ea289006c7a7ae45dfc2df3.cube
# LUTr-Schema-Version: 2
# LUTr-ID: sha256-4fd68ff1fcbc9fe8c5fa6ee3dd018887729c39181ea289006c7a7ae45dfc2df3
# LUTr-Title: fuji superia 800 ++
# LUTr-Collection: Natron HaldCLUT
# LUTr-Collection-ID: natron-haldclut-presets
# LUTr-Source: https://github.com/NatronGitHub/clut
# LUTr-Retrieved: 2026-07-27
# LUTr-Source-File: submissions/natron-haldclut-presets/negative_old/fuji_superia_800_++.png
# LUTr-Source-Format: HALD-PNG
# LUTr-Source-SHA256: 4fd68ff1fcbc9fe8c5fa6ee3dd018887729c39181ea289006c7a7ae45dfc2df3
# LUTr-License: CC-BY-SA-4.0
# LUTr-License-URL: https://github.com/NatronGitHub/clut#license
# LUTr-License-Basis: repo-license-file
# LUTr-Transform-Class: film-emulation
# LUTr-Tags: creative, film, film-emulation, hald-clut, natron, png, cube
# LUTr-Input-Color-Space: srgb
# LUTr-Input-Gamut: rec709
# LUTr-Input-Transfer: srgb
# LUTr-Output-Color-Space: srgb
# LUTr-Output-Gamut: rec709
# LUTr-Output-Transfer: srgb
# LUTr-Color-Space-Confidence: assumed-display-referred
# LUTr-Domain-Normalized: true
# LUTr-Shaper: none
# LUTr-Original-Grid: 64x64x64
# LUTr-Conversion-Grid: 25x25x25
# LUTr-Conversion-Interpolation: trilinear
# LUTr-Conversion-Method: HALD-PNG LUT image decoded at 16-bit and sampled to 25x25x25 3D CUBE
# LUTr-Conversion-Tool: LUTr scripts/convert-all-to-cube.mjs 2.0.0
# LUTr-Conversion-Date: 2026-07-27
# LUTr-Note: Preserve this metadata and the upstream license notices when redistributing.
TITLE "fuji superia 800 ++"
LUT_3D_SIZE 9
DOMAIN_MIN 0 0 0
DOMAIN_MAX 1 1 1
0.074509804 0.18823529 0.19215686
0.10882353 0.18431373 0.19607843
0.17745098 0.18431373 0.18431373
0.29607843 0.18431373 0.18431373
0.45882353 0.18823529 0.18431373
0.65343137 0.18039216 0.16715686
0.79215686 0.20490196 0.15588235
0.91960784 0.21960784 0.13284314
0.98431373 0.25490196 0.1254902
0.06372549 0.19852941 0.18823529
0.10931373 0.20686275 0.19515931
0.19166667 0.21470588 0.18431373
0.31127451 0.21127451 0.18088235
0.48602941 0.21911765 0.17647059
0.66323529 0.22254902 0.16323529
0.8 0.23517157 0.15294118
0.91862745 0.26176471 0.1372549
0.98823529 0.28529412 0.11813725
0.0098039216 0.29117647 0.19607843
0.042769608 0.28946078 0.19215686
0.19436275 0.3002451 0.18137255
0.37009804 0.31727941 0.18431373
0.5377451 0.31470588 0.17647059
0.68933824 0.31470588 0.16470588
0.81397059 0.31470588 0.14828431
0.91911765 0.33088235 0.13590686
0.98921569 0.36176471 0.11372549
0.0039215686 0.45784314 0.20784314
0.0093137255 0.47567402 0.20814951
0.12647059 0.48713235 0.19068627
0.41660539 0.48529412 0.16470588
0.61519608 0.49362745 0.11813725
0.71758578 0.44068627 0.14558824
0.82892157 0.43333333 0.14448529
0.92285539 0.42941176 0.13970588
0.99607843 0.45441176 0.12401961
0.0039215686 0.61960784 0.24901961
0.0078431373 0.63676471 0.2629902
0.13382353 0.64705882 0.25245098
0.41519608 0.63848039 0.22892157
0.61176471 0.63921569 0.1627451
0.76960784 0.63161765 0.082107843
0.84803922 0.57254902 0.14215686
0.93088235 0.54926471 0.17205882
0.99411765 0.55686275 0.17058824
0.029901961 0.74166667 0.33284314
0.14981618 0.74558824 0.35471814
0.28382353 0.74558824 0.34767157
0.43290441 0.74166667 0.33578431
0.58235294 0.7377451 0.29362745
0.74068627 0.7377451 0.24209559
0.875 0.73321078 0.16446078
0.94234069 0.70539216 0.22303922
0.99215686 0.68823529 0.25931373
0.38627451 0.82254902 0.48333333
0.43737745 0.82941176 0.4754902
0.48627451 0.82254902 0.48627451
0.56176471 0.82156863 0.47585784
0.63627451 0.82205882 0.4622549
0.73259804 0.82941176 0.42401961
0.84289216 0.8254902 0.38431373
0.93039216 0.8182598 0.36078431
0.99215686 0.80784314 0.37254902
0.6372549 0.89460784 0.6254902
0.64068627 0.8911152 0.62107843
0.66029412 0.89117647 0.6254902
0.69332108 0.89117647 0.62567402
0.73259804 0.89460784 0.62156863
0.78284314 0.89117647 0.60833333
0.84509804 0.89411765 0.57487745
0.91819853 0.89117647 0.540625
0.98382353 0.89460784 0.52058824
0.76470588 0.9372549 0.73333333
0.76813725 0.9372549 0.73284314
0.76862745 0.93333333 0.72254902
0.77892157 0.92941176 0.72009804
0.80196078 0.93333333 0.72352941
0.84068627 0.94117647 0.73039216
0.86470588 0.93333333 0.69411765
0.91078431 0.94117647 0.70245098
0.95686275 0.94117647 0.69411765
0.082352941 0.18823529 0.20735294
0.098468137 0.17738971 0.2
0.17352941 0.18431373 0.20735294
0.29430147 0.17665441 0.20343137
0.4622549 0.16960784 0.19754902
0.64019608 0.16519608 0.19166667
0.78823529 0.18186275 0.17990196
0.90784314 0.20098039 0.16029412
0.99607843 0.24362745 0.14411765
0.071078431 0.20294118 0.21127451
0.10147059 0.20735294 0.20735294
0.18517157 0.20992647 0.21127451
0.31111366 0.2 0.2036152
0.48943015 0.21127451 0.20340074
0.66956955 0.21519608 0.19150582
0.79955576 0.21997549 0.17630208
0.90746783 0.24313725 0.16764706
0.99558824 0.27359069 0.14509804
0.032843137 0.27291667 0.22303922
0.075 0.29270833 0.22598039
0.19129902 0.29705882 0.21963848
0.36176471 0.30088848 0.20735294
0.53498775 0.30294118 0.20471814
0.68769914 0.30522365 0.19477635
0.81078431 0.30695466 0.17892157
0.91519608 0.32254902 0.15980392
0.96029412 0.33737745 0.14852941
0.009620098 0.46158088 0.26403186
0.0078431373 0.46942402 0.25637255
0.17443321 0.47735907 0.24122243
0.41758578 0.49057138 0.21078431
0.59200368 0.47598039 0.18823529
0.71704197 0.44546569 0.18694853
0.82320772 0.4254902 0.18970588
0.91911765 0.42959559 0.17420343
0.98970588 0.4504902 0.16881127
0.0078431373 0.6254902 0.3127451
0.0019914216 0.64090074 0.30511642
0.17659314 0.63535539 0.30245098
0.41504289 0.64313725 0.28088235
0.60992647 0.63345588 0.21629902
0.75818015 0.61470588 0.18422181
0.84056373 0.57156863 0.19595588
0.92671569 0.55465686 0.20294118
0.99240196 0.55686275 0.21495098
0.13694853 0.74166667 0.37892157
0.21486673 0.74558824 0.39295343
0.33802083 0.74166667 0.39558824
0.45950521 0.73805147 0.38707108
0.59289216 0.73710172 0.33685662
0.75147825 0.7330193 0.27537531
0.86715686 0.73186275 0.24073223
0.94001225 0.70490196 0.26617647
0.98823529 0.69215686 0.28970588
0.43002451 0.82254902 0.50894608
0.47169118 0.8254902 0.51017157
0.50701593 0.8254902 0.51286765
0.57219669 0.82512255 0.5127451
0.64718137 0.8254902 0.48780637
0.74773284 0.82201287 0.45758272
0.84534314 0.82625613 0.42245711
0.95212929 0.832644 0.36037071
0.98431373 0.81176471 0.40686275
0.64466912 0.89460784 0.63627451
0.6525046 0.89117647 0.63675705
0.67120098 0.89117647 0.64068627
0.69852941 0.8872549 0.63633578
0.7421875 0.89117647 0.63655025
0.78409161 0.89117647 0.62009804
0.8495098 0.89100797 0.5932598
0.91814491 0.89117647 0.57015165
0.97598039 0.89160539 0.55098039
0.76519608 0.9372549 0.7372549
0.76078431 0.93033088 0.72598039
0.74080882 0.92156863 0.70147059
0.79442402 0.93707108 0.73921569
0.8120098 0.93382353 0.7377451
0.83707108 0.9372549 0.73186275
0.87156863 0.94117647 0.72855392
0.91078431 0.94509804 0.71721814
0.95343137 0.94901961 0.71029412
0.074509804 0.18039216 0.24607843
0.10526961 0.18811275 0.24901961
0.17745098 0.18431373 0.26004902
0.29522059 0.17365196 0.25686275
0.47892157 0.14754902 0.25637255
0.66029412 0.041053922 0.23039216
0.79044118 0.094852941 0.22941176
0.9 0.15882353 0.22156863
0.99901961 0.2127451 0.20196078
0.059313725 0.19938725 0.26323529
0.1022212 0.20294118 0.25637255
0.18431373 0.20735294 0.26056985
0.31979167 0.20035233 0.26331189
0.50055147 0.18186275 0.25625
0.66605392 0.16309743 0.24451593
0.7995098 0.16302083 0.2372549
0.9064951 0.20168505 0.2254902
0.98823529 0.23676471 0.2127451
0.03627451 0.27720588 0.28333333
0.085416667 0.2731924 0.28581495
0.20465686 0.29019608 0.29632353
0.3682598 0.28949142 0.28746936
0.54546569 0.27573529 0.26617647
0.68480392 0.27239583 0.25854779
0.81170343 0.28651961 0.24669118
0.91556373 0.30563725 0.22898284
0.99583333 0.32647059 0.2120098
0.026593137 0.4627451 0.34313725
0.097855392 0.46079963 0.34518995
0.24371936 0.46176471 0.33903186
0.42990196 0.47058824 0.31086091
0.58210784 0.45441176 0.28909314
0.69784007 0.41678922 0.27830882
0.8192402 0.41544118 0.26544118
0.91911765 0.42291667 0.24656863
0.99215686 0.44718137 0.24264706
0.043627451 0.61470588 0.38529412
0.16378676 0.6245098 0.4036152
0.28676471 0.63137255 0.39901961
0.44338235 0.62058824 0.3745098
0.60147059 0.62279412 0.33063725
0.74338235 0.60251225 0.3
0.83088235 0.5627451 0.29460784
0.92279412 0.55557598 0.29509804
0.98431373 0.56078431 0.29509804
0.28602941 0.73419118 0.46605392
0.33638174 0.73480392 0.47058824
0.41703431 0.73480392 0.47205882
0.49359681 0.73129596 0.45742953
0.60594363 0.72720588 0.42432598
0.73604473 0.72708333 0.37977941
0.86617647 0.72794118 0.34537377
0.93609069 0.69705882 0.35686275
0.98137255 0.68431373 0.36678922
0.50416667 0.82254902 0.56176471
0.52827819 0.82328431 0.56568627
0.55514706 0.82181373 0.5627451
0.61004902 0.82018995 0.55919118
0.67254902 0.82291667 0.55294118
0.75744485 0.82218137 0.52696078
0.85030637 0.81862745 0.49509804
0.9307598 0.81473652 0.46761642
0.98848039 0.80784314 0.46764706
0.66017157 0.8872549 0.66323529
0.67924326 0.8872549 0.67107843
0.68780637 0.88354779 0.66522672
0.71524203 0.8872549 0.66619179
0.75196078 0.89117647 0.66734069
0.80102635 0.89099265 0.64785539
0.85330882 0.89117647 0.62659314
0.91078431 0.8911152 0.60490196
0.97205882 0.89117647 0.59718137
0.78627451 0.94019608 0.75882353
0.77205882 0.92990196 0.74460784
0.77843137 0.93235294 0.74387255
0.80355392 0.9372549 0.75294118
0.82156863 0.9372549 0.75588235
0.8442402 0.93627451 0.74656863
0.87230392 0.9372549 0.73627451
0.91335784 0.94117647 0.72806373
0.94509804 0.94117647 0.72058824
0.072058824 0.17647059 0.34068627
0.1245098 0.18039216 0.34705882
0.20526961 0.1814951 0.35
0.30784314 0.18431373 0.34852941
0.46617647 0.17965686 0.36813725
0.6504902 0.11617647 0.36911765
0.80845588 0.016053922 0.34068627
0.92567402 0.0037377451 0.30557598
0.99705882 0.032843137 0.28088235
0.04754902 0.19803922 0.353125
0.10474112 0.20735294 0.36590839
0.20148591 0.21127451 0.37009804
0.33155637 0.21814491 0.37272518
0.50382966 0.2036152 0.38587623
0.66979167 0.18186275 0.37568168
0.8126685 0.04765625 0.33105086
0.92555147 0.05981924 0.30659467
0.99852941 0.17922794 0.29705882
0.013235294 0.27205882 0.3942402
0.020818015 0.26441483 0.38990502
0.2049326 0.28250613 0.39733456
0.37389706 0.29319853 0.40453431
0.53609069 0.28088235 0.39074755
0.69264706 0.2432598 0.36418505
0.82316176 0.21755515 0.33664216
0.9160386 0.23794424 0.32648591
0.99215686 0.29166667 0.30931373
0.020159314 0.44607843 0.44270833
0.046139706 0.44215686 0.44196538
0.24754902 0.44085478 0.44454657
0.41862745 0.44475337 0.43913143
0.57061887 0.44411765 0.41740196
0.69515931 0.40539216 0.39509804
0.81914828 0.39526654 0.36813725
0.92248775 0.40233609 0.34920343
0.98333333 0.42058824 0.33682598
0.24215686 0.61495098 0.50220588
0.28921569 0.61176471 0.50539216
0.36856618 0.60931373 0.50036765
0.48115809 0.59362745 0.48532475
0.60343137 0.60147059 0.44705882
0.72248775 0.58253676 0.42401961
0.8245098 0.55367647 0.40508578
0.92303922 0.55073529 0.39549632
0.97990196 0.55367647 0.39166667
0.42009804 0.72444853 0.56470588
0.43921569 0.72205882 0.56623775
0.49644608 0.71868873 0.5595435
0.54699755 0.71660539 0.54754902
0.6245098 0.71268382 0.52745098
0.74552696 0.71868873 0.49060202
0.84718137 0.71470588 0.46980699
0.92653952 0.68952206 0.46244638
0.98137255 0.68578431 0.45882353
0.57414216 0.81470588 0.63039216
0.58860294 0.81862745 0.62745098
0.60821078 0.81409314 0.62564338
0.63941483 0.81017157 0.62352941
0.703125 0.81409314 0.62248775
0.76954657 0.81409314 0.59198836
0.84525123 0.81764706 0.57046569
0.93088235 0.81875 0.54875919
0.96078431 0.81115196 0.54509804
0.70588235 0.8908701 0.70539216
0.70637255 0.88333333 0.7096201
0.71755515 0.88333333 0.70810355
0.74491422 0.8868796 0.7096201
0.77401961 0.88694853 0.70579044
0.80637255 0.8872549 0.69345129
0.85723039 0.88846507 0.67709865
0.91466759 0.88801317 0.65504749
0.97990196 0.89901961 0.63970588
0.79215686 0.93578431 0.775
0.79589461 0.93333333 0.775
0.80784314 0.9372549 0.77892157
0.81721814 0.93333333 0.77800245
0.83382353 0.9372549 0.77892157
0.84944853 0.93480392 0.77199755
0.88125 0.93872549 0.76715686
0.91421569 0.94117647 0.75520833
0.95686275 0.94754902 0.75392157
0.068627451 0.17647059 0.46666667
0.12647059 0.18039216 0.47058824
0.23480392 0.17696078 0.48186275
0.35416667 0.1745098 0.48039216
0.48431373 0.1745098 0.48627451
0.62573529 0.17254902 0.49019608
0.79019608 0.16029412 0.49019608
0.92107843 0.13112745 0.47377451
0.98627451 0.062745098 0.4372549
0.02254902 0.19558824 0.48014706
0.10882353 0.20340074 0.48970588
0.23333333 0.19803922 0.48970588
0.36829044 0.21397059 0.49607843
0.50710784 0.2060049 0.49963235
0.64960172 0.21599265 0.50220588
0.79454657 0.2127451 0.4995098
0.91372549 0.17873775 0.47745098
0.98455882 0.1004902 0.43921569
0.0049019608 0.25686275 0.51176471
0.043014706 0.26642157 0.52408088
0.22830882 0.28333333 0.52058824
0.38731618 0.28645833 0.52132353
0.53455882 0.29362745 0.51911765
0.67702206 0.31372549 0.51231618
0.80735294 0.33480392 0.51629902
0.91323529 0.26948529 0.47383578
0.99607843 0.21764706 0.43431373
0.0078431373 0.40098039 0.53578431
0.011427696 0.40416667 0.54175858
0.17806373 0.39546569 0.54166667
0.39175858 0.41329657 0.54558824
0.5564951 0.42904412 0.5377451
0.68869485 0.41642157 0.51525735
0.81372549 0.41427696 0.50018382
0.9263174 0.375 0.46329657
0.99044118 0.37352941 0.45073529
0.091176471 0.57352941 0.56764706
0.20269608 0.58247549 0.58137255
0.34509804 0.57671569 0.57990196
0.47414216 0.56936275 0.57193627
0.5877451 0.56911765 0.56176471
0.70588235 0.55735294 0.54362745
0.82181373 0.53897059 0.52009804
0.91801471 0.54117647 0.49852941
0.96568627 0.54411765 0.48823529
0.48455882 0.72598039 0.63431373
0.49313725 0.7236826 0.63088235
0.51660539 0.71066176 0.62647059
0.58756127 0.70514706 0.62573529
0.64607843 0.7 0.6125
0.73602941 0.70634191 0.59313725
0.84019608 0.70416667 0.57316176
0.91470588 0.67696078 0.55382966
0.98553922 0.68039216 0.54485294
0.62156863 0.81078431 0.69411765
0.62892157 0.81078431 0.69215686
0.65196078 0.81078431 0.68823529
0.68645833 0.80294118 0.68596814
0.73112745 0.80980392 0.67941176
0.77585784 0.81415441 0.67426471
0.84644608 0.81115196 0.64558824
0.92873775 0.81219363 0.6254902
0.98235294 0.80147059 0.61764706
0.73676471 0.88308824 0.75588235
0.74068627 0.87941176 0.75367647
0.75606618 0.88333333 0.7557598
0.77579657 0.88691789 0.75284926
0.79877451 0.88333333 0.7432598
0.82254902 0.88146446 0.73823529
0.86121324 0.88903186 0.72990196
0.92009804 0.8877451 0.70928309
0.97205882 0.89460784 0.69338235
0.81176471 0.93529412 0.80196078
0.81715686 0.9370098 0.80196078
0.81960784 0.93333333 0.80196078
0.82867647 0.93333333 0.80196078
0.84803922 0.93823529 0.80490196
0.86029412 0.93210784 0.7995098
0.88578431 0.93578431 0.79460784
0.91813725 0.93921569 0.7879902
0.94313725 0.93137255 0.76078431
0.10784314 0.17647059 0.59411765
0.17794118 0.16862745 0.59803922
0.27843137 0.16323529 0.60196078
0.39074755 0.16470588 0.60196078
0.51519608 0.16004902 0.60441176
0.64264706 0.16862745 0.60441176
0.77291667 0.18517157 0.6064951
0.8995098 0.26832108 0.61617647
0.97794118 0.3372549 0.61911765
0.11029412 0.19773284 0.60931373
0.16568627 0.19148284 0.61715686
0.28529412 0.19644608 0.61715686
0.3995098 0.19270833 0.61646752
0.53054534 0.19901961 0.60897672
0.66268382 0.20372243 0.61575521
0.78039216 0.24313725 0.6122549
0.89803922 0.30784314 0.61617647
0.97371324 0.39001225 0.63088235
0.032230392 0.26078431 0.62401961
0.11020221 0.26764706 0.63178615
0.27717525 0.27132353 0.63333333
0.41349571 0.27401961 0.62732843
0.5432598 0.28284314 0.62512255
0.67046569 0.30542279 0.62078738
0.78743873 0.33529412 0.62166054
0.89589461 0.40516238 0.63186275
0.99068627 0.42340686 0.6254902
0.013296569 0.38333333 0.63431373
0.016161152 0.36813725 0.63970588
0.21887255 0.37781863 0.63578431
0.39916513 0.38907016 0.63312653
0.55808824 0.41467525 0.62870711
0.67834712 0.43782935 0.63094363
0.79569547 0.47352941 0.63578431
0.89723499 0.50159314 0.64080116
0.9901348 0.48284314 0.61911765
0.0088235294 0.52328431 0.64289216
0.062683824 0.52604167 0.64877451
0.20796569 0.51329657 0.65012255
0.40116422 0.51498162 0.64411765
0.55343137 0.5377451 0.64191176
0.69019608 0.56323529 0.64681373
0.80300245 0.57064951 0.63854167
0.90989583 0.56920956 0.62901348
0.99142157 0.54117647 0.60220588
0.35741422 0.68039216 0.68768382
0.41666667 0.68676471 0.68816636
0.46845895 0.68284314 0.68399203
0.55386029 0.677428 0.68431373
0.63606005 0.67892157 0.68085172
0.72332261 0.68226869 0.67015931
0.82185968 0.68002451 0.6600337
0.91330423 0.66371783 0.64186581
0.97984069 0.65931373 0.6254902
0.62990196 0.80477941 0.73676471
0.63400735 0.80294118 0.73786765
0.66914828 0.80367647 0.73759191
0.7066636 0.80225184 0.73638174
0.74803922 0.80508578 0.73431373
0.79359681 0.80238971 0.72800245
0.84068627 0.79791667 0.70980392
0.91482843 0.79215686 0.69486826
0.96372549 0.78676471 0.68039216
0.75067402 0.87941176 0.79068627
0.760072 0.87941176 0.78676471
0.77890625 0.88340993 0.7903799
0.7962546 0.88547794 0.7914905
0.81740196 0.88333333 0.7903799
0.83903186 0.88333333 0.78565411
0.87182904 0.88445159 0.77670037
0.92555147 0.8872549 0.76060049
0.96470588 0.89117647 0.74509804
0.825 0.9254902 0.82892157
0.82481618 0.9276348 0.82745098
0.84068627 0.93333333 0.83284314
0.83921569 0.92996324 0.82800245
0.86151961 0.93333333 0.83284314
0.87843137 0.9372549 0.83192402
0.89411765 0.93088235 0.82352941
0.91813725 0.93333333 0.81323529
0.95686275 0.93431373 0.80392157
0.21176471 0.18039216 0.71372549
0.25343137 0.16213235 0.71286765
0.34117647 0.15784314 0.7127451
0.43737745 0.14938725 0.7127451
0.56029412 0.16029412 0.70735294
0.67806373 0.17561275 0.70882353
0.8 0.20686275 0.70882353
0.8877451 0.26507353 0.70882353
0.97647059 0.39117647 0.72058824
0.1935049 0.18517157 0.71666667
0.25245098 0.19106924 0.72129289
0.34019608 0.18734681 0.7245098
0.4480239 0.1893076 0.71643689
0.5627451 0.19840686 0.7127451
0.6819087 0.23002451 0.7127451
0.79543505 0.26323529 0.7127451
0.88480392 0.32169118 0.70882353
0.96862745 0.42242647 0.7245098
0.15808824 0.25294118 0.72058824
0.22377451 0.26372549 0.72536765
0.34044118 0.26685049 0.72843137
0.44816176 0.27046569 0.72169118
0.56960784 0.28480392 0.71666667
0.69142157 0.3122549 0.71547181
0.80055147 0.34276961 0.71801471
0.88838848 0.39803922 0.71663603
0.97279412 0.49142157 0.73161765
0.040196078 0.34522059 0.72843137
0.17230392 0.35796569 0.72856924
0.3049326 0.36951593 0.7252451
0.44068627 0.38235294 0.7245098
0.57352941 0.39773284 0.72058824
0.69682904 0.42657782 0.72058824
0.8 0.46568627 0.7245098
0.88903186 0.50245098 0.72648591
0.96568627 0.55980392 0.73480392
0.019607843 0.475 0.7245098
0.014705882 0.47058824 0.72598039
0.16776961 0.47071078 0.72352941
0.40183824 0.4903799 0.7245098
0.55931373 0.50857843 0.7245098
0.69313725 0.53927696 0.72653186
0.8 0.57708333 0.72843137
0.8877451 0.60833333 0.73541667
0.96813725 0.65833333 0.75343137
0.2377451 0.63958333 0.74068627
0.27627145 0.63284314 0.74068627
0.35441176 0.63039216 0.74175858
0.45147059 0.61937806 0.74030331
0.55919118 0.62530637 0.73676471
0.69008885 0.64471507 0.73345588
0.8145527 0.67316176 0.73737745
0.89437806 0.69178922 0.73671875
0.96470588 0.70539216 0.74117647
0.55882353 0.78333333 0.77843137
0.57306985 0.78431373 0.77622549
0.60612745 0.78333333 0.77886029
0.66158088 0.78581495 0.78014706
0.70980392 0.77598039 0.77732843
0.75940564 0.76780025 0.77340686
0.82383578 0.77512255 0.76354167
0.90238971 0.7783701 0.75551471
0.9745098 0.76764706 0.7372549
0.76727941 0.88198529 0.82107843
0.76397059 0.87892157 0.825
0.78431373 0.8796875 0.8254902
0.79705882 0.88333333 0.8254902
0.81452206 0.87726716 0.825
0.84937194 0.87941176 0.825
0.87637868 0.87913603 0.82156863
0.91502757 0.87843137 0.81302083
0.96764706 0.88382353 0.80245098
0.83137255 0.9254902 0.85588235
0.8182598 0.9127451 0.84705882
0.84705882 0.92941176 0.85980392
0.85735294 0.92941176 0.85980392
0.87401961 0.93235294 0.8627451
0.89056373 0.93370098 0.86372549
0.89926471 0.91862745 0.84534314
0.92610294 0.93737745 0.85735294
0.95686275 0.91372549 0.8254902
0.32696078 0.18039216 0.81323529
0.36182598 0.17352941 0.80931373
0.41801471 0.16556373 0.80625
0.51470588 0.18137255 0.80539216
0.61495098 0.18014706 0.80906863
0.7245098 0.21715686 0.80557598
0.82352941 0.27941176 0.80539216
0.91133578 0.35189951 0.80539216
0.97647059 0.41715686 0.80588235
0.32009804 0.19509804 0.81323529
0.35919884 0.20740656 0.81715686
0.42303922 0.20741422 0.81623775
0.51047794 0.20334712 0.8127451
0.61470588 0.2171875 0.80931373
0.71927849 0.25032935 0.8091299
0.82696078 0.31263787 0.80539216
0.91182598 0.36612286 0.80625766
0.95379902 0.40379902 0.80931373
0.29803922 0.25698529 0.81715686
0.34754902 0.26960784 0.81715686
0.41632966 0.27046569 0.81813725
0.50775123 0.27647059 0.81323529
0.6125 0.29577206 0.80931373
0.72296262 0.33431373 0.80931373
0.82916667 0.39509804 0.81311275
0.91127451 0.43561581 0.8088848
0.97156863 0.4877451 0.81580882
0.2653799 0.35508578 0.81323529
0.30545343 0.36421569 0.81715686
0.39675245 0.37254902 0.81715686
0.48984375 0.37732843 0.81275276
0.61651348 0.4004902 0.81323529
0.72359069 0.43167126 0.80931373
0.82598039 0.47224265 0.81323529
0.90751379 0.51701134 0.8127451
0.95833333 0.54834559 0.81323529
0.010294118 0.43578431 0.81715686
0.076715686 0.44344363 0.81323529
0.29313725 0.47205882 0.81323529
0.43556985 0.48302696 0.8129902
0.60208333 0.51029412 0.81286765
0.72123162 0.54509804 0.81323529
0.82261029 0.57794118 0.81311275
0.90386029 0.61078431 0.81323529
0.96078431 0.64509804 0.81887255
0.085110294 0.58872549 0.82077206
0.11230852 0.58118873 0.81862745
0.23526348 0.57950368 0.81452206
0.39343597 0.58431373 0.81060049
0.56452206 0.60667892 0.81323529
0.70471814 0.64148284 0.81532629
0.81911765 0.67598039 0.81685049
0.90300245 0.7067019 0.82123928
0.96078431 0.73235294 0.82843137
0.4745098 0.75379902 0.83333333
0.48111213 0.7495098 0.83627451
0.53406863 0.75735294 0.82950368
0.57696078 0.75240502 0.82855392
0.63376225 0.73817402 0.82941176
0.71928615 0.74227941 0.8254902
0.81326593 0.76335784 0.8254902
0.89569547 0.78370098 0.82930453
0.95294118 0.79546569 0.83247549
0.69607843 0.86764706 0.8528799
0.69564185 0.8602405 0.86678156
0.73258272 0.86721814 0.86807598
0.76421569 0.87199755 0.86345741
0.7877451 0.86614583 0.86072304
0.821875 0.85631127 0.85980392
0.86922488 0.86341912 0.8598652
0.91035539 0.86732537 0.86066942
0.95386029 0.88033088 0.85680147
0.84607843 0.93333333 0.89068627
0.8338848 0.92849265 0.88676471
0.85833333 0.93333333 0.89019608
0.86862745 0.93333333 0.89019608
0.86617647 0.92156863 0.88284314
0.88351716 0.92677696 0.88823529
0.91384804 0.9254902 0.88676471
0.92990196 0.93333333 0.88976716
0.96470588 0.9372549 0.87941176
0.4745098 0.23921569 0.90196078
0.49754902 0.23921569 0.90588235
0.50588235 0.22352941 0.86764706
0.60196078 0.25735294 0.88480392
0.69607843 0.28823529 0.89215686
0.78480392 0.33627451 0.89656863
0.87647059 0.40196078 0.89803922
0.93872549 0.47598039 0.89019608
0.99607843 0.53333333 0.90196078
0.47892157 0.25784314 0.90637255
0.49411765 0.25833333 0.90245098
0.53235294 0.26605392 0.88982843
0.60784314 0.28039216 0.89656863
0.69828431 0.31102941 0.89803922
0.78939951 0.35735294 0.9
0.86213235 0.41715686 0.88664216
0.93480392 0.48676471 0.88676471
0.99166667 0.54019608 0.89411765
0.47745098 0.32647059 0.90588235
0.49105392 0.32242647 0.90416667
0.53946078 0.33039216 0.90220588
0.61666667 0.34669118 0.90196078
0.70392157 0.37794118 0.90392157
0.77990196 0.40968137 0.89313725
0.87254902 0.47916667 0.89877451
0.93529412 0.52879902 0.89044118
0.98431373 0.53823529 0.86470588
0.44803922 0.40441176 0.90294118
0.4786152 0.41096814 0.90557598
0.52205882 0.41629902 0.90012255
0.60435049 0.4372549 0.90196078
0.69215686 0.45710784 0.89607843
0.78088235 0.48872549 0.89356618
0.86531863 0.53982843 0.89656863
0.93186275 0.5872549 0.89019608
0.98431373 0.60980392 0.88333333
0.39803922 0.49803922 0.90588235
0.44436275 0.50588235 0.91176471
0.4877451 0.50784314 0.90441176
0.56421569 0.52279412 0.89607843
0.66862745 0.54313725 0.89411765
0.77573529 0.57794118 0.89803922
0.85686275 0.6127451 0.88970588
0.92254902 0.64362745 0.88627451
0.95294118 0.65490196 0.85882353
0.2627451 0.58382353 0.90833333
0.29957108 0.58609069 0.90900735
0.38823529 0.59656863 0.88664216
0.49411765 0.60386029 0.89411765
0.64754902 0.63186275 0.90588235
0.75343137 0.65539216 0.89803922
0.84571078 0.68382353 0.89375
0.92077206 0.71323529 0.89754902
0.975 0.74411765 0.89656863
0.44019608 0.73823529 0.88823529
0.45196078 0.73480392 0.87843137
0.48504902 0.72254902 0.89509804
0.51764706 0.71470588 0.8935049
0.60490196 0.72254902 0.90294118
0.70833333 0.73137255 0.88982843
0.8254902 0.75588235 0.89730392
0.90735294 0.78382353 0.89509804
0.94509804 0.79803922 0.89509804
0.66960784 0.86078431 0.90294118
0.67352941 0.86029412 0.90637255
0.68737745 0.85980392 0.91066176
0.71862745 0.85980392 0.89166667
0.73946078 0.84656863 0.89803922
0.77334559 0.82941176 0.89283088
0.82745098 0.83431373 0.90294118
0.8995098 0.85637255 0.90545343
0.95686275 0.87941176 0.88284314
0.8 0.93333333 0.91764706
0.80392157 0.92941176 0.90980392
0.82745098 0.92647059 0.89803922
0.83529412 0.9254902 0.90196078
0.84313725 0.92941176 0.91764706
0.87598039 0.93333333 0.91764706
0.90294118 0.9372549 0.91764706
0.93382353 0.93333333 0.91323529
0.96078431 0.94509804 0.9254902
