site/assets/luts/sha256-fdd84dff165771b6291af8b5933fbceeec807627821ce86fe73ac70f50deec6a.cube
# LUTr-Schema-Version: 2
# LUTr-ID: sha256-fdd84dff165771b6291af8b5933fbceeec807627821ce86fe73ac70f50deec6a
# LUTr-Title: kodak portra 160 nc ++
# LUTr-Collection: Natron HaldCLUT
# LUTr-Collection-ID: natron-haldclut-presets
# LUTr-Source: https://github.com/NatronGitHub/clut
# LUTr-Retrieved: 2026-07-27
# LUTr-Source-File: submissions/natron-haldclut-presets/negative_old/kodak_portra_160_nc_++.png
# LUTr-Source-Format: HALD-PNG
# LUTr-Source-SHA256: fdd84dff165771b6291af8b5933fbceeec807627821ce86fe73ac70f50deec6a
# LUTr-License: CC-BY-SA-4.0
# LUTr-License-URL: https://github.com/NatronGitHub/clut#license
# LUTr-License-Basis: repo-license-file
# LUTr-Transform-Class: film-emulation
# LUTr-Tags: creative, film, film-emulation, hald-clut, natron, png, cube
# LUTr-Input-Color-Space: srgb
# LUTr-Input-Gamut: rec709
# LUTr-Input-Transfer: srgb
# LUTr-Output-Color-Space: srgb
# LUTr-Output-Gamut: rec709
# LUTr-Output-Transfer: srgb
# LUTr-Color-Space-Confidence: assumed-display-referred
# LUTr-Domain-Normalized: true
# LUTr-Shaper: none
# LUTr-Original-Grid: 64x64x64
# LUTr-Conversion-Grid: 25x25x25
# LUTr-Conversion-Interpolation: trilinear
# LUTr-Conversion-Method: HALD-PNG LUT image decoded at 16-bit and sampled to 25x25x25 3D CUBE
# LUTr-Conversion-Tool: LUTr scripts/convert-all-to-cube.mjs 2.0.0
# LUTr-Conversion-Date: 2026-07-27
# LUTr-Note: Preserve this metadata and the upstream license notices when redistributing.
TITLE "kodak portra 160 nc ++"
LUT_3D_SIZE 9
DOMAIN_MIN 0 0 0
DOMAIN_MAX 1 1 1
0.054901961 0.066666667 0.050980392
0.12009804 0.070588235 0.050980392
0.20686275 0.062745098 0.05
0.36519608 0.043137255 0.056372549
0.51568627 0.021568627 0.023529412
0.66078431 0.051960784 0.014215686
0.77647059 0.089215686 0.011764706
0.8877451 0.1622549 0.015686275
0.98039216 0.23921569 0.0078431373
0.058823529 0.12058824 0.062745098
0.09754902 0.10931373 0.050980392
0.23088235 0.13578431 0.04754902
0.37696078 0.1276348 0.055392157
0.53112745 0.11617647 0.033333333
0.66862745 0.13333333 0.019607843
0.79203431 0.15392157 0.00049019608
0.89558824 0.21568627 0.0083333333
0.96911765 0.25833333 0.0073529412
0.0078431373 0.19509804 0.076470588
0.057230392 0.21519608 0.081862745
0.22965686 0.24901961 0.033088235
0.40980392 0.27438725 0.015196078
0.56176471 0.24754902 0.016666667
0.69178922 0.25821078 0.0078431373
0.80612745 0.2754902 0.0075980392
0.90343137 0.30343137 0.0068627451
0.95980392 0.32647059 0.0078431373
0.0053921569 0.34313725 0.13823529
0.0076593137 0.35165441 0.13676471
0.11666667 0.3810049 0.11372549
0.35637255 0.42640931 0.035232843
0.5752451 0.44411765 0.0039215686
0.70153186 0.41807598 0.0078431373
0.81139706 0.40196078 0.0039215686
0.90735294 0.40998775 0.0039215686
0.98970588 0.43088235 0.0024509804
0.0019607843 0.48627451 0.20196078
0.0078431373 0.49411765 0.22156863
0.071078431 0.50490196 0.21470588
0.27205882 0.52598039 0.15931373
0.47843137 0.56078431 0.031372549
0.6995098 0.58308824 0.010294118
0.81127451 0.56176471 0.0039215686
0.91519608 0.53504902 0
0.98627451 0.5254902 0.035294118
0.0078431373 0.60441176 0.31029412
0.0078431373 0.60980392 0.30882353
0.055637255 0.60772059 0.3
0.24901961 0.62101716 0.29699755
0.41813725 0.64558824 0.24264706
0.60251225 0.67254902 0.16127451
0.79571078 0.69901961 0.013235294
0.90373775 0.67775735 0.018627451
0.9622549 0.66470588 0.032352941
0.026470588 0.71372549 0.39215686
0.10355392 0.71666667 0.41262255
0.17965686 0.71666667 0.41568627
0.29767157 0.7127451 0.40686275
0.4127451 0.73382353 0.39460784
0.55833333 0.74914216 0.34264706
0.71666667 0.77083333 0.27156863
0.87205882 0.79117647 0.18627451
0.9754902 0.78431373 0.19607843
0.33284314 0.81323529 0.52794118
0.34846814 0.81323529 0.54705882
0.39056373 0.81323529 0.54754902
0.42922794 0.80980392 0.54234069
0.48995098 0.81715686 0.53970588
0.58988971 0.83431373 0.50735294
0.69019608 0.8495098 0.48443627
0.82640931 0.87248775 0.43339461
0.93676471 0.89117647 0.37303922
0.55686275 0.90196078 0.68235294
0.57647059 0.90980392 0.69460784
0.59117647 0.90980392 0.69705882
0.6127451 0.90980392 0.7004902
0.63333333 0.90392157 0.69019608
0.68382353 0.91911765 0.69019608
0.74705882 0.93333333 0.67745098
0.81323529 0.94558824 0.6622549
0.90588235 0.96470588 0.64705882
0.063235294 0.070588235 0.10490196
0.11715686 0.067156863 0.093627451
0.22303922 0.055882353 0.092647059
0.36893382 0.03939951 0.095281863
0.52181373 0.072058824 0.1122549
0.65686275 0.090992647 0.10784314
0.78039216 0.14215686 0.10294118
0.88474265 0.18823529 0.10349265
0.98039216 0.2504902 0.1122549
0.096568627 0.12058824 0.11617647
0.12745864 0.11704197 0.10490196
0.24537377 0.12928922 0.11193321
0.38474265 0.11666667 0.10255821
0.53308824 0.1375 0.10220588
0.66813725 0.15229013 0.099839154
0.7872549 0.17745098 0.092156863
0.89166667 0.23829657 0.096507353
0.9721201 0.28480392 0.11182598
0.067156863 0.21948529 0.14705882
0.11875 0.23131127 0.14931066
0.2310049 0.24408701 0.12291667
0.41674326 0.27824755 0.078109681
0.55373775 0.25435049 0.092156863
0.6872549 0.26997549 0.093719363
0.79837623 0.28259804 0.093382353
0.89865196 0.31078431 0.10032169
0.97107843 0.34166667 0.11176471
0.031862745 0.36127451 0.19577206
0.044607843 0.3720818 0.19204963
0.17340686 0.38511029 0.19015012
0.38970588 0.42676164 0.11777727
0.57745098 0.44166667 0.038511029
0.70134038 0.40833333 0.048590686
0.81139706 0.39803922 0.049509804
0.90343137 0.40998775 0.079227941
0.97009804 0.42824755 0.085294118
0.0098039216 0.49362745 0.25784314
0.014246324 0.50125613 0.25762868
0.12757353 0.51102941 0.26133578
0.30818015 0.52990196 0.22637868
0.50539216 0.56666667 0.13504902
0.69984681 0.58097426 0.042156863
0.8091299 0.55398284 0.054289216
0.91473652 0.53333333 0.058609069
0.98455882 0.53333333 0.11127451
0.010294118 0.61354167 0.33547794
0.01752451 0.61746324 0.33137255
0.14865196 0.61354167 0.33547794
0.28547794 0.62390472 0.31985294
0.42778799 0.64681373 0.28921569
0.615625 0.67580423 0.20294884
0.79511336 0.69912684 0.12576593
0.90735294 0.67401961 0.13596814
0.98578431 0.65704657 0.1596201
0.12781863 0.71666667 0.42561275
0.16346507 0.72015931 0.42964154
0.24304534 0.7127451 0.43002451
0.32855392 0.71948529 0.42611826
0.42009804 0.73186275 0.40667892
0.55882353 0.75134804 0.3723652
0.72328431 0.77512255 0.3216299
0.875 0.79509804 0.26256127
0.96323529 0.78431373 0.25245098
0.36415441 0.81323529 0.55098039
0.37156863 0.81323529 0.55490196
0.40196078 0.81323529 0.5506587
0.44626225 0.80949755 0.55101869
0.49800858 0.81519608 0.54947917
0.58186275 0.83284314 0.53008578
0.69852941 0.8495098 0.49607843
0.81776195 0.86900276 0.45735294
0.92101716 0.8872549 0.42254902
0.58088235 0.91372549 0.70196078
0.57947304 0.9088848 0.69797794
0.59227941 0.90637255 0.69816176
0.61942402 0.90980392 0.70588235
0.65612745 0.91911765 0.71666667
0.69117647 0.92156863 0.6995098
0.74791667 0.93823529 0.69362745
0.81715686 0.94601716 0.66709559
0.87401961 0.95686275 0.6504902
0.058823529 0.081372549 0.21078431
0.14656863 0.078431373 0.21568627
0.24926471 0.06372549 0.21568627
0.39558824 0.041176471 0.22009804
0.53823529 0.017156863 0.2
0.66617647 0.036764706 0.20245098
0.77156863 0.16078431 0.22377451
0.87610294 0.22352941 0.23186275
0.96078431 0.27352941 0.23921569
0.056495098 0.12267157 0.2192402
0.14667586 0.13990502 0.23501838
0.26632966 0.13979779 0.2341299
0.40079657 0.13008578 0.22928922
0.54050245 0.13590686 0.22205882
0.66862745 0.13921569 0.21341912
0.78333333 0.21081495 0.21994485
0.87990196 0.26568627 0.2317402
0.9682598 0.3122549 0.24178922
0.076960784 0.23431373 0.24485294
0.16397059 0.24693627 0.2564951
0.28584559 0.26078431 0.26335784
0.41712623 0.27647059 0.25248162
0.55208333 0.27855392 0.24166667
0.67941176 0.28529412 0.23786765
0.78860294 0.30686275 0.23431373
0.89041054 0.33581495 0.23443627
0.97058824 0.37009804 0.24607843
0.14840686 0.37990196 0.31078431
0.20416667 0.39509804 0.31470588
0.28465074 0.40882353 0.3080576
0.38872549 0.42578125 0.27647059
0.57377451 0.43082108 0.24362745
0.70545343 0.40943627 0.24117647
0.80539216 0.41311275 0.23823529
0.89522059 0.42469363 0.23912377
0.96960784 0.4504902 0.24889706
0.20588235 0.51715686 0.36176471
0.23008578 0.52414216 0.36697304
0.26960784 0.52340686 0.35784314
0.35729167 0.53676471 0.33872549
0.51176471 0.56470588 0.3004902
0.6963848 0.57303922 0.2567402
0.81090686 0.54632353 0.24632353
0.90343137 0.5372549 0.24785539
0.98872549 0.54705882 0.26617647
0.21666667 0.62512255 0.41960784
0.21801471 0.62728248 0.41047794
0.27166054 0.62512255 0.40465686
0.3464614 0.62863051 0.40078125
0.45839461 0.6495098 0.3817402
0.63521752 0.67892157 0.33558517
0.80474877 0.69880515 0.28066789
0.9024663 0.66948529 0.28002451
0.95539216 0.65686275 0.27879902
0.27083333 0.7245098 0.47965686
0.28382353 0.72352941 0.47778799
0.3245098 0.72058824 0.47849265
0.38348652 0.72325368 0.47769608
0.46286765 0.72953431 0.46617647
0.58213848 0.7486826 0.44476103
0.73866422 0.77156863 0.39589461
0.8765625 0.78308824 0.36127451
0.96862745 0.78039216 0.35490196
0.42058824 0.82022059 0.58566176
0.43615196 0.81640625 0.58915441
0.44571078 0.81617647 0.58431373
0.48561581 0.81323529 0.58307292
0.53082108 0.81672794 0.58572304
0.60833333 0.83039216 0.5680913
0.71075368 0.84558824 0.54080882
0.81404718 0.8598652 0.49912684
0.9245098 0.87990196 0.46286765
0.59901961 0.90686275 0.71372549
0.60134804 0.91078431 0.71764706
0.61887255 0.91568627 0.72254902
0.62928922 0.90833333 0.71556373
0.66519608 0.91666667 0.72843137
0.6995098 0.91911765 0.71666667
0.75490196 0.93333333 0.70490196
0.82058824 0.94117647 0.68039216
0.86666667 0.94901961 0.66666667
0.0083333333 0.072058824 0.36911765
0.14313725 0.10392157 0.37254902
0.27205882 0.085784314 0.37879902
0.41470588 0.078492647 0.38088235
0.55539216 0.085294118 0.37426471
0.67800245 0.1088848 0.34803922
0.79117647 0.10098039 0.32745098
0.89362745 0.1745098 0.32696078
0.96470588 0.29460784 0.36176471
0.030392157 0.16176471 0.37285539
0.14836857 0.15345435 0.38023131
0.28391544 0.16087623 0.39129902
0.42303156 0.1707644 0.39380362
0.55808824 0.18170956 0.37916667
0.68284314 0.20035999 0.36323529
0.7939951 0.19509804 0.33835784
0.891322 0.2372549 0.33633578
0.95833333 0.30588235 0.35392157
0.011764706 0.26066176 0.39558824
0.14620098 0.27169118 0.3995098
0.30245098 0.28728554 0.40735294
0.43970588 0.30693934 0.41519608
0.55686275 0.31372549 0.40765931
0.67997855 0.31678922 0.39411765
0.78676471 0.32012868 0.37061887
0.88382353 0.35379902 0.36619179
0.96678922 0.38676471 0.375
0.12015931 0.40140931 0.43578431
0.20215227 0.41305913 0.42512255
0.31202512 0.42535233 0.43541667
0.44812347 0.44158241 0.42493873
0.56862745 0.4502451 0.4169424
0.68653493 0.43578431 0.40106464
0.79417892 0.44117647 0.38590686
0.8830193 0.44908854 0.38180147
0.97254902 0.47493873 0.39356618
0.26078431 0.53578431 0.46421569
0.29558824 0.53832721 0.46617647
0.36954657 0.54405637 0.47028186
0.44512868 0.54996936 0.46151961
0.53848039 0.55526961 0.44362745
0.69607843 0.56246936 0.41375613
0.81047794 0.54491422 0.40196078
0.89411765 0.55033701 0.39215686
0.97132353 0.55882353 0.39926471
0.3721201 0.64362745 0.52310049
0.38303462 0.63970588 0.52009804
0.40776654 0.64229473 0.51309743
0.43543964 0.64123775 0.49714308
0.50490196 0.65 0.48753064
0.63913143 0.66470588 0.45929075
0.79307598 0.67493873 0.43175551
0.89418658 0.66078431 0.41477482
0.97647059 0.65686275 0.41574755
0.40686275 0.73235294 0.56801471
0.42959559 0.73235294 0.57009804
0.44561887 0.73235294 0.56571691
0.46666667 0.73026961 0.5528799
0.51372549 0.73216912 0.54675245
0.6118413 0.74522059 0.53431373
0.74080882 0.76838235 0.4995098
0.88186275 0.78904718 0.47313113
0.97365196 0.77941176 0.46764706
0.50098039 0.82107843 0.64215686
0.50500919 0.82322304 0.64403339
0.52316176 0.82345282 0.64171262
0.5422258 0.82107843 0.63382353
0.57965686 0.82107843 0.63602941
0.626394 0.82892157 0.62609528
0.71475184 0.84558824 0.60980392
0.8407935 0.86856618 0.58676471
0.95637255 0.89117647 0.55539216
0.62205882 0.90588235 0.73578431
0.63333333 0.91372549 0.74313725
0.63382353 0.90980392 0.73909314
0.65196078 0.90735294 0.73633578
0.67965686 0.91372549 0.74558824
0.71519608 0.92064951 0.75
0.75919118 0.92340686 0.7252451
0.83106618 0.94215686 0.71599265
0.8872549 0.95294118 0.70441176
0.017647059 0.1 0.53333333
0.15882353 0.10441176 0.53529412
0.29705882 0.10784314 0.53921569
0.44754902 0.16176471 0.54313725
0.57058824 0.16862745 0.5372549
0.67769608 0.1872549 0.51421569
0.79362745 0.23088235 0.49901961
0.89558824 0.25931373 0.47647059
0.96862745 0.28235294 0.46862745
0.060294118 0.17720588 0.53137255
0.17230392 0.17696078 0.53526348
0.31060049 0.19761029 0.54834559
0.45799632 0.21706495 0.55098039
0.58235294 0.23517157 0.55098039
0.69990809 0.26289828 0.52941176
0.80735294 0.27598039 0.50122549
0.8995098 0.29341299 0.47990196
0.96127451 0.30906863 0.47034314
0.076470588 0.29362745 0.54852941
0.18970588 0.3 0.55245098
0.31862745 0.31151961 0.55404412
0.45882353 0.33137255 0.55863971
0.58235294 0.35147059 0.55833333
0.69656863 0.35863971 0.53970588
0.80147059 0.36384804 0.51470588
0.89166667 0.36642157 0.49080882
0.96960784 0.39068627 0.48872549
0.057107843 0.41960784 0.55416667
0.17637868 0.42941176 0.55686275
0.31151961 0.43872549 0.56011029
0.46277574 0.45343137 0.56807598
0.5807598 0.46703431 0.56372549
0.68431373 0.47205882 0.54905025
0.7872549 0.46691176 0.52677696
0.88367034 0.46087623 0.50637255
0.96151961 0.48382353 0.51102941
0.25490196 0.54901961 0.56862745
0.2877451 0.5567402 0.5627451
0.36666667 0.56078431 0.56348039
0.47953431 0.56531863 0.57867647
0.58333333 0.5745098 0.58235294
0.69264706 0.57254902 0.56262255
0.79607843 0.57058824 0.54166667
0.88382353 0.57058824 0.52830882
0.95588235 0.57156863 0.52352941
0.38088235 0.65147059 0.59362745
0.39598652 0.65539216 0.60514706
0.45073529 0.65539216 0.59828431
0.51495098 0.66492034 0.60389093
0.59191176 0.66519608 0.6060049
0.6703125 0.67723652 0.58578431
0.79901961 0.69148284 0.56580882
0.8877451 0.66691176 0.54607843
0.97132353 0.65931373 0.5372549
0.48039216 0.74411765 0.64509804
0.49632353 0.74411765 0.64509804
0.52181373 0.74178922 0.64031863
0.55079657 0.74362745 0.64068627
0.58823529 0.74460784 0.64215686
0.63480392 0.74632353 0.61960784
0.7682598 0.77083333 0.60882353
0.86979167 0.77775735 0.59387255
0.96862745 0.77254902 0.58039216
0.57058824 0.82892157 0.70735294
0.58357843 0.83278186 0.7129902
0.59356618 0.83284314 0.70710784
0.6036152 0.82377451 0.69420956
0.63272059 0.82892157 0.69644608
0.67515319 0.83284314 0.69117647
0.75 0.84558824 0.68339461
0.8528799 0.86862745 0.66764706
0.95784314 0.89362745 0.63504902
0.66666667 0.90980392 0.77647059
0.6745098 0.91764706 0.78235294
0.67598039 0.91323529 0.77647059
0.68553922 0.91887255 0.77647059
0.70196078 0.91470588 0.77254902
0.73284314 0.91960784 0.7745098
0.77598039 0.92843137 0.76911765
0.84019608 0.93333333 0.74828431
0.91372549 0.96078431 0.74509804
0.11960784 0.15343137 0.67254902
0.21881127 0.1596201 0.67254902
0.34803922 0.19129902 0.67463235
0.48039216 0.21470588 0.67984069
0.60416667 0.24289216 0.67843137
0.71023284 0.27107843 0.66470588
0.81041667 0.29509804 0.65343137
0.89166667 0.34332108 0.62892157
0.975 0.38480392 0.61372549
0.1526348 0.22089461 0.66488971
0.2286152 0.22342218 0.6720818
0.35196078 0.24315257 0.68039216
0.48339461 0.26618413 0.68039216
0.61372549 0.30196078 0.68422181
0.71960784 0.33118107 0.67628676
0.82401961 0.34338235 0.66181066
0.89932598 0.38288143 0.63676471
0.97107843 0.41421569 0.62156863
0.19877451 0.33480392 0.67046569
0.24990809 0.33592218 0.68039216
0.3622549 0.34491422 0.68039216
0.48578431 0.36530331 0.68284314
0.61176471 0.39577206 0.68553922
0.72104779 0.42261029 0.67892157
0.81844363 0.42745098 0.65796569
0.8975337 0.43982843 0.6426011
0.97107843 0.46580882 0.62941176
0.13339461 0.44264706 0.66807598
0.23186275 0.44871324 0.67254902
0.33344056 0.45703125 0.675
0.47941176 0.46897212 0.675
0.60539216 0.49313725 0.68011642
0.70784314 0.51525735 0.67704504
0.79633885 0.52254902 0.66470588
0.88382353 0.52156863 0.65674786
0.96470588 0.52303922 0.63333333
0.21421569 0.55686275 0.67107843
0.28872549 0.56927083 0.675
0.35735294 0.56721814 0.67254902
0.46544118 0.57104779 0.68014706
0.59754902 0.5879902 0.68676471
0.70245098 0.60343137 0.68768382
0.78664216 0.5995098 0.67598039
0.87588848 0.60220588 0.66421569
0.94117647 0.60220588 0.64828431
0.35006127 0.66023284 0.675
0.38560049 0.66715686 0.68032322
0.43797488 0.67015931 0.68376225
0.51596967 0.67107843 0.69126072
0.60934436 0.675 0.7004902
0.69123775 0.68846507 0.69607843
0.79025735 0.69460784 0.68762255
0.87198989 0.6863894 0.6712546
0.95147059 0.67892157 0.6598652
0.49375 0.74914216 0.69901961
0.50899203 0.75306373 0.70678615
0.53893995 0.75306373 0.71372549
0.59178922 0.75588235 0.71764706
0.64754902 0.75919118 0.71966912
0.68492647 0.7615962 0.71911765
0.78235294 0.77659314 0.7067402
0.86992953 0.78328738 0.69367341
0.95061275 0.77647059 0.68676471
0.60147059 0.83284314 0.75539216
0.61452206 0.83672641 0.75539216
0.62745098 0.83676471 0.75686275
0.64803922 0.83431373 0.75686275
0.68039216 0.83805147 0.75686275
0.71911765 0.83657322 0.75422794
0.76470588 0.84322917 0.75289522
0.84476869 0.86770833 0.73488817
0.94546569 0.88382353 0.7254902
0.70196078 0.91764706 0.82107843
0.696875 0.91519608 0.81715686
0.7127451 0.9182598 0.82107843
0.72303922 0.91764706 0.81623775
0.73284314 0.90588235 0.80539216
0.76072304 0.91617647 0.80839461
0.79166667 0.90392157 0.7939951
0.85196078 0.94117647 0.80116422
0.93480392 0.93970588 0.77401961
0.25098039 0.22941176 0.78333333
0.30882353 0.23431373 0.78688725
0.41004902 0.26372549 0.7872549
0.50980392 0.28382353 0.7872549
0.63627451 0.32745098 0.78333333
0.74264706 0.37303922 0.77830882
0.82254902 0.39607843 0.76691176
0.8935049 0.41176471 0.75294118
0.94509804 0.44509804 0.74509804
0.27009804 0.28431373 0.7807598
0.3192402 0.29123775 0.7872549
0.41470588 0.30677083 0.78446691
0.51407782 0.32193627 0.78370098
0.63400735 0.36746324 0.78333333
0.74558824 0.40343137 0.78333333
0.83140319 0.42594975 0.77941176
0.89117647 0.43590686 0.75637255
0.94068627 0.47156863 0.74509804
0.28921569 0.37156863 0.7754902
0.33072917 0.3754902 0.78324142
0.41862745 0.3872549 0.77965686
0.52313113 0.40931373 0.78048407
0.63737745 0.4372549 0.79019608
0.74065564 0.46813725 0.78688725
0.82947304 0.48553922 0.77941176
0.89509804 0.50318627 0.76449142
0.95686275 0.53504902 0.74509804
0.27058824 0.47107843 0.77193627
0.33284314 0.47486213 0.77941176
0.40842525 0.4825674 0.78333333
0.51813725 0.49705882 0.77941176
0.62843137 0.52401961 0.78333333
0.73419118 0.55588235 0.7872549
0.8223652 0.57009804 0.7770527
0.89122243 0.57909007 0.76458333
0.94901961 0.59117647 0.75085784
0.24166667 0.57156863 0.76372549
0.30931373 0.57671569 0.77156863
0.39656863 0.57512255 0.77401961
0.48946078 0.58651961 0.7754902
0.61495098 0.60245098 0.77941176
0.72696078 0.62935049 0.7872549
0.81127451 0.64080882 0.78296569
0.87990196 0.64803922 0.77156863
0.94509804 0.65294118 0.76029412
0.3564951 0.66813725 0.76372549
0.38578431 0.67486213 0.77156863
0.44175858 0.67107843 0.77365196
0.5126685 0.67169118 0.7754902
0.61004902 0.68063725 0.77941176
0.70568321 0.69852941 0.78794424
0.80266544 0.71234681 0.79071691
0.87254902 0.70980392 0.77634804
0.94056373 0.71078431 0.76470588
0.47352941 0.76053922 0.7754902
0.49730392 0.76246936 0.77622549
0.53455882 0.7629902 0.77922794
0.58002451 0.76691176 0.78014706
0.65294118 0.76372549 0.79031863
0.70759804 0.76875 0.79537377
0.79356618 0.78351716 0.7997549
0.8689951 0.78039216 0.78811275
0.94607843 0.77720588 0.77647059
0.60588235 0.84460784 0.8064951
0.61371017 0.84456189 0.81029412
0.62858456 0.8448223 0.81075368
0.67058824 0.845144 0.81234681
0.71323529 0.84810049 0.81599265
0.75625 0.84816176 0.81813725
0.79215686 0.85238971 0.81813725
0.86519608 0.8716299 0.81174939
0.95428922 0.88026961 0.7995098
0.70980392 0.9254902 0.85588235
0.70980392 0.92169118 0.85294118
0.71666667 0.91789216 0.85196078
0.74460784 0.92610294 0.8564951
0.76911765 0.92598039 0.85980392
0.79852941 0.92941176 0.85980392
0.82647059 0.92230392 0.85294118
0.86507353 0.94460784 0.85502451
0.95196078 0.92745098 0.81862745
0.38676471 0.34362745 0.86813725
0.42849265 0.35447304 0.87591912
0.48627451 0.36960784 0.87598039
0.56911765 0.38609069 0.87205882
0.66568627 0.40980392 0.87156863
0.76568627 0.46746324 0.86813725
0.84656863 0.51617647 0.86421569
0.92254902 0.52444853 0.86764706
0.96519608 0.53480392 0.84852941
0.39852941 0.37794118 0.87506127
0.42892157 0.37799479 0.87941176
0.49232537 0.39560355 0.8756587
0.57303922 0.41476716 0.87567402
0.66568627 0.44957108 0.87156863
0.7656633 0.48954504 0.86813725
0.84676777 0.53137255 0.86764706
0.90735294 0.54613205 0.85637255
0.96476716 0.56127451 0.84901961
0.40637255 0.44178922 0.87169118
0.43558517 0.4495098 0.86781556
0.49249387 0.45 0.87435662
0.57708333 0.47745098 0.87156863
0.66936275 0.49963235 0.8754902
0.76153493 0.53970588 0.87124694
0.84188113 0.57267157 0.86764706
0.91121324 0.59914216 0.86421569
0.95 0.60441176 0.85245098
0.40618873 0.51862745 0.86421569
0.43278186 0.52224265 0.86764706
0.50061275 0.53492647 0.86764706
0.57310815 0.55343137 0.86776195
0.66436887 0.57117034 0.87156863
0.76568627 0.60343137 0.87156863
0.84203431 0.62941176 0.86732537
0.90735294 0.63511029 0.86029412
0.94509804 0.64246324 0.85508578
0.4004902 0.6127451 0.85637255
0.41525735 0.61029412 0.86397059
0.48039216 0.61397059 0.86721814
0.56544118 0.62040441 0.86813725
0.65392157 0.63431373 0.86776961
0.75588235 0.66485907 0.86813725
0.83817402 0.68792892 0.8754902
0.89926471 0.69488358 0.86764706
0.94705882 0.70245098 0.86029412
0.39166667 0.68333333 0.85637255
0.41650582 0.68707108 0.86029412
0.45753676 0.68547794 0.86029412
0.52548254 0.68744638 0.85851716
0.63348652 0.69558824 0.86412377
0.73284314 0.71862745 0.86802237
0.82068015 0.74011949 0.87561275
0.89166667 0.7533701 0.87318474
0.93756127 0.76078431 0.86421569
0.48590686 0.77205882 0.85735294
0.50882353 0.77193627 0.86029412
0.54151348 0.77463235 0.86393995
0.5856924 0.77205882 0.86029412
0.63504902 0.77156863 0.86072304
0.71617647 0.77598039 0.8660386
0.80303309 0.79166667 0.87356005
0.89047181 0.810769 0.88109681
0.91752451 0.81421569 0.87598039
0.61029412 0.86078431 0.87990196
0.60980392 0.85686275 0.8721201
0.62008272 0.85637255 0.86813725
0.65490196 0.85680147 0.87203585
0.70707721 0.8598652 0.87794118
0.76685049 0.86394761 0.87947304
0.81346507 0.86464461 0.88382353
0.88376991 0.87678462 0.8872549
0.94509804 0.88431373 0.88431373
0.69754902 0.9254902 0.89852941
0.71666667 0.93333333 0.89852941
0.72585784 0.93382353 0.89852941
0.74362745 0.93756127 0.90294118
0.77426471 0.9372549 0.90637255
0.80784314 0.93235294 0.90686275
0.85294118 0.94117647 0.91335784
0.89160539 0.94209559 0.90294118
0.94509804 0.95637255 0.90245098
0.53333333 0.48235294 0.94509804
0.55245098 0.48235294 0.94901961
0.59411765 0.49705882 0.95294118
0.64019608 0.48627451 0.93088235
0.71960784 0.52941176 0.93529412
0.79656863 0.55980392 0.9372549
0.86862745 0.60882353 0.9372549
0.93823529 0.65588235 0.94166667
0.98431373 0.65490196 0.9372549
0.54117647 0.50147059 0.95245098
0.55680147 0.50539216 0.94901961
0.59497549 0.51188725 0.94509804
0.64344363 0.51599265 0.93676471
0.72696078 0.55612745 0.94705882
0.79479167 0.57303922 0.93676471
0.86875 0.6245098 0.94117647
0.92647059 0.65055147 0.9372549
0.96960784 0.64068627 0.92254902
0.55196078 0.54705882 0.94901961
0.55343137 0.54362745 0.94166667
0.58235294 0.53848039 0.93333333
0.64166667 0.55625 0.93419118
0.73480392 0.59852941 0.9504902
0.79718137 0.61617647 0.94117647
0.86544118 0.64387255 0.9372549
0.92610294 0.67757353 0.9372549
0.96960784 0.68627451 0.93823529
0.54509804 0.60098039 0.94362745
0.55833333 0.6004902 0.94313725
0.59901961 0.60490196 0.94215686
0.6528799 0.61666667 0.94117647
0.7254902 0.6370098 0.94117647
0.79901961 0.65735294 0.94454657
0.86973039 0.68688725 0.94448529
0.92254902 0.69883578 0.93137255
0.95686275 0.71862745 0.94117647
0.53333333 0.66078431 0.94509804
0.54485294 0.65882353 0.94117647
0.59509804 0.66617647 0.9495098
0.64093137 0.66862745 0.93995098
0.7127451 0.68137255 0.94313725
0.78627451 0.69779412 0.93063725
0.86519608 0.72647059 0.94509804
0.92254902 0.74362745 0.94117647
0.97058824 0.75686275 0.94509804
0.50196078 0.72205882 0.9504902
0.51568627 0.71648284 0.93707108
0.55379902 0.7245098 0.94546569
0.60735294 0.72297794 0.93572304
0.68602941 0.73235294 0.94362745
0.77156863 0.75196078 0.94601716
0.84791667 0.77046569 0.94509804
0.91862745 0.79381127 0.94528186
0.95539216 0.80147059 0.93970588
0.55098039 0.79509804 0.94509804
0.55110294 0.78713235 0.92610294
0.58137255 0.79411765 0.9370098
0.61617647 0.79901961 0.94509804
0.66470588 0.79656863 0.94558824
0.74411765 0.80196078 0.94901961
0.83333333 0.81691176 0.95
0.91066176 0.84019608 0.95159314
0.94901961 0.85294118 0.94901961
0.62843137 0.88676471 0.95539216
0.63584559 0.87990196 0.94509804
0.65098039 0.88382353 0.9495098
0.67371324 0.88498775 0.95018382
0.7127451 0.87965686 0.94509804
0.77598039 0.87598039 0.94509804
0.82071078 0.87205882 0.91286765
0.90686275 0.89558824 0.94944853
0.96421569 0.90637255 0.96029412
0.70980392 0.95686275 0.96078431
0.69313725 0.92843137 0.92843137
0.72058824 0.94509804 0.94215686
0.74362745 0.95539216 0.95392157
0.75882353 0.93921569 0.94901961
0.80539216 0.95147059 0.95539216
0.85686275 0.95392157 0.95784314
0.90245098 0.94460784 0.95637255
0.94901961 0.91372549 0.94901961
