site/assets/luts/sha256-fdd84dff165771b6291af8b5933fbceeec807627821ce86fe73ac70f50deec6a.cube
# LUTr-Schema-Version: 2
# LUTr-ID: sha256-fdd84dff165771b6291af8b5933fbceeec807627821ce86fe73ac70f50deec6a
# LUTr-Title: kodak portra 160 nc ++
# LUTr-Collection: Natron HaldCLUT
# LUTr-Collection-ID: natron-haldclut-presets
# LUTr-Source: https://github.com/NatronGitHub/clut
# LUTr-Retrieved: 2026-07-27
# LUTr-Source-File: submissions/natron-haldclut-presets/negative_old/kodak_portra_160_nc_++.png
# LUTr-Source-Format: HALD-PNG
# LUTr-Source-SHA256: fdd84dff165771b6291af8b5933fbceeec807627821ce86fe73ac70f50deec6a
# LUTr-License: CC-BY-SA-4.0
# LUTr-License-URL: https://github.com/NatronGitHub/clut#license
# LUTr-License-Basis: repo-license-file
# LUTr-Transform-Class: film-emulation
# LUTr-Tags: creative, film, film-emulation, hald-clut, natron, png, cube
# LUTr-Input-Color-Space: srgb
# LUTr-Input-Gamut: rec709
# LUTr-Input-Transfer: srgb
# LUTr-Output-Color-Space: srgb
# LUTr-Output-Gamut: rec709
# LUTr-Output-Transfer: srgb
# LUTr-Color-Space-Confidence: assumed-display-referred
# LUTr-Domain-Normalized: true
# LUTr-Shaper: none
# LUTr-Original-Grid: 64x64x64
# LUTr-Conversion-Grid: 25x25x25
# LUTr-Conversion-Interpolation: trilinear
# LUTr-Conversion-Method: HALD-PNG LUT image decoded at 16-bit and sampled to 25x25x25 3D CUBE
# LUTr-Conversion-Tool: LUTr scripts/convert-all-to-cube.mjs 2.0.0
# LUTr-Conversion-Date: 2026-07-27
# LUTr-Note: Preserve this metadata and the upstream license notices when redistributing.
TITLE "kodak portra 160 nc ++"
LUT_3D_SIZE 25
DOMAIN_MIN 0 0 0
DOMAIN_MAX 1 1 1
0.054901961 0.066666667 0.050980392
0.070098039 0.066666667 0.049509804
0.096078431 0.067647059 0.050980392
0.12009804 0.070588235 0.050980392
0.14117647 0.066666667 0.049019608
0.16568627 0.066176471 0.046568627
0.20686275 0.062745098 0.05
0.25833333 0.057352941 0.054901961
0.31372549 0.050980392 0.058823529
0.36519608 0.043137255 0.056372549
0.41666667 0.034313725 0.046078431
0.46813725 0.024019608 0.032352941
0.51568627 0.021568627 0.023529412
0.56715686 0.044117647 0.026960784
0.61568627 0.054901961 0.023529412
0.66078431 0.051960784 0.014215686
0.70588235 0.035294118 0.0039215686
0.74068627 0.06372549 0.010294118
0.77647059 0.089215686 0.011764706
0.81764706 0.1127451 0.015686275
0.85490196 0.1372549 0.015686275
0.8877451 0.1622549 0.015686275
0.92156863 0.19313725 0.015686275
0.95490196 0.22254902 0.011764706
0.98039216 0.23921569 0.0078431373
0.058823529 0.083333333 0.054901961
0.071568627 0.079411765 0.053431373
0.092156863 0.080882353 0.052818627
0.11421569 0.080882353 0.051286765
0.1379902 0.080882353 0.050980392
0.16911765 0.083639706 0.051286765
0.21139706 0.083333333 0.053431373
0.26133578 0.078860294 0.057904412
0.31372549 0.071568627 0.062745098
0.36764706 0.06372549 0.058823529
0.41911765 0.057352941 0.046078431
0.47058824 0.053125 0.035784314
0.52205882 0.053676471 0.028676471
0.57322304 0.064522059 0.026960784
0.6192402 0.071568627 0.023529412
0.66378676 0.070098039 0.015686275
0.70588235 0.07254902 0.011764706
0.74460784 0.086764706 0.011764706
0.78223039 0.10882353 0.013235294
0.82028186 0.13333333 0.013235294
0.85686275 0.15392157 0.01372549
0.8877451 0.17469363 0.015686275
0.92218137 0.1995098 0.012745098
0.95827206 0.22401961 0.0087622549
0.98039216 0.24313725 0.0078431373
0.058823529 0.1 0.058823529
0.071568627 0.097181373 0.057720588
0.087990196 0.096078431 0.057843137
0.10784314 0.096078431 0.050980392
0.13578431 0.098039216 0.053431373
0.17941176 0.10796569 0.055392157
0.22058824 0.10808824 0.054901961
0.26960784 0.10453431 0.058823529
0.31862745 0.1 0.061764706
0.37009804 0.094607843 0.060294118
0.4245098 0.08995098 0.05
0.47683824 0.089215686 0.039705882
0.52745098 0.085294118 0.033333333
0.575 0.084803922 0.024387255
0.62254902 0.091911765 0.020588235
0.66507353 0.099509804 0.019607843
0.70980392 0.10882353 0.015686275
0.74803922 0.11519608 0.011151961
0.7875 0.13333333 0.0068627451
0.82291667 0.15392157 0.0077205882
0.85931373 0.1745098 0.011764706
0.89166667 0.19509804 0.015686275
0.92573529 0.21568627 0.011764706
0.96127451 0.23419118 0.0057598039
0.98235294 0.24509804 0.0039215686
0.058823529 0.12058824 0.062745098
0.069117647 0.11452206 0.056372549
0.079901961 0.10931373 0.051470588
0.09754902 0.10931373 0.050980392
0.14068627 0.12034314 0.051470588
0.18584559 0.13278186 0.04754902
0.23088235 0.13578431 0.04754902
0.27745098 0.13186275 0.04932598
0.32892157 0.13186275 0.051470588
0.37696078 0.1276348 0.055392157
0.43186275 0.12303922 0.05
0.48333333 0.12009804 0.039705882
0.53112745 0.11617647 0.033333333
0.57886029 0.11262255 0.023958333
0.62610294 0.12254902 0.020955882
0.66862745 0.13333333 0.019607843
0.71323529 0.14313725 0.015686275
0.75098039 0.14754902 0.0080269608
0.79203431 0.15392157 0.00049019608
0.82898284 0.17751225 0.0039215686
0.8625 0.19681373 0.0078431373
0.89558824 0.21568627 0.0083333333
0.92647059 0.23370098 0.0079656863
0.9526348 0.24932598 0.0039215686
0.96911765 0.25833333 0.0073529412
0.041176471 0.14313725 0.066666667
0.056617647 0.1379902 0.061519608
0.067647059 0.13137255 0.055882353
0.093627451 0.13455882 0.049264706
0.15 0.14901961 0.051960784
0.19411765 0.15955882 0.034558824
0.23676471 0.16666667 0.02745098
0.2877451 0.16740196 0.034068627
0.33529412 0.17254902 0.039215686
0.38676471 0.16617647 0.043137255
0.43872549 0.15637255 0.044607843
0.49362745 0.15098039 0.039460784
0.54019608 0.15392157 0.031372549
0.58872549 0.15906863 0.023039216
0.63333333 0.16617647 0.019607843
0.67720588 0.17401961 0.015686275
0.71960784 0.18039216 0.011764706
0.75955882 0.18676471 0.0053921569
0.79754902 0.19313725 0.0039215686
0.83186275 0.20906863 0.0039215686
0.86764706 0.22352941 0.0049019608
0.89901961 0.23578431 0.0039215686
0.91813725 0.2495098 0.0039215686
0.93823529 0.26495098 0.0078431373
0.95882353 0.27843137 0.0078431373
0.02254902 0.16568627 0.070588235
0.037071078 0.16470588 0.067463235
0.051102941 0.16752451 0.067647059
0.079473039 0.17401961 0.064215686
0.13210784 0.18431373 0.051715686
0.18535539 0.19460784 0.034865196
0.24105392 0.20490196 0.018259804
0.29411765 0.21390931 0.018627451
0.34509804 0.21764706 0.02254902
0.39705882 0.21176471 0.026776961
0.45245098 0.20330882 0.031862745
0.5 0.19564951 0.034803922
0.5495098 0.19803922 0.025245098
0.59901961 0.2028799 0.018688725
0.64362745 0.20980392 0.015196078
0.68480392 0.21734069 0.011764706
0.7254902 0.22156863 0.0078431373
0.76452206 0.22941176 0.0078431373
0.80306373 0.23431373 0.0042892157
0.8377451 0.24846814 0.0074142157
0.87254902 0.25882353 0.0041666667
0.90294118 0.26819853 0.0039215686
0.92095588 0.27512255 0.0042892157
0.93676471 0.28529412 0.0078431373
0.95343137 0.2995098 0.0078431373
0.0078431373 0.19509804 0.076470588
0.018627451 0.20245098 0.081004902
0.030637255 0.20784314 0.084313725
0.057230392 0.21519608 0.081862745
0.10490196 0.22205882 0.065686275
0.16213235 0.23578431 0.055392157
0.22965686 0.24901961 0.033088235
0.29571078 0.26323529 0.0052696078
0.35196078 0.26862745 0.0058823529
0.40980392 0.27438725 0.015196078
0.46176471 0.2745098 0.021568627
0.51029412 0.26164216 0.021078431
0.56176471 0.24754902 0.016666667
0.61188725 0.24705882 0.0088235294
0.65392157 0.25098039 0.0088235294
0.69178922 0.25821078 0.0078431373
0.72941176 0.26666667 0.0078431373
0.76776961 0.27242647 0.0078431373
0.80612745 0.2754902 0.0075980392
0.84154412 0.28921569 0.0078431373
0.87254902 0.29705882 0.0078431373
0.90343137 0.30343137 0.0068627451
0.92965686 0.31053922 0.0078431373
0.94705882 0.31911765 0.0078431373
0.95980392 0.32647059 0.0078431373
0.0078431373 0.24656863 0.10098039
0.0078431373 0.24656863 0.097058824
0.010294118 0.24901961 0.095588235
0.022058824 0.25294118 0.091973039
0.076715686 0.26348039 0.084068627
0.13970588 0.27745098 0.080392157
0.20428922 0.29227941 0.062254902
0.26862745 0.30778186 0.031372549
0.35 0.32892157 0.014705882
0.42101716 0.34307598 0.0083946078
0.46911765 0.34154412 0.012377451
0.51666667 0.32892157 0.014215686
0.57132353 0.31078431 0.0071078431
0.62518382 0.29276961 0
0.65980392 0.29656863 0.0039215686
0.69607843 0.30238971 0.0078431373
0.73333333 0.30784314 0.0078431373
0.77058824 0.31421569 0.0078431373
0.80784314 0.31666667 0.0068627451
0.84166667 0.32696078 0.0076593137
0.87401961 0.33333333 0.0078431373
0.90343137 0.33952206 0.0078431373
0.93431373 0.34669118 0.0078431373
0.95735294 0.35582108 0.006372549
0.97401961 0.3627451 0.0039215686
0.0078431373 0.29411765 0.11764706
0.0053921569 0.29411765 0.11519608
0.0029411765 0.29411765 0.1127451
0.0034313725 0.29803922 0.10980392
0.043137255 0.30980392 0.10980392
0.10441176 0.32254902 0.10588235
0.1627451 0.33921569 0.093137255
0.23529412 0.35441176 0.062254902
0.32156863 0.37647059 0.039215686
0.40392157 0.39313725 0.02254902
0.4754902 0.40392157 0.0068627451
0.52696078 0.39656863 0.0044117647
0.57647059 0.37843137 0.0039215686
0.62156863 0.36029412 0.0039215686
0.6627451 0.35294118 0.0039215686
0.69852941 0.35294118 0.0078431373
0.7372549 0.35686275 0.0078431373
0.77205882 0.35686275 0.0078431373
0.81078431 0.36078431 0.0039215686
0.84558824 0.36421569 0.0039215686
0.87647059 0.37058824 0.0058823529
0.90735294 0.37647059 0.0078431373
0.93529412 0.38333333 0.0039215686
0.96519608 0.39362745 0.0039215686
0.98823529 0.4 0.0039215686
0.0053921569 0.34313725 0.13823529
0.0039215686 0.34166667 0.13584559
0.0039215686 0.34558824 0.13860294
0.0076593137 0.35165441 0.13676471
0.019117647 0.35735294 0.13431373
0.056862745 0.36715686 0.13253676
0.11666667 0.3810049 0.11372549
0.19803922 0.39859069 0.089767157
0.27794118 0.41372549 0.06372549
0.35637255 0.42640931 0.035232843
0.44362745 0.44460784 0.014338235
0.5252451 0.45545343 0.0027573529
0.5752451 0.44411765 0.0039215686
0.62156863 0.42843137 0.0039215686
0.6627451 0.42144608 0.0050245098
0.70153186 0.41807598 0.0078431373
0.7372549 0.4122549 0.011764706
0.7745098 0.40588235 0.0078431373
0.81139706 0.40196078 0.0039215686
0.84558824 0.40539216 0.0014705882
0.87647059 0.40857843 0.0039215686
0.90735294 0.40998775 0.0039215686
0.93823529 0.41482843 0.0039215686
0.96672794 0.4245098 0.00091911765
0.98970588 0.43088235 0.0024509804
0.0039215686 0.39215686 0.15490196
0.0039215686 0.39497549 0.15955882
0.0078431373 0.39730392 0.15906863
0.011397059 0.40441176 0.1627451
0.014705882 0.40833333 0.15931373
0.016176471 0.40919118 0.15441176
0.075490196 0.42230392 0.1372549
0.15686275 0.43615196 0.11372549
0.23627451 0.44705882 0.08627451
0.31115196 0.45919118 0.055392157
0.38897059 0.47058824 0.026960784
0.47696078 0.48737745 0.016789216
0.55784314 0.49901961 0.0068627451
0.6247549 0.49914216 0.0034313725
0.66691176 0.48946078 0.0036764706
0.70245098 0.47892157 0.0078431373
0.7372549 0.46764706 0.011764706
0.77487745 0.46127451 0.0072303922
0.81176471 0.45490196 0.0022058824
0.84558824 0.45196078 0
0.88039216 0.45098039 0.0034313725
0.90833333 0.45098039 0
0.93848039 0.45098039 0
0.96727941 0.45208333 0.0020833333
0.97941176 0.45686275 0.0078431373
0.00049019608 0.44068627 0.17205882
0.0039215686 0.44460784 0.17794118
0.0078431373 0.44865196 0.18419118
0.0082720588 0.4528799 0.18719363
0.0083333333 0.45637255 0.18848039
0.012745098 0.45643382 0.18584559
0.060661765 0.46066176 0.17647059
0.13645833 0.471875 0.15784314
0.21617647 0.48431373 0.13088235
0.29246324 0.49246324 0.10392157
0.36127451 0.50232843 0.075980392
0.43376225 0.51568627 0.036580882
0.51593137 0.53014706 0.011764706
0.60196078 0.54803922 0.0042892157
0.66323529 0.54497549 0.0073529412
0.70030637 0.52971814 0.011458333
0.74068627 0.52303922 0.0078431373
0.778125 0.51648284 0.0017769608
0.81176471 0.50992647 0.00085784314
0.84901961 0.50042892 0
0.88406863 0.49607843 0
0.91127451 0.49215686 0
0.94215686 0.49215686 0.0025735294
0.96764706 0.48854167 0.010416667
0.97647059 0.48823529 0.015196078
0.0019607843 0.48627451 0.20196078
0.0039215686 0.4875 0.20833333
0.006372549 0.49068627 0.21470588
0.0078431373 0.49411765 0.22156863
0.0078431373 0.49803922 0.2254902
0.018137255 0.49852941 0.22132353
0.071078431 0.50490196 0.21470588
0.13039216 0.51053922 0.20563725
0.19803922 0.51764706 0.18627451
0.27205882 0.52598039 0.15931373
0.34019608 0.53627451 0.12745098
0.40833333 0.54828431 0.082843137
0.47843137 0.56078431 0.031372549
0.55710784 0.57132353 0.021813725
0.63627451 0.57990196 0.020588235
0.6995098 0.58308824 0.010294118
0.74509804 0.58039216 0.0019607843
0.77990196 0.57205882 0.0012254902
0.81127451 0.56176471 0.0039215686
0.84730392 0.55147059 0.0022058824
0.88333333 0.54215686 0
0.91519608 0.53504902 0
0.94215686 0.52990196 0.0014705882
0.96764706 0.53088235 0.016911765
0.98627451 0.5254902 0.035294118
0.0044117647 0.52352941 0.24068627
0.0078431373 0.52726716 0.24099265
0.0078431373 0.52830882 0.24595588
0.010906863 0.53137255 0.25196078
0.01127451 0.53480392 0.25196078
0.013664216 0.53572304 0.24803922
0.064705882 0.54166667 0.24154412
0.12598039 0.54656863 0.23676471
0.18431373 0.5504902 0.23284314
0.25165441 0.55704657 0.21060049
0.31862745 0.56715686 0.17990196
0.38431373 0.57745098 0.14564951
0.45563725 0.5877451 0.11127451
0.51960784 0.59803922 0.084313725
0.59803922 0.61176471 0.057352941
0.68039216 0.63008578 0.024693627
0.74411765 0.63333333 0.0044117647
0.77303922 0.61911765 0.0065563725
0.8064951 0.60894608 0.0037990196
0.84160539 0.59901961 0.00042892157
0.87647059 0.59215686 0.0044117647
0.91084559 0.58235294 0.0039215686
0.94215686 0.57205882 0.0039215686
0.97107843 0.57598039 0.026776961
0.99166667 0.56715686 0.050490196
0.0078431373 0.56470588 0.2754902
0.0078431373 0.56531863 0.27843137
0.0080882353 0.56862745 0.28161765
0.011764706 0.56862745 0.27941176
0.0078431373 0.56960784 0.2754902
0.0020833333 0.56997549 0.27242647
0.049264706 0.57352941 0.26789216
0.11568627 0.57892157 0.26654412
0.17745098 0.58529412 0.26372549
0.23884804 0.58921569 0.2567402
0.30122549 0.59803922 0.23848039
0.36715686 0.60833333 0.21127451
0.43333333 0.61715686 0.18186275
0.49509804 0.625 0.15686275
0.55857843 0.63627451 0.12941176
0.63811275 0.65085784 0.093504902
0.71372549 0.66176471 0.050980392
0.76482843 0.66029412 0.006004902
0.80073529 0.65465686 0
0.83737745 0.64656863 0.006495098
0.87303922 0.64019608 0.0078431373
0.90747549 0.63125 0.0039215686
0.94215686 0.62352941 0.0017156863
0.96764706 0.61960784 0.01997549
0.9745098 0.61862745 0.033333333
0.0078431373 0.60441176 0.31029412
0.010294118 0.60588235 0.31029412
0.0089460784 0.60870098 0.31029412
0.0078431373 0.60980392 0.30882353
0.011029412 0.60980392 0.30563725
0.012132353 0.60833333 0.30214461
0.055637255 0.60772059 0.3
0.12303922 0.60980392 0.3
0.19117647 0.61617647 0.3
0.24901961 0.62101716 0.29699755
0.29718137 0.62892157 0.28664216
0.35784314 0.63578431 0.26715686
0.41813725 0.64558824 0.24264706
0.47990196 0.65569853 0.21636029
0.54166667 0.66470588 0.18970588
0.60251225 0.67254902 0.16127451
0.66862745 0.68137255 0.12401961
0.74558824 0.69803922 0.041360294
0.79571078 0.69901961 0.013235294
0.8372549 0.69393382 0.0083333333
0.87254902 0.6870098 0.012009804
0.90373775 0.67775735 0.018627451
0.94007353 0.66960784 0.011397059
0.95980392 0.66470588 0.019607843
0.9622549 0.66470588 0.032352941
0.0078431373 0.64313725 0.3372549
0.010294118 0.64313725 0.34117647
0.011764706 0.64705882 0.34117647
0.0044117647 0.64705882 0.3372549
0.0019607843 0.64705882 0.33137255
0.038235294 0.64656863 0.33333333
0.090196078 0.64313725 0.3372549
0.14362745 0.64313725 0.3372549
0.20784314 0.64705882 0.3372549
0.26323529 0.65343137 0.33480392
0.30588235 0.65980392 0.32843137
0.35833333 0.66666667 0.31470588
0.41568627 0.67647059 0.29019608
0.47352941 0.68284314 0.26568627
0.53137255 0.68921569 0.24803922
0.5877451 0.69803922 0.22058824
0.64313725 0.70588235 0.19215686
0.70343137 0.71470588 0.1627451
0.77156863 0.72745098 0.097058824
0.83970588 0.74068627 0.011764706
0.86862745 0.73137255 0.035294118
0.8995098 0.72107843 0.058823529
0.93039216 0.71078431 0.065686275
0.9627451 0.70588235 0.085294118
0.98039216 0.70588235 0.098039216
0.0078431373 0.67794118 0.36421569
0.019730392 0.68131127 0.36721814
0.01997549 0.68468137 0.37205882
0.029779412 0.68578431 0.37058824
0.045833333 0.68431373 0.36911765
0.079595588 0.68186275 0.37058824
0.12745098 0.6807598 0.3745098
0.17401961 0.67738971 0.3745098
0.2245098 0.67794118 0.3745098
0.27990196 0.68431373 0.37113971
0.31862745 0.69068627 0.36776961
0.3622549 0.69724265 0.35588235
0.41372549 0.70539216 0.33970588
0.46666667 0.71109069 0.32401961
0.51813725 0.71654412 0.30686275
0.57408088 0.72346814 0.28235294
0.62892157 0.73039216 0.25637255
0.68339461 0.73921569 0.23033088
0.73762255 0.74607843 0.20416667
0.79166667 0.7536152 0.16341912
0.84632353 0.75784314 0.11887255
0.88921569 0.75618873 0.10949755
0.92193627 0.75098039 0.12463235
0.95790441 0.74797794 0.14068627
0.99117647 0.74705882 0.15490196
0.026470588 0.71372549 0.39215686
0.080269608 0.71948529 0.40183824
0.083333333 0.71666667 0.40784314
0.10355392 0.71666667 0.41262255
0.12696078 0.71666667 0.41568627
0.15036765 0.71666667 0.41568627
0.17965686 0.71666667 0.41568627
0.21323529 0.71335784 0.41176471
0.25 0.70980392 0.41078431
0.29767157 0.7127451 0.40686275
0.3375 0.72132353 0.40294118
0.37291667 0.72794118 0.4
0.4127451 0.73382353 0.39460784
0.45821078 0.73664216 0.38431373
0.50563725 0.74240196 0.36764706
0.55833333 0.74914216 0.34264706
0.61372549 0.75588235 0.31568627
0.66519608 0.76335784 0.29264706
0.71666667 0.77083333 0.27156863
0.76813725 0.77806373 0.2557598
0.82156863 0.78529412 0.21960784
0.87205882 0.79117647 0.18627451
0.91666667 0.78897059 0.17598039
0.95281863 0.78676471 0.1872549
0.9754902 0.78431373 0.19607843
0.14852941 0.74754902 0.4372549
0.16078431 0.74932598 0.44117647
0.16911765 0.74754902 0.44901961
0.18033088 0.74754902 0.45637255
0.20441176 0.74754902 0.46078431
0.225 0.74754902 0.46078431
0.2495098 0.74754902 0.45772059
0.2689951 0.74754902 0.45294118
0.28823529 0.74705882 0.44558824
0.31862745 0.74362745 0.44136029
0.35588235 0.74889706 0.43860294
0.39313725 0.75539216 0.44117647
0.43210784 0.76127451 0.44093137
0.47156863 0.76715686 0.43278186
0.50931373 0.77022059 0.41568627
0.54724265 0.77518382 0.39852941
0.59313725 0.78284314 0.37745098
0.64852941 0.78939951 0.35508578
0.69607843 0.79595588 0.34460784
0.74754902 0.8028799 0.33431373
0.79901961 0.8122549 0.30759804
0.85441176 0.81905637 0.26862745
0.90551471 0.82598039 0.23860294
0.9473652 0.82922794 0.23088235
0.96127451 0.8254902 0.2372549
0.24509804 0.78235294 0.48235294
0.24901961 0.78112745 0.48553922
0.25392157 0.77843137 0.49117647
0.26421569 0.77843137 0.49779412
0.28137255 0.78235294 0.50490196
0.30098039 0.78235294 0.50392157
0.32009804 0.78235294 0.50196078
0.33823529 0.77965686 0.49852941
0.35294118 0.77843137 0.49215686
0.36715686 0.77647059 0.4870098
0.38872549 0.77941176 0.48676471
0.42352941 0.78406863 0.48823529
0.45980392 0.78921569 0.48823529
0.49583333 0.79436275 0.48382353
0.53039216 0.79803922 0.46666667
0.56127451 0.80465686 0.45
0.59215686 0.80980392 0.43333333
0.63259804 0.81691176 0.42230392
0.67892157 0.82205882 0.41519608
0.7254902 0.82916667 0.41029412
0.7754902 0.8372549 0.39019608
0.83186275 0.84558824 0.35514706
0.8872549 0.85392157 0.32254902
0.9379902 0.86544118 0.29313725
0.95098039 0.86666667 0.28823529
0.33284314 0.81323529 0.52794118
0.33314951 0.81323529 0.53186275
0.33823529 0.81323529 0.53676471
0.34846814 0.81323529 0.54705882
0.36053922 0.81323529 0.55147059
0.37303922 0.81323529 0.55098039
0.39056373 0.81323529 0.54754902
0.40618873 0.81323529 0.54607843
0.41862745 0.81323529 0.54362745
0.42922794 0.80980392 0.54234069
0.44448529 0.81323529 0.54276961
0.46427696 0.81366422 0.53976716
0.48995098 0.81715686 0.53970588
0.52101716 0.82156863 0.53529412
0.55526961 0.82794118 0.52156863
0.58988971 0.83431373 0.50735294
0.62107843 0.84068627 0.49705882
0.65410539 0.84460784 0.48939951
0.69019608 0.8495098 0.48443627
0.72843137 0.85637255 0.48186275
0.7745098 0.86397059 0.46642157
0.82640931 0.87248775 0.43339461
0.88088235 0.88235294 0.40208333
0.92107843 0.88743873 0.38186275
0.93676471 0.89117647 0.37303922
0.40490196 0.84411765 0.57941176
0.41066176 0.84411765 0.58333333
0.41666667 0.84485294 0.59044118
0.42696078 0.84705882 0.59852941
0.43970588 0.84803922 0.60294118
0.44767157 0.84803922 0.60294118
0.45955882 0.84803922 0.60220588
0.47401961 0.84803922 0.59901961
0.48039216 0.84411765 0.59509804
0.49313725 0.84411765 0.59693627
0.50882353 0.84730392 0.59803922
0.52303922 0.84803922 0.59803922
0.53921569 0.85147059 0.59411765
0.55698529 0.85245098 0.59019608
0.58602941 0.85882353 0.58333333
0.61715686 0.86519608 0.57414216
0.64901961 0.87156863 0.56568627
0.68284314 0.8754902 0.55784314
0.71470588 0.88259804 0.55392157
0.74558824 0.8872549 0.55134804
0.77794118 0.89166667 0.54215686
0.81911765 0.89914216 0.51654412
0.86544118 0.90612745 0.49117647
0.9004902 0.91115196 0.4745098
0.92254902 0.91470588 0.46568627
0.48627451 0.87647059 0.63627451
0.49264706 0.87800245 0.63872549
0.49901961 0.88039216 0.64473039
0.50931373 0.88253676 0.6504902
0.51617647 0.87965686 0.65294118
0.52058824 0.87941176 0.653125
0.53088235 0.88284314 0.65441176
0.54117647 0.88192402 0.65294118
0.54607843 0.87892157 0.64803922
0.55637255 0.87984069 0.65294118
0.57267157 0.88284314 0.65441176
0.58480392 0.88284314 0.65441176
0.59362745 0.88210784 0.65245098
0.6122549 0.88676471 0.65539216
0.62892157 0.89068627 0.64509804
0.64895833 0.89607843 0.64019608
0.67745098 0.90245098 0.63382353
0.70980392 0.90882353 0.62990196
0.73823529 0.91311275 0.625
0.75882353 0.91421569 0.61715686
0.78308824 0.91936275 0.61151961
0.81403186 0.92628676 0.60116422
0.85232843 0.9317402 0.58284314
0.88621324 0.93627451 0.57015931
0.9122549 0.94019608 0.55833333
0.55686275 0.90196078 0.68235294
0.55931373 0.90588235 0.68480392
0.56960784 0.90980392 0.69117647
0.57647059 0.90980392 0.69460784
0.57647059 0.90588235 0.69215686
0.58088235 0.90588235 0.69411765
0.59117647 0.90980392 0.69705882
0.60392157 0.9122549 0.70441176
0.6 0.90588235 0.69411765
0.6127451 0.90980392 0.7004902
0.6245098 0.90980392 0.70490196
0.63088235 0.90637255 0.69803922
0.63333333 0.90392157 0.69019608
0.65931373 0.91372549 0.70539216
0.66960784 0.91372549 0.69509804
0.68382353 0.91911765 0.69019608
0.70588235 0.92941176 0.69411765
0.72892157 0.93333333 0.68921569
0.74705882 0.93333333 0.67745098
0.76764706 0.9372549 0.67058824
0.79019608 0.94117647 0.66666667
0.81323529 0.94558824 0.6622549
0.84411765 0.95294118 0.65196078
0.875 0.95686275 0.64558824
0.90588235 0.96470588 0.64705882
0.06127451 0.066666667 0.067647059
0.074019608 0.069117647 0.064276961
0.096078431 0.070588235 0.06372549
0.12009804 0.070588235 0.06372549
0.14117647 0.070588235 0.06127451
0.16911765 0.070098039 0.059803922
0.21139706 0.059803922 0.057965686
0.25833333 0.053431373 0.062745098
0.31372549 0.047058824 0.065196078
0.36519608 0.040686275 0.058823529
0.41911765 0.034926471 0.053063725
0.46844363 0.030085784 0.050490196
0.51960784 0.040196078 0.05122549
0.56715686 0.056556373 0.046568627
0.61568627 0.067034314 0.043627451
0.66078431 0.060723039 0.03872549
0.70196078 0.059803922 0.03872549
0.74160539 0.080392157 0.034803922
0.78002451 0.10098039 0.029901961
0.81764706 0.11783088 0.021078431
0.85686275 0.13529412 0.016911765
0.8877451 0.16599265 0.025
0.91862745 0.19558824 0.033823529
0.95343137 0.22401961 0.037806373
0.97647059 0.24313725 0.03872549
0.068198529 0.083333333 0.068566176
0.078285846 0.082414216 0.067647059
0.095389093 0.083333333 0.066727941
0.11666667 0.083333333 0.065196078
0.14071691 0.084252451 0.06372549
0.17529871 0.087254902 0.06372549
0.21708027 0.081081495 0.061657475
0.26436121 0.074938725 0.06462163
0.31525735 0.068566176 0.066666667
0.36891085 0.06372549 0.061251532
0.42058824 0.059022672 0.053063725
0.47225031 0.056862745 0.049142157
0.52352941 0.060968137 0.047303922
0.57322304 0.073705576 0.042938113
0.6192402 0.081862745 0.039276961
0.66112898 0.077734375 0.037599571
0.70496324 0.080392157 0.034803922
0.74463082 0.10121017 0.035148591
0.78353248 0.12156863 0.029901961
0.82156863 0.13754596 0.022418811
0.85686275 0.15591299 0.020128676
