site/assets/luts/sha256-2cdb5234f7ef4c28c53185aa020260a145e3b302a03965e92add6e0f797f78d5.cube
# LUTr-Schema-Version: 2
# LUTr-ID: sha256-2cdb5234f7ef4c28c53185aa020260a145e3b302a03965e92add6e0f797f78d5
# LUTr-Title: kodak portra 400 +
# LUTr-Collection: Natron HaldCLUT
# LUTr-Collection-ID: natron-haldclut-presets
# LUTr-Source: https://github.com/NatronGitHub/clut
# LUTr-Retrieved: 2026-07-27
# LUTr-Source-File: submissions/natron-haldclut-presets/negative_new/kodak_portra_400_+.png
# LUTr-Source-Format: HALD-PNG
# LUTr-Source-SHA256: 2cdb5234f7ef4c28c53185aa020260a145e3b302a03965e92add6e0f797f78d5
# LUTr-License: CC-BY-SA-4.0
# LUTr-License-URL: https://github.com/NatronGitHub/clut#license
# LUTr-License-Basis: repo-license-file
# LUTr-Transform-Class: film-emulation
# LUTr-Tags: creative, film, film-emulation, hald-clut, natron, png, cube
# LUTr-Input-Color-Space: srgb
# LUTr-Input-Gamut: rec709
# LUTr-Input-Transfer: srgb
# LUTr-Output-Color-Space: srgb
# LUTr-Output-Gamut: rec709
# LUTr-Output-Transfer: srgb
# LUTr-Color-Space-Confidence: assumed-display-referred
# LUTr-Domain-Normalized: true
# LUTr-Shaper: none
# LUTr-Original-Grid: 64x64x64
# LUTr-Conversion-Grid: 25x25x25
# LUTr-Conversion-Interpolation: trilinear
# LUTr-Conversion-Method: HALD-PNG LUT image decoded at 16-bit and sampled to 25x25x25 3D CUBE
# LUTr-Conversion-Tool: LUTr scripts/convert-all-to-cube.mjs 2.0.0
# LUTr-Conversion-Date: 2026-07-27
# LUTr-Note: Preserve this metadata and the upstream license notices when redistributing.
TITLE "kodak portra 400 +"
LUT_3D_SIZE 5
DOMAIN_MIN 0 0 0
DOMAIN_MAX 1 1 1
0.062745098 0.054901961 0.043137255
0.26960784 0.026470588 0.059803922
0.6254902 0.017647059 0.0078431373
0.92156863 0.05 0
1 0.21568627 0
0.011764706 0.22254902 0.076470588
0.22916667 0.24215686 0.037009804
0.62843137 0.28039216 0.0039215686
0.89117647 0.31764706 0.0068627451
0.99215686 0.36470588 0.011764706
0 0.49019608 0.15098039
0.12107843 0.47401961 0.16470588
0.50490196 0.53333333 0.01372549
0.83333333 0.56862745 0.014215686
0.99803922 0.58039216 0.0039215686
0.0049019608 0.7127451 0.30784314
0.20882353 0.69485294 0.32058824
0.45980392 0.69901961 0.30980392
0.75122549 0.75269608 0.20882353
0.98431373 0.78333333 0.03627451
0.52156863 0.9254902 0.62745098
0.55980392 0.91764706 0.63529412
0.64901961 0.91176471 0.65490196
0.77058824 0.92941176 0.63921569
0.94509804 0.96862745 0.62352941
0.029411765 0.050980392 0.24215686
0.31397059 0.028431373 0.28259804
0.68284314 0.0078431373 0.28578431
0.93063725 0.02254902 0.24509804
0.99607843 0.2245098 0.23627451
0.0080882353 0.28431373 0.26568627
0.28921569 0.28131127 0.27886029
0.65098039 0.27107843 0.24889706
0.90196078 0.31390931 0.22647059
0.99607843 0.38137255 0.18014706
0.031862745 0.56470588 0.32794118
0.24362745 0.53235294 0.32647059
0.55539216 0.55637255 0.27965686
0.84509804 0.5875 0.1620098
0.99313725 0.58627451 0.066176471
0.11960784 0.73921569 0.41102941
0.28921569 0.72352941 0.4098652
0.48982843 0.70980392 0.40992647
0.75232843 0.75680147 0.36691176
0.99142157 0.77941176 0.26102941
0.5127451 0.91372549 0.63431373
0.56053922 0.92230392 0.65
0.65784314 0.91617647 0.68431373
0.77132353 0.9247549 0.65784314
0.92647059 0.95784314 0.64705882
0.0058823529 0.10196078 0.5745098
0.36911765 0.0083333333 0.62647059
0.75784314 0.0078431373 0.67843137
0.93823529 0.0068627451 0.65
1 0.23137255 0.59803922
0.015686275 0.29705882 0.5627451
0.33333333 0.3 0.60392157
0.72230392 0.32818627 0.66764706
0.91666667 0.35710784 0.63909314
0.99215686 0.40637255 0.60588235
0.015686275 0.61470588 0.60196078
0.28382353 0.62181373 0.61102941
0.63333333 0.61029412 0.62058824
0.8502451 0.61470588 0.60343137
0.99019608 0.6254902 0.58235294
0.3754902 0.80392157 0.64607843
0.47022059 0.78823529 0.64203431
0.57818627 0.75147059 0.61151961
0.76519608 0.76715686 0.59607843
0.98333333 0.78333333 0.54509804
0.55294118 0.94117647 0.71372549
0.57892157 0.94607843 0.72058824
0.65294118 0.92254902 0.71666667
0.77941176 0.92990196 0.73676471
0.91960784 0.92352941 0.68039216
0.31470588 0.18039216 0.81470588
0.48063725 0.1629902 0.82156863
0.7504902 0.18823529 0.85882353
0.95882353 0.31078431 0.87745098
1 0.38333333 0.84509804
0.23235294 0.33823529 0.79215686
0.43584559 0.34779412 0.81078431
0.72401961 0.40882353 0.84595588
0.93529412 0.48529412 0.86789216
0.98823529 0.49313725 0.84681373
0.0093137255 0.56470588 0.74705882
0.28308824 0.56348039 0.75073529
0.62843137 0.60931373 0.8
0.88431373 0.68676471 0.84522059
0.98627451 0.67990196 0.83431373
0.30661765 0.81544118 0.81544118
0.41102941 0.80294118 0.80704657
0.61188725 0.80992647 0.80870098
0.81691176 0.81053922 0.81372549
0.98137255 0.81470588 0.80833333
0.54411765 0.98137255 0.84117647
0.58112745 0.96838235 0.84901961
0.69558824 0.96078431 0.84901961
0.80294118 0.94926471 0.8372549
0.94901961 0.96862745 0.84117647
0.55686275 0.42352941 0.98039216
0.60490196 0.4372549 0.97254902
0.75490196 0.46078431 0.98627451
0.92058824 0.51764706 0.99117647
1 0.56862745 0.99215686
0.53333333 0.51078431 0.96862745
0.60367647 0.52352941 0.97352941
0.74166667 0.54901961 0.98039216
0.91568627 0.57965686 0.97254902
0.99215686 0.62941176 0.98039216
0.48039216 0.65882353 0.95882353
0.54264706 0.65882353 0.95882353
0.70196078 0.6754902 0.96470588
0.89117647 0.72156863 0.97598039
0.99607843 0.75686275 0.98823529
0.4127451 0.80784314 0.95882353
0.46911765 0.80612745 0.95808824
0.59264706 0.79019608 0.93039216
0.83259804 0.8247549 0.97156863
0.98333333 0.86764706 0.9627451
0.49019608 0.98039216 0.94901961
0.54313725 0.98039216 0.96568627
0.64509804 0.95490196 0.97647059
0.81470588 0.96862745 0.97254902
0.98431373 0.98431373 0.98431373
