site/assets/luts/sha256-83e90d273b882b8d2b8823a72080c2027326782c3a990c8841886ff728e902cc.cube
# LUTr-Schema-Version: 2
# LUTr-ID: sha256-83e90d273b882b8d2b8823a72080c2027326782c3a990c8841886ff728e902cc
# LUTr-Title: polaroid 669 --
# LUTr-Collection: Natron HaldCLUT
# LUTr-Collection-ID: natron-haldclut-presets
# LUTr-Source: https://github.com/NatronGitHub/clut
# LUTr-Retrieved: 2026-07-27
# LUTr-Source-File: submissions/natron-haldclut-presets/instant_pro/polaroid_669_--.png
# LUTr-Source-Format: HALD-PNG
# LUTr-Source-SHA256: 83e90d273b882b8d2b8823a72080c2027326782c3a990c8841886ff728e902cc
# LUTr-License: CC-BY-SA-4.0
# LUTr-License-URL: https://github.com/NatronGitHub/clut#license
# LUTr-License-Basis: repo-license-file
# LUTr-Transform-Class: film-emulation
# LUTr-Tags: creative, film, film-emulation, hald-clut, natron, png, cube
# LUTr-Input-Color-Space: srgb
# LUTr-Input-Gamut: rec709
# LUTr-Input-Transfer: srgb
# LUTr-Output-Color-Space: srgb
# LUTr-Output-Gamut: rec709
# LUTr-Output-Transfer: srgb
# LUTr-Color-Space-Confidence: assumed-display-referred
# LUTr-Domain-Normalized: true
# LUTr-Shaper: none
# LUTr-Original-Grid: 64x64x64
# LUTr-Conversion-Grid: 25x25x25
# LUTr-Conversion-Interpolation: trilinear
# LUTr-Conversion-Method: HALD-PNG LUT image decoded at 16-bit and sampled to 25x25x25 3D CUBE
# LUTr-Conversion-Tool: LUTr scripts/convert-all-to-cube.mjs 2.0.0
# LUTr-Conversion-Date: 2026-07-27
# LUTr-Note: Preserve this metadata and the upstream license notices when redistributing.
TITLE "polaroid 669 --"
LUT_3D_SIZE 9
DOMAIN_MIN 0 0 0
DOMAIN_MAX 1 1 1
0 0.0039215686 0
0.057352941 0.031862745 0.012254902
0.15784314 0.040196078 0.05
0.29460784 0.060294118 0.029901961
0.4372549 0.01372549 0.031372549
0.59411765 0.0078431373 0.066666667
0.74215686 0.0029411765 0.057843137
0.87205882 0.080882353 0.071568627
0.98823529 0.18823529 0.10196078
0.0078431373 0.1122549 0.034803922
0.041666667 0.1122549 0.02745098
0.16862745 0.11237745 0.019117647
0.30588235 0.11617647 0.031188725
0.46029412 0.10980392 0.046568627
0.61862745 0.10998775 0.055208333
0.74509804 0.11973039 0.075
0.87254902 0.16421569 0.082843137
0.94852941 0.21470588 0.125
0.0049019608 0.20098039 0.046078431
0.016053922 0.20870098 0.046078431
0.16372549 0.21960784 0.016911765
0.31997549 0.22745098 0.01875
0.48382353 0.24068627 0.055392157
0.63872549 0.24362745 0.056372549
0.77156863 0.25392157 0.073039216
0.87990196 0.28676471 0.10882353
0.98823529 0.32941176 0.13333333
0 0.30539216 0.050980392
0.010784314 0.31305147 0.054411765
0.14166667 0.32107843 0.048651961
0.30392157 0.33284314 0.019791667
0.47598039 0.34779412 0.015686275
0.63235294 0.36905637 0.031862745
0.77794118 0.40355392 0.087867647
0.8903799 0.421875 0.11029412
0.95392157 0.44117647 0.13186275
0 0.41568627 0.043137255
0.0073529412 0.42156863 0.050490196
0.13235294 0.41666667 0.05
0.28161765 0.42156863 0.025490196
0.43529412 0.43529412 0.0029411765
0.5877451 0.45171569 0.0024509804
0.74607843 0.49215686 0.031372549
0.87843137 0.53578431 0.080392157
0.98431373 0.57647059 0.17254902
0.0039215686 0.53137255 0.033823529
0.0039215686 0.52745098 0.034313725
0.14056373 0.50882353 0.033823529
0.27591912 0.50882353 0.022610294
0.41691176 0.52598039 0.0058823529
0.55189951 0.53529412 0
0.68970588 0.55392157 0.0045343137
0.83872549 0.61305147 0.0041053922
0.96715686 0.67107843 0.11813725
0.029411765 0.65098039 0.010784314
0.059313725 0.64803922 0.0039215686
0.1872549 0.63627451 0.018872549
0.29497549 0.6245098 0.0089460784
0.42745098 0.64509804 0.0039215686
0.54705882 0.64852941 0.00036764706
0.6752451 0.66691176 0.0039215686
0.79362745 0.68235294 0.0030637255
0.92941176 0.74019608 0.010784314
0.16862745 0.79117647 0
0.22849265 0.80588235 0.003002451
0.30110294 0.79987745 0.0073529412
0.38137255 0.78854167 0.0044117647
0.4875 0.79852941 0.0039215686
0.60324755 0.80245098 0.021568627
0.72254902 0.8189951 0.01875
0.82990196 0.82248775 0.0083333333
0.94558824 0.85294118 0.0078431373
0.41176471 0.95294118 0.21960784
0.43088235 0.95245098 0.21519608
0.46960784 0.95392157 0.21372549
0.51862745 0.94264706 0.20539216
0.58039216 0.93333333 0.16862745
0.68823529 0.95294118 0.19460784
0.79313725 0.96176471 0.18529412
0.89509804 0.97205882 0.18529412
0.98039216 0.98039216 0.17254902
0.011764706 0.042647059 0.089215686
0.045588235 0.041789216 0.084803922
0.16066176 0.061764706 0.095220588
0.29883578 0.049693627 0.099203431
0.44901961 0.042892157 0.10882353
0.60196078 0.026960784 0.12794118
0.73419118 0.040686275 0.13198529
0.86035539 0.1 0.14068627
0.96078431 0.16862745 0.16372549
0.0039215686 0.11966912 0.097058824
0.037630208 0.12310049 0.10424326
0.17679228 0.1283701 0.10784314
0.31866575 0.12794118 0.11572457
0.46372549 0.12395833 0.11939338
0.61454504 0.12379749 0.13159467
0.74462316 0.13932292 0.13933824
0.86776195 0.17597273 0.1479856
0.97506127 0.23382353 0.16372549
0.0039215686 0.21911765 0.10833333
0.01830576 0.22783395 0.11917892
0.18198529 0.2310049 0.11896446
0.34064032 0.24007353 0.11657475
0.50539216 0.2504902 0.13504902
0.63835784 0.25098039 0.13970588
0.76372549 0.26237745 0.14362745
0.87630208 0.28644301 0.15076593
0.98039216 0.33026961 0.17156863
0.0078431373 0.33627451 0.1127451
0.011542586 0.33496477 0.11617647
0.16862745 0.33832721 0.1160386
0.32604167 0.34594822 0.10018382
0.48995098 0.35098039 0.090686275
0.65392157 0.37971048 0.13186275
0.77892157 0.40093444 0.15405944
0.89166667 0.41439951 0.16011029
0.98854167 0.44901961 0.18939951
0.0019607843 0.43897059 0.11617647
0.013664216 0.43679534 0.12034314
0.14852941 0.42892157 0.11617647
0.29329044 0.43299632 0.1004902
0.44301471 0.44117647 0.067279412
0.5979473 0.45147059 0.037009804
0.75324755 0.49607843 0.084865196
0.88802083 0.54387255 0.16991422
0.95759804 0.56053922 0.20441176
0.0039215686 0.54920343 0.10471814
0.0182981 0.54119945 0.10106464
0.15355392 0.5260723 0.10294118
0.2810815 0.51882659 0.092578125
0.41887255 0.53161765 0.050490196
0.56096814 0.54539675 0.0036151961
0.70110294 0.57009804 0.014307598
0.84765625 0.61568627 0.050490196
0.96176471 0.67205882 0.15716912
0.041666667 0.66262255 0.064093137
0.080882353 0.65833333 0.058011642
0.19047181 0.64375 0.046691176
0.29669118 0.63095895 0.048207721
0.42107843 0.64185049 0.020404412
0.54914216 0.65306373 0.01127451
0.67527574 0.67539828 0.0046875
0.80839461 0.69744179 0.0039215686
0.93235294 0.74019608 0.0073529412
0.18333333 0.79509804 0.022120098
0.21329657 0.79852941 0.007299326
0.28676471 0.79462316 0.012086397
0.3658701 0.78649663 0.0039215686
0.47604167 0.79071691 0.0079044118
0.59542739 0.80245098 0.012216605
0.71507353 0.82156863 0.012622549
0.82990196 0.82598039 0.010906863
0.9372549 0.8495098 0.0078431373
0.40441176 0.94509804 0.22745098
0.43223039 0.95772059 0.25134804
0.46090686 0.94816176 0.23786765
0.5127451 0.94460784 0.22420343
0.59019608 0.94681373 0.22843137
0.68792892 0.95196078 0.2158701
0.79117647 0.96066176 0.21164216
0.89172794 0.96868873 0.19932598
0.97401961 0.98088235 0.19313725
0 0.081372549 0.19117647
0.012254902 0.088848039 0.20392157
0.15980392 0.10196078 0.21544118
0.31029412 0.10784314 0.22352941
0.4622549 0.098039216 0.22892157
0.61421569 0.051960784 0.225
0.74509804 0.044362745 0.2245098
0.86029412 0.076960784 0.22757353
0.97745098 0.15294118 0.23627451
0 0.15343137 0.21127451
0.0087009804 0.14656863 0.21567096
0.17858456 0.15833333 0.22671569
0.33198529 0.16230086 0.23471201
0.48547794 0.14761029 0.23223039
0.62820159 0.13160233 0.23872549
0.75474877 0.13731618 0.23489583
0.86470588 0.16911765 0.23284314
0.97683824 0.22205882 0.24509804
0 0.24705882 0.22279412
0.010202206 0.25327819 0.23112745
0.19859069 0.25765931 0.24270833
0.36047794 0.26568627 0.24806985
0.51617647 0.26666667 0.25833333
0.64457721 0.25346201 0.24751838
0.76427696 0.25980392 0.24240196
0.88026961 0.28382353 0.24650735
0.98431373 0.31936275 0.25882353
0.0039215686 0.37352941 0.23137255
0.026164216 0.38071385 0.24301471
0.20634191 0.37126225 0.24705882
0.35784314 0.37066483 0.24741115
0.5127451 0.37156863 0.24074755
0.66470588 0.38875613 0.2613511
0.78177083 0.4004902 0.26127451
0.88678002 0.41306679 0.2573989
0.98933824 0.44509804 0.27794118
0.0024509804 0.48627451 0.22745098
0.027144608 0.48664216 0.23529412
0.20085784 0.46764706 0.23235294
0.32806373 0.46072304 0.22377451
0.47352941 0.46764706 0.20245098
0.62598039 0.48033088 0.21029412
0.76862745 0.51470588 0.23823529
0.89460784 0.55251225 0.2841299
0.96715686 0.56372549 0.3
0.0053921569 0.58492647 0.22205882
0.074203431 0.58284314 0.22011336
0.18823529 0.56360294 0.21176471
0.30580576 0.5477788 0.20183824
0.43284314 0.55490196 0.17359069
0.57742034 0.56306679 0.1421875
0.71372549 0.5754902 0.10431985
0.85433517 0.62745098 0.18872549
0.96286765 0.675 0.29019608
0.010784314 0.68431373 0.17941176
0.10052083 0.68137255 0.17769608
0.21053922 0.67616422 0.17469363
0.30931373 0.65539216 0.16482843
0.42046569 0.64852941 0.14019608
0.55245098 0.66341912 0.10171569
0.68602941 0.67916667 0.0375
0.81372549 0.70511642 0.037990196
0.92941176 0.74411765 0.097058824
0.1567402 0.81029412 0.15588235
0.20189951 0.81254596 0.15620404
0.26936275 0.80511642 0.13982843
0.35749081 0.79420956 0.12954963
0.45398284 0.77849265 0.095281863
0.5754902 0.79474571 0.043933824
0.70248162 0.81519608 0.012193627
0.82991728 0.8296875 0.011764706
0.93026961 0.84558824 0.011764706
0.40294118 0.95784314 0.31176471
0.39178922 0.9372549 0.28737745
0.45367647 0.95196078 0.30588235
0.51078431 0.95085784 0.29840686
0.58284314 0.94901961 0.29068627
0.67745098 0.95 0.2810049
0.78406863 0.95980392 0.26887255
0.88786765 0.96519608 0.25355392
0.9754902 0.97843137 0.23921569
0 0.11470588 0.33382353
0 0.13284314 0.34166667
0.11666667 0.15183824 0.36029412
0.32996324 0.17205882 0.3754902
0.49583333 0.17867647 0.38995098
0.65778186 0.17542892 0.40147059
0.775 0.125 0.37512255
0.87843137 0.075 0.35539216
0.975 0.027941176 0.33676471
0 0.20098039 0.346875
0.0057981005 0.19512102 0.35686275
0.14287684 0.1995098 0.36862745
0.35030637 0.21421569 0.38413756
0.51372549 0.23014706 0.3981924
0.65539216 0.2210095 0.39932598
0.77892157 0.18040748 0.37714461
0.88208487 0.14672947 0.35686275
0.96470588 0.13970588 0.34460784
0 0.30392157 0.36237745
0.0042432598 0.30392157 0.37303922
0.1872549 0.30667892 0.39077819
0.38049939 0.3083027 0.3995098
0.53872549 0.31305147 0.40814951
0.66323529 0.29336703 0.39264706
0.7791973 0.27046569 0.37267157
0.88805147 0.25877757 0.35870098
0.9627451 0.28615196 0.36605392
0.0039215686 0.41862745 0.37696078
0.0098039216 0.42787224 0.38549326
0.21625306 0.42254902 0.40343137
0.39360447 0.4122549 0.40980392
0.55101103 0.42009804 0.41133578
0.67350643 0.39752604 0.39622396
0.78223039 0.39803922 0.38350184
0.8877451 0.4033701 0.37696078
0.98039216 0.43333333 0.38327206
0.0039215686 0.53504902 0.37352941
0.012009804 0.54200368 0.37925858
0.22647059 0.52965686 0.38676471
0.37297794 0.51666667 0.38137255
0.51666667 0.51213235 0.37058824
0.66231618 0.52401961 0.38014706
0.78952206 0.55 0.40441176
0.8877451 0.55122549 0.40784314
0.97647059 0.56862745 0.41176471
0.003002451 0.64068627 0.35588235
0.071492034 0.64068627 0.3608992
0.22542892 0.62781863 0.35980392
0.35349265 0.60369179 0.34411765
0.46372549 0.59117647 0.33161765
0.60202206 0.59509804 0.31168045
0.73339461 0.61090686 0.31127451
0.86245404 0.65686275 0.37431832
0.96323529 0.69313725 0.43431373
0.013357843 0.72303922 0.325
0.1286152 0.73056066 0.33252145
0.22925858 0.7205576 0.32205882
0.33898591 0.69767157 0.30542279
0.44166667 0.68308824 0.28780637
0.56213235 0.684375 0.25588235
0.69905025 0.69721201 0.23247549
0.82340686 0.71309743 0.19921875
0.94068627 0.75980392 0.30735294
0.11452206 0.83204657 0.30196078
0.18306526 0.83188572 0.3004902
0.26876532 0.82976409 0.29024203
0.36078431 0.81776195 0.27480852
0.45606618 0.80327819 0.25735294
0.56256127 0.79852941 0.22401961
0.698606 0.81703431 0.19705882
0.82614124 0.82647059 0.14677543
0.93155637 0.84509804 0.086029412
0.38823529 0.96078431 0.40588235
0.40441176 0.96078431 0.40735294
0.42634804 0.94742647 0.38615196
0.5 0.95784314 0.39172794
0.57058824 0.94901961 0.37598039
0.66623775 0.95447304 0.36519608
0.77769608 0.96556373 0.36936275
0.88088235 0.9653799 0.34693627
0.96764706 0.97401961 0.34754902
0 0.18039216 0.50588235
0 0.18235294 0.50735294
0.029901961 0.18676471 0.51862745
0.34240196 0.23578431 0.5495098
0.54803922 0.24117647 0.56960784
0.67132353 0.2372549 0.55808824
0.79362745 0.27941176 0.56519608
0.90343137 0.30392157 0.56421569
0.98627451 0.29607843 0.53921569
0 0.25735294 0.50980392
0.0015012255 0.24825368 0.51348039
0.044730392 0.2401348 0.52689951
0.35863971 0.26985294 0.55220588
0.55968137 0.28811275 0.56862745
0.67843137 0.29224877 0.56323529
0.8 0.32444853 0.56887255
0.90122549 0.33431373 0.5622549
0.97867647 0.33039216 0.55098039
0 0.35392157 0.5122549
0.0039215686 0.35931373 0.52438725
0.11642157 0.34313725 0.5442402
0.39166667 0.35661765 0.56427696
0.57647059 0.37352941 0.58259804
0.69019608 0.38780637 0.56862745
0.80245098 0.4060049 0.57512255
0.89558824 0.38584559 0.55232843
0.97156863 0.37352941 0.53627451
0 0.45686275 0.50955882
0.0058823529 0.46911765 0.52907475
0.20042892 0.46789216 0.54117647
0.3995098 0.46443015 0.56127451
0.57647059 0.48578431 0.58370098
0.69019608 0.49362745 0.58676471
0.78823529 0.46470588 0.55
0.89151348 0.434375 0.5245098
0.9752451 0.40857843 0.49730392
0.0098039216 0.57843137 0.53333333
0.025735294 0.58039216 0.53995098
0.20980392 0.57696078 0.54705882
0.40698529 0.57904412 0.55416667
0.56372549 0.58235294 0.57205882
0.68161765 0.58235294 0.56507353
0.78897059 0.56446078 0.54803922
0.88566176 0.55392157 0.53504902
0.9745098 0.55392157 0.52156863
0.0066176471 0.69460784 0.52279412
0.037346814 0.69295343 0.5234375
0.24828431 0.68627451 0.52818627
0.40545343 0.675 0.53431373
0.51409314 0.65588235 0.52022059
0.64289216 0.65364583 0.50588235
0.76372549 0.6620098 0.51127451
0.8745098 0.6901348 0.55229779
0.95416667 0.69142157 0.55098039
0.015196078 0.78088235 0.48872549
0.035723039 0.77745098 0.47959559
0.21213235 0.77193627 0.48394608
0.3776348 0.75827206 0.48553922
0.47132353 0.72965686 0.45637255
0.58719363 0.72224265 0.43161765
0.71470588 0.72254902 0.40514706
0.83872549 0.74099265 0.41004902
0.95245098 0.78333333 0.51029412
0.079411765 0.86617647 0.46715686
0.17628676 0.86642157 0.47034314
0.25612745 0.86096814 0.45563725
0.37083333 0.85098039 0.44656863
0.45306373 0.83247549 0.40968137
0.55931373 0.81504289 0.38244485
0.70196078 0.83137255 0.36525735
0.83033088 0.83753064 0.34503676
0.92401961 0.84509804 0.32254902
0.3627451 0.96078431 0.5254902
0.40122549 0.97230392 0.53137255
0.4245098 0.95980392 0.51813725
0.48333333 0.95563725 0.50343137
0.56666667 0.96470588 0.49901961
0.64117647 0.94460784 0.46862745
0.75882353 0.95735294 0.46911765
0.86397059 0.95416667 0.44803922
0.96862745 0.98039216 0.4745098
0 0.26715686 0.6622549
0 0.26323529 0.6622549
0 0.26176471 0.67696078
0.3098652 0.28235294 0.70245098
0.5625 0.31617647 0.71568627
0.70931373 0.34068627 0.71715686
0.80502451 0.36286765 0.71176471
0.90343137 0.44656863 0.72224265
0.97647059 0.50294118 0.71862745
0 0.32383578 0.67254902
0 0.32009804 0.67009804
0.0056985294 0.30004596 0.68334865
0.32372855 0.32127757 0.70245098
0.56412377 0.35686275 0.72156863
0.71029412 0.38148744 0.72352941
0.80833333 0.39834559 0.71176471
0.90185355 0.47385876 0.72224265
0.96194853 0.52665441 0.73106618
0.0039215686 0.41568627 0.6689951
0.00026041667 0.41960784 0.67647059
0.066881127 0.39607843 0.68762255
0.33872549 0.39891238 0.70245098
0.57058824 0.43529412 0.72156863
0.71637561 0.47928922 0.73137255
0.81078431 0.48005515 0.72352941
0.89148284 0.52922794 0.72401961
0.96654412 0.56470588 0.72708333
0.0039215686 0.51917892 0.6504902
0.013365502 0.52156863 0.65980392
0.226394 0.52029718 0.67378983
0.37459406 0.50294118 0.69215686
0.56078431 0.53186275 0.71473652
0.71084559 0.5716299 0.72779565
0.79943321 0.58884804 0.72875306
0.88462776 0.5952742 0.72745098
0.95294118 0.58927696 0.70833333
0.017647059 0.62181373 0.6620098
0.01372549 0.62117034 0.66289828
0.14987745 0.61004902 0.66433824
0.38302696 0.61127451 0.67153799
0.56004902 0.62892157 0.70122549
0.69215686 0.64831495 0.7125
0.79117647 0.64362745 0.70931373
0.87420343 0.63342525 0.69362745
0.94215686 0.6127451 0.67303922
0.0058210784 0.71960784 0.67310049
0.061580882 0.7202742 0.6763557
0.24908088 0.71568627 0.67254902
0.42009804 0.71868873 0.68284314
0.55563725 0.72352941 0.69803922
0.67794118 0.72107843 0.70055147
0.77872243 0.72107843 0.70078125
0.87127757 0.70245098 0.68395374
0.95055147 0.68278186 0.66317402
0.1567402 0.82132353 0.65894608
0.20753676 0.81727941 0.65919118
0.31755515 0.8129902 0.66053922
0.42732843 0.80441176 0.65735294
0.5372549 0.80098039 0.65851716
0.62892157 0.78206189 0.63555453
0.73985907 0.77518382 0.62098652
0.85196078 0.78872549 0.62539828
0.93970588 0.81764706 0.69742647
0.18008578 0.9004902 0.63314951
0.21317402 0.89705882 0.62839308
0.30226716 0.89313725 0.62794118
0.39116881 0.88529412 0.62040441
0.51256127 0.87745098 0.62261029
0.59067862 0.8547258 0.5707644
0.69497549 0.84692096 0.5430913
0.82794118 0.84844516 0.52794118
0.9276348 0.86109069 0.53676471
0.38186275 0.98039216 0.66078431
0.38841912 0.97941176 0.65686275
0.43186275 0.96862745 0.65686275
0.4872549 0.96862745 0.64993873
0.55563725 0.95490196 0.63651961
0.64362745 0.96078431 0.61764706
0.74362745 0.96323529 0.60196078
0.84883578 0.95471814 0.5841299
0.93333333 0.96715686 0.59656863
0 0.35 0.80392157
0.00098039216 0.34803922 0.80686275
0 0.33651961 0.80784314
0.28615196 0.35625 0.81531863
0.54019608 0.39264706 0.82647059
0.71470588 0.44509804 0.83578431
0.82573529 0.4872549 0.83333333
0.89901961 0.49852941 0.82659314
0.95196078 0.57843137 0.83039216
0 0.40294118 0.80294118
0.0035539216 0.39970895 0.80681679
0.011121324 0.3754902 0.81087623
0.29754902 0.38394608 0.81848958
0.54411765 0.42285539 0.82647059
0.71260723 0.47637868 0.8355239
0.82254902 0.51801471 0.83376225
0.89509804 0.54068627 0.82254902
0.95943627 0.62071078 0.8372549
0.0056372549 0.48210784 0.79534314
0.010723039 0.48109681 0.79681373
0.029534314 0.4620098 0.81004902
0.33667279 0.46029412 0.8109375
0.56029412 0.49803922 0.82647059
0.71397059 0.55370711 0.83431373
0.81770833 0.5776348 0.83333333
0.89139093 0.58817402 0.83115809
0.93529412 0.64436275 0.84117647
0.0014705882 0.58333333 0.78186275
0.10292586 0.58265931 0.78431373
0.25196078 0.57463235 0.79283088
0.39313725 0.56378676 0.80686275
0.56078431 0.58259804 0.81862745
0.71484375 0.63296569 0.83186275
0.81271446 0.65793505 0.83587623
0.87941176 0.66528799 0.83345588
0.94019608 0.71813725 0.84509804
0.023039216 0.67009804 0.77205882
0.018566176 0.66311275 0.7689951
0.22046569 0.66188725 0.77794118
0.40637255 0.65741422 0.79313725
0.55612745 0.66911765 0.80612745
0.7028799 0.7004902 0.82824755
0.79938725 0.72022059 0.83210784
0.87181373 0.74044118 0.83823529
0.9127451 0.75490196 0.83823529
0.028921569 0.75723039 0.77585784
0.018887868 0.7504902 0.77659314
0.20735294 0.74289216 0.7754902
0.38451287 0.74264706 0.77696078
0.53872549 0.75030637 0.79295343
0.67947304 0.76617647 0.81617647
0.80058211 0.79059436 0.83615196
0.86727941 0.78561581 0.82752757
0.92757353 0.79558824 0.83002451
0.14387255 0.83431373 0.78333333
0.2372549 0.83517157 0.78651961
0.32340686 0.83529412 0.79172794
0.44825368 0.83529412 0.78841912
0.56813725 0.8375 0.79901961
0.67251838 0.82708333 0.79874387
0.76862745 0.83118873 0.80802696
0.85980392 0.84292279 0.81853554
0.92843137 0.85563725 0.82818627
0.37034314 0.92009804 0.78443627
0.38411458 0.91649816 0.78431373
0.43293505 0.91871936 0.78431373
0.50998775 0.91960784 0.79011949
0.58878676 0.91127451 0.79172794
0.664231 0.89710478 0.76484375
0.75379902 0.89292279 0.75842525
0.8377451 0.89226409 0.74166667
0.925 0.9004902 0.75747549
0.45392157 0.97647059 0.78823529
0.46727941 0.98186275 0.79215686
0.50465686 0.98823529 0.79289216
0.54509804 0.98431373 0.78431373
0.60245098 0.97598039 0.78186275
0.6754902 0.97683824 0.77843137
0.75294118 0.96642157 0.75392157
0.84068627 0.96862745 0.73296569
0.94705882 0.98431373 0.73823529
0.011764706 0.47647059 0.8995098
0.0044730392 0.46862745 0.8995098
0.010661765 0.44215686 0.90735294
0.33805147 0.45177696 0.90735294
0.54779412 0.49044118 0.90686275
0.70147059 0.55392157 0.91439951
0.81862745 0.60784314 0.91078431
0.89466912 0.63823529 0.91078431
0.96029412 0.66078431 0.91862745
0.0073529412 0.50729167 0.8995098
0.0078431373 0.49869792 0.90261949
0.059681373 0.47647059 0.90687806
0.35588235 0.48638174 0.91078431
0.55196078 0.51758578 0.91078431
0.70408241 0.58088235 0.91209406
0.82179841 0.63768382 0.91470588
0.89117647 0.66868107 0.91078431
0.94901961 0.6872549 0.91519608
0.015196078 0.56715686 0.89693627
0.093903186 0.56645221 0.90026042
0.22215074 0.55254289 0.90343137
0.39460784 0.54901961 0.90686275
0.56151961 0.58143382 0.90955882
0.70922181 0.62598039 0.91470588
0.81896446 0.67990196 0.91534926
0.89068627 0.70294118 0.91470588
0.93296569 0.71029412 0.91470588
0.22665441 0.65588235 0.88743873
0.25970435 0.6560432 0.8877451
0.34852941 0.64901961 0.89558824
0.44509804 0.63487286 0.89920343
0.57974877 0.65073529 0.90294118
0.71176471 0.68633578 0.91115962
0.81747855 0.73613664 0.91470588
0.88694853 0.75147059 0.91846661
0.92518382 0.75116422 0.91470588
0.19215686 0.72867647 0.87426471
0.25327819 0.72696078 0.87619485
0.35612745 0.72647059 0.87751225
0.47984069 0.72386642 0.88897059
0.58210784 0.71985294 0.89632353
0.69656863 0.73970588 0.90392157
0.80882353 0.77990196 0.91078431
0.8791973 0.80315564 0.91473652
0.92279412 0.8125 0.91470588
0.012561275 0.79166667 0.86421569
0.099019608 0.79344363 0.86550245
0.26282169 0.78867953 0.86452206
0.4185815 0.78823529 0.87150735
0.5510723 0.78431373 0.87907475
0.68480392 0.79835325 0.89833027
0.8 0.82855392 0.91168811
0.87205882 0.85108762 0.91472886
0.91979167 0.86470588 0.91991422
0.19607843 0.86617647 0.87598039
0.28236826 0.87271752 0.876731
0.32738971 0.86605392 0.87876838
0.44315257 0.86358762 0.87593444
0.55067402 0.85827206 0.87640931
0.6751685 0.86090686 0.88961397
0.78354779 0.87009804 0.90306373
0.87205882 0.89339767 0.91567096
0.91764706 0.90735294 0.93039216
0.4004902 0.93964461 0.88474265
0.40985754 0.94264706 0.89166667
0.46066176 0.9384038 0.88823529
0.52395833 0.93431373 0.8872549
0.62867647 0.92867647 0.8877451
0.71474418 0.92689951 0.89714308
0.80202206 0.92659314 0.90698529
0.86764706 0.93431373 0.91733303
0.92107843 0.93823529 0.91862745
0.55833333 0.98823529 0.89166667
0.57610294 0.99215686 0.89558824
0.59656863 0.98872549 0.89558824
0.63039216 0.98823529 0.89509804
0.69166667 0.98872549 0.89779412
0.7372549 0.98039216 0.89607843
0.79019608 0.97647059 0.8877451
0.84460784 0.98082108 0.88339461
0.9245098 0.9877451 0.87647059
0.28627451 0.61568627 0.97647059
0.30490196 0.60784314 0.97598039
0.38333333 0.60882353 0.97745098
0.49460784 0.61666667 0.97892157
0.60784314 0.6372549 0.96862745
0.72352941 0.68137255 0.97254902
0.81862745 0.71862745 0.96764706
0.89509804 0.76960784 0.96470588
0.9372549 0.78823529 0.96862745
0.30294118 0.63137255 0.96911765
0.36354167 0.64129902 0.97561275
0.40036765 0.62683824 0.97647059
0.49540441 0.62941176 0.97469363
0.61176471 0.65637255 0.97254902
0.72205882 0.6872549 0.96715686
0.8254902 0.74203431 0.97291667
0.89166667 0.76182598 0.96084559
0.93676471 0.80392157 0.975
0.37843137 0.68823529 0.96862745
0.40306373 0.68382353 0.96813725
0.45563725 0.68112745 0.97328431
0.52401961 0.67536765 0.97144608
0.62352941 0.68921569 0.96862745
0.72058824 0.70588235 0.95992647
0.82181373 0.76470588 0.96862745
0.89080882 0.79865196 0.96813725
0.93333333 0.81568627 0.96862745
0.43382353 0.74607843 0.96078431
0.47371324 0.75030637 0.96470588
0.49669118 0.73823529 0.96409314
0.55245098 0.73376225 0.96470588
0.6372549 0.74166667 0.96862745
0.72898284 0.75392157 0.96323529
0.81470588 0.78872549 0.96470588
0.8846201 0.81127451 0.95784314
0.9254902 0.83137255 0.96078431
0.48431373 0.81372549 0.96078431
0.48161765 0.80784314 0.95686275
0.50294118 0.78823529 0.94460784
0.57818627 0.79681373 0.95882353
0.64215686 0.79215686 0.96470588
0.7252451 0.80196078 0.96862745
0.81617647 0.82794118 0.96862745
0.88676471 0.85294118 0.96642157
0.9254902 0.85294118 0.95686275
0.39803922 0.85637255 0.94901961
0.42616422 0.86047794 0.95165441
0.4817402 0.85784314 0.95294118
0.55588235 0.85153186 0.95147059
0.65171569 0.85 0.95759804
0.72058824 0.84607843 0.96715686
0.80686275 0.86519608 0.96862745
0.88676471 0.88431373 0.95833333
0.92156863 0.90490196 0.97401961
0.41862745 0.91176471 0.95392157
0.42941176 0.91470588 0.95294118
0.46862745 0.90784314 0.95073529
0.54375 0.90723039 0.95294118
0.60245098 0.89313725 0.94166667
0.70784314 0.89607843 0.9504902
0.80686275 0.90857843 0.96495098
0.88247549 0.92254902 0.96335784
0.90490196 0.93039216 0.96764706
0.51568627 0.96960784 0.96127451
0.51911765 0.96519608 0.96078431
0.54093137 0.96262255 0.95784314
0.60343137 0.96127451 0.96078431
0.64460784 0.9504902 0.95392157
0.72647059 0.95735294 0.96813725
0.80980392 0.94963235 0.96862745
0.87156863 0.95784314 0.97647059
0.89852941 0.96470588 0.97990196
0.62352941 1 0.97254902
0.63431373 1 0.97598039
0.60196078 0.9872549 0.94607843
0.68235294 0.99754902 0.97401961
0.69411765 0.98235294 0.96470588
0.75735294 0.98431373 0.95147059
0.82156863 0.99313725 0.97843137
0.86715686 0.98823529 0.97254902
0.92156863 0.99607843 0.99215686
