site/assets/luts/sha256-ca5d66af39ebfbad4ed4a936de7022a96f39fce6a47ef15b968c980ba8f87b8a.cube
# LUTr-Schema-Version: 2
# LUTr-ID: sha256-ca5d66af39ebfbad4ed4a936de7022a96f39fce6a47ef15b968c980ba8f87b8a
# LUTr-Title: fuji 800z
# LUTr-Collection: Natron HaldCLUT
# LUTr-Collection-ID: natron-haldclut-presets
# LUTr-Source: https://github.com/NatronGitHub/clut
# LUTr-Retrieved: 2026-07-27
# LUTr-Source-File: submissions/natron-haldclut-presets/negative_new/fuji_800z.png
# LUTr-Source-Format: HALD-PNG
# LUTr-Source-SHA256: ca5d66af39ebfbad4ed4a936de7022a96f39fce6a47ef15b968c980ba8f87b8a
# LUTr-License: CC-BY-SA-4.0
# LUTr-License-URL: https://github.com/NatronGitHub/clut#license
# LUTr-License-Basis: repo-license-file
# LUTr-Transform-Class: film-emulation
# LUTr-Tags: creative, film, film-emulation, hald-clut, natron, png, cube
# LUTr-Input-Color-Space: srgb
# LUTr-Input-Gamut: rec709
# LUTr-Input-Transfer: srgb
# LUTr-Output-Color-Space: srgb
# LUTr-Output-Gamut: rec709
# LUTr-Output-Transfer: srgb
# LUTr-Color-Space-Confidence: assumed-display-referred
# LUTr-Domain-Normalized: true
# LUTr-Shaper: none
# LUTr-Original-Grid: 64x64x64
# LUTr-Conversion-Grid: 25x25x25
# LUTr-Conversion-Interpolation: trilinear
# LUTr-Conversion-Method: HALD-PNG LUT image decoded at 16-bit and sampled to 25x25x25 3D CUBE
# LUTr-Conversion-Tool: LUTr scripts/convert-all-to-cube.mjs 2.0.0
# LUTr-Conversion-Date: 2026-07-27
# LUTr-Note: Preserve this metadata and the upstream license notices when redistributing.
TITLE "fuji 800z"
LUT_3D_SIZE 9
DOMAIN_MIN 0 0 0
DOMAIN_MAX 1 1 1
0.039215686 0.043137255 0.031372549
0.12401961 0.043627451 0.050980392
0.24313725 0.035294118 0.048039216
0.39509804 0.011764706 0.02745098
0.56862745 0.0039215686 0.011764706
0.74607843 0.0024509804 0.006372549
0.87352941 0 0.02254902
0.98088235 0.0014705882 0.0039215686
1 0.094117647 0
0.062254902 0.1127451 0.054901961
0.099571078 0.10882353 0.042708333
0.23921569 0.11617647 0.054901961
0.39295343 0.11060049 0.016176471
0.57867647 0.053431373 0.0039215686
0.74509804 0.051470588 0.0037377451
0.8745098 0.06752451 0.03627451
0.97003676 0.10343137 0.0034313725
1 0.17009804 0
0.051960784 0.20882353 0.065686275
0.10882353 0.21568627 0.070098039
0.21544118 0.22647059 0.042401961
0.38823529 0.26029412 0.0068627451
0.5745098 0.26078431 0.0039215686
0.72389706 0.26176471 0.00036764706
0.85588235 0.25784314 0.015686275
0.95085784 0.2932598 0
0.99607843 0.31372549 0.0068627451
0.039705882 0.32107843 0.090196078
0.1127451 0.31746324 0.1004902
0.19816176 0.33088235 0.084681373
0.35735294 0.38327206 0.022058824
0.55637255 0.4129902 0.006372549
0.70839461 0.4122549 0.0039215686
0.83578431 0.41678922 0.0039215686
0.93216912 0.43756127 0.00030637255
0.99607843 0.44117647 0.0078431373
0.039215686 0.43529412 0.11372549
0.12230392 0.43137255 0.13137255
0.20147059 0.43333333 0.12156863
0.32990196 0.46642157 0.10220588
0.50882353 0.52352941 0.03627451
0.67867647 0.55441176 0.0039215686
0.81862745 0.5622549 0.00049019608
0.90906863 0.56078431 0.0039215686
0.99803922 0.56470588 0
0.13382353 0.55735294 0.17941176
0.16715686 0.54185049 0.17028186
0.22352941 0.53137255 0.16875
0.32598039 0.54656863 0.16219363
0.46078431 0.59191176 0.14166667
0.64117647 0.64117647 0.095526961
0.79607843 0.67745098 0.057352941
0.8995098 0.68609069 0.0078431373
0.98431373 0.68431373 0.0093137255
0.23921569 0.65784314 0.24215686
0.24754902 0.65134804 0.23137255
0.29509804 0.64387255 0.2372549
0.34252451 0.62990196 0.22242647
0.46323529 0.66764706 0.2254902
0.60306373 0.7057598 0.22745098
0.73627451 0.74509804 0.22794118
0.86372549 0.77071078 0.20343137
0.9627451 0.77941176 0.16862745
0.38284314 0.77058824 0.35882353
0.39503676 0.77058824 0.35631127
0.41715686 0.75882353 0.35796569
0.45539216 0.75098039 0.35539216
0.52720588 0.76078431 0.35784314
0.63186275 0.79381127 0.38167892
0.72242647 0.82205882 0.39264706
0.84117647 0.85294118 0.41911765
0.93284314 0.87205882 0.40735294
0.58039216 0.89803922 0.57647059
0.59215686 0.89852941 0.57696078
0.59313725 0.8872549 0.56666667
0.6245098 0.89264706 0.58284314
0.66666667 0.89215686 0.59215686
0.72058824 0.90343137 0.60147059
0.78333333 0.91078431 0.59607843
0.85980392 0.9377451 0.61960784
0.89411765 0.9372549 0.60392157
0.081372549 0.051470588 0.092647059
0.12702206 0.050980392 0.096139706
0.25392157 0.031127451 0.1004902
0.42352941 0.00049019608 0.10833333
0.58970588 0.0034313725 0.098039216
0.74852941 0.01127451 0.088235294
0.87843137 0.0037990196 0.076470588
0.96617647 0.0043504902 0.060232843
1 0.072058824 0.068137255
0.049080882 0.12058824 0.097120098
0.13142616 0.1283701 0.10441176
0.25355392 0.12331495 0.1066636
0.41439951 0.10147059 0.096568627
0.58973652 0.069822304 0.092156863
0.75202206 0.041421569 0.086657475
0.875 0.05625 0.071139706
0.96536458 0.12047335 0.064215686
1 0.19258578 0.049019608
0.097058824 0.22830882 0.12303922
0.13529412 0.22670037 0.12009804
0.24620098 0.23872549 0.11691176
0.40686275 0.26176471 0.085646446
0.58192402 0.25294118 0.06127451
0.73235294 0.25405944 0.053431373
0.85854779 0.2625 0.035539216
0.95859375 0.2897212 0.021997549
0.99656863 0.31764706 0.02377451
0.09185049 0.35441176 0.14656863
0.14389553 0.33888634 0.1442019
0.21908701 0.34313725 0.13573836
0.38609069 0.39411765 0.10373775
0.56902574 0.4263174 0.056372549
0.70931373 0.41617647 0.0047717525
0.83676471 0.42164522 0.0058823529
0.93954504 0.43366268 0.002611826
0.99607843 0.44883578 0.025490196
0.10710784 0.4622549 0.16960784
0.1575674 0.44877451 0.17352941
0.22493873 0.44460784 0.16960784
0.3495098 0.47132353 0.14313725
0.53504902 0.52941176 0.090808824
0.70220588 0.57279412 0.034865196
0.81715686 0.56421569 0.014031863
0.91473652 0.55318627 0.011764706
0.98431373 0.57058824 0.026470588
0.15980392 0.56470588 0.20802696
0.19770987 0.55688572 0.20964308
0.24750306 0.54509804 0.20698529
0.3412454 0.54957108 0.19921875
0.47564338 0.59494485 0.19558824
0.64410999 0.64443168 0.16949295
0.80098039 0.68419118 0.13198529
0.90192249 0.68404565 0.1031633
0.98284314 0.68039216 0.037132353
0.26127451 0.66960784 0.26911765
0.28137255 0.66542586 0.2703125
0.3135723 0.65162377 0.26348039
0.37144608 0.64215686 0.26390931
0.47892157 0.66764706 0.26109069
0.59914216 0.70294118 0.2638174
0.75052083 0.75094975 0.2745098
0.87063419 0.78198529 0.26973039
0.9685049 0.79852941 0.25931373
0.38719363 0.76666667 0.38186275
0.40490962 0.77439491 0.3852405
0.4279565 0.76585478 0.37487745
0.46917892 0.75535386 0.3785769
0.52916667 0.7625 0.37496936
0.62994026 0.79117647 0.39344363
0.72634804 0.82205882 0.40992647
0.83290441 0.85282629 0.41949295
0.93376225 0.87941176 0.43676471
0.57254902 0.89019608 0.57254902
0.58872549 0.89852941 0.58131127
0.58382353 0.87892157 0.56029412
0.62794118 0.8903799 0.58468137
0.65073529 0.87794118 0.56985294
0.7245098 0.90765931 0.6122549
0.78321078 0.91433824 0.60318627
0.85637255 0.9372549 0.62297794
0.90196078 0.94558824 0.63137255
0.076470588 0.057843137 0.19901961
0.14705882 0.062745098 0.20686275
0.26568627 0.043137255 0.20784314
0.45821078 0.0093137255 0.2192402
0.62745098 0.0078431373 0.22892157
0.77647059 0.012745098 0.22830882
0.88823529 0.011764706 0.22720588
0.97745098 0.0039215686 0.22953431
1 0.10882353 0.23039216
0.090196078 0.13615196 0.21911765
0.1464614 0.13267463 0.21433824
0.27110907 0.13186275 0.22239583
0.4504902 0.087867647 0.22348346
0.63008578 0.032536765 0.23039216
0.77745098 0.015379902 0.23039216
0.88835784 0.065686275 0.23039216
0.98088235 0.11568627 0.22559743
0.99215686 0.20147059 0.22561275
0.036029412 0.25392157 0.22034314
0.15125613 0.25392157 0.22637868
0.26905637 0.25839461 0.23449755
0.43480392 0.26161152 0.22987132
0.60588235 0.25330882 0.23333333
0.75306373 0.24901961 0.22693015
0.87316176 0.26231618 0.21936275
0.96531863 0.28875613 0.22156863
0.99191176 0.3245098 0.21397059
0.11176471 0.38921569 0.25343137
0.16524203 0.38270527 0.2495098
0.26666667 0.38529412 0.25453431
0.41352635 0.41127451 0.24630821
0.58033088 0.43670343 0.23137255
0.72046569 0.42120098 0.20421262
0.84754902 0.42018995 0.19362745
0.9439951 0.43363971 0.19068627
0.99154412 0.44901961 0.19852941
0.19460784 0.50980392 0.27254902
0.22064951 0.49828431 0.26862745
0.29362745 0.49080882 0.27254902
0.37089461 0.48553922 0.25863971
0.53137255 0.53357843 0.25784314
0.69166667 0.55686275 0.24068627
0.81715686 0.56041667 0.19093137
0.92015931 0.55122549 0.16868873
0.98970588 0.56323529 0.18186275
0.23382353 0.59889706 0.29411765
0.26279105 0.59076287 0.29558824
0.3135723 0.57671569 0.29310662
0.37610294 0.56551777 0.29264706
0.48529412 0.60098039 0.28057598
0.64878983 0.65477941 0.29538909
0.80018382 0.68897059 0.28578431
0.90196078 0.67262561 0.25700061
0.98762255 0.67708333 0.22843137
0.31470588 0.68823529 0.35098039
0.3270527 0.68431373 0.34181985
0.36078431 0.67034314 0.33572304
0.40919118 0.66115196 0.33235294
0.48921569 0.67132353 0.32377451
0.61737132 0.70931373 0.34099265
0.75349265 0.75349265 0.35594363
0.88327206 0.79923407 0.37487745
0.96691176 0.79901961 0.3627451
0.42156863 0.78492647 0.43970588
0.42892157 0.78180147 0.42810968
0.45903799 0.7745098 0.43578431
0.48578431 0.76568627 0.42218137
0.53927696 0.76439951 0.41979167
0.63333333 0.79125306 0.43982843
0.73026961 0.82205882 0.45315564
0.84627757 0.86029412 0.48682598
0.925 0.8754902 0.49718137
0.58823529 0.89803922 0.60392157
0.58431373 0.89019608 0.59166667
0.60294118 0.89019608 0.5997549
0.62414216 0.88235294 0.59215686
0.66862745 0.89411765 0.6127451
0.72058824 0.8997549 0.62218137
0.78946078 0.92156863 0.64117647
0.8627451 0.94117647 0.65036765
0.92058824 0.95196078 0.65
0.10833333 0.070588235 0.34558824
0.17401961 0.068443627 0.3495098
0.3004902 0.065196078 0.35453431
0.46268382 0.044607843 0.37457108
0.63921569 0.010539216 0.39191176
0.82892157 0.0014705882 0.39901961
0.91519608 0.0035539216 0.39656863
0.98903186 0.012254902 0.38841912
0.99607843 0.16029412 0.39509804
0.099509804 0.14001225 0.34558824
0.18511029 0.14738817 0.35847886
0.30772059 0.14969363 0.36416973
0.45392157 0.14313725 0.3776348
0.64656863 0.066176471 0.39966299
0.81072304 0.010240502 0.40176164
0.91073836 0.061948529 0.39558824
0.97738971 0.15659467 0.38872549
0.99491422 0.23278186 0.39785539
0.067279412 0.25784314 0.36066176
0.15588235 0.25294118 0.37054228
0.2995098 0.27205882 0.37990196
0.45991115 0.2839614 0.39042586
0.64185049 0.26623775 0.40625
0.77794118 0.25810355 0.40202206
0.89010417 0.28308824 0.39264706
0.97264093 0.31470588 0.40039828
0.98884804 0.33860294 0.39656863
0.030208333 0.42009804 0.3872549
0.15827206 0.41929381 0.3886106
0.29996936 0.41904105 0.39310662
0.45300245 0.43373928 0.40294118
0.60438113 0.44215686 0.40487132
0.7459329 0.43431373 0.40089614
0.85839461 0.43639706 0.38780637
0.95158548 0.44803922 0.38480392
0.98523284 0.45294118 0.3872549
0.20392157 0.56838235 0.40637255
0.26207108 0.55980392 0.4120098
0.34460784 0.55030637 0.41421569
0.44289216 0.53262868 0.40980392
0.5689951 0.55698529 0.40894608
0.70833333 0.57352941 0.40220588
0.82058824 0.56323529 0.37622549
0.92107843 0.56715686 0.36896446
0.99215686 0.56789216 0.37426471
0.30735294 0.64705882 0.4372549
0.35294884 0.64179687 0.43480392
0.40183824 0.62967218 0.43071385
0.43929994 0.60294118 0.41127451
0.52254902 0.61351103 0.40634191
0.66715686 0.66346507 0.42640931
0.79575674 0.68676471 0.42703738
0.89411765 0.67568934 0.39957108
0.9783701 0.6716299 0.36868873
0.38615196 0.71875 0.45784314
0.40571385 0.71487439 0.45796569
0.42732843 0.70389093 0.44617034
0.45821078 0.69036458 0.42706801
0.51807598 0.67867647 0.42377451
0.62382047 0.71041667 0.44011949
0.75269608 0.75677083 0.4661152
0.88296569 0.79967831 0.49080882
0.95833333 0.79607843 0.47156863
0.46911765 0.80539216 0.51421569
0.47778033 0.80392157 0.51439951
0.49185049 0.79327512 0.50396752
0.52647059 0.78438266 0.50225184
0.56216299 0.77058824 0.48832721
0.64080116 0.78411458 0.51040901
0.74425551 0.82267157 0.5314951
0.84309896 0.85683977 0.55018382
0.93137255 0.878125 0.57156863
0.6 0.90588235 0.64019608
0.60471814 0.90686275 0.64117647
0.61519608 0.89901961 0.63333333
0.64411765 0.90441176 0.6411152
0.67181373 0.89534314 0.64019608
0.70882353 0.87990196 0.62892157
0.79080882 0.92169118 0.66887255
0.85980392 0.9372549 0.675
0.9254902 0.94264706 0.67598039
0.15882353 0.096078431 0.49215686
0.2245098 0.088480392 0.49607843
0.33823529 0.10245098 0.50784314
0.48088235 0.073529412 0.52794118
0.63529412 0.039215686 0.55392157
0.79558824 0.0039215686 0.56004902
0.91666667 0.010784314 0.55392157
0.99607843 0.068382353 0.54313725
1 0.21176471 0.53921569
0.16911765 0.15318627 0.50392157
0.23039216 0.16078431 0.50367647
0.33921569 0.16623775 0.51433824
0.48480392 0.17303922 0.52794118
0.63639706 0.15245098 0.54901961
0.78259804 0.10759804 0.55891544
0.92205882 0.10833333 0.55196078
0.98137255 0.20643382 0.53529412
1 0.28088235 0.54313725
0.11421569 0.25539216 0.50392157
0.21207108 0.26740196 0.51568627
0.32745098 0.28198529 0.52340686
0.48541667 0.29699755 0.53780637
0.63823529 0.30686275 0.55686275
0.77794118 0.30196078 0.56243873
0.90196078 0.32095588 0.55245098
0.98284314 0.35073529 0.55
1 0.39117647 0.55441176
0.055392157 0.39901961 0.51617647
0.17254902 0.40744485 0.52156863
0.32040441 0.41660539 0.53241422
0.46443015 0.43501838 0.54117647
0.62487745 0.44852941 0.56237745
0.77205882 0.46547181 0.56939338
0.87310049 0.47089461 0.55851716
0.95235907 0.48244485 0.55882353
0.99607843 0.4877451 0.56470588
0.16176471 0.56666667 0.54313725
0.23492647 0.57536765 0.54987745
0.36544118 0.56519608 0.54901961
0.48431373 0.56495098 0.55416667
0.61617647 0.57941176 0.5622549
0.73357843 0.58958333 0.56666667
0.83333333 0.59166667 0.55906863
0.9245098 0.59215686 0.55269608
0.98921569 0.58823529 0.54901961
0.36593137 0.69509804 0.57401961
0.39803922 0.69509804 0.57539828
0.45441176 0.67426471 0.56544118
0.52254902 0.6666973 0.5627451
0.57830882 0.64509804 0.54632353
0.69629289 0.675 0.56170343
0.80484069 0.69460784 0.57199755
0.89803922 0.68471201 0.54607843
0.96789216 0.68088235 0.53651961
0.4627451 0.75686275 0.59215686
0.48517157 0.75686275 0.58823529
0.50196078 0.75098039 0.58051471
0.54338235 0.73743873 0.56881127
0.57107843 0.70808824 0.54338235
0.64215686 0.715625 0.54460784
0.76053922 0.76078431 0.57598039
0.87107843 0.78039216 0.58431373
0.95490196 0.79215686 0.58235294
0.52647059 0.82696078 0.6125
0.5377451 0.83039216 0.61813725
0.55349265 0.81997549 0.60863971
0.58014706 0.81127451 0.60392157
0.60306373 0.79191176 0.58161765
0.64623162 0.78912377 0.57279412
0.7372549 0.82156863 0.59589461
0.85242034 0.86029412 0.63474265
0.95098039 0.89534314 0.65196078
0.61372549 0.91960784 0.69019608
0.60318627 0.89607843 0.67034314
0.62892157 0.90196078 0.67941176
0.6504902 0.90563725 0.68137255
0.6627451 0.8745098 0.65686275
0.70171569 0.87009804 0.65171569
0.79019608 0.92352941 0.70784314
0.8620098 0.9372549 0.71568627
0.93529412 0.95490196 0.7254902
0.24215686 0.10833333 0.6372549
0.28921569 0.13118873 0.63333333
0.39117647 0.12781863 0.64693627
0.51323529 0.12303922 0.65686275
0.64583333 0.14338235 0.67377451
0.77542892 0.13829657 0.68823529
0.89166667 0.13259804 0.6932598
0.97598039 0.1963848 0.67990196
0.99852941 0.22401961 0.67254902
0.25410539 0.18039216 0.64068627
0.29659161 0.17979473 0.643053
0.39509804 0.18737745 0.64901961
0.51715686 0.19944853 0.65458793
0.64705882 0.22058824 0.66920956
0.77058824 0.22254902 0.6859758
0.8877451 0.23045343 0.68587623
0.97442555 0.27428768 0.67775735
0.99607843 0.32175245 0.67598039
0.24117647 0.27598039 0.64509804
0.28328738 0.28088235 0.64171262
0.38039216 0.29558824 0.6513174
0.51753983 0.3122549 0.6564951
0.64613971 0.33609069 0.66985294
0.7623315 0.35490196 0.68339461
0.88391544 0.37521446 0.68321078
0.9689951 0.39411765 0.68408395
0.99607843 0.43002451 0.68676471
0.13829657 0.38088235 0.6372549
0.22088695 0.39381127 0.6408701
0.35343137 0.41482843 0.65294118
0.48241422 0.43599112 0.65573683
0.62723652 0.4627451 0.67107843
0.75063572 0.48578431 0.68676471
0.86176471 0.49898897 0.68431373
0.95686275 0.51764706 0.69068627
0.98823529 0.52647059 0.69160539
0.17254902 0.5370098 0.64558824
0.24877451 0.5377451 0.64886642
0.35116422 0.54258578 0.65324755
0.46911765 0.54754902 0.65857843
0.60661765 0.57254902 0.66789216
0.73921569 0.5995098 0.68431373
0.84215686 0.61268382 0.69338235
0.9370098 0.61976103 0.69754902
0.99338235 0.61715686 0.69852941
0.33131127 0.67892157 0.67254902
0.36374847 0.6914905 0.67892157
0.45931373 0.68676471 0.68002451
0.54028033 0.68733915 0.68249847
0.62107843 0.67965686 0.67815564
0.72107843 0.69028033 0.68543964
0.81470588 0.69852941 0.68223039
0.90147059 0.69852941 0.675
0.97892157 0.70245098 0.68284314
0.50232843 0.78872549 0.6995098
0.52686887 0.79693627 0.70245098
0.55477941 0.79083946 0.69852941
0.59771752 0.77801777 0.6939185
0.62910539 0.76207108 0.67647059
0.69117647 0.74924939 0.66897978
0.78691789 0.77668505 0.68602941
0.87896752 0.78468137 0.68382353
0.96127451 0.78823529 0.68272059
0.57107843 0.85735294 0.71439951
0.59019608 0.86282935 0.72009804
0.60726103 0.85574449 0.71502757
0.628125 0.8473652 0.70686275
0.65922181 0.83887868 0.69803922
0.6872549 0.81482077 0.67480086
0.7553462 0.82598039 0.68037684
0.86292892 0.86685049 0.71372549
0.95079657 0.89215686 0.72677696
0.62745098 0.92009804 0.75196078
0.64675245 0.92696078 0.75588235
0.66323529 0.92696078 0.75196078
0.67843137 0.9254902 0.74803922
0.70147059 0.92230392 0.74411765
0.73719363 0.91519608 0.73719363
0.79019608 0.9127451 0.74019608
0.86158088 0.93529412 0.75980392
0.9372549 0.92794118 0.74656863
0.36764706 0.18431373 0.74509804
0.39816176 0.15931373 0.75159314
0.46102941 0.17598039 0.75759804
0.55796569 0.19387255 0.76764706
0.66813725 0.23823529 0.7754902
0.77340686 0.27598039 0.77941176
0.88137255 0.28210784 0.79191176
0.95784314 0.30294118 0.79460784
0.99607843 0.33235294 0.78333333
0.35980392 0.22058824 0.75196078
0.39439338 0.22674632 0.75196078
0.46176471 0.22708333 0.75661765
0.55409007 0.24136029 0.7622549
0.66421569 0.27579657 0.77205882
0.76911765 0.31078431 0.77879902
0.86969975 0.33428309 0.78333333
0.96223958 0.35539216 0.7872549
0.99607843 0.38492647 0.78419118
0.36078431 0.30490196 0.75294118
0.38446691 0.31139706 0.75980392
0.45398284 0.32181373 0.75667892
0.5504902 0.33431373 0.75995711
0.65784314 0.36237745 0.77156863
0.76617647 0.40707721 0.78088235
0.86176471 0.43039216 0.78719363
0.94289216 0.43455882 0.7872549
0.99607843 0.47279412 0.79044118
0.29558824 0.40441176 0.74840686
0.31605392 0.40833333 0.74840686
0.43268995 0.43526348 0.75588235
0.53909314 0.44908088 0.75980392
0.64803922 0.47935049 0.76734069
0.75551471 0.51398591 0.77659314
0.84727328 0.53443627 0.78627451
0.93391544 0.54640012 0.79117647
0.99252451 0.56127451 0.79509804
0.20980392 0.50931373 0.74019608
0.2653799 0.51176471 0.74019608
0.37156863 0.52818627 0.74558824
0.4875 0.54264706 0.75196078
0.62377451 0.57328431 0.76053922
0.73897059 0.60373775 0.77487745
0.8377451 0.62683824 0.78651961
0.9221201 0.64129902 0.79264706
0.98480392 0.65 0.79509804
0.32058824 0.65343137 0.75490196
0.35399816 0.6504136 0.75526961
0.42009804 0.66127451 0.75698529
0.50212929 0.65343137 0.75698529
0.59644608 0.6564951 0.75716912
0.71862745 0.68803615 0.7722886
0.82892157 0.71519608 0.78823529
0.91360294 0.73272059 0.79894301
0.9810049 0.73333333 0.79178922
0.45980392 0.77647059 0.77647059
0.49558824 0.78630515 0.77941176
0.52181373 0.77843137 0.77622549
0.57931985 0.78250613 0.77858456
0.65232843 0.78088235 0.78014706
0.73272059 0.78314951 0.78014706
0.81341912 0.79865196 0.7875
0.89623162 0.80392157 0.79215686
0.96691176 0.80294118 0.78431373
0.60759804 0.88823529 0.80330882
0.60436581 0.87953431 0.79972426
0.61865809 0.87561275 0.79816176
0.67205882 0.88394608 0.80261949
0.70741422 0.87696078 0.7995098
0.74644608 0.86360294 0.78970588
0.77889093 0.84460784 0.76816789
0.86023284 0.85997243 0.77977941
0.94901961 0.88382353 0.79558824
0.66078431 0.93823529 0.81764706
0.67156863 0.94215686 0.82156863
0.68946078 0.94362745 0.81764706
0.71323529 0.94509804 0.81973039
0.73627451 0.9372549 0.81764706
0.76715686 0.93186275 0.81372549
0.80196078 0.92254902 0.80122549
0.86776961 0.93762255 0.81017157
0.91176471 0.94117647 0.81470588
0.47647059 0.24166667 0.85637255
0.50300245 0.24123775 0.85637255
0.54852941 0.2495098 0.85894608
0.61636029 0.26734069 0.85637255
0.70441176 0.2995098 0.86397059
0.79313725 0.353125 0.86421569
0.87745098 0.40686275 0.8689951
0.95784314 0.44166667 0.8754902
0.99607843 0.44901961 0.87156863
0.47696078 0.29558824 0.85637255
0.50729167 0.30294118 0.85637255
0.54852941 0.31067708 0.85245098
0.61791513 0.30373775 0.86011029
0.70098039 0.34583333 0.86372549
0.78921569 0.38670343 0.86056219
0.87389706 0.43345588 0.86776961
0.95429688 0.45294118 0.87640931
0.99607843 0.47113971 0.87506127
0.47303922 0.36764706 0.85625
0.49633885 0.36862745 0.85637255
0.54068627 0.37337623 0.85536152
0.6122549 0.39264706 0.85637255
0.6966299 0.41574755 0.85723039
0.78359375 0.46564032 0.86158088
0.86865809 0.49653799 0.86813725
0.94382659 0.51585478 0.87216605
0.99571078 0.52745098 0.87953431
0.44705882 0.46011029 0.84981618
0.45631127 0.45588235 0.84852941
0.5254902 0.47009804 0.85
0.6053845 0.49087776 0.85
0.68514093 0.50661765 0.85352328
0.7713848 0.54852941 0.85853248
0.85767463 0.58102022 0.86421569
0.93888634 0.59417892 0.87248775
0.98578431 0.60588235 0.878125
0.3622549 0.53431373 0.83897059
0.39408701 0.53976716 0.84068627
0.47953431 0.55692402 0.84460784
0.56553309 0.5729473 0.84460784
0.66752451 0.59264706 0.85134804
0.75719975 0.61813725 0.85606618
0.84656863 0.65202206 0.86384804
0.92742034 0.66519608 0.87205882
0.97647059 0.67303922 0.87965686
0.34295343 0.63333333 0.83431373
0.37277114 0.63668045 0.83880974
0.41366422 0.63319547 0.84068627
0.50539216 0.64184283 0.83683364
0.62328431 0.65765931 0.84779412
0.7346201 0.69117647 0.85245098
0.83244485 0.71783088 0.86029412
0.91734069 0.74503676 0.87156863
0.98253676 0.76029412 0.87567402
0.45392157 0.76458333 0.85196078
0.46220895 0.76960784 0.84846814
0.50735294 0.76568627 0.8495098
0.55637255 0.76265319 0.8522212
0.62371324 0.75245098 0.85330882
0.70294118 0.76109069 0.85208333
0.80965074 0.79068627 0.86087623
0.90735294 0.81813725 0.87953431
0.97977941 0.83333333 0.8872549
0.56617647 0.88082108 0.86464461
0.56256893 0.88382353 0.86459099
0.59324449 0.88039216 0.86432292
0.65181526 0.87990196 0.87160692
0.70248162 0.88183211 0.87594975
0.7540288 0.87647059 0.87205882
0.81839767 0.87587316 0.87161458
0.88682598 0.87909773 0.87156863
0.96084559 0.89509804 0.88290441
0.67843137 0.95294118 0.87941176
0.69460784 0.96078431 0.88333333
0.69754902 0.95392157 0.88333333
0.7341299 0.95686275 0.88578431
0.76470588 0.94362745 0.8872549
0.79901961 0.93351716 0.8872549
0.83272059 0.93872549 0.87855392
0.8877451 0.94509804 0.8754902
0.95735294 0.9495098 0.8877451
0.60392157 0.39607843 0.94117647
0.57696078 0.34607843 0.90686275
0.65 0.41568627 0.93823529
0.6872549 0.41960784 0.92696078
0.74705882 0.42156863 0.92352941
0.83039216 0.4877451 0.94117647
0.89215686 0.51176471 0.92843137
0.95784314 0.56911765 0.94117647
0.99215686 0.57647059 0.9372549
0.60735294 0.42303922 0.94117647
0.615625 0.42647059 0.93676471
0.65294118 0.4377451 0.94068627
0.69901961 0.45245098 0.94099265
0.75318627 0.46617647 0.93529412
0.8091299 0.45863971 0.91470588
0.89264706 0.54963235 0.94117647
0.95349265 0.57647059 0.94068627
0.99215686 0.5877451 0.94117647
0.59313725 0.47647059 0.92941176
0.60490196 0.47401961 0.93088235
0.63823529 0.48112745 0.93039216
0.69754902 0.50428922 0.93909314
0.75294118 0.51911765 0.93333333
0.8182598 0.55061275 0.93480392
0.89044118 0.58651961 0.94117647
0.94607843 0.60330882 0.9372549
0.99607843 0.61862745 0.94117647
0.59509804 0.55539216 0.93872549
0.60214461 0.54724265 0.93578431
0.62585784 0.54571078 0.92904412
0.6872549 0.57205882 0.9372549
0.74509804 0.58137255 0.93651961
0.81133578 0.60637255 0.9372549
0.88039216 0.63333333 0.93541667
0.9473652 0.65569853 0.93903186
0.99607843 0.66764706 0.94509804
0.53333333 0.6 0.93333333
0.5504902 0.60735294 0.93137255
0.62107843 0.62892157 0.94264706
0.65588235 0.63259804 0.93333333
0.72745098 0.64411765 0.93431373
0.79705882 0.66151961 0.93333333
0.8745098 0.68676471 0.94264706
0.94215686 0.70980392 0.94117647
0.99215686 0.71764706 0.94509804
0.48480392 0.67107843 0.9372549
0.49656863 0.67028186 0.93106618
0.53345588 0.6692402 0.93198529
0.60680147 0.68529412 0.92849265
0.68504902 0.69534314 0.92867647
0.77156863 0.71421569 0.92843137
0.85539216 0.74080882 0.9372549
0.92598039 0.76470588 0.93272059
0.97107843 0.77941176 0.94117647
0.50686275 0.78039216 0.93921569
0.50906863 0.77634804 0.92120098
0.54509804 0.77352941 0.9375
0.58627451 0.76617647 0.93051471
0.62205882 0.7495098 0.90343137
0.72107843 0.77561275 0.93970588
0.81764706 0.79117647 0.92647059
0.91862745 0.82598039 0.94509804
0.95294118 0.84117647 0.94411765
0.58186275 0.88382353 0.94117647
0.58572304 0.8877451 0.93780637
0.60796569 0.87990196 0.92389706
0.6372549 0.88431373 0.94154412
0.68161765 0.87990196 0.93897059
0.7372549 0.87469363 0.93314951
0.81029412 0.86470588 0.94117647
0.89552696 0.8877451 0.9372549
0.96519608 0.90735294 0.94117647
0.65882353 0.96078431 0.94509804
0.66715686 0.96911765 0.9495098
0.68529412 0.96568627 0.94215686
0.70588235 0.95294118 0.92794118
0.7372549 0.95098039 0.94509804
0.79509804 0.95931373 0.9372549
0.84901961 0.96372549 0.94803922
0.90686275 0.94117647 0.92892157
0.96470588 0.9372549 0.92156863
