site/assets/luts/sha256-e3f15986d4da5f1569bebd466532c5429c4a24f1a82eadb6ead91cfecef80a22.cube
# LUTr-Schema-Version: 2
# LUTr-ID: sha256-e3f15986d4da5f1569bebd466532c5429c4a24f1a82eadb6ead91cfecef80a22
# LUTr-Title: polaroid 669 cold -
# LUTr-Collection: Natron HaldCLUT
# LUTr-Collection-ID: natron-haldclut-presets
# LUTr-Source: https://github.com/NatronGitHub/clut
# LUTr-Retrieved: 2026-07-27
# LUTr-Source-File: submissions/natron-haldclut-presets/instant_pro/polaroid_669_cold_-.png
# LUTr-Source-Format: HALD-PNG
# LUTr-Source-SHA256: e3f15986d4da5f1569bebd466532c5429c4a24f1a82eadb6ead91cfecef80a22
# LUTr-License: CC-BY-SA-4.0
# LUTr-License-URL: https://github.com/NatronGitHub/clut#license
# LUTr-License-Basis: repo-license-file
# LUTr-Transform-Class: film-emulation
# LUTr-Tags: creative, film, film-emulation, hald-clut, natron, png, cool, cube
# LUTr-Input-Color-Space: srgb
# LUTr-Input-Gamut: rec709
# LUTr-Input-Transfer: srgb
# LUTr-Output-Color-Space: srgb
# LUTr-Output-Gamut: rec709
# LUTr-Output-Transfer: srgb
# LUTr-Color-Space-Confidence: assumed-display-referred
# LUTr-Domain-Normalized: true
# LUTr-Shaper: none
# LUTr-Original-Grid: 64x64x64
# LUTr-Conversion-Grid: 25x25x25
# LUTr-Conversion-Interpolation: trilinear
# LUTr-Conversion-Method: HALD-PNG LUT image decoded at 16-bit and sampled to 25x25x25 3D CUBE
# LUTr-Conversion-Tool: LUTr scripts/convert-all-to-cube.mjs 2.0.0
# LUTr-Conversion-Date: 2026-07-27
# LUTr-Note: Preserve this metadata and the upstream license notices when redistributing.
TITLE "polaroid 669 cold -"
LUT_3D_SIZE 9
DOMAIN_MIN 0 0 0
DOMAIN_MAX 1 1 1
0 0.10196078 0.12156863
0 0.1254902 0.16029412
0.0039215686 0.14117647 0.16862745
0.14019608 0.15294118 0.17647059
0.31568627 0.16862745 0.21764706
0.47401961 0.17254902 0.25637255
0.63137255 0.16470588 0.27941176
0.75882353 0.20441176 0.32647059
0.87843137 0.24705882 0.37254902
0 0.16764706 0.16813725
0 0.16421569 0.16421569
0.0029411765 0.175 0.1754902
0.17873775 0.18382353 0.19607843
0.3504902 0.20122549 0.24828431
0.50882353 0.19558824 0.26158088
0.64791667 0.20294118 0.29852941
0.7745098 0.22352941 0.33425245
0.88284314 0.2622549 0.37990196
0 0.22843137 0.20098039
0.0039215686 0.2372549 0.21372549
0.037990196 0.24313725 0.22303922
0.23627451 0.25477941 0.24754902
0.41470588 0.26078431 0.27598039
0.54938725 0.26470588 0.3060049
0.67745098 0.26862745 0.3254902
0.79276961 0.29301471 0.36470588
0.88823529 0.33823529 0.40980392
0.0039215686 0.325 0.2754902
0.0039215686 0.31862745 0.27156863
0.08995098 0.32438725 0.27732843
0.28327206 0.33284314 0.29601716
0.44509804 0.33946078 0.30833333
0.58927696 0.35300245 0.33817402
0.70343137 0.37156863 0.37267157
0.8036152 0.40245098 0.41109069
0.89019608 0.45294118 0.45980392
0 0.40588235 0.31568627
0.048284314 0.40588235 0.31960784
0.14656863 0.40392157 0.32303922
0.30441176 0.41495098 0.33137255
0.44901961 0.42352941 0.33529412
0.57254902 0.43014706 0.34117647
0.69852941 0.46813725 0.38823529
0.80931373 0.52230392 0.45784314
0.89215686 0.57254902 0.51176471
0.13921569 0.50784314 0.36372549
0.18400735 0.50392157 0.36372549
0.24019608 0.49852941 0.36556373
0.32738971 0.50245098 0.36617647
0.44240196 0.51102941 0.36691176
0.55882353 0.53045343 0.37248775
0.67414216 0.56262255 0.39129902
0.79185049 0.60802696 0.44852941
0.87303922 0.68137255 0.5372549
0.24215686 0.62745098 0.40882353
0.26813725 0.62745098 0.4127451
0.30980392 0.6245098 0.41372549
0.36764706 0.61029412 0.40980392
0.45784314 0.63186275 0.41666667
0.55882353 0.65134804 0.41948529
0.66666667 0.6754902 0.42058824
0.76617647 0.70637255 0.44460784
0.84117647 0.75 0.50294118
0.33088235 0.78284314 0.47990196
0.34166667 0.77892157 0.4754902
0.37267157 0.77414216 0.46813725
0.42156863 0.76341912 0.46832108
0.48946078 0.76519608 0.47671569
0.58578431 0.78431373 0.49411765
0.66617647 0.81482843 0.49693627
0.75882353 0.84209559 0.52015931
0.82794118 0.85294118 0.54803922
0.49803922 0.95294118 0.63921569
0.48578431 0.93284314 0.61911765
0.51862745 0.94705882 0.62941176
0.54362745 0.93333333 0.62352941
0.58627451 0.92745098 0.62745098
0.64607843 0.93333333 0.64313725
0.72058824 0.94607843 0.66372549
0.80098039 0.96470588 0.69852941
0.87843137 0.98431373 0.75294118
0 0.13676471 0.18382353
0 0.13676471 0.19025735
0 0.15281863 0.21458333
0.15441176 0.16844363 0.23039216
0.33284314 0.17990196 0.25980392
0.49313725 0.1877451 0.29068627
0.63884804 0.19166667 0.32291667
0.76182598 0.20441176 0.3495098
0.8745098 0.23921569 0.39166667
0 0.17156863 0.20980392
0 0.17886795 0.21808364
0.011014093 0.18333333 0.22977941
0.17745098 0.19912684 0.25557598
0.35784314 0.20343137 0.275
0.51256127 0.20841759 0.30414369
0.64744179 0.21196385 0.33296569
0.77053462 0.22696078 0.36078431
0.86721814 0.26574755 0.39908088
0 0.24411765 0.25980392
0.0039215686 0.24889706 0.26470588
0.021170343 0.2486826 0.2638174
0.24928002 0.26292892 0.28854167
0.41151961 0.27113971 0.31366422
0.55384498 0.26715686 0.33247549
0.67647059 0.28030025 0.35980392
0.7899663 0.30375306 0.39509804
0.88664216 0.34215686 0.42990196
0.0039215686 0.33645833 0.30765931
0.006104473 0.33633578 0.31045496
0.10761336 0.33739277 0.3127451
0.29166667 0.34331342 0.32457108
0.45073529 0.35088848 0.34721201
0.58627451 0.36245404 0.37205882
0.70196078 0.37518382 0.39549632
0.81305147 0.39944853 0.43049939
0.89234069 0.45686275 0.47647059
0.012254902 0.42132353 0.34852941
0.092432598 0.42110907 0.35395221
0.20220588 0.41936275 0.35416667
0.31446078 0.42264093 0.35799632
0.45183824 0.43590686 0.36764706
0.57754289 0.44543505 0.37322304
0.7 0.47898284 0.4247549
0.81102941 0.52227328 0.47261029
0.89019608 0.58014706 0.52892157
0.16256127 0.52156863 0.39313725
0.20557598 0.51803002 0.3907935
0.25935968 0.51216299 0.38921569
0.34208793 0.5127451 0.38921569
0.45441176 0.52573529 0.39690564
0.56881127 0.53983609 0.3983992
0.68177083 0.55886949 0.40945159
0.79248621 0.6154182 0.475
0.87095588 0.68792892 0.55772059
0.25686275 0.63492647 0.43186275
0.27598039 0.63497243 0.42892157
0.31764706 0.6310049 0.42928922
0.37801777 0.62316176 0.42892157
0.46127451 0.63333333 0.42800245
0.56519608 0.65245098 0.43583027
0.66960784 0.67867647 0.44534314
0.76498162 0.70647978 0.46813725
0.83823529 0.76764706 0.54497549
0.33915441 0.78290441 0.49852941
0.35914522 0.7863894 0.50391391
0.38120404 0.7801011 0.49434743
0.42704504 0.775 0.49160539
0.50710784 0.77696078 0.50171569
0.58431373 0.79403339 0.50802696
0.6627451 0.81911765 0.51188725
0.75833333 0.84558824 0.52782629
0.82352941 0.86862745 0.55686275
0.49019608 0.9377451 0.63921569
0.49019608 0.92990196 0.63180147
0.49754902 0.91421569 0.61568627
0.52389706 0.91078431 0.60833333
0.59632353 0.94730392 0.64730392
0.66127451 0.95245098 0.65980392
0.7245098 0.95098039 0.66997549
0.80098039 0.96813725 0.70196078
0.85098039 0.97598039 0.72941176
0 0.14117647 0.24901961
0 0.16323529 0.275
0.0039215686 0.17622549 0.29509804
0.125 0.18431373 0.31360294
0.34215686 0.19215686 0.33480392
0.5122549 0.19938725 0.36531863
0.63602941 0.18897059 0.37156863
0.77009804 0.2004902 0.40686275
0.85980392 0.23921569 0.43823529
0 0.19411765 0.29019608
0.0022518382 0.19486826 0.29368873
0.011550245 0.20330882 0.31029412
0.16654412 0.21421569 0.33235294
0.37193627 0.22377451 0.35931373
0.52602635 0.22844669 0.38102022
0.65364583 0.22591912 0.39117647
0.77446385 0.23861826 0.41769301
0.86421569 0.26519608 0.44411765
0 0.25980392 0.32916667
0 0.26666667 0.34004289
0.022732843 0.26746324 0.35214461
0.25735294 0.27987132 0.3754902
0.42928922 0.28639706 0.39522059
0.55713848 0.28636642 0.40428922
0.68039216 0.29191176 0.42132353
0.78970588 0.31041667 0.44375
0.8872549 0.34901961 0.4754902
0.006372549 0.35428922 0.38088235
0.0095435049 0.35984988 0.38760723
0.15750613 0.35958946 0.39825368
0.31882659 0.36323529 0.40098039
0.46617647 0.37015931 0.41807598
0.59411765 0.38123468 0.43794424
0.71458333 0.39914216 0.46412377
0.80784314 0.41827512 0.4872549
0.88051471 0.45539216 0.51875
0.11323529 0.46127451 0.42696078
0.16390931 0.45753676 0.43039216
0.23823529 0.45098039 0.42647059
0.34240196 0.44803922 0.42647059
0.47034314 0.45588235 0.43480392
0.59332108 0.46715686 0.43970588
0.71568627 0.50245098 0.48333333
0.81231618 0.5377451 0.5245098
0.87107843 0.58039216 0.56372549
0.20735294 0.54963235 0.44987745
0.23284314 0.55232843 0.4520527
0.29803922 0.54105392 0.44754902
0.3622549 0.53039216 0.44471507
0.46764706 0.54313725 0.44656863
0.57958027 0.55784314 0.44964767
0.6877451 0.5814951 0.47049632
0.79607843 0.63489583 0.52438725
0.86519608 0.70894608 0.61164216
0.28333333 0.66887255 0.48823529
0.30245098 0.66262255 0.48492647
0.34148284 0.65802696 0.48529412
0.39705882 0.64770221 0.47781863
0.4745098 0.64852941 0.47352941
0.57205882 0.66789216 0.47772672
0.66960784 0.68921569 0.48921569
0.76541054 0.70903799 0.4939951
0.82941176 0.76470588 0.55980392
0.35477941 0.79313725 0.54068627
0.36574755 0.80147059 0.54091605
0.38872549 0.79727328 0.53382353
0.43720895 0.78676471 0.52941176
0.51072304 0.78970588 0.54001225
0.58546262 0.80392157 0.53468137
0.67009804 0.82282475 0.53771446
0.7627451 0.84209559 0.56698836
0.82794118 0.86470588 0.57316176
0.4745098 0.91764706 0.64607843
0.49791667 0.93713235 0.66078431
0.50980392 0.93333333 0.65098039
0.55 0.9372549 0.65845588
0.59754902 0.94656863 0.66568627
0.65208333 0.94656863 0.67144608
0.7245098 0.95 0.68627451
0.80098039 0.96470588 0.72058824
0.87647059 0.98333333 0.76568627
0 0.17892157 0.37303922
0 0.19068627 0.38235294
0.0093137255 0.19791667 0.39742647
0.14607843 0.21029412 0.42009804
0.36127451 0.22083333 0.44705882
0.53382353 0.22598039 0.47009804
0.66911765 0.23235294 0.4807598
0.78823529 0.22959559 0.49460784
0.86617647 0.25735294 0.50931373
0 0.22530637 0.39362745
0 0.21366422 0.39362745
0.0045036765 0.22428002 0.41372549
0.1908701 0.24332108 0.44313725
0.38897059 0.24966299 0.46243873
0.5491345 0.25931373 0.48389246
0.67303922 0.2627451 0.49192708
0.78449755 0.26764706 0.50204504
0.87444853 0.28167892 0.51715686
0 0.28615196 0.42536765
0.0039215686 0.29362745 0.43716299
0.039613971 0.29681373 0.45563725
0.28517157 0.30614277 0.47941176
0.44240196 0.31715686 0.49356618
0.57506127 0.31407782 0.50294118
0.68676471 0.32077206 0.50701593
0.79353554 0.31708027 0.51239277
0.88088235 0.35 0.5372549
0.0048406863 0.38180147 0.47984069
0.0125 0.38627451 0.48756893
0.17568934 0.3899663 0.49901961
0.35106464 0.39411765 0.51233915
0.49117647 0.39849877 0.52205882
0.6004902 0.40230545 0.52892157
0.71205576 0.41026348 0.5370864
0.80539216 0.42598039 0.55035999
0.87990196 0.45686275 0.57150735
0.096078431 0.48872549 0.51372549
0.1734375 0.49264706 0.51911765
0.28578431 0.49313725 0.52677696
0.38060662 0.48995098 0.52772672
0.50441176 0.48995098 0.52892157
0.61253064 0.49653799 0.5375
0.71764706 0.53529412 0.57444853
0.80784314 0.55646446 0.59460784
0.87230392 0.59191176 0.61911765
0.24215686 0.59993873 0.54215686
0.27297028 0.60363051 0.54215686
0.32928922 0.60032169 0.5439951
0.40643382 0.58425245 0.54181219
0.48826593 0.57083333 0.52965686
0.60167739 0.59356618 0.53823529
0.69803922 0.61943934 0.55496324
0.79558824 0.67163756 0.61254596
0.85974265 0.71568627 0.65882353
0.31421569 0.71078431 0.56911765
0.32941176 0.70464154 0.56272978
0.36626838 0.69856005 0.55735294
0.42009804 0.68549326 0.55006127
0.48890931 0.67696078 0.54920343
0.57696078 0.6926777 0.5495098
0.67316176 0.7129902 0.55735294
0.76605392 0.72807904 0.56383272
0.84215686 0.8004902 0.65
0.37401961 0.82794118 0.60588235
0.38756127 0.8276731 0.60091912
0.41724877 0.81818321 0.60147059
0.44601716 0.8122549 0.58627451
0.51470588 0.80490196 0.58676471
0.58186275 0.80991881 0.58284314
0.67002145 0.83223039 0.59131434
0.75790441 0.85138634 0.61078431
0.82352941 0.87205882 0.62401961
0.50294118 0.94362745 0.69509804
0.50980392 0.94528186 0.69803922
0.52634804 0.94411765 0.69620098
0.55784314 0.94754902 0.69810049
0.59485294 0.94583333 0.69264706
0.64601716 0.9401348 0.69105392
0.71568627 0.9435049 0.69987745
0.79362745 0.95949755 0.73235294
0.8627451 0.96862745 0.76323529
0 0.19607843 0.47647059
0 0.20588235 0.49411765
0.0078431373 0.22058824 0.5127451
0.15343137 0.23970588 0.54289216
0.39607843 0.25490196 0.57058824
0.56740196 0.27794118 0.59215686
0.69803922 0.30637255 0.6127451
0.80539216 0.3377451 0.63161765
0.89019608 0.36470588 0.64117647
0 0.25220588 0.51323529
0.0039215686 0.25909926 0.52107843
0.0039215686 0.25588235 0.53186275
0.1984375 0.26626838 0.55808824
0.42058824 0.28247549 0.58198529
0.5760723 0.30450368 0.60137868
0.70520833 0.34515931 0.62843137
0.80343137 0.36856618 0.63746936
0.89191176 0.38186275 0.64485294
0 0.3245098 0.53627451
0 0.32843137 0.54846814
0.019362745 0.32156863 0.56372549
0.28719363 0.33106618 0.58952206
0.47230392 0.35147059 0.61102941
0.60294118 0.36421569 0.6216299
0.71041667 0.40196078 0.63884804
0.80318627 0.41011029 0.64117647
0.87696078 0.42843137 0.64901961
0.0039215686 0.42107843 0.57696078
0.019056373 0.41927083 0.58088235
0.19901961 0.41960784 0.59877451
0.35612745 0.425 0.61663603
0.50906863 0.44227941 0.63553922
0.62009804 0.45683211 0.6401348
0.71862745 0.47573529 0.65269608
0.80775123 0.46715686 0.64583333
0.85931373 0.45686275 0.6377451
0.070588235 0.51960784 0.61568627
0.15980392 0.52561275 0.61654412
0.30245098 0.52671569 0.62745098
0.41605392 0.53455882 0.63811275
0.53137255 0.54656863 0.6495098
0.63321078 0.55955882 0.66286765
0.72058824 0.57058824 0.66838235
0.80147059 0.56384804 0.66384804
0.8754902 0.59901961 0.67745098
0.26446078 0.63921569 0.6372549
0.29525123 0.64249387 0.63979779
0.35588235 0.64313725 0.64172794
0.45392157 0.64586397 0.65416667
0.53517157 0.64485294 0.65612745
0.62178309 0.65055147 0.65808824
0.71488971 0.67359069 0.67702206
0.79451593 0.70867034 0.70729167
0.85490196 0.72230392 0.71666667
0.33333333 0.75637255 0.65392157
0.35563725 0.75392157 0.65698529
0.39448529 0.75196078 0.65343137
0.4526348 0.7403799 0.64901961
0.51960784 0.73039216 0.64607843
0.59362745 0.72867647 0.64626225
0.68431373 0.74963235 0.65294118
0.77132353 0.76862745 0.66715686
0.83823529 0.82745098 0.72794118
0.39313725 0.8622549 0.68088235
0.41295956 0.85447304 0.68376225
0.44803922 0.8466299 0.68137255
0.47803309 0.84313725 0.67322304
0.53235294 0.83921569 0.66862745
0.58137255 0.83023897 0.65324755
0.66960784 0.8497549 0.66372549
0.75857843 0.86691176 0.67984069
0.83357843 0.88578431 0.70098039
0.51764706 0.95686275 0.74705882
0.52352941 0.95318627 0.74509804
0.54313725 0.95735294 0.74607843
0.56593137 0.95490196 0.74387255
0.60392157 0.95784314 0.74019608
0.65 0.95416667 0.73529412
0.72205882 0.96617647 0.75490196
0.7995098 0.975 0.77132353
0.87647059 0.98235294 0.8
0 0.25637255 0.62941176
0 0.25784314 0.63069853
0.0068627451 0.24852941 0.64227941
0.1036152 0.26421569 0.66715686
0.42303922 0.29240196 0.69411765
0.60006127 0.32506127 0.71023284
0.70588235 0.35208333 0.71911765
0.80520833 0.43449755 0.74607843
0.87696078 0.50539216 0.76127451
0 0.28823529 0.63302696
0 0.2846201 0.64411765
0.010523897 0.28333333 0.65543811
0.16556373 0.29712776 0.67892157
0.45425858 0.33219975 0.70897672
0.61874234 0.36421569 0.72303922
0.71371017 0.3957261 0.72967218
0.80882353 0.45847886 0.74852941
0.87892157 0.546875 0.7754902
0 0.36323529 0.65686275
0.0025428922 0.37144608 0.66626838
0.010508578 0.35327819 0.67913603
0.26398591 0.35882353 0.6977788
0.49705882 0.39748775 0.72371324
0.64042586 0.43284314 0.73898591
0.72169118 0.45612745 0.74393382
0.80200674 0.51729473 0.75940564
0.86727941 0.57022059 0.77267157
0.0078431373 0.45196078 0.66715686
0.0083869485 0.45435049 0.67873009
0.21867341 0.45588235 0.69330576
0.35475643 0.45104167 0.71070006
0.52052696 0.48333333 0.73308824
0.643053 0.52719056 0.7495098
0.72352941 0.54889706 0.75693934
0.7973652 0.59473039 0.7661152
0.86519608 0.60735294 0.76519608
0.066666667 0.55441176 0.69656863
0.13563113 0.55441176 0.69966299
0.28057598 0.55441176 0.70686275
0.4122549 0.5622549 0.71985294
0.53333333 0.57990196 0.74068627
0.63606005 0.61421569 0.75643382
0.72352941 0.63621324 0.76341912
0.79577206 0.6361826 0.75628064
0.86397059 0.64191176 0.75343137
0.26856618 0.66917892 0.72598039
0.31060815 0.6713848 0.72898284
0.38325674 0.6792739 0.73451287
0.47030484 0.68543964 0.74388787
0.55490196 0.69681373 0.75297181
0.63635876 0.70631127 0.75565257
0.72242647 0.72127757 0.76787684
0.78694087 0.7408701 0.77315411
0.85343137 0.72892157 0.76519608
0.36519608 0.78970588 0.73872549
0.39901961 0.79362745 0.74817708
0.43823529 0.7973652 0.7495098
0.48578431 0.79019608 0.74558824
0.5504902 0.79142157 0.75269608
0.62120098 0.77953431 0.74522059
0.70119485 0.78627451 0.74322917
0.77389706 0.80931373 0.75981924
0.84068627 0.85968137 0.80367647
0.43155637 0.89264706 0.75784314
0.44253983 0.88921569 0.75980392
0.48625919 0.88137255 0.76390931
0.51359528 0.88517923 0.75998775
0.56323529 0.88137255 0.75606618
0.61096814 0.86268382 0.74430147
0.67873775 0.86662071 0.742019
0.75994945 0.88572304 0.75441176
0.83529412 0.90441176 0.7754902
0.53480392 0.9622549 0.79117647
0.54656863 0.96470588 0.79540441
0.55710784 0.95477941 0.7875
0.58823529 0.965625 0.79454657
0.59705882 0.93946078 0.77303922
0.66115196 0.96317402 0.78817402
0.70735294 0.94754902 0.78578431
0.78658088 0.95324755 0.79068627
0.86666667 0.97401961 0.81715686
0.0078431373 0.31372549 0.74803922
0.0039215686 0.31666667 0.74901961
0.0039215686 0.30098039 0.7627451
0.079901961 0.31813725 0.78615196
0.43039216 0.34705882 0.80098039
0.63088235 0.40232843 0.81519608
0.74019608 0.46470588 0.8247549
0.80625 0.49142157 0.82156863
0.87058824 0.59411765 0.83333333
0.0039215686 0.35919118 0.7567402
0.0039215686 0.3555913 0.75281863
0.010692402 0.33949142 0.76752451
0.15055147 0.34099265 0.79099265
0.46439951 0.378125 0.80422794
0.6463848 0.43765319 0.81919424
0.74411765 0.49460784 0.82647059
0.81242341 0.53376225 0.82156863
0.86323529 0.62058824 0.83590686
0.0078431373 0.42034314 0.77058824
0.010692402 0.41789216 0.77230392
0.021813725 0.4 0.78529412
0.26295956 0.40594363 0.79901961
0.49656863 0.45 0.80943627
0.65294118 0.50854779 0.82322304
0.74056373 0.53921569 0.8254902
0.80882353 0.58982843 0.82950368
0.84387255 0.63455882 0.8370098
0.020710784 0.50122549 0.77647059
0.12886029 0.51109069 0.77941176
0.25211397 0.50625 0.78946078
0.38071385 0.50306373 0.79901961
0.52634804 0.52696078 0.81544118
0.66078431 0.59226409 0.82941176
0.74411765 0.63578431 0.83039216
0.80098039 0.67179841 0.83639706
0.85036765 0.73198529 0.84693627
0.069117647 0.59166667 0.77156863
0.16985294 0.59607843 0.7754902
0.28823529 0.59901961 0.78161765
0.41893382 0.60588235 0.79191176
0.53578431 0.61715686 0.81372549
0.65147059 0.66642157 0.82696078
0.7377451 0.71703431 0.8372549
0.79295343 0.73584559 0.83743873
0.84313725 0.77303922 0.84215686
0.23235294 0.70882353 0.79411765
0.29446998 0.7127451 0.79558824
0.35735294 0.7127451 0.79696691
0.44849877 0.71666667 0.80634191
0.54834559 0.72181373 0.81090686
0.6439951 0.74817708 0.8243413
0.73419118 0.79246324 0.83897059
0.78583027 0.80490196 0.84064032
0.83529412 0.81617647 0.8372549
0.37647059 0.82745098 0.81544118
0.3995098 0.82352941 0.81317402
0.43137255 0.82352941 0.81764706
0.50235907 0.82745098 0.81666667
0.57745098 0.82745098 0.82316176
0.65392157 0.83823529 0.83333333
0.72052696 0.84393382 0.83235294
0.78213848 0.86691176 0.8377451
0.83529412 0.88823529 0.84730392
0.50098039 0.9122549 0.82598039
0.51493566 0.91862745 0.83203125
0.52591912 0.91112132 0.82598039
0.56061581 0.9122549 0.82598039
0.61813725 0.90692402 0.82959559
0.6627451 0.90392157 0.82964154
0.70058211 0.90098039 0.82156863
0.77107843 0.91525735 0.82990196
0.83921569 0.92990196 0.84411765
0.58039216 0.97156863 0.84411765
0.58995098 0.97242647 0.84105392
0.60318627 0.9747549 0.84411765
0.60245098 0.95588235 0.8372549
0.65294118 0.9627451 0.8372549
0.69362745 0.97647059 0.84448529
0.70661765 0.9370098 0.8254902
0.79313725 0.97267157 0.84117647
0.87058824 0.98431373 0.85980392
0.02745098 0.41323529 0.84509804
0.012254902 0.40588235 0.84852941
0.012132353 0.38676471 0.86029412
0.23339461 0.38265931 0.87530637
0.48333333 0.43088235 0.87573529
0.65079657 0.49117647 0.88284314
0.7560049 0.58664216 0.88688725
0.82058824 0.63823529 0.88327206
0.8627451 0.69215686 0.87941176
0.0087622549 0.43927696 0.85245098
0.0031173407 0.43191636 0.8528799
0.010860907 0.40974265 0.86678922
0.27892157 0.4196921 0.87502298
0.5044424 0.46985294 0.87527574
0.65343137 0.52745098 0.87941176
0.75592831 0.61519608 0.88344056
0.82021293 0.66874234 0.88370864
0.8622549 0.70392157 0.88333333
0.02879902 0.48835784 0.86286765
0.03370098 0.48175551 0.86421569
0.13636642 0.47745098 0.86700368
0.33558517 0.48399203 0.8754902
0.52720588 0.52303922 0.87941176
0.65721507 0.57838542 0.88284314
0.7549326 0.65193015 0.88333333
0.81634498 0.70654105 0.88331801
0.85441176 0.74166667 0.88284314
0.19644608 0.58008578 0.85980392
0.25906863 0.58137255 0.86142004
0.31740196 0.57455576 0.86372549
0.42954197 0.5736443 0.87038909
0.54779412 0.59656863 0.87794118
0.66441483 0.65706189 0.88284314
0.75735294 0.72539828 0.88676471
0.80855545 0.76368719 0.88333333
0.85098039 0.78627451 0.88676471
0.25367647 0.67009804 0.85196078
0.30297181 0.67423407 0.85196078
0.371875 0.67058824 0.85588235
0.4620098 0.67009804 0.86479779
0.55257353 0.67401961 0.87242647
0.66029412 0.7254902 0.87901348
0.74908088 0.78308824 0.88333333
0.80119485 0.81023284 0.88284314
0.83504902 0.84166667 0.88676471
0.26323529 0.75459559 0.84932598
0.3026731 0.75441176 0.84932598
0.36047794 0.75833333 0.85196078
0.45031403 0.75833333 0.85581342
0.55931373 0.76544118 0.85955882
0.64919577 0.78970588 0.87225797
0.74203431 0.83874081 0.88284314
0.7966299 0.8667739 0.88676471
0.83707108 0.88216912 0.89068627
0.40441176 0.85833333 0.86066176
0.40462623 0.85344669 0.86066176
0.4484375 0.85833333 0.86259191
0.50061275 0.85441176 0.86066176
0.57052696 0.85441176 0.86323529
0.64019608 0.86328125 0.86870404
0.73247549 0.88970588 0.88091299
0.79754902 0.90870098 0.89068627
0.83835784 0.92683824 0.89460784
0.52058824 0.93088235 0.87156863
0.5283701 0.9338848 0.87199755
0.54748775 0.93474265 0.875
0.58115043 0.93476563 0.87199755
0.64047181 0.93088235 0.87527574
0.69411765 0.93872549 0.87957261
0.75410539 0.94640012 0.88676471
0.80501685 0.95080423 0.89155178
0.83627451 0.95392157 0.89852941
0.65490196 0.98431373 0.88676471
0.65245098 0.98088235 0.88676471
0.68002451 0.98688725 0.89056373
0.67175245 0.97696078 0.88676471
0.71029412 0.98259804 0.88897059
0.72352941 0.97077206 0.88333333
0.76629902 0.97267157 0.88676471
0.80974265 0.98045343 0.8872549
0.85931373 0.98088235 0.89509804
0.20392157 0.52156863 0.92941176
0.20490196 0.51029412 0.9254902
0.30686275 0.51666667 0.92941176
0.43872549 0.52941176 0.9254902
0.56666667 0.5627451 0.91960784
0.68137255 0.63039216 0.91764706
0.7745098 0.72254902 0.9254902
0.8245098 0.77696078 0.92156863
0.86666667 0.82745098 0.92156863
0.26715686 0.55147059 0.92892157
0.28333333 0.54761029 0.9254902
0.35637255 0.54497549 0.92683824
0.43707108 0.5495098 0.92156863
0.58651961 0.60196078 0.92745098
0.68676471 0.65735294 0.92156863
0.77058824 0.7310049 0.92156863
0.82794118 0.7901348 0.92156863
0.84362745 0.81519608 0.92156863
0.3245098 0.60588235 0.92156863
0.35465686 0.6067402 0.92156863
0.42205882 0.61029412 0.9247549
0.48933824 0.60931373 0.92610294
0.58431373 0.63823529 0.92156863
0.68455882 0.68688725 0.92046569
0.76666667 0.75857843 0.92156863
0.8245098 0.81666667 0.92156863
0.84313725 0.82352941 0.91372549
0.41176471 0.69509804 0.91911765
0.41176471 0.68333333 0.91127451
0.45882353 0.68284314 0.91617647
0.50294118 0.66617647 0.90980392
0.59607843 0.69901961 0.91764706
0.69068627 0.74509804 0.91856618
0.76666667 0.79901961 0.92156863
0.81666667 0.83823529 0.91783088
0.8495098 0.85196078 0.91372549
0.42352941 0.76470588 0.90588235
0.45294118 0.77107843 0.91004902
0.4877451 0.77107843 0.91078431
0.52254902 0.75490196 0.90588235
0.60392157 0.76960784 0.91862745
0.68602941 0.79558824 0.91764706
0.75490196 0.83823529 0.91764706
0.80882353 0.86911765 0.91764706
0.85686275 0.90588235 0.92352941
0.38431373 0.83382353 0.9004902
0.39901961 0.82303922 0.89460784
0.44264706 0.82365196 0.89767157
0.52745098 0.83823529 0.90588235
0.59534314 0.82843137 0.90392157
0.67205882 0.84699755 0.90980392
0.74705882 0.87022059 0.91433824
0.80882353 0.9036152 0.91764706
0.84313725 0.91372549 0.90980392
0.45980392 0.90490196 0.90196078
0.46703431 0.90539216 0.90208333
0.48455882 0.89607843 0.89803922
0.52990196 0.90526961 0.90588235
0.58235294 0.89901961 0.90392157
0.64105392 0.88223039 0.88872549
0.74338235 0.91887255 0.91151961
0.81801471 0.94264706 0.92291667
0.84803922 0.94215686 0.91470588
0.57058824 0.95343137 0.90980392
0.57794118 0.95692402 0.909375
0.59656863 0.96127451 0.90980392
0.62009804 0.96550245 0.91421569
0.65441176 0.96127451 0.91372549
0.69656863 0.96127451 0.91550245
0.75637255 0.96519608 0.92156863
0.82493873 0.96862745 0.92248775
0.87058824 0.97303922 0.93333333
0.70196078 0.99607843 0.92941176
0.68872549 0.99166667 0.92107843
0.68039216 0.98431373 0.90784314
0.70343137 0.98970588 0.92303922
0.73333333 0.99215686 0.9254902
0.76078431 0.98676471 0.92156863
0.80196078 0.98823529 0.92156863
0.84803922 0.99215686 0.93333333
0.87058824 0.99215686 0.9372549
