site/assets/luts/sha256-327f1e31fa32dec572221b801017137ae9b2404964bd47ae1e3bdb5730843519.cube
# LUTr-Schema-Version: 2
# LUTr-ID: sha256-327f1e31fa32dec572221b801017137ae9b2404964bd47ae1e3bdb5730843519
# LUTr-Title: kodak portra 800 ++
# LUTr-Collection: Natron HaldCLUT
# LUTr-Collection-ID: natron-haldclut-presets
# LUTr-Source: https://github.com/NatronGitHub/clut
# LUTr-Retrieved: 2026-07-27
# LUTr-Source-File: submissions/natron-haldclut-presets/negative_new/kodak_portra_800_++.png
# LUTr-Source-Format: HALD-PNG
# LUTr-Source-SHA256: 327f1e31fa32dec572221b801017137ae9b2404964bd47ae1e3bdb5730843519
# LUTr-License: CC-BY-SA-4.0
# LUTr-License-URL: https://github.com/NatronGitHub/clut#license
# LUTr-License-Basis: repo-license-file
# LUTr-Transform-Class: film-emulation
# LUTr-Tags: creative, film, film-emulation, hald-clut, natron, png, cube
# LUTr-Input-Color-Space: srgb
# LUTr-Input-Gamut: rec709
# LUTr-Input-Transfer: srgb
# LUTr-Output-Color-Space: srgb
# LUTr-Output-Gamut: rec709
# LUTr-Output-Transfer: srgb
# LUTr-Color-Space-Confidence: assumed-display-referred
# LUTr-Domain-Normalized: true
# LUTr-Shaper: none
# LUTr-Original-Grid: 64x64x64
# LUTr-Conversion-Grid: 25x25x25
# LUTr-Conversion-Interpolation: trilinear
# LUTr-Conversion-Method: HALD-PNG LUT image decoded at 16-bit and sampled to 25x25x25 3D CUBE
# LUTr-Conversion-Tool: LUTr scripts/convert-all-to-cube.mjs 2.0.0
# LUTr-Conversion-Date: 2026-07-27
# LUTr-Note: Preserve this metadata and the upstream license notices when redistributing.
TITLE "kodak portra 800 ++"
LUT_3D_SIZE 5
DOMAIN_MIN 0 0 0
DOMAIN_MAX 1 1 1
0.047058824 0.12941176 0.17254902
0.24313725 0.14803922 0.18039216
0.5745098 0.14313725 0.17254902
0.91764706 0.18235294 0.14705882
1 0.30196078 0.066666667
0.045098039 0.2372549 0.20294118
0.19313725 0.25882353 0.18823529
0.55490196 0.3 0.15588235
0.90784314 0.33921569 0.10980392
1 0.40882353 0.011764706
0.0039215686 0.45882353 0.21960784
0.05 0.45392157 0.21029412
0.48627451 0.55784314 0.10294118
0.8622549 0.57990196 0.0039215686
0.99019608 0.60196078 0.0039215686
0.0078431373 0.72647059 0.25196078
0.011764706 0.72254902 0.24828431
0.37107843 0.74313725 0.20098039
0.7754902 0.81078431 0.0068627451
0.99313725 0.85098039 0
0.42352941 0.95686275 0.52156863
0.4754902 0.95294118 0.52156863
0.60980392 0.95686275 0.53137255
0.78333333 0.96960784 0.47941176
0.96078431 0.98431373 0.29019608
0.048039216 0.14117647 0.30686275
0.25 0.14215686 0.30980392
0.60588235 0.014215686 0.29509804
0.94411765 0.085294118 0.2872549
1 0.29705882 0.28431373
0.037254902 0.25906863 0.29215686
0.22671569 0.27150735 0.30686275
0.58982843 0.27794118 0.29411765
0.92156863 0.32015931 0.2745098
1 0.38823529 0.25882353
0.0098039216 0.50490196 0.31666667
0.12426471 0.50404412 0.31617647
0.49656863 0.56568627 0.27058824
0.86078431 0.58235294 0.19607843
0.99215686 0.58970588 0.15196078
0.0039215686 0.74803922 0.35882353
0.0071078431 0.74117647 0.33529412
0.38811275 0.74497549 0.30784314
0.77254902 0.8125 0.21764706
0.99926471 0.83823529 0.068872549
0.45392157 0.96078431 0.56862745
0.50539216 0.95686275 0.57622549
0.62254902 0.95392157 0.57598039
0.77941176 0.96470588 0.52377451
0.9627451 0.98529412 0.40686275
0.0058823529 0.13137255 0.60196078
0.29019608 0.10735294 0.61323529
0.66470588 0.0058823529 0.64411765
0.94362745 0.0044117647 0.60098039
1 0.021568627 0.53921569
0 0.27303922 0.58235294
0.22414216 0.27843137 0.60122549
0.64607843 0.24926471 0.61666667
0.94142157 0.16703431 0.59558824
1 0.35931373 0.57401961
0.0068627451 0.55294118 0.57352941
0.21176471 0.5627451 0.57671569
0.56666667 0.58039216 0.57794118
0.87647059 0.61421569 0.57279412
0.99607843 0.65098039 0.5745098
0.26764706 0.79264706 0.6004902
0.37107843 0.78664216 0.59313725
0.50563725 0.77107843 0.55833333
0.79546569 0.81862745 0.53921569
0.99558824 0.82303922 0.49117647
0.54901961 0.96078431 0.70392157
0.57401961 0.95686275 0.69411765
0.64705882 0.95098039 0.67843137
0.7872549 0.95931373 0.66911765
0.94901961 0.97843137 0.61764706
0.16568627 0.13235294 0.85490196
0.37058824 0.1 0.8627451
0.66568627 0.0058823529 0.87598039
0.94411765 0.024264706 0.87352941
1 0.0039215686 0.84411765
0.04877451 0.27647059 0.85392157
0.34044118 0.27843137 0.86256127
0.66568627 0.27352941 0.86813725
0.94074755 0.28498775 0.87481618
0.99607843 0.30612745 0.85269608
0.011764706 0.55098039 0.82156863
0.13406863 0.55441176 0.82928922
0.59411765 0.5752451 0.83872549
0.89178922 0.61666667 0.84963235
1 0.63578431 0.84460784
0.29583333 0.80857843 0.81470588
0.41685049 0.81341912 0.81936275
0.62401961 0.81862745 0.82254902
0.8375 0.83376225 0.82647059
0.98823529 0.85220588 0.83431373
0.66470588 0.96568627 0.86078431
0.69019608 0.96470588 0.86078431
0.74656863 0.95980392 0.85735294
0.83039216 0.95759804 0.83357843
0.9745098 0.95980392 0.82647059
0.42352941 0.19215686 0.99607843
0.51568627 0.19215686 1
0.71372549 0.19019608 0.99803922
0.91960784 0.25294118 0.99901961
1 0.30196078 1
0.41666667 0.34607843 0.99607843
0.51176471 0.34901961 0.99607843
0.71029412 0.36617647 0.99607843
0.91666667 0.41666667 0.99215686
1 0.48333333 0.99607843
0.40196078 0.6 0.99607843
0.48970588 0.60392157 0.99215686
0.69019608 0.6245098 0.98823529
0.8872549 0.66568627 0.98872549
0.99215686 0.69607843 0.99215686
0.39313725 0.81176471 0.98039216
0.42671569 0.81495098 0.9497549
0.64852941 0.81862745 0.98382353
0.84901961 0.84117647 0.98039216
0.98333333 0.86470588 0.98431373
0.68627451 0.97254902 0.97647059
0.69215686 0.97254902 0.96078431
0.77254902 0.97058824 0.97254902
0.87647059 0.97254902 0.97254902
0.98039216 0.98431373 0.98039216
