site/assets/luts/sha256-5adc0718a777e33b3f073ea0e0b8ce81e660c8abe606615e50fa03ed2527bcf1.cube
# LUTr-Schema-Version: 2
# LUTr-ID: sha256-5adc0718a777e33b3f073ea0e0b8ce81e660c8abe606615e50fa03ed2527bcf1
# LUTr-Title: kodak portra 160 -
# LUTr-Collection: Natron HaldCLUT
# LUTr-Collection-ID: natron-haldclut-presets
# LUTr-Source: https://github.com/NatronGitHub/clut
# LUTr-Retrieved: 2026-07-27
# LUTr-Source-File: submissions/natron-haldclut-presets/negative_new/kodak_portra_160_-.png
# LUTr-Source-Format: HALD-PNG
# LUTr-Source-SHA256: 5adc0718a777e33b3f073ea0e0b8ce81e660c8abe606615e50fa03ed2527bcf1
# LUTr-License: CC-BY-SA-4.0
# LUTr-License-URL: https://github.com/NatronGitHub/clut#license
# LUTr-License-Basis: repo-license-file
# LUTr-Transform-Class: film-emulation
# LUTr-Tags: creative, film, film-emulation, hald-clut, natron, png, cube
# LUTr-Input-Color-Space: srgb
# LUTr-Input-Gamut: rec709
# LUTr-Input-Transfer: srgb
# LUTr-Output-Color-Space: srgb
# LUTr-Output-Gamut: rec709
# LUTr-Output-Transfer: srgb
# LUTr-Color-Space-Confidence: assumed-display-referred
# LUTr-Domain-Normalized: true
# LUTr-Shaper: none
# LUTr-Original-Grid: 64x64x64
# LUTr-Conversion-Grid: 25x25x25
# LUTr-Conversion-Interpolation: trilinear
# LUTr-Conversion-Method: HALD-PNG LUT image decoded at 16-bit and sampled to 25x25x25 3D CUBE
# LUTr-Conversion-Tool: LUTr scripts/convert-all-to-cube.mjs 2.0.0
# LUTr-Conversion-Date: 2026-07-27
# LUTr-Note: Preserve this metadata and the upstream license notices when redistributing.
TITLE "kodak portra 160 -"
LUT_3D_SIZE 25
DOMAIN_MIN 0 0 0
DOMAIN_MAX 1 1 1
0.015686275 0.039215686 0.0078431373
0.032352941 0.025 0.0078431373
0.048039216 0.0098039216 0.0039215686
0.075490196 0.0034313725 0.0034313725
0.1372549 0.01372549 0.0098039216
0.19852941 0.020098039 0.012254902
0.25686275 0.020588235 0.012745098
0.31470588 0.014215686 0.010294118
0.37647059 0.0039215686 0.0039215686
0.44068627 0 0.0039215686
0.50784314 0 0.0039215686
0.56960784 0 0.00049019608
0.61568627 0 0
0.65735294 0 0
0.69901961 0 0
0.73382353 0 0.0039215686
0.76470588 0.0039215686 0.0039215686
0.79558824 0.0039215686 0.0039215686
0.82647059 0.0039215686 0.0039215686
0.85735294 0.0039215686 0.0039215686
0.88823529 0 0
0.91519608 0.041666667 0
0.94215686 0.089215686 0
0.96764706 0.13529412 0
0.98823529 0.16470588 0
0.013235294 0.041666667 0.0053921569
0.02745098 0.031372549 0.0069240196
0.04754902 0.027941176 0.0067401961
0.076776961 0.034313725 0.0078431373
0.13210784 0.03872549 0.011029412
0.19264706 0.040196078 0.011764706
0.25441176 0.033333333 0.011764706
0.31617647 0.016666667 0.0078431373
0.37892157 0.0039215686 0.0039215686
0.44215686 0 0
0.50784314 0 0.0039215686
0.56960784 0 0.0026348039
0.61568627 0 0
0.66078431 0 0
0.70196078 0 0
0.73382353 0 0.0039215686
0.76470588 0.0039215686 0.0039215686
0.79803922 0.0054534314 0.0039215686
0.82647059 0.013357843 0.0039215686
0.85735294 0.024693627 0.0039215686
0.8870098 0.044362745 0.0019607843
0.91470588 0.070281863 0
0.93921569 0.10931373 0
0.96519608 0.15196078 0
0.98431373 0.18137255 0
0.0029411765 0.044117647 0.0029411765
0.026960784 0.048529412 0.006372549
0.052941176 0.057107843 0.0085784314
0.07745098 0.064338235 0.0078431373
0.12205882 0.069117647 0.0068627451
0.18382353 0.068382353 0.0069852941
0.25294118 0.065196078 0.0085784314
0.31678922 0.049387255 0.0057598039
0.38137255 0.034313725 0
0.44497549 0.025857843 0.0028186275
0.50784314 0.024509804 0.0041666667
0.56960784 0.018014706 0.0039215686
0.61764706 0.014215686 0.0024509804
0.66470588 0.0053921569 0
0.70612745 0.00073529412 0
0.73664216 0.0083333333 0.00098039216
0.76862745 0.015686275 0.0039215686
0.7995098 0.026593137 0.0039215686
0.82647059 0.049264706 0.0039215686
0.8564951 0.074019608 0.0039215686
0.88431373 0.095098039 0.0039215686
0.91127451 0.11568627 0
0.93897059 0.14142157 0
0.96482843 0.175 0
0.98431373 0.20196078 0
0.0039215686 0.083823529 0.0073529412
0.024816176 0.086458333 0.0076593137
0.050367647 0.092156863 0.0078431373
0.077022059 0.092647059 0.0044117647
0.1120098 0.098284314 0.00049019608
0.18382353 0.10435049 0.00091911765
0.25551471 0.11127451 0.0039215686
0.32352941 0.11060049 0.0039215686
0.3877451 0.10294118 0.0039215686
0.44607843 0.092647059 0.0060661765
0.51139706 0.087132353 0.0078431373
0.57009804 0.079901961 0.0074142157
0.61764706 0.069607843 0.0039215686
0.66470588 0.055330882 0.0034313725
0.70343137 0.048039216 0.0029411765
0.73645833 0.057352941 0.0073529412
0.76862745 0.071568627 0.01127451
0.7995098 0.081862745 0.009129902
0.82647059 0.09754902 0.0039215686
0.85343137 0.12205882 0.0039215686
0.88235294 0.14485294 0.0039215686
0.91078431 0.16323529 0
0.93823529 0.18382353 0
0.96519608 0.20508578 0
0.98431373 0.22598039 0
0.0039215686 0.13529412 0.015686275
0.024509804 0.13529412 0.01372549
0.047058824 0.13921569 0.013235294
0.067647059 0.14264706 0.0078431373
0.10588235 0.14607843 0.0029411765
0.18186275 0.15539216 0.0022058824
0.25931373 0.16568627 0.0024509804
0.33039216 0.17377451 0
0.39215686 0.16862745 0.0039215686
0.45196078 0.16151961 0.0078431373
0.51176471 0.15441176 0.0098039216
0.57009804 0.14754902 0.0078431373
0.61764706 0.13431373 0.0058823529
0.66102941 0.12303922 0.0039215686
0.70196078 0.11960784 0.0039215686
0.73382353 0.125 0.0093137255
0.76862745 0.13529412 0.015686275
0.7995098 0.14436275 0.017647059
0.82647059 0.15441176 0.0093137255
0.85343137 0.17352941 0.0044117647
0.88039216 0.19411765 0.0039215686
0.90735294 0.21078431 0.0034313725
0.93529412 0.22794118 0
0.96372549 0.24215686 0
0.98431373 0.25490196 0
0.0039215686 0.18284314 0.019117647
0.01372549 0.18676471 0.015686275
0.032230392 0.18762255 0.011764706
0.05245098 0.19068627 0.0082720588
0.099509804 0.19656863 0.0039215686
0.17205882 0.20294118 0.0039215686
0.25012255 0.21323529 0.0039215686
0.32334559 0.22352941 0
0.39166667 0.22990196 0.0039215686
0.45392157 0.22665441 0.0078431373
0.51568627 0.22169118 0.01127451
0.57009804 0.21519608 0.0078431373
0.61960784 0.20147059 0.0039215686
0.66078431 0.19166667 0.0039215686
0.69901961 0.19166667 0.0039215686
0.73382353 0.19705882 0.009129902
0.76813725 0.20686275 0.015686275
0.79901961 0.20900735 0.023529412
0.82647059 0.21164216 0.014705882
0.85392157 0.2254902 0.0044117647
0.88039216 0.24338235 0.0039215686
0.90729167 0.25735294 0.0039215686
0.93431373 0.27022059 0.0013480392
0.95980392 0.28137255 0
0.98039216 0.29166667 0
0.0039215686 0.2372549 0.015686275
0.0045343137 0.23639706 0.012132353
0.010784314 0.23529412 0.0085784314
0.028431373 0.23823529 0.0052696078
0.08627451 0.24460784 0.0039215686
0.16139706 0.25441176 0.0039215686
0.2372549 0.26470588 0.0039215686
0.30992647 0.275 0.0033088235
0.37843137 0.28137255 0.0039215686
0.4495098 0.28823529 0.0078431373
0.5127451 0.2879902 0.0078431373
0.57009804 0.28345588 0.0078431373
0.61960784 0.27352941 0.0039215686
0.66078431 0.26715686 0.0039215686
0.69828431 0.26372549 0.0039215686
0.73382353 0.26507353 0.0078431373
0.76470588 0.26862745 0.015686275
0.79558824 0.26568627 0.020588235
0.82647059 0.26887255 0.014705882
0.85355392 0.27696078 0.0044117647
0.87843137 0.28823529 0.0039215686
0.90686275 0.29852941 0.0039215686
0.93431373 0.30588235 0.0039215686
0.96090686 0.31727941 0.0018382353
0.98039216 0.32647059 0
0.0039215686 0.28970588 0.011764706
0.0039215686 0.28970588 0.0087622549
0.0029411765 0.28578431 0.0057598039
0.0042892157 0.28431373 0.00030637255
0.07377451 0.29289216 0.0019607843
0.15098039 0.30441176 0.0039215686
0.22598039 0.3122549 0.0039215686
0.29846814 0.32254902 0.0039215686
0.36715686 0.33284314 0.0039215686
0.43621324 0.33921569 0.0039215686
0.50306373 0.34558824 0.0039215686
0.56813725 0.35343137 0.0039215686
0.61960784 0.34828431 0.0024509804
0.65900735 0.33921569 0.0039215686
0.69362745 0.33137255 0.0050245098
0.72598039 0.32591912 0.0078431373
0.75686275 0.325 0.011764706
0.7877451 0.32254902 0.016605392
0.82144608 0.32536765 0.011764706
0.84981618 0.33020833 0.0078431373
0.87769608 0.33480392 0.0039215686
0.90704657 0.33939951 0.0039215686
0.93431373 0.34607843 0.0039215686
0.96427696 0.35490196 0
0.98578431 0.3627451 0
0.0039215686 0.34509804 0.0078431373
0.0039215686 0.34509804 0.0078431373
0 0.34117647 0.0078431373
0.010784314 0.3372549 0.0039215686
0.068627451 0.34313725 0.0039215686
0.14068627 0.35343137 0.0039215686
0.21666667 0.36372549 0.0039215686
0.28480392 0.37401961 0.0039215686
0.35294118 0.38039216 0.0039215686
0.42254902 0.38676471 0.0039215686
0.48921569 0.39607843 0.0039215686
0.55392157 0.40343137 0.0039215686
0.61176471 0.40784314 0
0.65245098 0.3995098 0.0039215686
0.68627451 0.38921569 0.0078431373
0.71813725 0.38284314 0.011764706
0.74901961 0.38039216 0.011764706
0.78382353 0.38039216 0.015686275
0.81862745 0.38431373 0.011764706
0.84607843 0.38431373 0.0078431373
0.87647059 0.38823529 0.0058823529
0.90343137 0.38823529 0.0039215686
0.93431373 0.39215686 0.0039215686
0.96911765 0.39362745 0
0.99607843 0.4 0
0 0.4004902 0.0078431373
0.00091911765 0.39803922 0.010294118
0.0049019608 0.39203431 0.0078431373
0.024509804 0.38872549 0.0078431373
0.080882353 0.39264706 0.0078431373
0.14675245 0.39852941 0.0078431373
0.21335784 0.40882353 0.0078431373
0.27604167 0.4161152 0.0039215686
0.34019608 0.42156863 0.0039215686
0.40925245 0.42640931 0.0072916667
0.4754902 0.43088235 0.0039215686
0.53511029 0.43823529 0.0039215686
0.58676471 0.44387255 0.0039215686
0.63235294 0.44509804 0.0039215686
0.67022059 0.44068627 0.0068627451
0.70447304 0.4348652 0.0083946078
0.73872549 0.43186275 0.011764706
0.77689951 0.43523284 0.015686275
0.8122549 0.43970588 0.011764706
0.84185049 0.43970588 0.0078431373
0.87009804 0.43970588 0.0078431373
0.90098039 0.43970588 0.0076593137
0.93186275 0.44080882 0.0039215686
0.96519608 0.44117647 0.0039215686
0.99362745 0.43872549 0
0.00098039216 0.44705882 0.016666667
0.00036764706 0.44460784 0.012132353
0.00073529412 0.43823529 0.0075980392
0.024509804 0.43529412 0.0039215686
0.086764706 0.43921569 0.0073529412
0.15196078 0.44313725 0.0078431373
0.21372549 0.44534314 0.0078431373
0.26948529 0.44607843 0.0078431373
0.32843137 0.45 0.0068627451
0.39411765 0.4557598 0.0039215686
0.45392157 0.4627451 0.0056372549
0.50796569 0.4692402 0.0039215686
0.55980392 0.47794118 0.0039215686
0.60821078 0.48541667 0.0039215686
0.65294118 0.4872549 0.0039215686
0.68909314 0.48333333 0.0072303922
0.7245098 0.48333333 0.010784314
0.76568627 0.48272059 0.011764706
0.80490196 0.48627451 0.01004902
0.83321078 0.48627451 0.0078431373
0.86372549 0.48627451 0.0083333333
0.89460784 0.48627451 0.0078431373
0.9254902 0.48235294 0.0049019608
0.95735294 0.48026961 0.0039215686
0.98333333 0.47745098 0.0039215686
0.0073529412 0.48480392 0.030882353
0.0073529412 0.48449755 0.024203431
0.0025735294 0.47953431 0.0094362745
0.023651961 0.47647059 0
0.091666667 0.47696078 0.0058823529
0.15882353 0.47653186 0.0078431373
0.21458333 0.47352941 0.0078431373
0.26243873 0.47696078 0.0042279412
0.31813725 0.48088235 0.0039215686
0.37775735 0.48480392 0.0026348039
0.42977941 0.49362745 0.0078431373
0.4778799 0.50392157 0.0039215686
0.52892157 0.51029412 0.0039215686
0.58039216 0.52058824 0.0074142157
0.63235294 0.53051471 0.0039215686
0.67334559 0.53137255 0.0052083333
0.71078431 0.52745098 0.01127451
0.75196078 0.52352941 0.011764706
0.78823529 0.52487745 0.0078431373
0.82254902 0.52745098 0.0078431373
0.85710784 0.52745098 0.0078431373
0.88823529 0.52395833 0.0078431373
0.91911765 0.52095588 0.0078431373
0.95343137 0.51832108 0.0039215686
0.97696078 0.51568627 0.0039215686
0.021568627 0.51568627 0.019607843
0.024754902 0.51372549 0.018382353
0.035784314 0.50931373 0.014215686
0.063480392 0.50612745 0.010294118
0.11764706 0.50392157 0.0078431373
0.17696078 0.50367647 0.0078431373
0.22352941 0.50343137 0.0078431373
0.26666667 0.50392157 0.0051470588
0.30980392 0.50784314 0
0.36323529 0.5129902 0.0024509804
0.41764706 0.51862745 0.0049019608
0.4627451 0.53063725 0.0078431373
0.50980392 0.54313725 0.012745098
0.56127451 0.55392157 0.017647059
0.6127451 0.56617647 0.014215686
0.65612745 0.56789216 0.010539216
0.69411765 0.55882353 0.0098039216
0.73529412 0.55882353 0.0078431373
0.77401961 0.5627451 0.0078431373
0.81176471 0.56446078 0.0078431373
0.84607843 0.56470588 0.0078431373
0.87843137 0.5625 0.0078431373
0.91421569 0.55931373 0.0078431373
0.9495098 0.55686275 0.006372549
0.97647059 0.55294118 0.0039215686
0.035784314 0.54215686 0.0068627451
0.059007353 0.53872549 0.015012255
0.091666667 0.53823529 0.028921569
0.11819853 0.53480392 0.024509804
0.14681373 0.53455882 0.0095588235
0.19460784 0.53088235 0.0034926471
0.23578431 0.53088235 0.0042892157
0.27696078 0.53088235 0.0083333333
0.31862745 0.53480392 0.0088235294
0.3627451 0.53823529 0.0041053922
0.40833333 0.54313725 0.0035539216
0.4528799 0.55343137 0.01127451
0.50171569 0.56372549 0.027941176
0.55091912 0.57401961 0.039705882
0.59509804 0.58431373 0.032843137
0.63627451 0.59283088 0.014522059
0.67745098 0.58970588 0.0073529412
0.71488971 0.59215686 0.0039215686
0.7560049 0.59754902 0.0091911765
0.79754902 0.59803922 0.011764706
0.83480392 0.60147059 0.011764706
0.86813725 0.59803922 0.0078431373
0.90931373 0.59754902 0.0078431373
0.95098039 0.59411765 0.0039215686
0.97696078 0.59019608 0.0039215686
0.084313725 0.56960784 0.031372549
0.10833333 0.56605392 0.034803922
0.13921569 0.56568627 0.042401961
0.16372549 0.5627451 0.035171569
0.18823529 0.56176471 0.019117647
0.21139706 0.55882353 0.012867647
0.25 0.55808824 0.017647059
0.29117647 0.55882353 0.023039216
0.33235294 0.56176471 0.02254902
0.36715686 0.5627451 0.012254902
0.40245098 0.56593137 0.0022058824
0.44852941 0.57401961 0.020220588
0.49656863 0.58431373 0.045098039
0.54056373 0.59460784 0.056740196
0.58137255 0.60269608 0.05
0.62254902 0.61127451 0.028921569
0.65980392 0.61666667 0.00098039216
0.70098039 0.62303922 0.0093137255
0.74215686 0.62843137 0.017892157
0.78419118 0.63235294 0.019117647
0.8245098 0.63529412 0.011764706
0.86127451 0.63492647 0.0078431373
0.90196078 0.63235294 0.0078431373
0.94742647 0.63137255 0.0057598039
0.98333333 0.62843137 0.0039215686
0.15 0.59656863 0.076470588
0.16366422 0.59564951 0.07254902
0.18676471 0.59264706 0.072181373
0.20900735 0.58903186 0.065012255
0.22279412 0.58872549 0.056862745
0.23707108 0.58694853 0.056372549
0.26666667 0.58480392 0.049019608
0.30686275 0.58572304 0.049938725
0.34656863 0.58872549 0.04754902
0.38137255 0.59025735 0.042647059
0.4122549 0.59154412 0.041544118
0.4504902 0.5963848 0.055882353
0.49607843 0.60490196 0.075735294
0.53921569 0.61519608 0.08627451
0.57708333 0.62254902 0.075490196
0.61525735 0.63186275 0.05692402
0.65343137 0.63970588 0.049019608
0.68915441 0.64852941 0.054411765
0.72794118 0.6560049 0.060416667
0.77126225 0.6627451 0.04185049
0.81495098 0.66789216 0.015196078
0.85539216 0.66862745 0.0065563725
0.89656863 0.66715686 0.0093137255
0.94166667 0.66715686 0.010294118
0.97892157 0.66470588 0.0039215686
0.20392157 0.62352941 0.11372549
0.21813725 0.62352941 0.11127451
0.23627451 0.61960784 0.10882353
0.2504902 0.61960784 0.10245098
0.25686275 0.61764706 0.1
0.27156863 0.61568627 0.10245098
0.29117647 0.61176471 0.091176471
0.32352941 0.61176471 0.08627451
0.36078431 0.61568627 0.08627451
0.39166667 0.61568627 0.082352941
0.42254902 0.61568627 0.08627451
0.45343137 0.61960784 0.090196078
0.49411765 0.62745098 0.10588235
0.53529412 0.63578431 0.10931373
0.57254902 0.64607843 0.099019608
0.60980392 0.65245098 0.094117647
0.64705882 0.6627451 0.098039216
0.68431373 0.66911765 0.10441176
0.72058824 0.67941176 0.11372549
0.75882353 0.68970588 0.11764706
0.80196078 0.69607843 0.080392157
0.84509804 0.70196078 0.039215686
0.88627451 0.70196078 0.03627451
0.93137255 0.70588235 0.019117647
0.96862745 0.70588235 0.0039215686
0.24901961 0.6504902 0.14852941
0.26323529 0.6504902 0.14761029
0.275 0.6504902 0.14705882
0.28400735 0.64834559 0.14705882
0.29166667 0.64656863 0.14240196
0.3026348 0.64411765 0.14301471
0.31911765 0.64264706 0.1314951
0.34656863 0.64019608 0.12261029
0.37107843 0.63872549 0.12352941
0.40042892 0.64019608 0.12352941
0.42830882 0.64019608 0.12107843
0.45606618 0.64393382 0.12107843
0.48897059 0.65 0.12843137
0.52892157 0.65637255 0.12892157
0.5689951 0.66666667 0.13137255
0.60680147 0.67640931 0.13529412
0.64313725 0.68333333 0.13921569
0.67886029 0.69362745 0.15042892
0.71482843 0.70245098 0.15882353
0.75275735 0.71421569 0.16617647
0.78970588 0.72377451 0.16593137
0.83106618 0.72910539 0.14344363
0.87598039 0.73284314 0.11568627
0.91862745 0.73823529 0.075
0.95980392 0.74460784 0.030882353
0.29019608 0.67745098 0.18431373
0.3004902 0.67745098 0.18615196
0.30980392 0.67745098 0.18823529
0.31752451 0.67745098 0.18737745
0.3245098 0.675 0.17843137
0.33284314 0.67352941 0.17291667
0.34534314 0.66960784 0.16568627
0.36960784 0.6692402 0.15980392
0.38529412 0.66568627 0.15980392
0.40833333 0.66470588 0.15980392
0.43504902 0.66470588 0.15661765
0.4622549 0.6682598 0.15588235
0.49019608 0.67352941 0.15833333
0.52745098 0.68088235 0.16507353
0.56544118 0.6875 0.16862745
0.60159314 0.69754902 0.17193627
0.63823529 0.70392157 0.18039216
0.67585784 0.71421569 0.18970588
0.7120098 0.7245098 0.19534314
0.74742647 0.73480392 0.20257353
0.78382353 0.74509804 0.20343137
0.82156863 0.75539216 0.20392157
0.86495098 0.76348039 0.19583333
0.9064951 0.76764706 0.16801471
0.94901961 0.7754902 0.13921569
0.33137255 0.7122549 0.22205882
0.3377451 0.7122549 0.22420343
0.34448529 0.71090686 0.2254902
0.35098039 0.70833333 0.2254902
0.35539216 0.70441176 0.21593137
0.36323529 0.70392157 0.20588235
0.37316176 0.7004902 0.1995098
0.38890931 0.69656863 0.19442402
0.40294118 0.69264706 0.19460784
0.41746324 0.68890931 0.19460784
0.44546569 0.69264706 0.19411765
0.47598039 0.69957108 0.19411765
0.50343137 0.70441176 0.19803922
0.53431373 0.70833333 0.20202206
0.56262255 0.71139706 0.20245098
0.59675245 0.71813725 0.20392157
0.63529412 0.72794118 0.21421569
0.67040441 0.73823529 0.22420343
0.70625 0.74509804 0.23345588
0.74319853 0.75539216 0.2372549
0.77867647 0.76568627 0.24117647
0.81764706 0.77941176 0.24209559
0.85882353 0.79276961 0.24803922
0.89479167 0.79705882 0.24773284
0.94607843 0.80686275 0.22107843
0.37254902 0.74509804 0.26078431
0.37254902 0.74387255 0.26078431
0.37843137 0.74313725 0.26078431
0.38235294 0.73921569 0.25906863
0.38823529 0.73529412 0.25098039
0.39460784 0.73333333 0.24068627
0.40098039 0.73186275 0.23235294
0.41397059 0.72941176 0.23210784
0.42941176 0.72745098 0.23529412
0.44362745 0.7254902 0.23848039
0.46323529 0.72647059 0.2372549
0.49093137 0.73112745 0.2375
0.51764706 0.73529412 0.23921569
0.54460784 0.73921569 0.23921569
0.57352941 0.74215686 0.23921569
0.60441176 0.74779412 0.24191176
0.6372549 0.75490196 0.25098039
0.67205882 0.7627451 0.26127451
0.70490196 0.77107843 0.26911765
0.7375 0.77990196 0.2745098
0.7745098 0.79019608 0.27843137
0.81764706 0.80465686 0.28284314
0.85882353 0.82058824 0.28921569
0.89068627 0.82794118 0.28627451
0.9254902 0.83529412 0.27254902
0.40931373 0.77794118 0.29215686
0.40716912 0.77794118 0.29166667
0.40931373 0.77696078 0.29166667
0.41366422 0.77101716 0.28780637
0.41936275 0.77058824 0.28431373
0.4254902 0.77058824 0.28039216
0.42892157 0.76629902 0.27352941
0.44362745 0.76795343 0.27647059
0.46029412 0.77058824 0.28039216
0.47696078 0.77058824 0.28431373
0.49362745 0.77058824 0.28431373
0.51378676 0.76715686 0.28088235
0.53259804 0.76666667 0.27867647
0.55931373 0.77101716 0.27696078
0.59019608 0.77708333 0.28039216
0.6245098 0.78382353 0.28578431
0.65539216 0.79362745 0.29607843
0.6841299 0.8004902 0.30245098
0.7127451 0.80294118 0.30882353
0.74025735 0.80588235 0.31519608
0.7752451 0.81764706 0.31960784
0.82156863 0.8377451 0.32401961
0.85955882 0.85122549 0.33039216
0.88903186 0.86029412 0.32598039
0.90882353 0.86421569 0.31960784
0.44313725 0.81470588 0.33235294
0.44313725 0.81470588 0.33235294
0.44338235 0.81397059 0.32843137
0.44791667 0.81176471 0.32843137
0.45343137 0.81176471 0.32843137
0.45894608 0.80870098 0.32794118
0.45980392 0.80196078 0.31862745
0.4745098 0.80428922 0.31911765
0.49117647 0.81176471 0.3254902
0.50894608 0.81470588 0.33125
0.5245098 0.81544118 0.33235294
0.5442402 0.81470588 0.32855392
0.56176471 0.80980392 0.325
0.58247549 0.80796569 0.32156863
0.61078431 0.8125 0.32156863
0.64166667 0.82205882 0.33088235
0.67254902 0.83137255 0.34117647
0.70343137 0.84166667 0.34865196
0.72965686 0.84313725 0.35294118
0.75735294 0.8504902 0.35943627
0.79019608 0.86078431 0.36372549
0.82843137 0.87242647 0.36519608
0.86372549 0.88553922 0.37230392
0.8877451 0.89117647 0.3682598
0.89215686 0.89117647 0.36764706
0.48284314 0.8622549 0.38382353
0.48284314 0.8622549 0.38382353
0.48431373 0.86127451 0.38284314
0.48431373 0.85704657 0.37990196
0.48946078 0.85563725 0.37990196
0.49068627 0.84883578 0.37401961
0.4939951 0.84215686 0.36519608
0.50539216 0.84209559 0.3651348
0.52205882 0.84901961 0.37058824
0.54264706 0.85931373 0.37696078
0.55870098 0.8622549 0.37990196
0.57598039 0.85863971 0.3786152
0.59191176 0.85294118 0.37132353
0.60931373 0.84852941 0.36403186
0.6317402 0.8504902 0.36568627
0.66170343 0.86133578 0.37598039
0.68921569 0.875 0.38627451
0.72009804 0.88431373 0.39503676
0.74460784 0.88088235 0.39178922
0.77401961 0.89491422 0.40257353
0.80416667 0.89926471 0.40514706
0.83480392 0.90735294 0.40686275
0.87009804 0.92254902 0.41482843
0.88088235 0.92542892 0.41372549
0.88088235 0.92205882 0.41127451
0.51372549 0.90588235 0.42745098
0.52009804 0.9122549 0.43382353
0.51666667 0.90098039 0.42647059
0.51372549 0.89411765 0.42009804
0.51764706 0.89215686 0.42156863
0.52156863 0.88235294 0.41176471
0.5245098 0.87843137 0.40784314
0.53480392 0.87843137 0.40784314
0.54901961 0.88235294 0.40784314
0.56960784 0.89264706 0.41421569
0.58627451 0.90196078 0.42352941
0.5995098 0.89460784 0.41617647
0.61568627 0.88627451 0.40784314
0.63235294 0.88235294 0.40343137
0.65294118 0.88529412 0.40294118
0.67892157 0.89313725 0.40931373
0.70588235 0.90588235 0.42352941
0.73676471 0.92647059 0.44019608
0.75392157 0.90686275 0.42058824
0.78627451 0.92401961 0.4372549
0.81568627 0.92941176 0.4372549
0.84117647 0.93137255 0.43676471
0.87352941 0.95392157 0.45588235
0.8745098 0.94901961 0.4495098
0.8745098 0.94901961 0.44705882
0.015686275 0.030392157 0.028431373
0.029901961 0.018627451 0.024509804
0.04754902 0.010906863 0.024509804
0.078921569 0.012071078 0.026960784
0.13333333 0.016911765 0.029656863
0.19264706 0.019791667 0.032352941
0.25294118 0.01997549 0.029411765
0.31470588 0.014215686 0.024509804
0.37892157 0.006372549 0.023039216
0.44368873 0.00091911765 0.017585784
0.50845588 0 0.0093137255
0.57009804 0 0.0039215686
0.61568627 0 0.0024509804
0.66109069 0 0.0039215686
0.70257353 0 0.0039215686
0.73382353 0.0014705882 0.006372549
0.76470588 0 0.0039215686
0.79558824 0.0039215686 0.0054534314
0.82647059 0.0039215686 0.014828431
0.85735294 0.0039215686 0.016666667
0.8870098 0.018627451 0.016666667
0.91470588 0.054105392 0.012254902
0.94031863 0.10968137 0.006372549
0.96856618 0.13382353 0
0.98823529 0.16470588 0
0.014215686 0.034375 0.025428922
0.030882353 0.032904412 0.026960784
0.053140319 0.034344363 0.027879902
0.085669424 0.03805913 0.028622855
0.13210784 0.039185049 0.028431373
0.19165901 0.042647059 0.028431373
0.25461091 0.035784314 0.026210172
0.31715686 0.020994179 0.021852022
0.38039216 0.006372549 0.022120098
0.44552696 0.00057444853 0.016666667
0.50784314 0 0.0089001225
0.56960784 0 0.00049019608
0.61568627 0 0.001685049
0.66261489 0 0.003002451
0.70294118 0 0.0036917892
0.73382353 0.003002451 0.0042662377
0.76807598 0.00091911765 0.0039215686
0.7995098 0.0027956495 0.0020450368
0.82647059 0.011657475 0.0090686275
0.85735294 0.028431373 0.015019914
0.88458946 0.048468137 0.013020833
0.91470588 0.076654412 0.0089996936
0.93921569 0.12190564 0.0045343137
0.96707261 0.1540671 0
0.98823529 0.18137255 0
0.0068627451 0.053063725 0.027328431
0.030882353 0.056234681 0.02801777
0.059681373 0.064215686 0.028431373
0.087254902 0.068060662 0.027527574
0.12579657 0.06942402 0.024142157
0.18978248 0.072104779 0.022426471
