site/assets/luts/sha256-33c0ec3aa0b5a9c2e486e30c80bce72eba92d240003f09d36f488a1d26158fbd.cube
# LUTr-Schema-Version: 2
# LUTr-ID: sha256-33c0ec3aa0b5a9c2e486e30c80bce72eba92d240003f09d36f488a1d26158fbd
# LUTr-Title: polaroid px-70
# LUTr-Collection: Natron HaldCLUT
# LUTr-Collection-ID: natron-haldclut-presets
# LUTr-Source: https://github.com/NatronGitHub/clut
# LUTr-Retrieved: 2026-07-27
# LUTr-Source-File: submissions/natron-haldclut-presets/instant_consumer/polaroid_px-70.png
# LUTr-Source-Format: HALD-PNG
# LUTr-Source-SHA256: 33c0ec3aa0b5a9c2e486e30c80bce72eba92d240003f09d36f488a1d26158fbd
# LUTr-License: CC-BY-SA-4.0
# LUTr-License-URL: https://github.com/NatronGitHub/clut#license
# LUTr-License-Basis: repo-license-file
# LUTr-Transform-Class: film-emulation
# LUTr-Tags: creative, film, film-emulation, hald-clut, natron, png, cube
# LUTr-Input-Color-Space: srgb
# LUTr-Input-Gamut: rec709
# LUTr-Input-Transfer: srgb
# LUTr-Output-Color-Space: srgb
# LUTr-Output-Gamut: rec709
# LUTr-Output-Transfer: srgb
# LUTr-Color-Space-Confidence: assumed-display-referred
# LUTr-Domain-Normalized: true
# LUTr-Shaper: none
# LUTr-Original-Grid: 64x64x64
# LUTr-Conversion-Grid: 25x25x25
# LUTr-Conversion-Interpolation: trilinear
# LUTr-Conversion-Method: HALD-PNG LUT image decoded at 16-bit and sampled to 25x25x25 3D CUBE
# LUTr-Conversion-Tool: LUTr scripts/convert-all-to-cube.mjs 2.0.0
# LUTr-Conversion-Date: 2026-07-27
# LUTr-Note: Preserve this metadata and the upstream license notices when redistributing.
TITLE "polaroid px-70"
LUT_3D_SIZE 9
DOMAIN_MIN 0 0 0
DOMAIN_MAX 1 1 1
0 0.17254902 0.20784314
0 0.16862745 0.20784314
0.0039215686 0.16078431 0.20392157
0.11176471 0.16078431 0.20392157
0.31176471 0.17254902 0.20784314
0.60392157 0.21323529 0.2
0.83333333 0.3127451 0.18823529
0.94215686 0.4254902 0.18872549
0.99215686 0.55294118 0.23529412
0 0.17647059 0.20784314
0 0.17254902 0.20784314
0.022426471 0.18382353 0.20392157
0.16715686 0.1877451 0.20392157
0.38161765 0.20759804 0.20441176
0.64117647 0.2495098 0.19852941
0.83786765 0.32634804 0.17696078
0.94215686 0.46372549 0.18137255
0.99215686 0.56421569 0.21617647
0 0.23627451 0.20784314
0 0.23235294 0.20784314
0.006127451 0.21862745 0.20392157
0.19595588 0.24203431 0.2
0.42598039 0.27303922 0.19705882
0.66421569 0.32156863 0.18676471
0.83995098 0.41666667 0.17254902
0.95085784 0.51286765 0.16139706
0.98431373 0.5872549 0.20392157
0.0024509804 0.34558824 0.20784314
0.00030637255 0.32677696 0.20784314
0.0018382353 0.33161765 0.20392157
0.24558824 0.36911765 0.19846814
0.47745098 0.39387255 0.18504902
0.70300245 0.45294118 0.16770833
0.82708333 0.49803922 0.15833333
0.92665441 0.57058824 0.15441176
0.96617647 0.62205882 0.20539216
0.01372549 0.52156863 0.2
0.013480392 0.52132353 0.19803922
0.01127451 0.51568627 0.19411765
0.30735294 0.53063725 0.1870098
0.53431373 0.56078431 0.16862745
0.73137255 0.60735294 0.1620098
0.84117647 0.62745098 0.14019608
0.9127451 0.6495098 0.16176471
0.94117647 0.67058824 0.19803922
0.096078431 0.69362745 0.19901961
0.14644608 0.68578431 0.19852941
0.30122549 0.68529412 0.2122549
0.42113971 0.67647059 0.2098652
0.59583333 0.69485294 0.19901961
0.73468137 0.71268382 0.18143382
0.82647059 0.72267157 0.19718137
0.90116422 0.73645833 0.21911765
0.93578431 0.74803922 0.24509804
0.48431373 0.80196078 0.27843137
0.46960784 0.78627451 0.28137255
0.51348039 0.78333333 0.28504902
0.57904412 0.78333333 0.29313725
0.66960784 0.79215686 0.30392157
0.75686275 0.80196078 0.31164216
0.82941176 0.80294118 0.30416667
0.89105392 0.81029412 0.31556373
0.9254902 0.82254902 0.36372549
0.66127451 0.85980392 0.40539216
0.6721201 0.85588235 0.39803922
0.68860294 0.85196078 0.40453431
0.71176471 0.85196078 0.40980392
0.74828431 0.85784314 0.42132353
0.80245098 0.86372549 0.42371324
0.84068627 0.87120098 0.42647059
0.8872549 0.87941176 0.4533701
0.92941176 0.88333333 0.46813725
0.78823529 0.90980392 0.50588235
0.7995098 0.91372549 0.51372549
0.80392157 0.90980392 0.51372549
0.80784314 0.90343137 0.50343137
0.81960784 0.90588235 0.50784314
0.85637255 0.92401961 0.53333333
0.87941176 0.92156863 0.53039216
0.90637255 0.92941176 0.5377451
0.9372549 0.9372549 0.55686275
0 0.17254902 0.21127451
0 0.16911765 0.20784314
0.0034313725 0.16078431 0.20784314
0.14148284 0.16862745 0.21127451
0.34877451 0.18235294 0.21176471
0.63676471 0.21372549 0.21127451
0.85637255 0.32892157 0.20257353
0.93823529 0.45245098 0.22352941
0.99264706 0.56078431 0.24607843
0 0.17254902 0.20784314
0 0.17254902 0.20784314
0.013786765 0.17855392 0.20784314
0.175 0.19381127 0.21127451
0.3791973 0.20931373 0.21519608
0.65065104 0.25192249 0.21519608
0.85572917 0.35963542 0.1995098
0.95037531 0.48413756 0.21879596
0.99215686 0.58333333 0.25392157
0 0.23235294 0.21433824
0 0.23884804 0.21176471
0.053247549 0.23587623 0.21176471
0.21925551 0.24362745 0.21127451
0.43627451 0.28265931 0.20827206
0.67205882 0.3254136 0.20039828
0.85284926 0.42604167 0.19126838
0.94290748 0.52806373 0.21127451
0.99215686 0.61029412 0.24620098
0.0039215686 0.36715686 0.22175245
0.003760723 0.3535386 0.21960784
0.043627451 0.35355392 0.21519608
0.27457874 0.38333333 0.2060815
0.50824142 0.40980392 0.19460784
0.70643382 0.45030637 0.18474265
0.84656863 0.51167279 0.17775735
0.93404565 0.58582261 0.1973269
0.97677696 0.64754902 0.24509804
0.0039215686 0.54240196 0.21519608
0.013480392 0.53115809 0.21151961
0.059436275 0.52677696 0.20735294
0.33446691 0.54019608 0.20735294
0.57009804 0.57340686 0.18578431
0.74175858 0.60857843 0.17205882
0.8495098 0.63186275 0.17469363
0.91838235 0.66323529 0.20392157
0.9622549 0.68823529 0.24436275
0.15784314 0.69362745 0.22205882
0.2084329 0.68216912 0.23204657
0.33192402 0.68970588 0.22660846
0.46557138 0.68805147 0.23248315
0.61185662 0.70229779 0.23351716
0.74931832 0.71813725 0.22486979
0.84724265 0.73051471 0.21605392
0.90147059 0.7403799 0.25098039
0.93921569 0.74932598 0.26862745
0.47414216 0.79031863 0.30784314
0.48737745 0.78650429 0.29607843
0.52794118 0.7872549 0.29613971
0.59546569 0.7872549 0.30994179
0.68676471 0.79656863 0.31973039
0.7638174 0.80240502 0.3212163
0.83333333 0.80686275 0.32892157
0.89117647 0.81383272 0.33590686
0.92205882 0.8189951 0.36470588
0.67604167 0.85980392 0.40974265
0.67604167 0.85588235 0.4085095
0.69509804 0.8557598 0.41323529
0.72898284 0.85588235 0.42526808
0.76372549 0.85980392 0.43633578
0.80198376 0.86501225 0.43649663
0.84166667 0.87242647 0.44546569
0.89068627 0.87941176 0.45686275
0.92941176 0.88290441 0.46770833
0.7995098 0.91372549 0.51372549
0.80042892 0.91415441 0.51415441
0.80686275 0.91372549 0.51666667
0.80784314 0.90588235 0.50980392
0.83308824 0.91372549 0.5247549
0.85196078 0.91734069 0.525
0.88198529 0.92512255 0.53419118
0.91029412 0.92941176 0.54117647
0.92990196 0.92303922 0.53137255
0 0.17254902 0.22254902
0 0.16862745 0.21960784
0.0031862745 0.16862745 0.21568627
0.13627451 0.17438725 0.22144608
0.35882353 0.17401961 0.23431373
0.65147059 0.16176471 0.24215686
0.86004902 0.34681373 0.26102941
0.94595588 0.50196078 0.29178922
0.99215686 0.59803922 0.32254902
0 0.17990196 0.22218137
0 0.17598039 0.21960784
0.019852941 0.18602941 0.22254902
0.16897978 0.20165441 0.22905944
0.40833333 0.20692402 0.23995098
0.6739277 0.24799326 0.25096507
0.86605392 0.39451593 0.26204044
0.95117953 0.52866115 0.28861826
0.98051471 0.60257353 0.31605392
0 0.21764706 0.22647059
0 0.23587623 0.23103554
0.057046569 0.246875 0.23259804
0.24607843 0.26991422 0.23823529
0.47022059 0.29656863 0.24215686
0.6935049 0.34096201 0.23979779
0.86887255 0.45588235 0.24981618
0.9495098 0.56421569 0.28011642
0.97254902 0.6129902 0.30392157
0.0049019608 0.36862745 0.24276961
0.0071691176 0.36113664 0.23823529
0.12561275 0.37034314 0.24215686
0.32418811 0.38439032 0.23823529
0.5317402 0.4276348 0.23578431
0.73247549 0.475 0.23235294
0.86228554 0.54166667 0.23664216
0.93639706 0.60923713 0.26960784
0.96580882 0.6560049 0.30588235
0.06127451 0.55441176 0.24852941
0.051470588 0.5495098 0.24074755
0.1995098 0.53480392 0.2432598
0.38872549 0.55171569 0.24558824
0.5875 0.57573529 0.24607843
0.75153186 0.61127451 0.23529412
0.85698529 0.6377451 0.24007353
0.92101716 0.67144608 0.26421569
0.96078431 0.70294118 0.30735294
0.32573529 0.70784314 0.27732843
0.33969056 0.70147059 0.27120098
0.3979473 0.69473039 0.27175245
0.509375 0.69146752 0.27941176
0.64258578 0.70196078 0.28014706
0.75696998 0.72182904 0.2743413
0.84525123 0.73428309 0.28333333
0.90508578 0.74468444 0.30098039
0.94509804 0.75919118 0.33284314
0.5372549 0.79803922 0.34313725
0.52941176 0.78762255 0.34280025
0.57297794 0.78627451 0.34534314
0.62598039 0.79065564 0.34313725
0.69803922 0.79656863 0.35490196
0.77365196 0.80232843 0.3544424
0.8372549 0.80980392 0.36329657
0.89375 0.81485907 0.37858456
0.93235294 0.8254902 0.40098039
0.69509804 0.85980392 0.42806373
0.69901961 0.85637255 0.43186275
0.71038603 0.85588235 0.43514093
0.74117647 0.85980392 0.44644608
0.7745098 0.86372549 0.45625
0.80625 0.86764706 0.46017157
0.84546569 0.87156863 0.4635723
0.89117647 0.87941176 0.47512255
0.93333333 0.88982843 0.49019608
0.79901961 0.91372549 0.51666667
0.79705882 0.90992647 0.51372549
0.80367647 0.90980392 0.51593137
0.81752451 0.9127451 0.52058824
0.82745098 0.90980392 0.52156863
0.85196078 0.91433824 0.52781863
0.88235294 0.92156863 0.5372549
0.9064951 0.92291667 0.53860294
0.93823529 0.9372549 0.56078431
0.0039215686 0.18039216 0.25980392
0.0015931373 0.17647059 0.2495098
0.052941176 0.18394608 0.24803922
0.19699755 0.20490196 0.25680147
0.35637255 0.20245098 0.26519608
0.65882353 0.20343137 0.29264706
0.87022059 0.27598039 0.31421569
0.96158088 0.47726716 0.34803922
0.98039216 0.62794118 0.40392157
0.0021446078 0.19362745 0.25949755
0.017156863 0.19019608 0.25557598
0.08916973 0.20494792 0.25503983
0.21949295 0.22909773 0.26354167
0.42469363 0.23814338 0.27794118
0.68609069 0.25527727 0.29890472
0.87945772 0.3377451 0.31801471
0.94981618 0.51655944 0.3596201
0.96911765 0.63400735 0.40116422
0.0039215686 0.25539216 0.27156863
0.015196078 0.25453431 0.27156863
0.11884191 0.27239583 0.27377451
0.28480392 0.29685968 0.27774203
0.48223039 0.32426471 0.28927696
0.71078431 0.35882353 0.30948223
0.8752451 0.4705576 0.33431373
0.93872549 0.60186887 0.37719056
0.96470588 0.68333333 0.41617647
0 0.38431373 0.2848652
0.0086320466 0.37941176 0.28626685
0.18477328 0.38849571 0.29117647
0.38923866 0.41660539 0.29213388
0.55686275 0.44849877 0.3002451
0.73921569 0.51317402 0.3158318
0.86960784 0.58676471 0.34019608
0.92627911 0.64901961 0.37353707
0.9622549 0.70778186 0.41127451
0.12230392 0.55882353 0.30686275
0.20318627 0.55147059 0.29990809
0.32990196 0.54993873 0.30582108
0.46813725 0.56204044 0.30882353
0.61764706 0.59264706 0.31397059
0.76911765 0.62941176 0.31127451
0.85882353 0.65833333 0.32990196
0.91642157 0.69053309 0.36387868
0.95441176 0.72745098 0.39240196
0.44748775 0.70729167 0.34901961
0.47231158 0.70795803 0.34674479
0.50692402 0.69894301 0.34362745
0.56811428 0.70245098 0.34119945
0.65836397 0.71302083 0.3419424
0.76542586 0.73143382 0.34270833
0.84594056 0.74125306 0.35291054
0.90508578 0.75932138 0.37683058
0.94754902 0.76764706 0.39699755
0.59129902 0.80012255 0.39117647
0.61269914 0.79315257 0.40294118
0.61976103 0.79108456 0.38808211
0.66081495 0.79301471 0.39247855
0.71439951 0.79656863 0.40539216
0.78676471 0.80588235 0.41484375
0.84647672 0.81372549 0.41988358
0.89497549 0.82156863 0.42936581
0.93272059 0.82941176 0.44644608
0.72205882 0.85980392 0.46256127
0.72156863 0.85964308 0.46223192
0.72562806 0.85588235 0.45882353
0.75275735 0.86365656 0.46862745
0.78563113 0.86715686 0.47579657
0.81414675 0.86764706 0.48052237
0.84906556 0.8754902 0.49178922
0.89160539 0.87984069 0.50120251
0.93333333 0.88854167 0.50667892
0.80784314 0.91372549 0.52941176
0.80392157 0.9122549 0.52401961
0.82107843 0.91948529 0.53517157
0.81758578 0.91133578 0.52647059
0.84117647 0.91764706 0.53848039
0.86029412 0.91764706 0.54362745
0.87794118 0.91262255 0.53676471
0.91421569 0.92941176 0.55686275
0.9372549 0.93333333 0.56078431
0.0058823529 0.18431373 0.3
0.034558824 0.1877451 0.30343137
0.17598039 0.20196078 0.30784314
0.34093137 0.26102941 0.31495098
0.49215686 0.29411765 0.33921569
0.65808824 0.28431373 0.35514706
0.86176471 0.32009804 0.39852941
0.94460784 0.47230392 0.41960784
0.97647059 0.58039216 0.43921569
0.01372549 0.20906863 0.31911765
0.069852941 0.22009804 0.31712623
0.21397059 0.2435049 0.32696078
0.37058824 0.29632353 0.33480392
0.51715686 0.33308824 0.34473039
0.68661152 0.34175858 0.36617647
0.86360294 0.39803922 0.40275735
0.94561887 0.50857843 0.4294424
0.98063725 0.63651961 0.45661765
0.0053921569 0.28823529 0.34460784
0.067769608 0.28609069 0.34215686
0.2314951 0.31715686 0.34693627
0.42898284 0.37120098 0.35784314
0.56789216 0.41053922 0.35808824
0.7064951 0.42230392 0.37996324
0.8622549 0.48884804 0.41029412
0.93235294 0.5877451 0.43615196
0.95686275 0.68431373 0.47647059
0.0014705882 0.42205882 0.35490196
0.024754902 0.41626838 0.35597426
0.23829657 0.41819853 0.3627451
0.45707721 0.46222426 0.37003676
0.63455882 0.53394608 0.38063725
0.76623775 0.53106618 0.40027574
0.86354167 0.6122549 0.42965686
0.92230392 0.68069853 0.45867034
0.95294118 0.73651961 0.48186275
0.18431373 0.57745098 0.3745098
0.2307598 0.56470588 0.37254902
0.36323529 0.56862745 0.37156863
0.51727941 0.58578431 0.38553922
0.68088235 0.63137255 0.39901961
0.77757353 0.65110294 0.41127451
0.86151961 0.69313725 0.43431373
0.91433824 0.72990196 0.45416667
0.94509804 0.75098039 0.45882353
0.45857843 0.71176471 0.40269608
0.4903799 0.70784314 0.40906863
0.54203431 0.70251225 0.40931373
0.63091299 0.71666667 0.41323529
0.70992647 0.72328431 0.42107843
0.78480392 0.74093137 0.42996324
0.85441176 0.75134804 0.43014706
0.90260417 0.77254902 0.44632353
0.93970588 0.79166667 0.4627451
0.6245098 0.79509804 0.44705882
0.65484069 0.79895833 0.45091912
0.68051471 0.80196078 0.44901961
0.69656863 0.79883578 0.44411765
0.74117647 0.80245098 0.45343137
0.80220588 0.80980392 0.46084559
0.84509804 0.81470588 0.46421569
0.89375 0.8254902 0.47101716
0.9254902 0.83333333 0.47990196
0.75392157 0.86372549 0.50073529
0.75003064 0.86372549 0.49727328
0.75214461 0.85980392 0.49705882
0.77141544 0.86372549 0.50098039
0.80085784 0.86764706 0.5057598
0.82573529 0.87018995 0.50882353
0.86464461 0.8754902 0.51488971
0.89702819 0.87990196 0.5208027
0.93333333 0.89068627 0.52843137
0.82352941 0.92156863 0.54705882
0.81960784 0.91764706 0.54338235
0.82156863 0.91372549 0.54313725
0.83137255 0.91764706 0.54509804
0.84607843 0.91764706 0.54705882
0.86813725 0.92156863 0.55563725
0.89068627 0.92303922 0.55882353
0.91421569 0.92573529 0.5629902
0.94313725 0.94117647 0.5745098
0.17352941 0.225 0.41764706
0.20931373 0.21862745 0.40980392
0.34620098 0.2564951 0.41666667
0.52941176 0.32794118 0.43333333
0.6877451 0.41789216 0.45147059
0.76960784 0.50441176 0.45594363
0.85686275 0.51139706 0.47169118
0.92892157 0.55147059 0.48921569
0.96715686 0.63431373 0.50490196
0.16237745 0.24442402 0.4254902
0.24607843 0.26701134 0.43122702
0.37219669 0.28809743 0.42928922
0.54380362 0.34472273 0.44099265
0.68823529 0.46617647 0.45147059
0.77628676 0.53020833 0.45931373
0.85022978 0.53200061 0.47352941
0.92542892 0.575 0.48970588
0.95716912 0.62303922 0.50128676
0.17794118 0.32757353 0.44473039
0.24313725 0.34229473 0.4446538
0.3955576 0.37879902 0.45122549
0.57640931 0.42781863 0.4573223
0.69895833 0.5213848 0.45686275
0.77830882 0.58374694 0.46433824
0.85211397 0.57735907 0.47745098
0.91692708 0.63069853 0.49673713
0.94571078 0.65833333 0.5067402
0.11966912 0.47303922 0.45147059
0.1960095 0.47830116 0.45213695
0.40481005 0.48835784 0.45931373
0.58039216 0.52084865 0.46176471
0.71862745 0.60542279 0.46476716
0.79264706 0.65 0.47557445
0.86692708 0.66029412 0.48982843
0.90900735 0.68370098 0.50140165
0.94362745 0.72555147 0.51519608
0.24044118 0.60147059 0.45661765
0.30376838 0.60775123 0.45857843
0.39877451 0.60183824 0.45661765
0.5676777 0.61911765 0.46568627
0.71311275 0.65796569 0.47720588
0.8004902 0.69954044 0.49114583
0.86372549 0.72481618 0.50238971
0.90667892 0.75490196 0.51528799
0.94362745 0.78186275 0.52769608
0.48088235 0.72205882 0.47107843
0.50900735 0.71813725 0.46960784
0.54734988 0.71421569 0.46715686
0.63024663 0.71666667 0.47745098
0.73795956 0.73578431 0.48967525
0.80294118 0.75230545 0.49797794
0.85663297 0.77179841 0.50772059
0.90245098 0.7995098 0.51697304
0.9372549 0.825 0.53480392
0.64460784 0.80196078 0.49080882
0.65859375 0.80196078 0.48970588
0.68823529 0.80196078 0.49264706
0.71957721 0.80363051 0.49656863
0.7622549 0.8088848 0.50251225
0.81360294 0.81386336 0.50957414
0.85588235 0.82193627 0.51335784
0.8963848 0.83247549 0.51631434
0.9254902 0.84448529 0.52120098
0.75177696 0.86764706 0.52745098
0.75392157 0.86372549 0.52775735
0.76551777 0.86372549 0.53137255
0.79032629 0.86372549 0.52756587
0.81063113 0.86764706 0.5268076
0.83824295 0.87529871 0.53676471
0.86845895 0.87941176 0.54313725
0.90422794 0.88333333 0.53925398
0.93511029 0.89246324 0.54558824
0.82352941 0.91764706 0.55833333
0.82303922 0.91372549 0.55814951
0.84105392 0.92120098 0.56470588
0.83921569 0.91372549 0.55833333
0.85367647 0.92034314 0.56078431
0.87506127 0.92604167 0.56617647
0.89509804 0.9254902 0.57254902
0.91942402 0.92941176 0.57647059
0.93970588 0.91617647 0.56470588
0.39019608 0.29509804 0.5372549
0.45 0.30502451 0.54117647
0.5502451 0.32328431 0.54338235
0.66764706 0.4254902 0.53627451
0.77892157 0.54264706 0.53627451
0.8377451 0.66188725 0.53137255
0.87647059 0.69093137 0.53921569
0.90723039 0.66715686 0.54215686
0.94313725 0.70392157 0.55
0.4192402 0.36237745 0.53762255
0.46073836 0.35615809 0.54405637
0.55481005 0.39782475 0.54083946
0.6782935 0.47066483 0.53627451
0.77935049 0.56550245 0.53884804
0.83198529 0.67352941 0.53884804
0.87331495 0.70189951 0.53921569
0.91164216 0.69019608 0.54227941
0.94546569 0.71666667 0.55392157
0.43137255 0.42818627 0.55294118
0.45594363 0.42864583 0.54748775
0.57371324 0.47352941 0.54313725
0.68517157 0.53088235 0.54313725
0.78235294 0.60784314 0.54313725
0.83811275 0.70934436 0.53921569
0.87254902 0.72058824 0.54142157
0.9044424 0.71960784 0.54341299
0.9372549 0.72352941 0.54705882
0.40882353 0.55294118 0.53737745
0.45621936 0.55 0.53898591
0.55147059 0.55952819 0.54313725
0.68595282 0.60029105 0.54313725
0.77702206 0.66495098 0.54313725
0.83480392 0.73284314 0.54437806
0.87245711 0.7620098 0.55
0.90306373 0.7524663 0.55084252
0.92303922 0.75735294 0.5567402
0.35833333 0.64656863 0.53137255
0.42898284 0.64705882 0.52757353
0.49742647 0.64852941 0.53137255
0.63382353 0.66470588 0.53406863
0.7620098 0.70514706 0.53921569
0.83529412 0.75588235 0.54607843
0.8754902 0.78051471 0.55061275
0.90637255 0.78995098 0.55784314
0.925 0.8004902 0.56176471
0.52303922 0.73835784 0.53137255
0.53693321 0.73664216 0.53137255
0.57843137 0.72742034 0.53039216
0.64627757 0.73203125 0.53137255
0.73137255 0.746875 0.53823529
0.81855086 0.77970282 0.5442402
0.86544118 0.80569853 0.55098039
0.90637255 0.82469363 0.55919118
0.92941176 0.83529412 0.56568627
0.66666667 0.80980392 0.53431373
0.67316176 0.80980392 0.53210784
0.69117647 0.80588235 0.53449755
0.72598039 0.80603554 0.53995098
0.76960784 0.81372549 0.54215686
0.8252451 0.81973039 0.54862132
0.86599265 0.83094363 0.55392157
0.90637255 0.84549632 0.56176471
0.92941176 0.85612745 0.56593137
0.75392157 0.87120098 0.55343137
0.75441176 0.86764706 0.5504902
0.76605392 0.86764706 0.5583027
0.7877451 0.86764706 0.55441176
0.81862745 0.87199755 0.55808824
0.84598652 0.87941176 0.56354167
0.88011642 0.88419118 0.57009804
0.91421569 0.89237132 0.57352941
0.9377451 0.90245098 0.57487745
0.82254902 0.91764706 0.57254902
0.81862745 0.9127451 0.57254902
0.82720588 0.91372549 0.57352941
0.84558824 0.91764706 0.57647059
0.86617647 0.9254902 0.58039216
0.87843137 0.92659314 0.58639706
0.90294118 0.93333333 0.58995098
0.92598039 0.93333333 0.59313725
0.94901961 0.93921569 0.59705882
0.61862745 0.4627451 0.6122549
0.65643382 0.4966299 0.60833333
0.72156863 0.52254902 0.60980392
0.78627451 0.5877451 0.60441176
0.8377451 0.64926471 0.59656863
0.87254902 0.74509804 0.58529412
0.89816176 0.78529412 0.58480392
0.91856618 0.7971201 0.58480392
0.9372549 0.78578431 0.58480392
0.64993873 0.51623775 0.6122549
0.66078431 0.51617647 0.61230852
0.72414216 0.5566636 0.60833333
0.78235294 0.60147059 0.60441176
0.83795956 0.67990196 0.59313725
0.87285539 0.75245098 0.58872549
0.89938725 0.79754902 0.58480392
0.91856618 0.80146293 0.58523284
0.93333333 0.79356618 0.58480392
0.6504902 0.58002451 0.60968137
0.65310968 0.56688113 0.60441176
0.72110907 0.6004902 0.61112132
0.77892157 0.64803922 0.59834559
0.83602941 0.70245098 0.59264706
0.87254902 0.76764706 0.58872549
0.89917279 0.81323529 0.58480392
0.91856618 0.81311275 0.58480392
0.93382353 0.80796569 0.58872549
0.64528186 0.6536152 0.6004902
0.64714308 0.63872549 0.59656863
0.70943627 0.65686275 0.6004902
0.76844363 0.69216452 0.59656863
0.83219975 0.7377451 0.58897059
0.86991422 0.78106618 0.58841912
0.89558824 0.81629902 0.58517157
0.91770833 0.83422947 0.58872549
0.92959559 0.82303922 0.58872549
0.58946078 0.70147059 0.59264706
0.63679534 0.70710784 0.59635417
0.67193627 0.70710784 0.59093137
0.74224877 0.7263174 0.58872549
0.81262255 0.75968137 0.58872549
0.86838235 0.80015319 0.58872549
0.89485294 0.8252451 0.58872549
0.91464461 0.84411765 0.58872549
0.92965686 0.84607843 0.58872549
0.57028186 0.75637255 0.58351716
0.60206801 0.76029412 0.58092065
0.63261336 0.7567402 0.58088235
0.69410999 0.76182598 0.58039982
0.76314338 0.78471201 0.58103554
0.84498315 0.81764706 0.58517923
0.88895527 0.84178922 0.59007353
0.91786918 0.85996477 0.59264706
0.93118873 0.86734069 0.59264706
0.6814951 0.82156863 0.57732843
0.69276961 0.82205882 0.57745098
0.70870098 0.81813725 0.57696078
0.73797488 0.82156863 0.58056066
0.78186275 0.82916667 0.58088235
0.83342525 0.8403799 0.58480392
0.88446691 0.85710784 0.58979779
0.92238051 0.87512255 0.59656863
0.93382353 0.88296569 0.59656863
0.7622549 0.87898284 0.58088235
0.76617647 0.87598039 0.58094363
0.77303922 0.87205882 0.58088235
0.79166667 0.87575827 0.58088235
0.81856618 0.87984069 0.58529412
0.8533701 0.88678768 0.59313725
0.88785233 0.89483762 0.60183824
0.91905637 0.90643382 0.60098039
0.94117647 0.91421569 0.60490196
0.79656863 0.90637255 0.58480392
0.80435049 0.90637255 0.58480392
0.82696078 0.91801471 0.58909314
0.84313725 0.91960784 0.59264706
0.85294118 0.91593137 0.6004902
0.87990196 0.92941176 0.60833333
0.90294118 0.92941176 0.61213235
0.92640931 0.9372549 0.61617647
0.94901961 0.94509804 0.62401961
0.79607843 0.69803922 0.63921569
0.80343137 0.70196078 0.63921569
0.82352941 0.71764706 0.63627451
0.84558824 0.73823529 0.62892157
0.87647059 0.77058824 0.62352941
0.90588235 0.81323529 0.61960784
0.92254902 0.84411765 0.61568627
0.9377451 0.86323529 0.61176471
0.94901961 0.8745098 0.61176471
0.79215686 0.70196078 0.63921569
0.80392157 0.71323529 0.63578431
0.81960784 0.72107843 0.63235294
0.8495098 0.75128676 0.63137255
0.87647059 0.77843137 0.62352941
0.90373775 0.81256127 0.61746324
0.92156863 0.84031863 0.61176471
0.9377451 0.86666667 0.61176471
0.94509804 0.86323529 0.61176471
0.80196078 0.73823529 0.63921569
0.80735294 0.73578431 0.63529412
0.82426471 0.75245098 0.63431373
0.84705882 0.76433824 0.62745098
0.87254902 0.78627451 0.62352941
0.90404412 0.82205882 0.61960784
0.91862745 0.84411765 0.61176471
0.93382353 0.86666667 0.61176471
0.95294118 0.88529412 0.61960784
0.78578431 0.75294118 0.63137255
0.79264706 0.75196078 0.63137255
0.80404412 0.75833333 0.62745098
0.83829657 0.77892157 0.625
0.8752451 0.80588235 0.62230392
0.88529412 0.80833333 0.60294118
0.9254902 0.8627451 0.62144608
0.9377451 0.88909314 0.61960784
0.94117647 0.88235294 0.61568627
0.77647059 0.78431373 0.62745098
0.77034314 0.77843137 0.62745098
0.79754902 0.78431373 0.62745098
0.80833333 0.78235294 0.61642157
0.85980392 0.81372549 0.62352941
0.8877451 0.83480392 0.61568627
0.91470588 0.85980392 0.61568627
0.93382353 0.88676471 0.61960784
0.94509804 0.9 0.61960784
0.72794118 0.80147059 0.61813725
0.74932598 0.80931373 0.62352941
0.76409314 0.80931373 0.62205882
0.74852941 0.79454657 0.60692402
0.82132353 0.8254902 0.61691176
0.87843137 0.84944853 0.61960784
0.91862745 0.87487745 0.62107843
0.93382353 0.89460784 0.61960784
0.94362745 0.90588235 0.61960784
0.74215686 0.84411765 0.61176471
0.74607843 0.84509804 0.61568627
0.7502451 0.84191176 0.61568627
0.75098039 0.83051471 0.6
0.80098039 0.84607843 0.60735294
0.85183824 0.86090686 0.61960784
0.90196078 0.88333333 0.62352941
0.93333333 0.89938725 0.61960784
0.94117647 0.90980392 0.61568627
0.78921569 0.89117647 0.61568627
0.78872549 0.89068627 0.61127451
0.79705882 0.89068627 0.61666667
0.80079657 0.88284314 0.6
0.82426471 0.8872549 0.60245098
0.86078431 0.89509804 0.6213848
0.89166667 0.89987745 0.62352941
0.92205882 0.91378676 0.61960784
0.94117647 0.91813725 0.61617647
0.85098039 0.94509804 0.63529412
0.83921569 0.93333333 0.62352941
0.85 0.93627451 0.63039216
0.84705882 0.9254902 0.61960784
0.8745098 0.94117647 0.6372549
0.8877451 0.94117647 0.63676471
0.90588235 0.93333333 0.62745098
0.92990196 0.94117647 0.63578431
0.95294118 0.95294118 0.65098039
