site/assets/luts/sha256-48a591b63e0304556643e3bdf1f88b0f67444d684f398663ce92529578d8dcdb.cube
# LUTr-Schema-Version: 2
# LUTr-ID: sha256-48a591b63e0304556643e3bdf1f88b0f67444d684f398663ce92529578d8dcdb
# LUTr-Title: polaroid px-680 warm
# LUTr-Collection: Natron HaldCLUT
# LUTr-Collection-ID: natron-haldclut-presets
# LUTr-Source: https://github.com/NatronGitHub/clut
# LUTr-Retrieved: 2026-07-27
# LUTr-Source-File: submissions/natron-haldclut-presets/instant_consumer/polaroid_px-680_warm.png
# LUTr-Source-Format: HALD-PNG
# LUTr-Source-SHA256: 48a591b63e0304556643e3bdf1f88b0f67444d684f398663ce92529578d8dcdb
# LUTr-License: CC-BY-SA-4.0
# LUTr-License-URL: https://github.com/NatronGitHub/clut#license
# LUTr-License-Basis: repo-license-file
# LUTr-Transform-Class: film-emulation
# LUTr-Tags: creative, film, film-emulation, hald-clut, natron, png, warm, cube
# LUTr-Input-Color-Space: srgb
# LUTr-Input-Gamut: rec709
# LUTr-Input-Transfer: srgb
# LUTr-Output-Color-Space: srgb
# LUTr-Output-Gamut: rec709
# LUTr-Output-Transfer: srgb
# LUTr-Color-Space-Confidence: assumed-display-referred
# LUTr-Domain-Normalized: true
# LUTr-Shaper: none
# LUTr-Original-Grid: 64x64x64
# LUTr-Conversion-Grid: 25x25x25
# LUTr-Conversion-Interpolation: trilinear
# LUTr-Conversion-Method: HALD-PNG LUT image decoded at 16-bit and sampled to 25x25x25 3D CUBE
# LUTr-Conversion-Tool: LUTr scripts/convert-all-to-cube.mjs 2.0.0
# LUTr-Conversion-Date: 2026-07-27
# LUTr-Note: Preserve this metadata and the upstream license notices when redistributing.
TITLE "polaroid px-680 warm"
LUT_3D_SIZE 5
DOMAIN_MIN 0 0 0
DOMAIN_MAX 1 1 1
0.25490196 0.21176471 0.082352941
0.27745098 0.20784314 0.08627451
0.53921569 0.2254902 0.066666667
0.85392157 0.28627451 0.02745098
0.99215686 0.49019608 0.2
0.24803922 0.23921569 0.078431373
0.29142157 0.2504902 0.074509804
0.57303922 0.30147059 0.028921569
0.85098039 0.38112745 0.020588235
0.97254902 0.51960784 0.19509804
0.20980392 0.44117647 0.049019608
0.30588235 0.45588235 0.069607843
0.57647059 0.50980392 0.035294118
0.82254902 0.5627451 0.052941176
0.94705882 0.60196078 0.15882353
0.34803922 0.6627451 0.18235294
0.38235294 0.65392157 0.16642157
0.56323529 0.69117647 0.21666667
0.76838235 0.73235294 0.2745098
0.90588235 0.7627451 0.36078431
0.61176471 0.83137255 0.43529412
0.64215686 0.82843137 0.45098039
0.7254902 0.83529412 0.49411765
0.82156863 0.83235294 0.51960784
0.90980392 0.84705882 0.58823529
0.25784314 0.20784314 0.1
0.28823529 0.2125 0.11568627
0.56372549 0.19705882 0.15245098
0.85784314 0.36691176 0.25318627
0.96960784 0.54019608 0.35294118
0.26666667 0.27647059 0.15318627
0.34215686 0.29338235 0.14944853
0.62058824 0.31703431 0.17058824
0.85710784 0.44742647 0.25612745
0.97034314 0.58259804 0.36102941
0.32205882 0.47401961 0.19019608
0.39375 0.48688725 0.19852941
0.61789216 0.5372549 0.21813725
0.8314951 0.5689951 0.23664216
0.94411765 0.63872549 0.31519608
0.40294118 0.67965686 0.25563725
0.44080882 0.6689951 0.25765931
0.58811275 0.69840686 0.30147059
0.78308824 0.74240196 0.35808824
0.9245098 0.76740196 0.4247549
0.62745098 0.83137255 0.45882353
0.64558824 0.82990196 0.46593137
0.73578431 0.83578431 0.51813725
0.83333333 0.84313725 0.56593137
0.91372549 0.85098039 0.61470588
0.29803922 0.22352941 0.31372549
0.4254902 0.26078431 0.33235294
0.64509804 0.34313725 0.37843137
0.83872549 0.375 0.43382353
0.96862745 0.55686275 0.49803922
0.29901961 0.31715686 0.35637255
0.45441176 0.34313725 0.37071078
0.66960784 0.44534314 0.41421569
0.84301471 0.46936275 0.45330882
0.94509804 0.61470588 0.51813725
0.37156863 0.48823529 0.35784314
0.47230392 0.51102941 0.38382353
0.67647059 0.57598039 0.44068627
0.83431373 0.63259804 0.47058824
0.93431373 0.71568627 0.5372549
0.49411765 0.6754902 0.40245098
0.52340686 0.67720588 0.40428922
0.64509804 0.71176471 0.44509804
0.7995098 0.74705882 0.49215686
0.91176471 0.77205882 0.52745098
0.64313725 0.82352941 0.50980392
0.65539216 0.82058824 0.50882353
0.73529412 0.83529412 0.54705882
0.82941176 0.83529412 0.59509804
0.90980392 0.83529412 0.60588235
0.49411765 0.34117647 0.57941176
0.60416667 0.39019608 0.58406863
0.75882353 0.54607843 0.59901961
0.85612745 0.64705882 0.61078431
0.92941176 0.65784314 0.63333333
0.51372549 0.42843137 0.59044118
0.61176471 0.45882353 0.59338235
0.76887255 0.58259804 0.60441176
0.85594363 0.69123775 0.62230392
0.90661765 0.67867647 0.6254902
0.44313725 0.55784314 0.56176471
0.52352941 0.56568627 0.56531863
0.73651961 0.64215686 0.60441176
0.85294118 0.73860294 0.63333333
0.91911765 0.75245098 0.6504902
0.46372549 0.68529412 0.53137255
0.51446078 0.68921569 0.53308824
0.65269608 0.72107843 0.57009804
0.83743873 0.77113971 0.62622549
0.9254902 0.8002451 0.6625
0.58529412 0.81960784 0.57745098
0.61372549 0.82745098 0.58529412
0.72647059 0.83333333 0.61078431
0.83333333 0.84240196 0.65686275
0.93235294 0.8627451 0.71764706
0.76078431 0.64705882 0.75294118
0.7872549 0.6627451 0.74509804
0.85098039 0.72745098 0.74509804
0.8872549 0.76960784 0.71372549
0.92156863 0.80784314 0.74509804
0.75686275 0.6745098 0.75
0.77941176 0.68235294 0.74215686
0.84901961 0.73921569 0.74901961
0.90196078 0.78921569 0.74509804
0.9254902 0.81176471 0.74509804
0.69215686 0.71176471 0.74509804
0.73970588 0.72254902 0.74852941
0.8245098 0.75588235 0.74705882
0.89509804 0.80098039 0.74901961
0.92941176 0.82352941 0.75686275
0.57058824 0.76666667 0.71470588
0.61862745 0.77745098 0.73333333
0.68823529 0.76176471 0.70294118
0.86764706 0.8127451 0.75686275
0.9372549 0.84705882 0.77254902
0.69019608 0.85882353 0.75686275
0.68627451 0.85098039 0.74509804
0.74509804 0.85098039 0.74705882
0.82941176 0.84705882 0.74705882
0.91372549 0.8627451 0.75686275
