site/assets/luts/sha256-834f022c4cf353298b4f2ec8e50dba9bdeddab6a352c3b47107fdda120dff603.cube
# LUTr-Schema-Version: 2
# LUTr-ID: sha256-834f022c4cf353298b4f2ec8e50dba9bdeddab6a352c3b47107fdda120dff603
# LUTr-Title: polaroid px-70 warm -
# LUTr-Collection: Natron HaldCLUT
# LUTr-Collection-ID: natron-haldclut-presets
# LUTr-Source: https://github.com/NatronGitHub/clut
# LUTr-Retrieved: 2026-07-27
# LUTr-Source-File: submissions/natron-haldclut-presets/instant_consumer/polaroid_px-70_warm_-.png
# LUTr-Source-Format: HALD-PNG
# LUTr-Source-SHA256: 834f022c4cf353298b4f2ec8e50dba9bdeddab6a352c3b47107fdda120dff603
# LUTr-License: CC-BY-SA-4.0
# LUTr-License-URL: https://github.com/NatronGitHub/clut#license
# LUTr-License-Basis: repo-license-file
# LUTr-Transform-Class: film-emulation
# LUTr-Tags: creative, film, film-emulation, hald-clut, natron, png, warm, cube
# LUTr-Input-Color-Space: srgb
# LUTr-Input-Gamut: rec709
# LUTr-Input-Transfer: srgb
# LUTr-Output-Color-Space: srgb
# LUTr-Output-Gamut: rec709
# LUTr-Output-Transfer: srgb
# LUTr-Color-Space-Confidence: assumed-display-referred
# LUTr-Domain-Normalized: true
# LUTr-Shaper: none
# LUTr-Original-Grid: 64x64x64
# LUTr-Conversion-Grid: 25x25x25
# LUTr-Conversion-Interpolation: trilinear
# LUTr-Conversion-Method: HALD-PNG LUT image decoded at 16-bit and sampled to 25x25x25 3D CUBE
# LUTr-Conversion-Tool: LUTr scripts/convert-all-to-cube.mjs 2.0.0
# LUTr-Conversion-Date: 2026-07-27
# LUTr-Note: Preserve this metadata and the upstream license notices when redistributing.
TITLE "polaroid px-70 warm -"
LUT_3D_SIZE 9
DOMAIN_MIN 0 0 0
DOMAIN_MAX 1 1 1
0.019607843 0.08627451 0.10196078
0.07745098 0.082843137 0.082843137
0.18431373 0.082352941 0.097058824
0.3122549 0.070588235 0.1004902
0.55490196 0.054901961 0.11960784
0.77254902 0.14215686 0.13333333
0.92843137 0.31078431 0.13235294
0.99607843 0.44901961 0.11862745
1 0.56078431 0.17647059
0.039215686 0.11715686 0.10196078
0.083884804 0.11623775 0.10098039
0.2 0.1245098 0.10931373
0.35196078 0.11292892 0.11243873
0.5502451 0.10588235 0.11740196
0.77107843 0.18823529 0.1254902
0.9245098 0.34558824 0.12843137
0.99957108 0.47598039 0.10686275
1 0.57254902 0.17254902
0.03627451 0.19019608 0.1245098
0.11029412 0.2064951 0.13137255
0.20465686 0.19387255 0.11838235
0.37389706 0.21041667 0.11703431
0.57745098 0.20833333 0.1122549
0.76176471 0.3067402 0.10355392
0.9127451 0.4120098 0.082598039
0.98529412 0.52107843 0.084313725
0.99607843 0.60686275 0.16568627
0.021078431 0.35196078 0.14362745
0.1004902 0.35588235 0.14871324
0.23186275 0.36482843 0.13970588
0.42107843 0.37794118 0.13180147
0.60245098 0.39191176 0.093627451
0.77205882 0.43033088 0.035294118
0.90490196 0.50686275 0.0089460784
0.97696078 0.57843137 0.036090686
0.99460784 0.63627451 0.1254902
0.0039215686 0.54117647 0.13921569
0.085539216 0.53357843 0.14705882
0.24264706 0.53872549 0.14117647
0.45122549 0.55416667 0.12426471
0.64117647 0.57254902 0.074509804
0.79558824 0.5995098 0.0046568627
0.90098039 0.63235294 0.0088235294
0.96936275 0.65514706 0.011764706
1 0.68823529 0.058823529
0.21617647 0.69754902 0.1754902
0.28302696 0.69430147 0.18314951
0.37843137 0.69901961 0.17267157
0.51917892 0.70784314 0.17303922
0.67328431 0.7125 0.14093137
0.79411765 0.7283701 0.085845588
0.88492647 0.74227941 0.076960784
0.95245098 0.75343137 0.08872549
0.99607843 0.75343137 0.11470588
0.47352941 0.80686275 0.26666667
0.49558824 0.81078431 0.24742647
0.54411765 0.81151961 0.25784314
0.62928922 0.81372549 0.26715686
0.7 0.81372549 0.2627451
0.78933824 0.81764706 0.25882353
0.87181373 0.8254902 0.23921569
0.93811275 0.83333333 0.23198529
0.97941176 0.8372549 0.26568627
0.66078431 0.88333333 0.39019608
0.66819853 0.88333333 0.37849265
0.6872549 0.88333333 0.37843137
0.7122549 0.88333333 0.38265931
0.76421569 0.88921569 0.39436275
0.81127451 0.89117647 0.39803922
0.86862745 0.89509804 0.40110294
0.92647059 0.89901961 0.39025735
0.95294118 0.90245098 0.38676471
0.8 0.94117647 0.50588235
0.80441176 0.94166667 0.50637255
0.81470588 0.94509804 0.5127451
0.79166667 0.92401961 0.47794118
0.84509804 0.94117647 0.52156863
0.86813725 0.94509804 0.5254902
0.89509804 0.94901961 0.53039216
0.92598039 0.9495098 0.5372549
0.94117647 0.95294118 0.54117647
0.014215686 0.085784314 0.10882353
0.066115196 0.089767157 0.11280637
0.17303922 0.090196078 0.1314951
0.34607843 0.083823529 0.14675245
0.55882353 0.09754902 0.16789216
0.78627451 0.18541667 0.17401961
0.93713235 0.33737745 0.17156863
0.98523284 0.47555147 0.19901961
1 0.5754902 0.22990196
0.057843137 0.1245098 0.13578431
0.10784314 0.12493873 0.13579197
0.20375306 0.13117341 0.14459252
0.37064951 0.12581955 0.15432751
0.57401961 0.13952206 0.16222426
0.78903186 0.23560049 0.16764706
0.93192402 0.36668199 0.16717218
0.99264706 0.49590993 0.18382353
1 0.59074755 0.23039216
0.083823529 0.20784314 0.15637255
0.13163297 0.21251532 0.15882353
0.24525123 0.21920956 0.15958946
0.40110294 0.22696078 0.15980392
0.59528186 0.246875 0.1598652
0.78693321 0.31885723 0.14509804
0.92129289 0.42879902 0.14068627
0.98163297 0.53333333 0.16551777
0.99607843 0.61164216 0.21960784
0.063541667 0.3596201 0.16813725
0.13789063 0.3596201 0.17205882
0.27375919 0.36885723 0.17068015
0.43235294 0.38395374 0.1568704
0.61387868 0.41338848 0.13186275
0.79143689 0.45392157 0.10360754
0.91164216 0.52002145 0.073039216
0.97696078 0.58627451 0.11742494
0.99607843 0.6403799 0.18872549
0.051960784 0.55661765 0.16764706
0.15021446 0.54509804 0.17202819
0.29460784 0.54803922 0.17426471
0.46715686 0.56387868 0.16927083
0.64497549 0.58406863 0.14007353
0.79788603 0.60523897 0.085202206
0.90373775 0.63229167 0.06495098
0.97110907 0.65906863 0.061519608
0.9997549 0.69411765 0.15539216
0.27959559 0.70931373 0.19656863
0.33017004 0.70784314 0.19826134
0.41542586 0.70539216 0.20948223
0.54104626 0.71268382 0.21011029
0.67769608 0.72190564 0.19362745
0.79411765 0.72205882 0.16372549
0.8904565 0.7415288 0.14969363
0.95392157 0.75392157 0.15617341
0.98253676 0.75980392 0.16960784
0.4877451 0.81335784 0.27794118
0.51383272 0.81335784 0.28088235
0.57022059 0.81078431 0.28872549
0.62761949 0.81372549 0.29718137
0.70974265 0.81764706 0.29601716
0.7970435 0.82156863 0.27388174
0.86936275 0.82521446 0.27009804
0.93656556 0.83028493 0.27401961
0.98039216 0.83811275 0.29718137
0.67254902 0.8872549 0.39411765
0.67952665 0.8872549 0.38970588
0.69460784 0.88377757 0.38970588
0.73284314 0.88333333 0.40365349
0.77352941 0.8872549 0.41323529
0.82148438 0.89090839 0.40931373
0.87561275 0.89477635 0.40588235
0.92254902 0.89896599 0.40980392
0.96764706 0.90294118 0.42898284
0.79656863 0.9377451 0.50588235
0.80692402 0.94117647 0.51280637
0.80784314 0.94080882 0.50931373
0.82334559 0.9372549 0.51372549
0.85073529 0.94681373 0.53455882
0.87205882 0.94509804 0.53235294
0.89901961 0.94509804 0.53026961
0.92990196 0.95300245 0.54908088
0.94117647 0.9495098 0.54117647
0.081372549 0.10196078 0.17843137
0.11862745 0.10490196 0.17843137
0.19264706 0.10784314 0.18063725
0.33835784 0.1060049 0.19264706
0.57941176 0.061764706 0.21764706
0.80208333 0.076838235 0.23186275
0.92843137 0.35147059 0.26862745
0.99264706 0.51421569 0.29558824
1 0.59313725 0.3254902
0.095710784 0.13137255 0.18970588
0.13844975 0.14264706 0.19362745
0.22365196 0.15073529 0.1939951
0.37539828 0.15637255 0.20628064
0.58511029 0.14632353 0.22279412
0.79986213 0.23007047 0.24257047
0.93529412 0.41614583 0.27221201
0.99264706 0.53639706 0.29460784
1 0.61813725 0.33039216
0.12647059 0.21862745 0.20980392
0.17408088 0.22545956 0.21666667
0.26734069 0.22996324 0.21666667
0.43189338 0.24558824 0.22129289
0.62585784 0.2814951 0.23039216
0.8078125 0.36819853 0.2379902
0.92469363 0.47769608 0.25514706
0.98480392 0.5716299 0.27895221
1 0.61691176 0.30122549
0.16605392 0.37120098 0.22794118
0.20735294 0.38628983 0.2254902
0.31216299 0.39574142 0.22941176
0.46470588 0.40372243 0.2254902
0.64515931 0.41648284 0.21519608
0.8044424 0.47345282 0.21360294
0.91522672 0.54166667 0.22135417
0.98088235 0.6131587 0.24901961
0.99963235 0.6692402 0.29313725
0.23921569 0.56078431 0.2372549
0.26764706 0.5622549 0.23112745
0.36801471 0.55563725 0.24019608
0.50147059 0.57303922 0.23927696
0.66495098 0.59215686 0.22181373
0.81072304 0.60931373 0.20367647
0.90404412 0.64019608 0.2004902
0.96960784 0.67273284 0.21623775
0.99607843 0.70490196 0.26372549
0.36666667 0.71752451 0.26090686
0.3971201 0.71752451 0.25948223
0.47193627 0.71271446 0.26617647
0.57257966 0.71392463 0.27271752
0.69509804 0.71887255 0.26648284
0.80441176 0.73662684 0.2457261
0.89105392 0.74347426 0.2442402
0.95629596 0.75681679 0.24888174
0.98823529 0.76519608 0.26764706
0.54901961 0.82083333 0.3372549
0.55281863 0.81700368 0.32582721
0.59001225 0.81446078 0.33094363
0.65392157 0.81470588 0.33795956
0.72438725 0.82156863 0.33848039
0.80579044 0.82083333 0.33823529
0.88039216 0.82886029 0.32965686
0.94080882 0.8372549 0.32696078
0.98333333 0.84215686 0.35882353
0.6872549 0.8872549 0.41617647
0.69865196 0.8872549 0.42316176
0.71133578 0.88345588 0.42401961
0.74117647 0.88374694 0.43039216
0.78333333 0.8872549 0.43982843
0.82694547 0.89117647 0.43975184
0.87647059 0.89901961 0.44200368
0.92598039 0.90294118 0.44411765
0.96041667 0.90686275 0.45159314
0.79901961 0.9372549 0.5127451
0.80747549 0.9372549 0.52107843
0.81568627 0.9372549 0.52156863
0.8310049 0.94117647 0.5254902
0.84705882 0.94117647 0.53333333
0.87205882 0.94117647 0.53664216
0.90294118 0.95 0.54901961
0.92941176 0.94901961 0.54546569
0.95196078 0.95294118 0.55588235
0.10392157 0.11470588 0.2504902
0.18498775 0.12794118 0.25441176
0.29215686 0.14718137 0.26519608
0.40692402 0.17843137 0.27794118
0.55882353 0.15367647 0.28921569
0.78284314 0.12064951 0.31862745
0.94362745 0.27107843 0.33345588
0.99264706 0.47352941 0.37009804
1 0.64460784 0.42990196
0.14785539 0.15863971 0.26991422
0.20637255 0.17352941 0.27352941
0.30891544 0.18443627 0.27357537
0.42254902 0.20980392 0.27745098
0.58946078 0.20471814 0.3004902
0.80104167 0.22598805 0.32254902
0.93742341 0.34537377 0.34198836
0.99607843 0.53578431 0.38986673
1 0.67009804 0.43970588
0.13394608 0.24656863 0.28688725
0.2073989 0.25306373 0.29264706
0.33602941 0.25943627 0.29301471
0.4626685 0.28284314 0.29587929
0.63161765 0.30392157 0.31127451
0.81960784 0.36839767 0.33287377
0.93875613 0.47696078 0.35637255
0.98125 0.62103248 0.40249694
0.99607843 0.68026961 0.42843137
0.19944853 0.39509804 0.30238971
0.24968597 0.4026348 0.30147059
0.36519608 0.4073223 0.31000306
0.51464461 0.43102788 0.30965839
0.68382353 0.46467525 0.31933211
0.82794118 0.52015931 0.33676471
0.91738664 0.58261336 0.35006127
0.97776501 0.66371783 0.38050705
0.99607843 0.71378676 0.41666667
0.32671569 0.56862745 0.3245098
0.36151961 0.57254902 0.31985294
0.4504902 0.57150735 0.3252451
0.56179534 0.58648897 0.325
0.69191176 0.60441176 0.32389706
0.82401961 0.62941176 0.31960784
0.90882353 0.65637255 0.31372549
0.96724877 0.70113358 0.34647672
0.99607843 0.73382353 0.38578431
0.49791667 0.71960784 0.36023284
0.52788756 0.72334559 0.36176471
0.57267157 0.72219669 0.35885417
0.62843137 0.72240349 0.35784314
0.71715686 0.72279412 0.35392157
0.81617647 0.73944547 0.34965533
0.89460784 0.74840686 0.34731924
0.95606618 0.7641008 0.34073989
0.99215686 0.78333333 0.37990196
0.61887255 0.82156863 0.4004902
0.63137255 0.82242647 0.3989277
0.65248162 0.81908701 0.39693627
0.69581801 0.81848958 0.40409007
0.74761029 0.82254902 0.40686275
0.81360294 0.82715993 0.40294118
0.87941176 0.83333333 0.40147059
0.93811275 0.83823529 0.40294118
0.9754902 0.84215686 0.40686275
0.721875 0.8872549 0.45735294
0.72371324 0.8872549 0.45844056
0.739231 0.8872549 0.46511949
0.76403952 0.89117647 0.46600031
0.80147059 0.89117647 0.47573529
0.8444087 0.89117647 0.48069087
0.88596814 0.89865196 0.47843137
0.92598039 0.90637255 0.47843137
0.96029412 0.90686275 0.48057598
0.81960784 0.94509804 0.53970588
0.81176471 0.93363971 0.53186275
0.82254902 0.9372549 0.53688725
0.84313725 0.94417892 0.54754902
0.86078431 0.94509804 0.55490196
0.87800245 0.93982843 0.55214461
0.90294118 0.9432598 0.55392157
0.92990196 0.95294118 0.56685049
0.95686275 0.95441176 0.57647059
0.23137255 0.16666667 0.36666667
0.29068627 0.16617647 0.36470588
0.41176471 0.19166667 0.36862745
0.54901961 0.26666667 0.3752451
0.66372549 0.32745098 0.38431373
0.77156863 0.29705882 0.40343137
0.91764706 0.34852941 0.43431373
0.99240196 0.46495098 0.44901961
1 0.61568627 0.4745098
0.24117647 0.19656863 0.37622549
0.29656863 0.20860907 0.37276348
0.42230392 0.23627451 0.37647059
0.56636029 0.30857843 0.38210784
0.67928922 0.35931373 0.39313725
0.81470588 0.35891544 0.41421569
0.93198529 0.38719363 0.43823529
0.98679534 0.50903799 0.45490196
0.99828431 0.64044118 0.48186275
0.24901961 0.29754902 0.38627451
0.28921569 0.29528186 0.38952206
0.43235294 0.32536765 0.39411765
0.58596814 0.39264706 0.39558824
0.70269608 0.45343137 0.40539216
0.81764706 0.44601716 0.42156863
0.92303922 0.49080882 0.43933824
0.97346814 0.59871324 0.47101716
0.99411765 0.6995098 0.49901961
0.22990196 0.43651961 0.39215686
0.2760723 0.43063725 0.39283088
0.42781863 0.44761029 0.40196078
0.59561887 0.49191176 0.40833333
0.71985294 0.52904412 0.41495098
0.82794118 0.54460784 0.43164828
0.91176471 0.59411765 0.45
0.96519608 0.68759191 0.475
0.99215686 0.74705882 0.49754902
0.34215686 0.58039216 0.39607843
0.3870098 0.58431373 0.39803922
0.47892157 0.59558824 0.40661765
0.60232843 0.60220588 0.41629902
0.72745098 0.62352941 0.42352941
0.83186275 0.65306373 0.43370098
0.90416667 0.6875 0.42622549
0.95870098 0.73676471 0.46127451
0.99215686 0.76078431 0.47647059
0.51078431 0.72941176 0.42769608
0.53995098 0.72264093 0.42892157
0.59215686 0.72205882 0.42892157
0.66816789 0.72745098 0.43284314
0.75441176 0.7375 0.43933824
0.8245098 0.75174632 0.44191176
0.89761029 0.76072304 0.42984069
0.94990809 0.78792892 0.44754902
0.99068627 0.79828431 0.47254902
0.6627451 0.82156863 0.4627451
0.67328431 0.8254902 0.46078431
0.71066176 0.82254902 0.46764706
0.74362745 0.82457108 0.46813725
0.77965686 0.82941176 0.46887255
0.82910539 0.83094363 0.47046569
0.88688725 0.8372549 0.47156863
0.94160539 0.84142157 0.46764706
0.96764706 0.8504902 0.4745098
0.76960784 0.89289216 0.5122549
0.76568627 0.89117647 0.50882353
0.77714461 0.89117647 0.50833333
0.79362745 0.89117647 0.50882353
0.8182598 0.89117647 0.51139706
0.8497549 0.89494485 0.51731005
0.8872549 0.89944853 0.51666667
0.92797181 0.90294118 0.51908701
0.95686275 0.90245098 0.52279412
0.8372549 0.94705882 0.56470588
0.83480392 0.94289216 0.5625
0.83872549 0.94117647 0.5627451
0.84705882 0.94117647 0.5627451
0.86078431 0.94117647 0.56764706
0.88382353 0.94117647 0.5752451
0.90686275 0.94901961 0.58578431
0.93333333 0.94901961 0.58627451
0.95098039 0.94705882 0.58431373
0.36715686 0.20588235 0.48431373
0.43627451 0.2254902 0.48431373
0.55821078 0.25294118 0.49215686
0.67506127 0.36470588 0.48915441
0.77034314 0.47696078 0.48676471
0.84117647 0.50839461 0.49552696
0.90735294 0.52022059 0.50588235
0.97726716 0.55686275 0.52089461
1 0.61323529 0.52843137
0.39883578 0.26439951 0.49166667
0.4466299 0.27322304 0.49068627
0.56213235 0.31185662 0.49764093
0.69300705 0.39492187 0.49688266
0.77794118 0.50931373 0.49132966
0.85440411 0.56704197 0.50226716
0.90453431 0.54304534 0.50588235
0.97598039 0.58047641 0.52089461
0.99607843 0.65931373 0.53480392
0.3754902 0.34693627 0.49852941
0.42518382 0.35736826 0.49848346
0.55196078 0.38835784 0.50245098
0.68688725 0.45625 0.49852941
0.79117647 0.5651348 0.50245098
0.84901961 0.61231618 0.5049326
0.91139706 0.60208333 0.51348039
0.96384804 0.63498775 0.52660846
0.99215686 0.70183824 0.53982843
0.3221201 0.49209559 0.48823529
0.39068627 0.49509804 0.49075521
0.5105239 0.50196078 0.49653799
0.6661152 0.54607843 0.50245098
0.78602941 0.61688113 0.5044424
0.85965839 0.67926624 0.509375
0.91392463 0.67394301 0.52133885
0.95746783 0.70048254 0.53106618
0.99068627 0.74754902 0.54656863
0.38921569 0.61862745 0.48676471
0.42573529 0.62107843 0.48284314
0.51231618 0.61985294 0.48639706
0.65150123 0.63406863 0.50171569
0.76066176 0.67438725 0.50490196
0.8502451 0.7046875 0.51029412
0.90392157 0.72401961 0.52003676
0.9510723 0.7643076 0.54044118
0.98823529 0.7877451 0.54681373
0.52892157 0.7377451 0.49313725
0.55129442 0.73400735 0.49380362
0.59791667 0.73137255 0.49313725
0.68292739 0.73682598 0.50343137
0.76568627 0.74803922 0.51197917
0.83578431 0.75974265 0.51666667
0.9 0.78000919 0.51421569
0.94577972 0.81519608 0.54179688
0.965625 0.82647059 0.55196078
0.65882353 0.82254902 0.50551471
0.67696078 0.82250306 0.51314338
0.70530025 0.82156863 0.51727941
0.74803922 0.8254902 0.51856618
0.80398284 0.82647059 0.5245098
0.84208027 0.83370098 0.52774203
0.89537377 0.84117647 0.52941176
0.9377451 0.85254289 0.53316483
0.96372549 0.86911765 0.54803922
0.75490196 0.8872549 0.54332108
0.76525735 0.8872549 0.54705882
0.78088235 0.8872549 0.55044424
0.81519608 0.89117647 0.55109528
0.83872549 0.89117647 0.55490196
0.86617647 0.89509804 0.55900735
0.895144 0.90294118 0.56292892
0.93382353 0.90686275 0.55931373
0.94932598 0.90686275 0.55931373
0.83676471 0.94117647 0.58578431
0.83186275 0.93756127 0.58449755
0.84901961 0.94117647 0.58872549
0.86029412 0.94117647 0.58970588
0.87401961 0.94117647 0.59362745
0.89411765 0.94509804 0.60147059
0.91078431 0.94509804 0.60931373
0.93382353 0.9408701 0.60147059
0.96078431 0.95931373 0.62745098
0.57843137 0.32941176 0.58823529
0.62009804 0.35931373 0.58762255
0.69117647 0.40784314 0.58627451
0.78321078 0.49301471 0.58333333
0.8504902 0.57598039 0.57843137
0.89080882 0.69215686 0.5754902
0.92254902 0.70294118 0.5745098
0.95343137 0.70196078 0.57843137
0.99215686 0.7127451 0.58529412
0.58272059 0.38921569 0.5872549
0.62303922 0.40398284 0.58982843
0.69767157 0.43259804 0.59181985
0.77964154 0.50526961 0.58466605
0.84828431 0.59454657 0.57714461
0.88872549 0.70971201 0.57794118
0.91862745 0.72034314 0.5745098
0.95343137 0.70183824 0.57498468
0.98468137 0.72401961 0.58627451
0.57254902 0.45980392 0.5879902
0.60536152 0.47892157 0.58370098
0.67745098 0.50588235 0.58627451
0.77340686 0.55490196 0.58244485
0.83627451 0.63480392 0.5745098
0.88826593 0.73030025 0.57487745
0.92254902 0.75588235 0.57843137
0.95343137 0.74065564 0.58235294
0.98823529 0.75490196 0.59019608
0.54080882 0.57107843 0.57990196
0.5622549 0.57287071 0.57267157
0.65232843 0.57892157 0.57879902
0.75588235 0.63026961 0.5801011
0.84166667 0.69129902 0.58235294
0.8877451 0.75885417 0.57843137
0.9189951 0.77904412 0.58235294
0.95343137 0.77401961 0.58627451
0.97757353 0.77990196 0.59019608
0.45441176 0.66617647 0.56666667
0.50398284 0.6622549 0.56323529
0.57659314 0.66458333 0.56519608
0.71936275 0.68535539 0.57254902
0.8127451 0.72696078 0.57769608
0.88394608 0.78106618 0.58235294
0.91752451 0.78958333 0.58480392
0.94515931 0.79693627 0.58664216
0.9754902 0.81666667 0.59705882
0.55833333 0.75012255 0.55490196
0.58235294 0.75012255 0.55882353
0.61902574 0.74996936 0.55882353
0.68558517 0.75163909 0.5627451
0.77120098 0.76121324 0.56991422
0.85061275 0.78999694 0.57843137
0.9057598 0.81930147 0.58627451
0.9377451 0.83734681 0.59318321
0.96409314 0.85281863 0.60245098
0.66176471 0.82720588 0.5627451
0.67640931 0.82356005 0.5627451
0.70392157 0.82218137 0.5661152
0.74577206 0.82573529 0.56666667
0.80061275 0.83186275 0.5752451
0.85392157 0.84117647 0.57916667
0.90294118 0.85428922 0.59019608
0.93848039 0.8765625 0.60196078
0.96372549 0.88823529 0.61372549
0.75490196 0.89117647 0.58321078
0.7622549 0.89117647 0.57928922
0.78039216 0.88811275 0.58186275
0.81119792 0.89117647 0.58970588
0.84123775 0.89332108 0.59215686
0.87254902 0.89901961 0.59759498
0.90698529 0.90707721 0.60646446
0.94085478 0.914231 0.61029412
0.95392157 0.91911765 0.61813725
0.83529412 0.94117647 0.6127451
0.82879902 0.93737745 0.6127451
0.84215686 0.94019608 0.61568627
0.86066176 0.93933824 0.62058824
0.87843137 0.94215686 0.6245098
0.89558824 0.94117647 0.62990196
0.91544118 0.94509804 0.64019608
0.9377451 0.95294118 0.65245098
0.96078431 0.96176471 0.66470588
0.71960784 0.525 0.65588235
0.75006127 0.55196078 0.65588235
0.80036765 0.58627451 0.65588235
0.8408701 0.62696078 0.65196078
0.89044118 0.6997549 0.64019608
0.91519608 0.76648284 0.63627451
0.93345588 0.82254902 0.63627451
0.95735294 0.8245098 0.63627451
0.97647059 0.80539216 0.63627451
0.73964461 0.55931373 0.65631127
0.7504902 0.56280637 0.65593597
0.7852788 0.60098039 0.65196078
0.83351716 0.63970588 0.64820006
0.88284314 0.70713848 0.64019608
0.91568627 0.76862745 0.63627451
0.93468137 0.82254902 0.63529412
0.95343137 0.83191636 0.63627451
0.9721201 0.81715686 0.64019608
0.71960784 0.60845588 0.65196078
0.74727328 0.61321998 0.64923407
0.78367034 0.63529412 0.64803922
0.8254902 0.67254902 0.64803922
0.87941176 0.72971814 0.64019608
0.91176471 0.7872549 0.64019608
0.93345588 0.82827819 0.64016544
0.95343137 0.83970588 0.64019608
0.96862745 0.83272059 0.64019608
0.7096201 0.65753676 0.64558824
0.72824755 0.66715686 0.64803922
0.76453738 0.67976409 0.64411765
0.82334559 0.71330423 0.64411765
0.87303922 0.76038603 0.64411765
0.90784314 0.80851716 0.64019608
0.93184743 0.83707108 0.6410386
0.9495098 0.85381434 0.64409467
0.96862745 0.84411765 0.64019608
0.66004902 0.7245098 0.63455882
0.68063725 0.72083333 0.63455882
0.72696078 0.73063725 0.63651961
0.79969363 0.74273897 0.63627451
0.84877451 0.77634804 0.64019608
0.89396446 0.82049632 0.64304534
0.9338848 0.85876225 0.64650735
0.94901961 0.86151961 0.64411765
0.95906863 0.85784314 0.64411765
0.60980392 0.77352941 0.6245098
0.63694853 0.77352941 0.6245098
0.66452206 0.77598039 0.6245098
0.72873775 0.77961091 0.62627145
0.81348039 0.79451593 0.63235294
0.86851256 0.82996324 0.63939185
0.92133885 0.87205882 0.64808517
0.94585631 0.87677696 0.64820006
0.95471814 0.87677696 0.64803922
0.69313725 0.84117647 0.62855392
0.70560662 0.8377451 0.62585784
0.71948529 0.83382353 0.6245098
0.76337316 0.8377451 0.62843137
0.80165441 0.8372549 0.62843137
0.85235907 0.85392157 0.63645833
0.90821078 0.88480392 0.64880515
0.94901961 0.90735294 0.66067708
0.96164216 0.90992647 0.66470588
0.76574755 0.89901961 0.63676471
0.77439491 0.89901961 0.63681832
0.78062194 0.89859069 0.6314951
0.81084559 0.89859069 0.63910846
0.84166667 0.89901961 0.64460784
0.87297794 0.90310202 0.64068627
0.91090686 0.91196385 0.65257353
0.94165901 0.9224954 0.66856618
0.96072304 0.93339461 0.68333333
0.83872549 0.94901961 0.65980392
0.83829657 0.94895833 0.65980392
0.84693627 0.95159314 0.65845588
0.85735294 0.94773284 0.65980392
0.87647059 0.94681373 0.66764706
0.8995098 0.94901961 0.67303922
0.92169118 0.9495098 0.68284314
0.94166667 0.95300245 0.69209559
0.95245098 0.95686275 0.70294118
0.83529412 0.72156863 0.70980392
0.83529412 0.72156863 0.70980392
0.85784314 0.74411765 0.70588235
0.88088235 0.76715686 0.70196078
0.90588235 0.78627451 0.69411765
0.93480392 0.83578431 0.6995098
0.94607843 0.85980392 0.69019608
0.95686275 0.88676471 0.68627451
0.96470588 0.89019608 0.68627451
0.83088235 0.725 0.70980392
0.84264706 0.74068627 0.71329657
0.85490196 0.74803922 0.70588235
0.87591912 0.76231618 0.69944853
0.90784314 0.80171569 0.69828431
0.92696078 0.81323529 0.67322304
0.94607843 0.86078431 0.69031863
0.95735294 0.89117647 0.68768382
0.96078431 0.89754902 0.69019608
0.8245098 0.74607843 0.70980392
0.84264706 0.7622549 0.71372549
0.85392157 0.76666667 0.70588235
0.88125 0.79497549 0.70625
0.90245098 0.80637255 0.69656863
0.93088235 0.83541667 0.6877451
0.94509804 0.86372549 0.68627451
0.95686275 0.89031863 0.69411765
0.96078431 0.89019608 0.69019608
0.825 0.77647059 0.71127451
0.82481618 0.77254902 0.70588235
0.84558824 0.78137255 0.70539216
0.87156863 0.7995098 0.70140931
0.90073529 0.8247549 0.70196078
0.92843137 0.8533701 0.70196078
0.94215686 0.87904412 0.69803922
0.95686275 0.89656863 0.70177696
0.96078431 0.9004902 0.69656863
0.80196078 0.79607843 0.70588235
0.81102941 0.80171569 0.70759804
0.82843137 0.80343137 0.70588235
0.84705882 0.80588235 0.69485294
0.88627451 0.83333333 0.70490196
0.91715686 0.86029412 0.70269608
0.93970588 0.88284314 0.69411765
0.95686275 0.90612745 0.70588235
0.96470588 0.91960784 0.71568627
0.74362745 0.82107843 0.70588235
0.75833333 0.81715686 0.70539216
0.79215686 0.82463235 0.70379902
0.81813725 0.82892157 0.70251225
0.84926471 0.83382353 0.68848039
0.8995098 0.86568627 0.70251225
0.9372549 0.89620098 0.71090686
0.95324755 0.91783088 0.71421569
0.96078431 0.91911765 0.71127451
0.74607843 0.85686275 0.69509804
0.76127451 0.85943627 0.69889706
0.78431373 0.8629902 0.70294118
0.81176471 0.86409314 0.69705882
0.84509804 0.87009804 0.70588235
0.8810049 0.87941176 0.71409314
0.91862745 0.90220588 0.70931373
0.94901961 0.92561275 0.725
0.95294118 0.92941176 0.71666667
0.8004902 0.91421569 0.71764706
0.80098039 0.91078431 0.71029412
0.81262255 0.91727941 0.72058824
0.83008578 0.91452206 0.71421569
0.85343137 0.91642157 0.71764706
0.88039216 0.91439951 0.71158088
0.91078431 0.91948529 0.7189951
0.94117647 0.93425245 0.73768382
0.95686275 0.95686275 0.75245098
0.84313725 0.95686275 0.73333333
0.83186275 0.94558824 0.71078431
0.85392157 0.95980392 0.74313725
0.86127451 0.95686275 0.73578431
0.86666667 0.94313725 0.72941176
0.8877451 0.9504902 0.73480392
0.91764706 0.96078431 0.74019608
0.9377451 0.96078431 0.74215686
0.94509804 0.96078431 0.75686275
