site/assets/luts/sha256-934877b7e436022220435d7b0ac6009d270750d7254ca0ebf6996a05105d880d.cube
# LUTr-Schema-Version: 2
# LUTr-ID: sha256-934877b7e436022220435d7b0ac6009d270750d7254ca0ebf6996a05105d880d
# LUTr-Title: ilford hps 800
# LUTr-Collection: Natron HaldCLUT
# LUTr-Collection-ID: natron-haldclut-presets
# LUTr-Source: https://github.com/NatronGitHub/clut
# LUTr-Retrieved: 2026-07-27
# LUTr-Source-File: submissions/natron-haldclut-presets/bw/ilford_hps_800.png
# LUTr-Source-Format: HALD-PNG
# LUTr-Source-SHA256: 934877b7e436022220435d7b0ac6009d270750d7254ca0ebf6996a05105d880d
# LUTr-License: CC-BY-SA-4.0
# LUTr-License-URL: https://github.com/NatronGitHub/clut#license
# LUTr-License-Basis: repo-license-file
# LUTr-Transform-Class: film-emulation
# LUTr-Tags: creative, film, film-emulation, hald-clut, natron, png, cube
# LUTr-Input-Color-Space: srgb
# LUTr-Input-Gamut: rec709
# LUTr-Input-Transfer: srgb
# LUTr-Output-Color-Space: srgb
# LUTr-Output-Gamut: rec709
# LUTr-Output-Transfer: srgb
# LUTr-Color-Space-Confidence: assumed-display-referred
# LUTr-Domain-Normalized: true
# LUTr-Shaper: none
# LUTr-Original-Grid: 64x64x64
# LUTr-Conversion-Grid: 25x25x25
# LUTr-Conversion-Interpolation: trilinear
# LUTr-Conversion-Method: HALD-PNG LUT image decoded at 16-bit and sampled to 25x25x25 3D CUBE
# LUTr-Conversion-Tool: LUTr scripts/convert-all-to-cube.mjs 2.0.0
# LUTr-Conversion-Date: 2026-07-27
# LUTr-Note: Preserve this metadata and the upstream license notices when redistributing.
TITLE "ilford hps 800"
LUT_3D_SIZE 25
DOMAIN_MIN 0 0 0
DOMAIN_MAX 1 1 1
0.011764706 0.011764706 0.011764706
0.011764706 0.011764706 0.011764706
0.011764706 0.011764706 0.011764706
0.015686275 0.015686275 0.015686275
0.021568627 0.021568627 0.021568627
0.023529412 0.023529412 0.023529412
0.020588235 0.020588235 0.020588235
0.018137255 0.018137255 0.018137255
0.023529412 0.023529412 0.023529412
0.048039216 0.048039216 0.048039216
0.068627451 0.068627451 0.068627451
0.092647059 0.092647059 0.092647059
0.090196078 0.090196078 0.090196078
0.090196078 0.090196078 0.090196078
0.087254902 0.087254902 0.087254902
0.10637255 0.10637255 0.10637255
0.1372549 0.1372549 0.1372549
0.15539216 0.15539216 0.15539216
0.19215686 0.19215686 0.19215686
0.22941176 0.22941176 0.22941176
0.2627451 0.2627451 0.2627451
0.29558824 0.29558824 0.29558824
0.32647059 0.32647059 0.32647059
0.38137255 0.38137255 0.38137255
0.43529412 0.43529412 0.43529412
0.015686275 0.015686275 0.015686275
0.015686275 0.015686275 0.015686275
0.019117647 0.019117647 0.019117647
0.025490196 0.025490196 0.025490196
0.028676471 0.028676471 0.028676471
0.029901961 0.029901961 0.029901961
0.029901961 0.029901961 0.029901961
0.030821078 0.030821078 0.030821078
0.040196078 0.040196078 0.040196078
0.058333333 0.058333333 0.058333333
0.07745098 0.07745098 0.07745098
0.099509804 0.099509804 0.099509804
0.1004902 0.1004902 0.1004902
0.10294118 0.10294118 0.10294118
0.10833333 0.10833333 0.10833333
0.13180147 0.13180147 0.13180147
0.16029412 0.16029412 0.16029412
0.18480392 0.18480392 0.18480392
0.21066176 0.21066176 0.21066176
0.24264706 0.24264706 0.24264706
0.27745098 0.27745098 0.27745098
0.31011029 0.31011029 0.31011029
0.34607843 0.34607843 0.34607843
0.39166667 0.39166667 0.39166667
0.44166667 0.44166667 0.44166667
0.016666667 0.016666667 0.016666667
0.020220588 0.020220588 0.020220588
0.027696078 0.027696078 0.027696078
0.034926471 0.034926471 0.034926471
0.038235294 0.038235294 0.038235294
0.040196078 0.040196078 0.040196078
0.040931373 0.040931373 0.040931373
0.049264706 0.049264706 0.049264706
0.056862745 0.056862745 0.056862745
0.074632353 0.074632353 0.074632353
0.092401961 0.092401961 0.092401961
0.10980392 0.10980392 0.10980392
0.11519608 0.11519608 0.11519608
0.12107843 0.12107843 0.12107843
0.13357843 0.13357843 0.13357843
0.15968137 0.15968137 0.15968137
0.19117647 0.19117647 0.19117647
0.21115196 0.21115196 0.21115196
0.23333333 0.23333333 0.23333333
0.26421569 0.26421569 0.26421569
0.29803922 0.29803922 0.29803922
0.33026961 0.33026961 0.33026961
0.36666667 0.36666667 0.36666667
0.40931373 0.40931373 0.40931373
0.44901961 0.44901961 0.44901961
0.019607843 0.019607843 0.019607843
0.02567402 0.02567402 0.02567402
0.035784314 0.035784314 0.035784314
0.042218137 0.042218137 0.042218137
0.048529412 0.048529412 0.048529412
0.050490196 0.050490196 0.050490196
0.053431373 0.053431373 0.053431373
0.057536765 0.057536765 0.057536765
0.073529412 0.073529412 0.073529412
0.090379902 0.090379902 0.090379902
0.10637255 0.10637255 0.10637255
0.12058824 0.12058824 0.12058824
0.13431373 0.13431373 0.13431373
0.14503676 0.14503676 0.14503676
0.15870098 0.15870098 0.15870098
0.18529412 0.18529412 0.18529412
0.21862745 0.21862745 0.21862745
0.23658088 0.23658088 0.23658088
0.25943627 0.25943627 0.25943627
0.2877451 0.2877451 0.2877451
0.31862745 0.31862745 0.31862745
0.35343137 0.35343137 0.35343137
0.38823529 0.38823529 0.38823529
0.42990196 0.42990196 0.42990196
0.4622549 0.4622549 0.4622549
0.037254902 0.037254902 0.037254902
0.041666667 0.041666667 0.041666667
0.048039216 0.048039216 0.048039216
0.054656863 0.054656863 0.054656863
0.057843137 0.057843137 0.057843137
0.060784314 0.060784314 0.060784314
0.064215686 0.064215686 0.064215686
0.067647059 0.067647059 0.067647059
0.084313725 0.084313725 0.084313725
0.10367647 0.10367647 0.10367647
0.12107843 0.12107843 0.12107843
0.14019608 0.14019608 0.14019608
0.15588235 0.15588235 0.15588235
0.17107843 0.17107843 0.17107843
0.18480392 0.18480392 0.18480392
0.21323529 0.21323529 0.21323529
0.24313725 0.24313725 0.24313725
0.25980392 0.25980392 0.25980392
0.28284314 0.28284314 0.28284314
0.3122549 0.3122549 0.3122549
0.34313725 0.34313725 0.34313725
0.37794118 0.37794118 0.37794118
0.4127451 0.4127451 0.4127451
0.45294118 0.45294118 0.45294118
0.48039216 0.48039216 0.48039216
0.068137255 0.068137255 0.068137255
0.068137255 0.068137255 0.068137255
0.068995098 0.068995098 0.068995098
0.074571078 0.074571078 0.074571078
0.075490196 0.075490196 0.075490196
0.079411765 0.079411765 0.079411765
0.079411765 0.079411765 0.079411765
0.085294118 0.085294118 0.085294118
0.10294118 0.10294118 0.10294118
0.11979167 0.11979167 0.11979167
0.14019608 0.14019608 0.14019608
0.16078431 0.16078431 0.16078431
0.17769608 0.17769608 0.17769608
0.19411765 0.19411765 0.19411765
0.20784314 0.20784314 0.20784314
0.23167892 0.23167892 0.23167892
0.25980392 0.25980392 0.25980392
0.28039216 0.28039216 0.28039216
0.30453431 0.30453431 0.30453431
0.33284314 0.33284314 0.33284314
0.36568627 0.36568627 0.36568627
0.40245098 0.40245098 0.40245098
0.43639706 0.43639706 0.43639706
0.47205882 0.47205882 0.47205882
0.49852941 0.49852941 0.49852941
0.099019608 0.099019608 0.099019608
0.095465686 0.095465686 0.095465686
0.094362745 0.094362745 0.094362745
0.092156863 0.092156863 0.092156863
0.096078431 0.096078431 0.096078431
0.1 0.1 0.1
0.10588235 0.10588235 0.10588235
0.11262255 0.11262255 0.11262255
0.12647059 0.12647059 0.12647059
0.14411765 0.14411765 0.14411765
0.16078431 0.16078431 0.16078431
0.18137255 0.18137255 0.18137255
0.19803922 0.19803922 0.19803922
0.21470588 0.21470588 0.21470588
0.22843137 0.22843137 0.22843137
0.24840686 0.24840686 0.24840686
0.27647059 0.27647059 0.27647059
0.29705882 0.29705882 0.29705882
0.32254902 0.32254902 0.32254902
0.35343137 0.35343137 0.35343137
0.38823529 0.38823529 0.38823529
0.42303922 0.42303922 0.42303922
0.45784314 0.45784314 0.45784314
0.48970588 0.48970588 0.48970588
0.51568627 0.51568627 0.51568627
0.1245098 0.1245098 0.1245098
0.12205882 0.12205882 0.12205882
0.11813725 0.11813725 0.11813725
0.11666667 0.11666667 0.11666667
0.11593137 0.11593137 0.11593137
0.11746324 0.11746324 0.11746324
0.12806373 0.12806373 0.12806373
0.14068627 0.14068627 0.14068627
0.15588235 0.15588235 0.15588235
0.17101716 0.17101716 0.17101716
0.18676471 0.18676471 0.18676471
0.20588235 0.20588235 0.20588235
0.22058824 0.22058824 0.22058824
0.23480392 0.23480392 0.23480392
0.24901961 0.24901961 0.24901961
0.26470588 0.26470588 0.26470588
0.28921569 0.28921569 0.28921569
0.3122549 0.3122549 0.3122549
0.33921569 0.33921569 0.33921569
0.37352941 0.37352941 0.37352941
0.40686275 0.40686275 0.40686275
0.44234069 0.44234069 0.44234069
0.47696078 0.47696078 0.47696078
0.50876225 0.50876225 0.50876225
0.53235294 0.53235294 0.53235294
0.14901961 0.14901961 0.14901961
0.14656863 0.14656863 0.14656863
0.14411765 0.14411765 0.14411765
0.1377451 0.1377451 0.1377451
0.13529412 0.13529412 0.13529412
0.1377451 0.1377451 0.1377451
0.15196078 0.15196078 0.15196078
0.16764706 0.16764706 0.16764706
0.18431373 0.18431373 0.18431373
0.19852941 0.19852941 0.19852941
0.21372549 0.21372549 0.21372549
0.23039216 0.23039216 0.23039216
0.24117647 0.24117647 0.24117647
0.25539216 0.25539216 0.25539216
0.26862745 0.26862745 0.26862745
0.28382353 0.28382353 0.28382353
0.30588235 0.30588235 0.30588235
0.32892157 0.32892157 0.32892157
0.35980392 0.35980392 0.35980392
0.39068627 0.39068627 0.39068627
0.4254902 0.4254902 0.4254902
0.45686275 0.45686275 0.45686275
0.49117647 0.49117647 0.49117647
0.52205882 0.52205882 0.52205882
0.54509804 0.54509804 0.54509804
0.17598039 0.17598039 0.17598039
0.17261029 0.17261029 0.17261029
0.17107843 0.17107843 0.17107843
0.16599265 0.16599265 0.16599265
0.16348039 0.16348039 0.16348039
0.16488971 0.16488971 0.16488971
0.18002451 0.18002451 0.18002451
0.19552696 0.19552696 0.19552696
0.21127451 0.21127451 0.21127451
0.2254902 0.2254902 0.2254902
0.23970588 0.23970588 0.23970588
0.2536152 0.2536152 0.2536152
0.26691176 0.26691176 0.26691176
0.2786152 0.2786152 0.2786152
0.29019608 0.29019608 0.29019608
0.30441176 0.30441176 0.30441176
0.32009804 0.32009804 0.32009804
0.34558824 0.34558824 0.34558824
0.37401961 0.37401961 0.37401961
0.40490196 0.40490196 0.40490196
0.4370098 0.4370098 0.4370098
0.47058824 0.47058824 0.47058824
0.50147059 0.50147059 0.50147059
0.53235294 0.53235294 0.53235294
0.55539216 0.55539216 0.55539216
0.20686275 0.20686275 0.20686275
0.20502451 0.20502451 0.20502451
0.20196078 0.20196078 0.20196078
0.19901961 0.19901961 0.19901961
0.19607843 0.19607843 0.19607843
0.1995098 0.1995098 0.1995098
0.20980392 0.20980392 0.20980392
0.22401961 0.22401961 0.22401961
0.23823529 0.23823529 0.23823529
0.25208333 0.25208333 0.25208333
0.26568627 0.26568627 0.26568627
0.27696078 0.27696078 0.27696078
0.29068627 0.29068627 0.29068627
0.30441176 0.30441176 0.30441176
0.31568627 0.31568627 0.31568627
0.33137255 0.33137255 0.33137255
0.34803922 0.34803922 0.34803922
0.36372549 0.36372549 0.36372549
0.38921569 0.38921569 0.38921569
0.41911765 0.41911765 0.41911765
0.45 0.45 0.45
0.48223039 0.48223039 0.48223039
0.51568627 0.51568627 0.51568627
0.54546569 0.54546569 0.54546569
0.56568627 0.56568627 0.56568627
0.24166667 0.24166667 0.24166667
0.2377451 0.2377451 0.2377451
0.23382353 0.23382353 0.23382353
0.23333333 0.23333333 0.23333333
0.23333333 0.23333333 0.23333333
0.23425245 0.23425245 0.23425245
0.24068627 0.24068627 0.24068627
0.25116422 0.25116422 0.25116422
0.26519608 0.26519608 0.26519608
0.27941176 0.27941176 0.27941176
0.29019608 0.29019608 0.29019608
0.30349265 0.30349265 0.30349265
0.31642157 0.31642157 0.31642157
0.33235294 0.33235294 0.33235294
0.34656863 0.34656863 0.34656863
0.3622549 0.3622549 0.3622549
0.375 0.375 0.375
0.39166667 0.39166667 0.39166667
0.40968137 0.40968137 0.40968137
0.43676471 0.43676471 0.43676471
0.46421569 0.46421569 0.46421569
0.49509804 0.49509804 0.49509804
0.52941176 0.52941176 0.52941176
0.55900735 0.55900735 0.55900735
0.57990196 0.57990196 0.57990196
0.27254902 0.27254902 0.27254902
0.26862745 0.26862745 0.26862745
0.26862745 0.26862745 0.26862745
0.26862745 0.26862745 0.26862745
0.26862745 0.26862745 0.26862745
0.27083333 0.27083333 0.27083333
0.27401961 0.27401961 0.27401961
0.28186275 0.28186275 0.28186275
0.29215686 0.29215686 0.29215686
0.30637255 0.30637255 0.30637255
0.32058824 0.32058824 0.32058824
0.33284314 0.33284314 0.33284314
0.34803922 0.34803922 0.34803922
0.36372549 0.36372549 0.36372549
0.38039216 0.38039216 0.38039216
0.39436275 0.39436275 0.39436275
0.40980392 0.40980392 0.40980392
0.42254902 0.42254902 0.42254902
0.43921569 0.43921569 0.43921569
0.45784314 0.45784314 0.45784314
0.48431373 0.48431373 0.48431373
0.51151961 0.51151961 0.51151961
0.54558824 0.54558824 0.54558824
0.57622549 0.57622549 0.57622549
0.59607843 0.59607843 0.59607843
0.30392157 0.30392157 0.30392157
0.30392157 0.30392157 0.30392157
0.30392157 0.30392157 0.30392157
0.30392157 0.30392157 0.30392157
0.30392157 0.30392157 0.30392157
0.30735294 0.30735294 0.30735294
0.31041667 0.31041667 0.31041667
0.31715686 0.31715686 0.31715686
0.32745098 0.32745098 0.32745098
0.34166667 0.34166667 0.34166667
0.3567402 0.3567402 0.3567402
0.37009804 0.37009804 0.37009804
0.38406863 0.38406863 0.38406863
0.39810049 0.39810049 0.39810049
0.41262255 0.41262255 0.41262255
0.42665441 0.42665441 0.42665441
0.44068627 0.44068627 0.44068627
0.45490196 0.45490196 0.45490196
0.47009804 0.47009804 0.47009804
0.48682598 0.48682598 0.48682598
0.50735294 0.50735294 0.50735294
0.53229167 0.53229167 0.53229167
0.5627451 0.5627451 0.5627451
0.59362745 0.59362745 0.59362745
0.6127451 0.6127451 0.6127451
0.34117647 0.34117647 0.34117647
0.34117647 0.34117647 0.34117647
0.34117647 0.34117647 0.34117647
0.34117647 0.34117647 0.34117647
0.34117647 0.34117647 0.34117647
0.34509804 0.34509804 0.34509804
0.34901961 0.34901961 0.34901961
0.35833333 0.35833333 0.35833333
0.36862745 0.36862745 0.36862745
0.37953431 0.37953431 0.37953431
0.39485294 0.39485294 0.39485294
0.40821078 0.40821078 0.40821078
0.42156863 0.42156863 0.42156863
0.43321078 0.43321078 0.43321078
0.44681373 0.44681373 0.44681373
0.46127451 0.46127451 0.46127451
0.4754902 0.4754902 0.4754902
0.48933824 0.48933824 0.48933824
0.50392157 0.50392157 0.50392157
0.52071078 0.52071078 0.52071078
0.53823529 0.53823529 0.53823529
0.55894608 0.55894608 0.55894608
0.58406863 0.58406863 0.58406863
0.61421569 0.61421569 0.61421569
0.63333333 0.63333333 0.63333333
0.37843137 0.37843137 0.37843137
0.37843137 0.37843137 0.37843137
0.37843137 0.37843137 0.37843137
0.37843137 0.37843137 0.37843137
0.38161765 0.38161765 0.38161765
0.38284314 0.38284314 0.38284314
0.39019608 0.39019608 0.39019608
0.3995098 0.3995098 0.3995098
0.40980392 0.40980392 0.40980392
0.42009804 0.42009804 0.42009804
0.43431373 0.43431373 0.43431373
0.44675245 0.44675245 0.44675245
0.45882353 0.45882353 0.45882353
0.47303922 0.47303922 0.47303922
0.48186275 0.48186275 0.48186275
0.49454657 0.49454657 0.49454657
0.50637255 0.50637255 0.50637255
0.52150735 0.52150735 0.52150735
0.53578431 0.53578431 0.53578431
0.5526348 0.5526348 0.5526348
0.57107843 0.57107843 0.57107843
0.59019608 0.59019608 0.59019608
0.61421569 0.61421569 0.61421569
0.63780637 0.63780637 0.63780637
0.65784314 0.65784314 0.65784314
0.41960784 0.41960784 0.41960784
0.41960784 0.41960784 0.41960784
0.41960784 0.41960784 0.41960784
0.41960784 0.41960784 0.41960784
0.41960784 0.41960784 0.41960784
0.42401961 0.42401961 0.42401961
0.43137255 0.43137255 0.43137255
0.44068627 0.44068627 0.44068627
0.45098039 0.45098039 0.45098039
0.46127451 0.46127451 0.46127451
0.4754902 0.4754902 0.4754902
0.48578431 0.48578431 0.48578431
0.49607843 0.49607843 0.49607843
0.50637255 0.50637255 0.50637255
0.51666667 0.51666667 0.51666667
0.52696078 0.52696078 0.52696078
0.54117647 0.54117647 0.54117647
0.55392157 0.55392157 0.55392157
0.56960784 0.56960784 0.56960784
0.58382353 0.58382353 0.58382353
0.60392157 0.60392157 0.60392157
0.62058824 0.62058824 0.62058824
0.64117647 0.64117647 0.64117647
0.66176471 0.66176471 0.66176471
0.6745098 0.6745098 0.6745098
0.45686275 0.45686275 0.45686275
0.45686275 0.45686275 0.45686275
0.45686275 0.45686275 0.45686275
0.45686275 0.45686275 0.45686275
0.46078431 0.46078431 0.46078431
0.46519608 0.46519608 0.46519608
0.47254902 0.47254902 0.47254902
0.48186275 0.48186275 0.48186275
0.49215686 0.49215686 0.49215686
0.50245098 0.50245098 0.50245098
0.5127451 0.5127451 0.5127451
0.52303922 0.52303922 0.52303922
0.53088235 0.53088235 0.53088235
0.54117647 0.54117647 0.54117647
0.55147059 0.55147059 0.55147059
0.56176471 0.56176471 0.56176471
0.57205882 0.57205882 0.57205882
0.58627451 0.58627451 0.58627451
0.60110294 0.60110294 0.60110294
0.61813725 0.61813725 0.61813725
0.63284314 0.63284314 0.63284314
0.64883578 0.64883578 0.64883578
0.66568627 0.66568627 0.66568627
0.68235294 0.68235294 0.68235294
0.69754902 0.69754902 0.69754902
0.49803922 0.49803922 0.49803922
0.49803922 0.49803922 0.49803922
0.49803922 0.49803922 0.49803922
0.49803922 0.49803922 0.49803922
0.50196078 0.50196078 0.50196078
0.50723039 0.50723039 0.50723039
0.51666667 0.51666667 0.51666667
0.52303922 0.52303922 0.52303922
0.53235294 0.53235294 0.53235294
0.53970588 0.53970588 0.53970588
0.55 0.55 0.55
0.56029412 0.56029412 0.56029412
0.56813725 0.56813725 0.56813725
0.57598039 0.57598039 0.57598039
0.58333333 0.58333333 0.58333333
0.59362745 0.59362745 0.59362745
0.60686275 0.60686275 0.60686275
0.61776961 0.61776961 0.61776961
0.63137255 0.63137255 0.63137255
0.64558824 0.64558824 0.64558824
0.65980392 0.65980392 0.65980392
0.6745098 0.6745098 0.6745098
0.69191176 0.69191176 0.69191176
0.70747549 0.70747549 0.70747549
0.72058824 0.72058824 0.72058824
0.53921569 0.53921569 0.53921569
0.53921569 0.53921569 0.53921569
0.53921569 0.53921569 0.53921569
0.54221814 0.54221814 0.54221814
0.54509804 0.54509804 0.54509804
0.55098039 0.55098039 0.55098039
0.55784314 0.55784314 0.55784314
0.56421569 0.56421569 0.56421569
0.5745098 0.5745098 0.5745098
0.58088235 0.58088235 0.58088235
0.59117647 0.59117647 0.59117647
0.59803922 0.59803922 0.59803922
0.60612745 0.60612745 0.60612745
0.61421569 0.61421569 0.61421569
0.62071078 0.62071078 0.62071078
0.62959559 0.62959559 0.62959559
0.6377451 0.6377451 0.6377451
0.6504902 0.6504902 0.6504902
0.6622549 0.6622549 0.6622549
0.67647059 0.67647059 0.67647059
0.69068627 0.69068627 0.69068627
0.70490196 0.70490196 0.70490196
0.71911765 0.71911765 0.71911765
0.73480392 0.73480392 0.73480392
0.74754902 0.74754902 0.74754902
0.58627451 0.58627451 0.58627451
0.58431373 0.58431373 0.58431373
0.58480392 0.58480392 0.58480392
0.58627451 0.58627451 0.58627451
0.58431373 0.58431373 0.58431373
0.59264706 0.59264706 0.59264706
0.5995098 0.5995098 0.5995098
0.60857843 0.60857843 0.60857843
0.61568627 0.61568627 0.61568627
0.62598039 0.62598039 0.62598039
0.63382353 0.63382353 0.63382353
0.64093137 0.64093137 0.64093137
0.64705882 0.64705882 0.64705882
0.65147059 0.65147059 0.65147059
0.65882353 0.65882353 0.65882353
0.66740196 0.66740196 0.66740196
0.6745098 0.6745098 0.6745098
0.68480392 0.68480392 0.68480392
0.69705882 0.69705882 0.69705882
0.70906863 0.70906863 0.70906863
0.72156863 0.72156863 0.72156863
0.73578431 0.73578431 0.73578431
0.75 0.75 0.75
0.76421569 0.76421569 0.76421569
0.7745098 0.7745098 0.7745098
0.63382353 0.63382353 0.63382353
0.63382353 0.63382353 0.63382353
0.63370098 0.63370098 0.63370098
0.62990196 0.62990196 0.62990196
0.6254902 0.6254902 0.6254902
0.63382353 0.63382353 0.63382353
0.64411765 0.64411765 0.64411765
0.65441176 0.65441176 0.65441176
0.66127451 0.66127451 0.66127451
0.67107843 0.67107843 0.67107843
0.67745098 0.67745098 0.67745098
0.68382353 0.68382353 0.68382353
0.68823529 0.68823529 0.68823529
0.69264706 0.69264706 0.69264706
0.69901961 0.69901961 0.69901961
0.70520833 0.70520833 0.70520833
0.71176471 0.71176471 0.71176471
0.72205882 0.72205882 0.72205882
0.73578431 0.73578431 0.73578431
0.74656863 0.74656863 0.74656863
0.75686275 0.75686275 0.75686275
0.76758578 0.76758578 0.76758578
0.78088235 0.78088235 0.78088235
0.79509804 0.79509804 0.79509804
0.80539216 0.80539216 0.80539216
0.68529412 0.68529412 0.68529412
0.68529412 0.68529412 0.68529412
0.68063725 0.68063725 0.68063725
0.67365196 0.67365196 0.67365196
0.66666667 0.66666667 0.66666667
0.67536765 0.67536765 0.67536765
0.68921569 0.68921569 0.68921569
0.6995098 0.6995098 0.6995098
0.70882353 0.70882353 0.70882353
0.71556373 0.71556373 0.71556373
0.72083333 0.72083333 0.72083333
0.72242647 0.72242647 0.72242647
0.72598039 0.72598039 0.72598039
0.73333333 0.73333333 0.73333333
0.7372549 0.7372549 0.7372549
0.74509804 0.74509804 0.74509804
0.75294118 0.75294118 0.75294118
0.76323529 0.76323529 0.76323529
0.77352941 0.77352941 0.77352941
0.78382353 0.78382353 0.78382353
0.79117647 0.79117647 0.79117647
0.80147059 0.80147059 0.80147059
0.81544118 0.81544118 0.81544118
0.82708333 0.82708333 0.82708333
0.84019608 0.84019608 0.84019608
0.73529412 0.73529412 0.73529412
0.73192402 0.73192402 0.73192402
0.72463235 0.72463235 0.72463235
0.71617647 0.71617647 0.71617647
0.71176471 0.71176471 0.71176471
0.72009804 0.72009804 0.72009804
0.73039216 0.73039216 0.73039216
0.74460784 0.74460784 0.74460784
0.75098039 0.75098039 0.75098039
0.75643382 0.75643382 0.75643382
0.75772059 0.75772059 0.75772059
0.76096814 0.76096814 0.76096814
0.7620098 0.7620098 0.7620098
0.76930147 0.76930147 0.76930147
0.77598039 0.77598039 0.77598039
0.78382353 0.78382353 0.78382353
0.79019608 0.79019608 0.79019608
0.8004902 0.8004902 0.8004902
0.80931373 0.80931373 0.80931373
0.81568627 0.81568627 0.81568627
0.82598039 0.82598039 0.82598039
0.83627451 0.83627451 0.83627451
0.84656863 0.84656863 0.84656863
0.86078431 0.86078431 0.86078431
0.87107843 0.87107843 0.87107843
0.77647059 0.77647059 0.77647059
0.77009804 0.77009804 0.77009804
0.75980392 0.75980392 0.75980392
0.75343137 0.75343137 0.75343137
0.75294118 0.75294118 0.75294118
0.75735294 0.75735294 0.75735294
0.76764706 0.76764706 0.76764706
0.77794118 0.77794118 0.77794118
0.78823529 0.78823529 0.78823529
0.78823529 0.78823529 0.78823529
0.78431373 0.78431373 0.78431373
0.78431373 0.78431373 0.78431373
0.78823529 0.78823529 0.78823529
0.79607843 0.79607843 0.79607843
0.80294118 0.80294118 0.80294118
0.81323529 0.81323529 0.81323529
0.82745098 0.82745098 0.82745098
0.82990196 0.82990196 0.82990196
0.83529412 0.83529412 0.83529412
0.84264706 0.84264706 0.84264706
0.84901961 0.84901961 0.84901961
0.85931373 0.85931373 0.85931373
0.87254902 0.87254902 0.87254902
0.88529412 0.88529412 0.88529412
0.89803922 0.89803922 0.89803922
0.011764706 0.011764706 0.011764706
0.0078431373 0.0078431373 0.0078431373
0.0099264706 0.0099264706 0.0099264706
0.015686275 0.015686275 0.015686275
0.022794118 0.022794118 0.022794118
0.025980392 0.025980392 0.025980392
0.025980392 0.025980392 0.025980392
0.02689951 0.02689951 0.02689951
0.040196078 0.040196078 0.040196078
0.054411765 0.054411765 0.054411765
0.07254902 0.07254902 0.07254902
0.095588235 0.095588235 0.095588235
0.096568627 0.096568627 0.096568627
0.096568627 0.096568627 0.096568627
0.10379902 0.10379902 0.10379902
0.12696078 0.12696078 0.12696078
0.15784314 0.15784314 0.15784314
0.18088235 0.18088235 0.18088235
0.20882353 0.20882353 0.20882353
0.24264706 0.24264706 0.24264706
0.27745098 0.27745098 0.27745098
0.31011029 0.31011029 0.31011029
0.35183824 0.35183824 0.35183824
0.39993873 0.39993873 0.39993873
0.44558824 0.44558824 0.44558824
0.017218137 0.017218137 0.017218137
0.016873468 0.016873468 0.016873468
0.019117647 0.019117647 0.019117647
0.025490196 0.025490196 0.025490196
0.03036152 0.03036152 0.03036152
0.034015012 0.034015012 0.034015012
0.03604473 0.03604473 0.03604473
0.039276961 0.039276961 0.039276961
0.050490196 0.050490196 0.050490196
0.067501532 0.067501532 0.067501532
0.085064338 0.085064338 0.085064338
0.10576746 0.10576746 0.10576746
0.10686275 0.10686275 0.10686275
0.11060815 0.11060815 0.11060815
0.11862745 0.11862745 0.11862745
0.143053 0.143053 0.143053
0.17205882 0.17205882 0.17205882
0.19509804 0.19509804 0.19509804
0.2207261 0.2207261 0.2207261
0.25386029 0.25386029 0.25386029
0.2877451 0.2877451 0.2877451
0.31992188 0.31992188 0.31992188
0.36015625 0.36015625 0.36015625
0.41023284 0.41023284 0.41023284
0.45104167 0.45104167 0.45104167
0.023039216 0.023039216 0.023039216
0.023958333 0.023958333 0.023958333
0.03125 0.03125 0.03125
0.036626838 0.036626838 0.036626838
0.041727941 0.041727941 0.041727941
