site/assets/luts/sha256-71ed9843721e3697acced2623749c1f390b4db226900fcc6257157a907b99315.cube
# LUTr-Schema-Version: 2
# LUTr-ID: sha256-71ed9843721e3697acced2623749c1f390b4db226900fcc6257157a907b99315
# LUTr-Title: polaroid time zero (expired) ---
# LUTr-Collection: Natron HaldCLUT
# LUTr-Collection-ID: natron-haldclut-presets
# LUTr-Source: https://github.com/NatronGitHub/clut
# LUTr-Retrieved: 2026-07-27
# LUTr-Source-File: submissions/natron-haldclut-presets/instant_consumer/polaroid_time_zero_(expired)_---.png
# LUTr-Source-Format: HALD-PNG
# LUTr-Source-SHA256: 71ed9843721e3697acced2623749c1f390b4db226900fcc6257157a907b99315
# LUTr-License: CC-BY-SA-4.0
# LUTr-License-URL: https://github.com/NatronGitHub/clut#license
# LUTr-License-Basis: repo-license-file
# LUTr-Transform-Class: film-emulation
# LUTr-Tags: creative, film, film-emulation, hald-clut, natron, png, cube
# LUTr-Input-Color-Space: srgb
# LUTr-Input-Gamut: rec709
# LUTr-Input-Transfer: srgb
# LUTr-Output-Color-Space: srgb
# LUTr-Output-Gamut: rec709
# LUTr-Output-Transfer: srgb
# LUTr-Color-Space-Confidence: assumed-display-referred
# LUTr-Domain-Normalized: true
# LUTr-Shaper: none
# LUTr-Original-Grid: 64x64x64
# LUTr-Conversion-Grid: 25x25x25
# LUTr-Conversion-Interpolation: trilinear
# LUTr-Conversion-Method: HALD-PNG LUT image decoded at 16-bit and sampled to 25x25x25 3D CUBE
# LUTr-Conversion-Tool: LUTr scripts/convert-all-to-cube.mjs 2.0.0
# LUTr-Conversion-Date: 2026-07-27
# LUTr-Note: Preserve this metadata and the upstream license notices when redistributing.
TITLE "polaroid time zero (expired) ---"
LUT_3D_SIZE 9
DOMAIN_MIN 0 0 0
DOMAIN_MAX 1 1 1
0.11764706 0.02745098 0.023529412
0.13676471 0.024019608 0.034803922
0.19313725 0.020588235 0.031372549
0.28186275 0.0014705882 0.019607843
0.45490196 0 0.019607843
0.63872549 0 0.015686275
0.77941176 0.0078431373 0.020588235
0.87205882 0.015686275 0.067156863
0.96470588 0.11764706 0.11372549
0.11372549 0.02745098 0.019607843
0.14803922 0.042156863 0.023529412
0.19313725 0.035784314 0.023529412
0.31911765 0.034620098 0.013235294
0.49926471 0 0.015686275
0.64264706 0 0.021752451
0.78039216 0.0078431373 0.012745098
0.87640931 0.014767157 0.043627451
0.97205882 0.17058824 0.094607843
0.15490196 0.15980392 0.015686275
0.18137255 0.15588235 0.011764706
0.26078431 0.15367647 0.0095588235
0.38223039 0.15490196 0.0078431373
0.53970588 0.12843137 0.015686275
0.66703431 0.098039216 0.022058824
0.78627451 0.099019608 0.0039215686
0.87855392 0.1754902 0.021078431
0.95 0.26372549 0.049019608
0.19068627 0.31813725 0.0039215686
0.253125 0.30667892 0.0078431373
0.33921569 0.30637255 0.0078431373
0.45729167 0.32205882 0.0078431373
0.58921569 0.33357843 0.0078431373
0.70245098 0.3278799 0.012683824
0.79901961 0.33235294 0.0078431373
0.87990196 0.35422794 0.0039215686
0.93970588 0.37696078 0.0078431373
0.30392157 0.47058824 0.0039215686
0.35 0.46078431 0.0056372549
0.41715686 0.45294118 0.0044117647
0.53848039 0.475 0.0078431373
0.64705882 0.49019608 0.0039215686
0.73578431 0.47965686 0.0078431373
0.81960784 0.48431373 0.0078431373
0.88921569 0.49803922 0.0083333333
0.95098039 0.51176471 0.011764706
0.39656863 0.59264706 0
0.44656863 0.59393382 0.0039215686
0.49901961 0.59056373 0.0028186275
0.60098039 0.60588235 0.0039215686
0.68848039 0.60710784 0.0078431373
0.77058824 0.60980392 0.0039215686
0.84264706 0.61862745 0.084191176
0.9004902 0.62334559 0.096875
0.95931373 0.63333333 0.091176471
0.50980392 0.69313725 0
0.54840686 0.70098039 0.0039215686
0.58627451 0.70882353 0.0039215686
0.65245098 0.70980392 0.0039215686
0.73088235 0.71127451 0.0078431373
0.8 0.71482843 0.011764706
0.86176471 0.72230392 0.081372549
0.91164216 0.73639706 0.26629902
0.95294118 0.74019608 0.29705882
0.625 0.80147059 0
0.64411765 0.80147059 0.0044117647
0.675 0.80931373 0.0039215686
0.71568627 0.81323529 0.0039215686
0.7752451 0.80735294 0.0078431373
0.82726716 0.81078431 0.011764706
0.88737745 0.82107843 0.073651961
0.93431373 0.82892157 0.29944853
0.96519608 0.83676471 0.43676471
0.72156863 0.89411765 0
0.72107843 0.88627451 0.0044117647
0.74411765 0.89411765 0
0.77892157 0.90588235 0
0.81372549 0.89019608 0.0019607843
0.86960784 0.90735294 0
0.92254902 0.92058824 0.23921569
0.95735294 0.90980392 0.37892157
0.99215686 0.91764706 0.52156863
0.1254902 0.019607843 0.043137255
0.14025735 0.019607843 0.046568627
0.19215686 0.011887255 0.045220588
0.31372549 0.0039215686 0.056556373
0.4875 0.0019607843 0.057843137
0.64656863 0.0034313725 0.053921569
0.77647059 0.0078431373 0.077941176
0.87598039 0.0082720588 0.10539216
0.95735294 0.12892157 0.14411765
0.13284314 0.034313725 0.05435049
0.15238971 0.053431373 0.042325368
0.21133578 0.042325368 0.045971201
0.33910846 0.014705882 0.052305453
0.50542279 0 0.049571078
0.65046722 0.0021446078 0.050160846
0.77953431 0.0077359069 0.074080882
0.88333333 0.014705882 0.097173713
0.96470588 0.18970588 0.14019608
0.14117647 0.14901961 0.034803922
0.17820159 0.15061275 0.019546569
0.26911765 0.15943627 0.027542892
0.39852941 0.14500613 0.039215686
0.53946078 0.12843137 0.031372549
0.66897978 0.11384804 0.035922181
0.78259804 0.12506127 0.047303922
0.87990196 0.20255821 0.071568627
0.9564951 0.29460784 0.11715686
0.19295343 0.3127451 0.026960784
0.253125 0.32214308 0.0042662377
0.34166667 0.32156863 0.0041053922
0.46490502 0.32831648 0.0091988358
0.59420956 0.33431373 0.010784314
0.70245098 0.32935049 0.0093137255
0.79901961 0.33333333 0.009129902
0.88290441 0.36149663 0.039376532
0.95900735 0.40931373 0.10802696
0.3125 0.46887255 0.0039215686
0.35392157 0.47034314 0.0078431373
0.42340686 0.46446078 0.006127451
0.53985907 0.47769608 0.0065257353
0.65392157 0.49019608 0.0039215686
0.73970588 0.48627451 0.0053921569
0.81832108 0.48823529 0.010355392
0.88183211 0.49852941 0.012224265
0.95686275 0.5254902 0.079166667
0.42107843 0.59019608 0.0039215686
0.45484069 0.59393382 0.0039215686
0.51070772 0.59473039 0.0094515931
0.60098039 0.60441176 0.011764706
0.68970588 0.60450368 0.0089154412
0.76911765 0.60680147 0.013970588
0.84131434 0.62028186 0.12832414
0.90294118 0.62783395 0.14509804
0.95686275 0.63707108 0.16323529
0.52414216 0.69313725 0.0039215686
0.55500919 0.69836091 0.0039215686
0.59212623 0.70490196 0.0078125
0.65245098 0.70490196 0.011764706
0.73039216 0.70606618 0.0078431373
0.79741115 0.71279105 0.0043658088
0.85784314 0.7247549 0.12447917
0.91401654 0.74019608 0.29303002
0.96029412 0.74411765 0.32990196
0.62892157 0.80147059 0.0043504902
0.64460018 0.80189951 0.0078431373
0.67489277 0.80631127 0.0039215686
0.71930147 0.80566023 0.0078431373
0.77153799 0.80588235 0.01127451
0.82726716 0.81323529 0.0039215686
0.88469669 0.82107843 0.12113971
0.93082108 0.82892157 0.32580423
0.96911765 0.83976716 0.47015931
0.72941176 0.90539216 0
0.72542892 0.89362745 0.0044117647
0.74803922 0.90281863 0
0.77322304 0.89001225 0.0039215686
0.81764706 0.89803922 0.0075980392
0.86568627 0.90557598 0.0099264706
0.91948529 0.91813725 0.25183824
0.95343137 0.90980392 0.38976716
0.99656863 0.92598039 0.54215686
0.16568627 0.011764706 0.11372549
0.16752451 0.015686275 0.10686275
0.20808824 0.0078431373 0.11176471
0.32953431 0.0028186275 0.12892157
0.49803922 0.0039215686 0.13823529
0.65441176 0.0039215686 0.16115196
0.77647059 0.0058823529 0.17426471
0.87990196 0.013480392 0.18443627
0.96078431 0.1872549 0.21666667
0.16176471 0.03002451 0.10980392
0.18524816 0.049509804 0.11073836
0.23679534 0.05401348 0.11691176
0.35796569 0.0088235294 0.142019
0.51868873 0.0066789216 0.14215686
0.66421569 0.0068167892 0.15448836
0.78397672 0.0027573529 0.16185662
0.87984069 0.13016238 0.18835784
0.95931373 0.22647059 0.2127451
0.18235294 0.14607843 0.10980392
0.22748162 0.15294118 0.1182598
0.3002451 0.1721201 0.11329657
0.42300858 0.17126225 0.13357843
0.55882353 0.15281863 0.12916667
0.67775735 0.15441176 0.13716299
0.79436275 0.19185049 0.14705882
0.88382353 0.22990196 0.17496936
0.95392157 0.32156863 0.20588235
0.19681373 0.31666667 0.081740196
0.28377757 0.32843137 0.075
0.36862745 0.33471201 0.069485294
0.48529412 0.33843444 0.1067402
0.60349265 0.34466912 0.10821078
0.70821078 0.3439185 0.10882353
0.80621936 0.35943627 0.11994485
0.88639706 0.38247549 0.14731924
0.94007353 0.41409314 0.18921569
0.32794118 0.47058824 0.038235294
0.365625 0.47818627 0.032843137
0.44289216 0.47794118 0.035539216
0.54264706 0.48088235 0.041115196
0.65392157 0.49485294 0.092647059
0.74307598 0.49754902 0.15091912
0.81421569 0.49227941 0.12254902
0.88351716 0.50392157 0.12285539
0.95294118 0.53137255 0.18431373
0.44362745 0.59595588 0.0039215686
0.46666667 0.59407169 0.010784314
0.51755515 0.59595588 0.006372549
0.59852941 0.60464154 0.0056219363
0.68970588 0.60833333 0.03192402
0.77127757 0.6126685 0.11548713
0.83872549 0.62156863 0.23391544
0.89938725 0.62584252 0.23137255
0.95526961 0.63970588 0.23529412
0.54485294 0.69803922 0.0029411765
0.55931373 0.69705882 0.0039215686
0.59387255 0.69785539 0.0080269608
0.65 0.70098039 0.011488971
0.72254902 0.70526961 0.0082107843
0.7932598 0.70919118 0.072089461
0.85784314 0.72457108 0.23455882
0.91176471 0.73636642 0.34840686
0.95759804 0.74411765 0.36764706
0.64068627 0.80147059 0.039583333
0.64803922 0.79803922 0.018428309
0.6745098 0.80147059 0.0072303922
0.71331189 0.80539216 0.011902574
0.76354167 0.80539216 0.011887255
0.82441789 0.80931373 0.058854167
0.88088235 0.81841299 0.24004289
0.93071385 0.82892157 0.38158701
0.96911765 0.83676471 0.50882353
0.73039216 0.90196078 0.15980392
0.73333333 0.90208333 0.14117647
0.75147059 0.90710784 0.12254902
0.775 0.90098039 0.063848039
0.81372549 0.8995098 0.035294118
0.86139706 0.90245098 0.088112745
0.9125 0.90441176 0.29411765
0.95735294 0.91237745 0.44313725
0.99313725 0.91960784 0.56960784
0.25686275 0.010294118 0.23970588
0.26372549 0.014705882 0.2372549
0.30833333 0.023651961 0.24693627
0.37457108 0.0039215686 0.2466299
0.52916667 0.0078431373 0.26397059
0.66770833 0.0078431373 0.2848652
0.77941176 0.01127451 0.29313725
0.87205882 0.15882353 0.30833333
0.94509804 0.23382353 0.32352941
0.27254902 0.06372549 0.24362745
0.29052543 0.074839154 0.23970588
0.34024203 0.084313725 0.25058211
0.4254902 0.071254596 0.25942862
0.54656863 0.031464461 0.27166054
0.6723652 0.0074831495 0.28823529
0.78026961 0.096384804 0.29119179
0.8759421 0.21045496 0.30484069
0.9526348 0.27598039 0.32352941
0.3067402 0.17990196 0.24362745
0.3475337 0.18921569 0.24754902
0.38946078 0.20784314 0.24754902
0.46395527 0.21983762 0.25317096
0.571875 0.19895833 0.25343137
0.69031863 0.18091299 0.27398897
0.79117647 0.24080882 0.27928922
0.88671875 0.30490196 0.28958333
0.9557598 0.3627451 0.31960784
0.34019608 0.31813725 0.23033088
0.37549786 0.32892923 0.22941176
0.42653186 0.33760723 0.23540135
0.52845435 0.36338082 0.243053
0.61908701 0.3541973 0.25248162
0.72058824 0.35945925 0.25778186
0.80672488 0.38147978 0.26170343
0.89117647 0.40098039 0.27684589
0.940625 0.43523284 0.3033701
0.38186275 0.46593137 0.20784314
0.42077206 0.47843137 0.21102941
0.47555147 0.48180147 0.21636029
0.56593137 0.48964461 0.2203125
0.66629902 0.5004902 0.25245098
0.74439338 0.49849877 0.2573223
0.81709559 0.49675245 0.24705882
0.88734681 0.50955882 0.26519608
0.95882353 0.54166667 0.30392157
0.48529412 0.59019608 0.21372549
0.49968597 0.59656863 0.19400276
0.54215686 0.6004902 0.18924632
0.61366422 0.60441176 0.16658241
0.69485294 0.61179534 0.19947917
0.77303922 0.61952359 0.28180147
0.84117647 0.62535233 0.33033088
0.89509804 0.62108609 0.31096814
0.95839461 0.64215686 0.32941176
0.56948529 0.69705882 0.20196078
0.58186275 0.69799326 0.19313725
0.61547181 0.70098039 0.18440564
0.65598958 0.70490196 0.17106311
0.72555147 0.7091299 0.13229167
0.79607843 0.71666667 0.23731618
0.86004902 0.7245098 0.35110294
0.91041667 0.73639706 0.43359375
0.95796569 0.74803922 0.43235294
0.65245098 0.80196078 0.22775735
0.66590839 0.80147059 0.23553922
0.68498775 0.80147059 0.20908395
0.71457567 0.80539216 0.18259038
0.76127451 0.80931373 0.11176471
0.82169884 0.81341912 0.21262255
0.88480392 0.81715686 0.33984375
0.93012408 0.82892157 0.4504902
0.96881127 0.84019608 0.5495098
0.72941176 0.89803922 0.31421569
0.73333333 0.89558824 0.30392157
0.75477941 0.90882353 0.30392157
0.77107843 0.90196078 0.26617647
0.80980392 0.90392157 0.20906863
0.85784314 0.9122549 0.22015931
0.91115196 0.91666667 0.37291667
0.95343137 0.90686275 0.48890931
0.975 0.87941176 0.56421569
0.39215686 0.025490196 0.39803922
0.39607843 0.016176471 0.39607843
0.43186275 0.031862745 0.40098039
0.49632353 0.062254902 0.40514706
0.57352941 0.046078431 0.39411765
0.67843137 0.034803922 0.39607843
0.78333333 0.044117647 0.42058824
0.87205882 0.18039216 0.43946078
0.95294118 0.29411765 0.46470588
0.42794118 0.13088235 0.39803922
0.44754902 0.13918505 0.3997549
0.4745098 0.14436275 0.40514706
0.53226103 0.15995711 0.40995711
0.59166667 0.15514706 0.39215686
0.6841299 0.1254902 0.40015319
0.78694853 0.12028186 0.4283701
0.87205882 0.21988358 0.44338235
0.94142157 0.31495098 0.45686275
0.49411765 0.26176471 0.39803922
0.50667892 0.26893382 0.40631127
0.53431373 0.2810049 0.40784314
0.57922794 0.29571078 0.40839461
0.62794118 0.28921569 0.40245098
0.70343137 0.25900735 0.39846814
0.79803922 0.26875 0.42218137
0.87916667 0.32083333 0.42867647
0.94803922 0.38921569 0.45294118
0.47205882 0.34338235 0.3870098
0.50799632 0.35744485 0.39157475
0.55943627 0.39068627 0.39485294
0.61151961 0.40827206 0.39877451
0.66127451 0.40992647 0.39558824
0.73207721 0.39188113 0.39996936
0.81151961 0.39871324 0.40435049
0.88357843 0.42876838 0.41029412
0.9502451 0.46691176 0.4379902
0.49313725 0.46666667 0.36078431
0.51691176 0.48198529 0.36078431
0.5625 0.49411765 0.36838235
0.61960784 0.50183824 0.37254902
0.67843137 0.51127451 0.36862745
0.75428922 0.5127451 0.38468137
0.8247549 0.5127451 0.38529412
0.89117647 0.525 0.39754902
0.93921569 0.55098039 0.42156863
0.53235294 0.58627451 0.34632353
0.55073529 0.59509804 0.34206495
0.59166667 0.6004902 0.35655637
0.63379289 0.60441176 0.36106005
0.70465686 0.6129902 0.35318627
0.77395833 0.62009804 0.38333333
0.84117647 0.62732843 0.43039216
0.89871324 0.62794118 0.41534926
0.9379902 0.63970588 0.41176471
0.58284314 0.69362745 0.35588235
0.60698529 0.69705882 0.36550245
0.63541667 0.70098039 0.36323529
0.67769608 0.70490196 0.36029412
0.72990196 0.7127451 0.3372549
0.7932598 0.71666667 0.36372549
0.85784314 0.72879902 0.45490196
0.91041667 0.74019608 0.50539216
0.95 0.74460784 0.49656863
0.65637255 0.79779412 0.38529412
0.67849265 0.79754902 0.40612745
0.69411765 0.80147059 0.3872549
0.72386642 0.80303309 0.37564338
0.76323529 0.8067402 0.35061275
0.8114277 0.81109069 0.35226716
0.87665441 0.82107843 0.44460784
0.92996324 0.8330576 0.54436275
0.96887255 0.84240196 0.59705882
0.72941176 0.9 0.45490196
0.72720588 0.88602941 0.44656863
0.74901961 0.90196078 0.44607843
0.77107843 0.90073529 0.42818627
0.80294118 0.90196078 0.39901961
0.84338235 0.89460784 0.36519608
0.89607843 0.89901961 0.44705882
0.95171569 0.91911765 0.55857843
0.99215686 0.9254902 0.65882353
0.53676471 0.13823529 0.55245098
0.53529412 0.13039216 0.54705882
0.55723039 0.15539216 0.55036765
0.61078431 0.19019608 0.56366422
0.66053922 0.22401961 0.56813725
0.71715686 0.23872549 0.56029412
0.78835784 0.21421569 0.53639706
0.87028186 0.2495098 0.56207108
0.94901961 0.30735294 0.6127451
0.57371324 0.23155637 0.55637255
0.57745098 0.23139553 0.55618873
0.60084252 0.25012255 0.56243873
0.63401501 0.26942402 0.56421569
0.67441789 0.28912377 0.56764706
0.72860754 0.28830423 0.55380668
0.79460784 0.282981 0.55303309
0.87391238 0.28102788 0.56960784
0.92971814 0.34362745 0.58658088
0.61556373 0.35012255 0.55637255
0.62401961 0.3504902 0.5569087
0.64105392 0.36593137 0.56001838
0.67254902 0.38111213 0.56813725
0.70104167 0.39117647 0.57205882
0.75526961 0.3872549 0.56666667
0.81127451 0.37058824 0.56090686
0.87553615 0.35833333 0.57205882
0.92941176 0.39129902 0.58627451
0.62303922 0.43976716 0.54068627
0.64988511 0.45207567 0.54607843
0.67164522 0.45968137 0.54791667
0.70285692 0.48065257 0.55880055
0.72892157 0.48946078 0.56029412
0.76856618 0.48480392 0.559375
0.81764706 0.4549326 0.55075061
0.88094363 0.45019148 0.55900735
0.93572304 0.48241422 0.57745098
0.60980392 0.50171569 0.52696078
0.62892157 0.50686275 0.52303922
0.66219363 0.51960784 0.52892157
0.70416667 0.54880515 0.53826593
0.74215686 0.56372549 0.53909314
0.77472426 0.55680147 0.53480392
0.82671569 0.54699755 0.5372549
0.88318015 0.54705882 0.54877451
0.92622549 0.56421569 0.5622549
0.60980392 0.59803922 0.490625
0.63003217 0.60184589 0.49454657
0.65441176 0.60588235 0.49454657
0.6911152 0.62254902 0.50818781
0.73403799 0.64071691 0.51807598
0.78180147 0.62998621 0.52199755
0.8372549 0.63831189 0.52892157
0.8919807 0.6495098 0.53939951
0.93572304 0.65447304 0.54405637
0.63921569 0.68958333 0.49313725
0.65355392 0.69264706 0.50105699
0.67144608 0.69932598 0.49816176
0.70294118 0.70098039 0.50277267
0.7473652 0.70882353 0.5060049
0.79963235 0.71666667 0.51623775
0.84990809 0.7245098 0.53223039
0.90553002 0.73890931 0.58123468
0.95 0.74411765 0.56862745
0.67401961 0.79362745 0.51354167
0.6877451 0.79019608 0.52375153
0.69185049 0.7977788 0.51746324
0.7328508 0.80147059 0.53278186
0.76691176 0.80539216 0.53121936
0.81127451 0.81341912 0.51727175
0.86680453 0.82084865 0.54183517
0.91909467 0.83053768 0.62941176
0.96096814 0.8341299 0.65330882
0.72941176 0.89656863 0.58480392
0.7254902 0.89558824 0.5745098
0.71813725 0.85931373 0.54963235
0.76470588 0.90343137 0.58137255
0.79411765 0.90588235 0.56544118
0.83284314 0.89558824 0.52892157
0.88039216 0.89558824 0.54264706
0.94166667 0.91323529 0.62971814
0.97009804 0.90098039 0.7
0.65784314 0.27254902 0.69411765
0.66654412 0.30330882 0.69411765
0.6745098 0.30686275 0.69509804
0.70637255 0.3432598 0.69620098
0.73529412 0.3745098 0.6995098
0.76752451 0.39068627 0.70980392
0.81372549 0.39534314 0.68235294
0.86078431 0.39313725 0.66715686
0.92843137 0.41568627 0.70098039
0.67990196 0.35404412 0.69019608
0.68748468 0.35931373 0.69754902
0.69886642 0.36691176 0.70294118
0.71377145 0.3777114 0.69900429
0.73897059 0.39901961 0.70189951
0.77686887 0.42647059 0.71078431
0.81829044 0.42218137 0.6890625
0.86683517 0.41568627 0.67536765
0.91776961 0.42990196 0.69313725
0.71151961 0.44803922 0.6872549
0.71164216 0.44411765 0.69019608
0.72254902 0.45569853 0.69411765
0.74105392 0.4721201 0.70196078
0.76017157 0.48627451 0.70588235
0.78676471 0.50021446 0.71372549
0.82843137 0.49552696 0.69840686
0.87147672 0.47668505 0.67977941
0.90980392 0.47254902 0.69387255
0.73529412 0.52879902 0.68198529
0.73921569 0.53235294 0.68627451
0.74669118 0.53808211 0.68792892
0.76427696 0.557644 0.6955576
0.78253676 0.5651348 0.70104167
0.80421262 0.56824449 0.70209865
0.83688725 0.55343137 0.68875613
0.87156863 0.5372549 0.67745098
0.92794118 0.54007353 0.70735294
0.72647059 0.58039216 0.67303922
0.74234069 0.5841299 0.68112745
0.7622549 0.59203431 0.68125
0.77377451 0.61078431 0.68658088
0.79681373 0.62745098 0.69191176
0.81648284 0.62959559 0.69295343
0.84117647 0.61838235 0.68431373
0.87941176 0.61072304 0.6872549
0.93235294 0.60784314 0.70588235
0.7127451 0.63566176 0.65980392
0.72040441 0.64011949 0.66533395
0.73728554 0.64751838 0.66654412
0.76086091 0.65274203 0.67401961
0.79338235 0.67965686 0.67794118
0.82164522 0.68333333 0.67895221
0.84764093 0.67941176 0.6754902
0.89264706 0.68074449 0.67754289
0.94264706 0.67941176 0.68627451
0.70563725 0.71372549 0.64803922
0.71240809 0.71372549 0.65196078
0.72426471 0.7127451 0.64044118
0.7495098 0.71446078 0.64231005
0.78370098 0.72365196 0.65343137
0.81375613 0.73272059 0.66565564
0.85428922 0.74019608 0.67132353
0.90416667 0.7450674 0.66764706
0.94485294 0.74877451 0.69117647
0.72303922 0.78970588 0.64448529
0.73019301 0.80196078 0.66023284
0.74319853 0.79142157 0.65309436
0.76034007 0.79266238 0.65147059
0.78639706 0.79969363 0.65539216
0.80503983 0.81355699 0.66355699
0.86078431 0.82107843 0.67941176
0.91127451 0.83327206 0.71845895
0.95294118 0.84068627 0.73419118
0.75 0.88627451 0.69411765
0.74607843 0.88884804 0.68921569
0.75392157 0.84803922 0.67377451
0.76629902 0.88615196 0.68480392
0.79411765 0.89656863 0.69068627
0.82892157 0.90735294 0.68125
0.87254902 0.91740196 0.6872549
0.93431373 0.91323529 0.71458333
0.96666667 0.90882353 0.76960784
0.7504902 0.45735294 0.80196078
0.75784314 0.46078431 0.80931373
0.75821078 0.44558824 0.80931373
0.77224265 0.46764706 0.81323529
0.79117647 0.49019608 0.81323529
0.81372549 0.51666667 0.81734069
0.84068627 0.54019608 0.825
0.87941176 0.54705882 0.81715686
0.92156863 0.53529412 0.79754902
0.76219363 0.49558824 0.80588235
0.76563266 0.49509804 0.80625766
0.76950061 0.49122243 0.81323529
0.7832261 0.49932598 0.81758578
0.79659926 0.51470588 0.81764706
0.81748621 0.53480392 0.82457108
0.84460784 0.55145527 0.82544424
0.87984069 0.56133578 0.8245098
0.92156863 0.54656863 0.80496324
0.77745098 0.54460784 0.80588235
0.78135723 0.54460784 0.81050858
0.78786765 0.55245098 0.81130515
0.79647672 0.56029412 0.81619179
0.81004902 0.57205882 0.8223652
0.82754289 0.58730086 0.82242647
0.85073529 0.60505515 0.83284314
0.87941176 0.60294118 0.82365196
0.90980392 0.58529412 0.80588235
0.79295343 0.60373775 0.80177696
0.79703585 0.60980392 0.80775888
0.80439645 0.61711091 0.81323529
0.81401654 0.62468597 0.81635263
0.8252451 0.62941176 0.82043505
0.83982077 0.63884038 0.81715686
0.85984988 0.65330882 0.83284314
0.88333333 0.65079657 0.82908241
0.91764706 0.6377451 0.8158701
0.80269608 0.64632353 0.80539216
0.81204044 0.65762868 0.80952819
0.81966912 0.66979167 0.80980392
0.83121936 0.67941176 0.81354167
0.83786765 0.68419118 0.81666667
0.85220588 0.69181985 0.81960784
0.86813725 0.6997549 0.83039216
0.89090074 0.69534314 0.82938113
0.91764706 0.68553922 0.81715686
0.7995098 0.69019608 0.80018382
0.7995098 0.69264706 0.8030867
0.80335478 0.7032935 0.80588235
0.82045803 0.7122549 0.80140931
0.84255515 0.72270221 0.81323529
0.86078431 0.74018842 0.81353401
0.87901348 0.74509804 0.82512255
0.90234375 0.73939951 0.81372549
0.93069853 0.73333333 0.81372549
0.77745098 0.75061275 0.79019608
0.77781863 0.74754902 0.79759498
0.78921569 0.75147059 0.80140931
0.8060049 0.75931373 0.80188419
0.83161765 0.76501225 0.81151961
0.85686275 0.77852328 0.81629902
0.88382353 0.79574142 0.82279412
0.91813725 0.7870864 0.8254902
0.95 0.76666667 0.83762255
0.77738971 0.80931373 0.77843137
0.77739737 0.82026654 0.79019608
0.79178922 0.82112439 0.78976716
0.80474112 0.825 0.79021906
0.82230392 0.82132353 0.7916973
0.84552696 0.83676471 0.808678
0.87248775 0.84411765 0.80931373
0.91427696 0.84901961 0.81905637
0.94160539 0.85637255 0.84068627
0.78480392 0.88578431 0.80539216
0.78529412 0.88664216 0.80238971
0.79264706 0.8754902 0.79803922
0.80704657 0.89675245 0.80980392
0.82034314 0.89803922 0.81372549
0.83596814 0.90980392 0.82107843
0.86948529 0.91764706 0.8185049
0.93039216 0.89901961 0.82248775
0.97205882 0.92892157 0.85980392
0.81960784 0.58431373 0.91372549
0.81568627 0.57254902 0.89803922
0.82254902 0.58333333 0.90588235
0.82990196 0.59607843 0.90588235
0.83921569 0.60392157 0.90784314
0.85637255 0.62107843 0.91372549
0.87156863 0.64019608 0.91372549
0.89068627 0.6504902 0.90980392
0.92156863 0.65098039 0.90196078
0.81960784 0.59558824 0.89852941
0.82303922 0.60251225 0.90588235
0.82218137 0.59460784 0.89791667
0.83137255 0.60569853 0.90784314
0.84681373 0.62696078 0.91544118
0.85202206 0.61776961 0.89650735
0.87156863 0.64656863 0.90992647
0.89460784 0.65876225 0.91715686
0.92156863 0.6622549 0.91323529
0.82745098 0.62941176 0.89803922
0.83137255 0.63431373 0.90196078
0.83529412 0.64117647 0.90588235
0.84105392 0.64154412 0.90196078
0.85392157 0.65392157 0.91127451
0.8627451 0.66139706 0.90441176
0.8745098 0.6627451 0.89877451
0.89460784 0.68835784 0.92058824
0.90588235 0.67058824 0.89901961
0.8377451 0.66911765 0.89166667
0.83921569 0.67303922 0.89558824
0.84705882 0.68088235 0.8995098
0.85490196 0.69117647 0.9088848
0.86004902 0.69117647 0.90318627
0.87150735 0.70294118 0.91317402
0.88125 0.70147059 0.90330882
0.90226716 0.7122549 0.91341912
0.92696078 0.72009804 0.91764706
0.84901961 0.71372549 0.89803922
0.84509804 0.70784314 0.88431373
0.85 0.71666667 0.88578431
0.86666667 0.7372549 0.91176471
0.87058824 0.7372549 0.90686275
0.87916667 0.74191176 0.90588235
0.89019608 0.74460784 0.90686275
0.90808824 0.75122549 0.91372549
0.92156863 0.74509804 0.9
0.8495098 0.75441176 0.90196078
0.85686275 0.75784314 0.90802696
0.8560049 0.75441176 0.89803922
0.87205882 0.76911765 0.90790441
0.87843137 0.77401961 0.90318627
0.89019608 0.78333333 0.90680147
0.90232843 0.79007353 0.91188725
0.91942402 0.79754902 0.91764706
0.93872549 0.80294118 0.92696078
0.83137255 0.78529412 0.89901961
0.83921569 0.78921569 0.90992647
0.85 0.79411765 0.90882353
0.85845588 0.80098039 0.91017157
0.88578431 0.8127451 0.9127451
0.89558824 0.82169118 0.90526961
0.91764706 0.8372549 0.92230392
0.93333333 0.84019608 0.91764706
0.94509804 0.82352941 0.89705882
0.82352941 0.84019608 0.89803922
0.82745098 0.84761029 0.90631127
0.83137255 0.84803922 0.90196078
0.846875 0.84803922 0.90949755
0.86470588 0.85588235 0.90612745
0.89117647 0.86372549 0.91176471
0.91727941 0.87156863 0.91666667
0.9377451 0.8872549 0.92205882
0.94901961 0.89460784 0.92941176
0.81960784 0.87843137 0.89411765
0.81960784 0.88970588 0.89803922
0.83137255 0.90980392 0.91078431
0.84166667 0.90196078 0.90588235
0.85686275 0.89803922 0.91372549
0.87598039 0.90343137 0.91519608
0.90294118 0.92156863 0.92156863
0.93382353 0.92156863 0.92892157
0.94117647 0.90980392 0.91764706
