site/assets/luts/sha256-4546a96192f2595e8ce4613e0962a337581ea75ad577501f95ee3d0e60a659cf.cube
# LUTr-Schema-Version: 2
# LUTr-ID: sha256-4546a96192f2595e8ce4613e0962a337581ea75ad577501f95ee3d0e60a659cf
# LUTr-Title: fuji 400h +
# LUTr-Collection: Natron HaldCLUT
# LUTr-Collection-ID: natron-haldclut-presets
# LUTr-Source: https://github.com/NatronGitHub/clut
# LUTr-Retrieved: 2026-07-27
# LUTr-Source-File: submissions/natron-haldclut-presets/negative_new/fuji_400h_+.png
# LUTr-Source-Format: HALD-PNG
# LUTr-Source-SHA256: 4546a96192f2595e8ce4613e0962a337581ea75ad577501f95ee3d0e60a659cf
# LUTr-License: CC-BY-SA-4.0
# LUTr-License-URL: https://github.com/NatronGitHub/clut#license
# LUTr-License-Basis: repo-license-file
# LUTr-Transform-Class: film-emulation
# LUTr-Tags: creative, film, film-emulation, hald-clut, natron, png, cube
# LUTr-Input-Color-Space: srgb
# LUTr-Input-Gamut: rec709
# LUTr-Input-Transfer: srgb
# LUTr-Output-Color-Space: srgb
# LUTr-Output-Gamut: rec709
# LUTr-Output-Transfer: srgb
# LUTr-Color-Space-Confidence: assumed-display-referred
# LUTr-Domain-Normalized: true
# LUTr-Shaper: none
# LUTr-Original-Grid: 64x64x64
# LUTr-Conversion-Grid: 25x25x25
# LUTr-Conversion-Interpolation: trilinear
# LUTr-Conversion-Method: HALD-PNG LUT image decoded at 16-bit and sampled to 25x25x25 3D CUBE
# LUTr-Conversion-Tool: LUTr scripts/convert-all-to-cube.mjs 2.0.0
# LUTr-Conversion-Date: 2026-07-27
# LUTr-Note: Preserve this metadata and the upstream license notices when redistributing.
TITLE "fuji 400h +"
LUT_3D_SIZE 25
DOMAIN_MIN 0 0 0
DOMAIN_MAX 1 1 1
0.078431373 0.074509804 0.02745098
0.10539216 0.084803922 0.040196078
0.13235294 0.090196078 0.051960784
0.15931373 0.09754902 0.054901961
0.18431373 0.10784314 0.035294118
0.22205882 0.10931373 0.02745098
0.27352941 0.096078431 0.02745098
0.32892157 0.075490196 0.02745098
0.38039216 0.054901961 0.023529412
0.43186275 0.030392157 0.021078431
0.47941176 0.0088235294 0.014705882
0.53823529 0.0073529412 0.015686275
0.6 0.011764706 0.015686275
0.65735294 0.01127451 0.011764706
0.70882353 0.0039215686 0.0078431373
0.75098039 0.0078431373 0.0093137255
0.79215686 0.0078431373 0.0078431373
0.83578431 0.0039215686 0.0053921569
0.87352941 0.024509804 0
0.90441176 0.075980392 0
0.93529412 0.12156863 0
0.96519608 0.15490196 0
0.97843137 0.19215686 0
0.98970588 0.21470588 0
1 0.23529412 0
0.08627451 0.099019608 0.035294118
0.10294118 0.099019608 0.038664216
0.12781863 0.10294118 0.043504902
0.15557598 0.10441176 0.044607843
0.18431373 0.10906863 0.034068627
0.22205882 0.10931373 0.025306373
0.27352941 0.096078431 0.02745098
0.32892157 0.083333333 0.02745098
0.38039216 0.067647059 0.023529412
0.43186275 0.052879902 0.021078431
0.48578431 0.044117647 0.015686275
0.54246324 0.033823529 0.015502451
0.60122549 0.025245098 0.020833333
0.65735294 0.0099877451 0.012561275
0.70882353 0.0020833333 0.0042892157
0.75098039 0.012683824 0.0063112745
0.79215686 0.029411765 0.0078431373
0.83180147 0.040686275 0.0039215686
0.86960784 0.062622549 0.0018382353
0.9004902 0.099509804 0
0.93137255 0.14460784 0
0.96176471 0.17469363 0
0.9754902 0.20343137 0.0035539216
0.98970588 0.22984069 0.0039215686
0.99754902 0.25196078 0.0039215686
0.091176471 0.11960784 0.035294118
0.098406863 0.11960784 0.038235294
0.11960784 0.12254902 0.038970588
0.1504902 0.11997549 0.035661765
0.18235294 0.11568627 0.028431373
0.22205882 0.11433824 0.023529412
0.27352941 0.10882353 0.025735294
0.32794118 0.10551471 0.02745098
0.38039216 0.10098039 0.023529412
0.43431373 0.091666667 0.021078431
0.48897059 0.085294118 0.014705882
0.54607843 0.075 0.014338235
0.60196078 0.059313725 0.0093137255
0.65735294 0.042279412 0.006495098
0.70808824 0.029411765 0.00024509804
0.74889706 0.044240196 0.0033088235
0.78823529 0.067647059 0.0039215686
0.82843137 0.088235294 0.0039215686
0.86495098 0.10955882 0.0039215686
0.89656863 0.13713235 0.00049019608
0.92745098 0.16911765 0
0.95784314 0.19509804 0
0.9754902 0.22181373 0.0029411765
0.98970588 0.24803922 0.0039215686
0.99607843 0.26862745 0.0078431373
0.094117647 0.14019608 0.035294118
0.094117647 0.13805147 0.031862745
0.1127451 0.13762255 0.031862745
0.14405637 0.14019608 0.031372549
0.17671569 0.13970588 0.030882353
0.21813725 0.14313725 0.026531863
0.26960784 0.14313725 0.023529412
0.32156863 0.14313725 0.023529412
0.37696078 0.13921569 0.023529412
0.43431373 0.13284314 0.017463235
0.48737745 0.12647059 0.010906863
0.54307598 0.11617647 0.0048406863
0.59852941 0.10171569 0.0041666667
0.65343137 0.094607843 0.0039215686
0.70232843 0.091176471 0.0039215686
0.74705882 0.10067402 0.0036151961
0.78480392 0.11519608 0.0039215686
0.8254902 0.13578431 0.0039215686
0.86176471 0.1564951 0.00049019608
0.89656863 0.18137255 0
0.92745098 0.20245098 0.0017156863
0.95790441 0.22303922 0
0.9754902 0.2439951 0
0.98756127 0.26862745 0.0039215686
0.99607843 0.28921569 0.0044117647
0.088235294 0.17058824 0.039215686
0.088235294 0.16862745 0.034803922
0.10539216 0.16862745 0.035784314
0.1377451 0.17058824 0.042892157
0.17156863 0.17352941 0.045098039
0.21397059 0.17671569 0.03627451
0.26176471 0.18039216 0.024019608
0.31397059 0.18161765 0.020833333
0.36862745 0.18039216 0.015686275
0.42720588 0.17132353 0.010539216
0.48382353 0.16372549 0.0053921569
0.53872549 0.15735294 0
0.59313725 0.15490196 0
0.64754902 0.15294118 0.0039215686
0.69754902 0.1495098 0.0039215686
0.74117647 0.15637255 0.0039215686
0.78235294 0.17058824 0.0019607843
0.82230392 0.18480392 0
0.86029412 0.19803922 0.00049019608
0.89607843 0.21691176 0.0036764706
0.92745098 0.23823529 0.0058823529
0.95784314 0.25980392 0.0034313725
0.97303922 0.27843137 0
0.98578431 0.29754902 0
0.99607843 0.30980392 0
0.077941176 0.20539216 0.051470588
0.08057598 0.20833333 0.044607843
0.1004902 0.20968137 0.040563725
0.13137255 0.20588235 0.054411765
0.16813725 0.20539216 0.057352941
0.21023284 0.20980392 0.046139706
0.25747549 0.21629902 0.028553922
0.30539216 0.22107843 0.014031863
0.36029412 0.21764706 0.0073529412
0.41991422 0.21109069 0.0039215686
0.47904412 0.20588235 0.0044117647
0.53823529 0.20245098 0.0044117647
0.59019608 0.20588235 0.0039215686
0.64166667 0.20637255 0.0039215686
0.69264706 0.20931373 0.0039215686
0.73658088 0.21421569 0.0039215686
0.78039216 0.22205882 0
0.82126225 0.23235294 0
0.85747549 0.24620098 0.0039215686
0.89258578 0.26029412 0.0078431373
0.92745098 0.27205882 0.01372549
0.95392157 0.29656863 0.003002451
0.97058824 0.31335784 0.0039215686
0.98547794 0.32843137 0.0039215686
0.99607843 0.33872549 0.00049019608
0.056862745 0.24607843 0.045098039
0.067156863 0.24705882 0.040563725
0.090196078 0.24779412 0.044117647
0.11813725 0.24362745 0.051470588
0.15098039 0.24313725 0.053921569
0.19656863 0.24754902 0.043627451
0.24803922 0.25171569 0.028676471
0.29852941 0.25588235 0.010906863
0.35392157 0.25882353 0.00098039216
0.41470588 0.25428922 0.0057598039
0.47647059 0.25098039 0.0078431373
0.53480392 0.25 0.0078431373
0.58627451 0.25245098 0.0053921569
0.6377451 0.25404412 0.0039215686
0.6870098 0.25857843 0.0039215686
0.7317402 0.26568627 0.0039215686
0.77745098 0.26960784 0
0.81911765 0.27990196 0
0.85416667 0.29117647 0.0039215686
0.88958333 0.30147059 0.0078431373
0.9245098 0.30784314 0.014215686
0.95098039 0.33125 0.0029411765
0.96764706 0.34509804 0.0039215686
0.98186275 0.35931373 0.0039215686
0.99215686 0.36960784 0.0039215686
0.028431373 0.28676471 0.023039216
0.045098039 0.28823529 0.024509804
0.064215686 0.28823529 0.034436275
0.086948529 0.28823529 0.039889706
0.12303922 0.2870098 0.038235294
0.17077206 0.28872549 0.027941176
0.22463235 0.29215686 0.015196078
0.28339461 0.2966299 0.0054534314
0.34362745 0.3 0
0.40539216 0.3 0.006372549
0.46715686 0.29754902 0.011764706
0.52892157 0.29754902 0.0078431373
0.58235294 0.30073529 0.0078431373
0.63382353 0.30177696 0.0075367647
0.68198529 0.30723039 0.0042892157
0.72653186 0.31415441 0.0039215686
0.77254902 0.31960784 0.0039215686
0.81617647 0.32444853 0
0.84852941 0.33235294 0.0039215686
0.88302696 0.34264706 0.0073529412
0.91813725 0.34901961 0.0098039216
0.94607843 0.36715686 0.0053921569
0.96666667 0.37745098 0.0053921569
0.98186275 0.39019608 0.0078431373
0.99215686 0.39656863 0.0053921569
0 0.3254902 0
0.016666667 0.32941176 0.014215686
0.032352941 0.33333333 0.023529412
0.049509804 0.32941176 0.023529412
0.092156863 0.32941176 0.017647059
0.14803922 0.33333333 0.011764706
0.20980392 0.33627451 0.0088235294
0.27156863 0.33872549 0.006372549
0.33333333 0.34117647 0.0039215686
0.39509804 0.34509804 0.0039215686
0.45686275 0.34509804 0.0078431373
0.51470588 0.34509804 0.0078431373
0.5745098 0.34901961 0.0078431373
0.62990196 0.35294118 0.0078431373
0.67745098 0.35588235 0.0078431373
0.72107843 0.36078431 0.0039215686
0.76470588 0.36470588 0.0039215686
0.80588235 0.37107843 0.0039215686
0.84215686 0.37647059 0.0039215686
0.87647059 0.38382353 0.0039215686
0.90784314 0.39019608 0.0078431373
0.93823529 0.40441176 0.0078431373
0.9627451 0.41176471 0.0078431373
0.97941176 0.42107843 0.0078431373
0.99215686 0.42745098 0.0078431373
0 0.37696078 0.0039215686
0.003002451 0.37696078 0.010294118
0.0053921569 0.37634804 0.011151961
0.0094362745 0.37089461 0.003247549
0.068137255 0.37181373 0.0053921569
0.13382353 0.3745098 0.0078431373
0.19889706 0.37843137 0.0078431373
0.26127451 0.38235294 0.0078431373
0.32303922 0.38627451 0.0039215686
0.38480392 0.38964461 0.0039215686
0.44375 0.39019608 0.0039215686
0.50226716 0.39264706 0.0039215686
0.5622549 0.39534314 0.0078431373
0.61960784 0.4004902 0.0078431373
0.67107843 0.40159314 0.0078431373
0.71415441 0.40496324 0.0039215686
0.75686275 0.40980392 0.0039215686
0.79558824 0.41617647 0.0039215686
0.83468137 0.42046569 0.0039215686
0.86911765 0.425 0.0039215686
0.90147059 0.43137255 0.0078431373
0.93186275 0.43921569 0.011764706
0.95490196 0.44840686 0.010661765
0.9754902 0.45741422 0.0078431373
0.99215686 0.4622549 0.0078431373
0 0.42843137 0.0039215686
0 0.42561275 0.0078431373
0 0.41960784 0.0078431373
0.0044117647 0.41568627 0.0088235294
0.049019608 0.41568627 0.0088235294
0.11776961 0.41960784 0.011764706
0.18406863 0.42254902 0.0088235294
0.25036765 0.42745098 0.0078431373
0.3127451 0.43137255 0.0039215686
0.37389706 0.43137255 0.0033088235
0.43235294 0.43553922 0.0039215686
0.49411765 0.43921569 0.0049019608
0.55196078 0.44362745 0.0078431373
0.60931373 0.44803922 0.0078431373
0.66004902 0.44803922 0.0078431373
0.70625 0.44914216 0.0039215686
0.74803922 0.45098039 0.0039215686
0.78921569 0.45772059 0.0039215686
0.82573529 0.46372549 0.0039215686
0.86115196 0.46666667 0.0039215686
0.89509804 0.47254902 0.0058823529
0.92598039 0.47843137 0.012132353
0.95098039 0.48455882 0.011764706
0.97512255 0.49068627 0.010294118
0.98823529 0.49705882 0.0078431373
0 0.47254902 0
0 0.46991422 0.006372549
0.00085784314 0.46458333 0.015196078
0.0073529412 0.46035539 0.019117647
0.030392157 0.45857843 0.022794118
0.090686275 0.46078431 0.015686275
0.15931373 0.46470588 0.015196078
0.23333333 0.46862745 0.0099877451
0.29852941 0.47254902 0.0039215686
0.36029412 0.47628676 0
0.42205882 0.48002451 0.0039215686
0.48382353 0.48425245 0.0078431373
0.54362745 0.48823529 0.011519608
0.59901961 0.49221814 0.0078431373
0.64669118 0.49607843 0.0078431373
0.69264706 0.49215686 0.0039215686
0.7377451 0.49215686 0.0039215686
0.77892157 0.50214461 0.0052083333
0.81617647 0.50784314 0.0039215686
0.85343137 0.51127451 0.0039215686
0.88848039 0.51176471 0.0058823529
0.91960784 0.51574755 0.0079044118
0.95 0.51875 0.0083333333
0.9754902 0.52371324 0.0081495098
0.98823529 0.52794118 0.0078431373
0 0.51764706 0.0039215686
0 0.51372549 0.011029412
0.0039215686 0.50980392 0.020098039
0.0039215686 0.50588235 0.021568627
0.0098039216 0.50196078 0.019607843
0.060294118 0.50416667 0.015686275
0.1372549 0.50588235 0.015686275
0.2122549 0.50980392 0.016176471
0.28235294 0.51176471 0.0078431373
0.34803922 0.51495098 0.0039215686
0.4122549 0.51960784 0.0078431373
0.4754902 0.52132353 0.011519608
0.53333333 0.5245098 0.011764706
0.58455882 0.52745098 0.011519608
0.63088235 0.52941176 0.006372549
0.67647059 0.52941176 0.0039215686
0.72156863 0.53333333 0.0039215686
0.7627451 0.54362745 0.0051470588
0.80196078 0.55147059 0.0039215686
0.84142157 0.55294118 0.0039215686
0.87843137 0.55098039 0.0039215686
0.91151961 0.55294118 0.0039215686
0.94411765 0.55294118 0.0039215686
0.97230392 0.55490196 0.0039215686
0.99215686 0.55882353 0.0039215686
0 0.55833333 0.0039215686
0 0.55490196 0.010294118
0.00012254902 0.55098039 0.017156863
0 0.54705882 0.020098039
0 0.54705882 0.018382353
0.035294118 0.54656863 0.02064951
0.12156863 0.54656863 0.027573529
0.20392157 0.54656863 0.032843137
0.27843137 0.54705882 0.032352941
0.34362745 0.54920343 0.015196078
0.40490196 0.55183824 0.0078431373
0.46366422 0.55441176 0.010845588
0.51911765 0.55833333 0.013970588
0.56960784 0.5622549 0.011764706
0.61507353 0.5622549 0.0049019608
0.65998775 0.56403186 0.0021446078
0.70490196 0.57058824 0.0039215686
0.7463848 0.58039216 0.0039215686
0.78872549 0.58590686 0.0078431373
0.82984069 0.58970588 0.0043504902
0.86813725 0.58970588 0.0039215686
0.90294118 0.58970588 0.0039215686
0.93419118 0.58970588 0.00098039216
0.96519608 0.58970588 0
0.99166667 0.59019608 0
0 0.59607843 0.00098039216
0 0.59362745 0.016789216
0.0031862745 0.59215686 0.030392157
0.0029411765 0.58823529 0.036764706
0.0049019608 0.58823529 0.042156863
0.048529412 0.58394608 0.052328431
0.1245098 0.58039216 0.058088235
0.20686275 0.58137255 0.06372549
0.2754902 0.58137255 0.05
0.33333333 0.58431373 0.026593137
0.39117647 0.58602941 0.0071078431
0.44914216 0.58921569 0.010416667
0.50343137 0.59264706 0.015686275
0.5495098 0.59313725 0.01127451
0.59779412 0.59681373 0.0049019608
0.64313725 0.60036765 0
0.6872549 0.60490196 0.0039215686
0.73296569 0.61127451 0.006372549
0.77843137 0.61691176 0.0078431373
0.82254902 0.62058824 0.0039215686
0.85784314 0.62352941 0.0039215686
0.89264706 0.6245098 0.0039215686
0.92745098 0.6245098 0.0039215686
0.95833333 0.62561275 0.0029411765
0.97745098 0.62745098 0.0039215686
0.0014705882 0.63186275 0.041176471
0.0039215686 0.63186275 0.046629902
0.0039215686 0.63125 0.056004902
0.0039215686 0.62941176 0.061458333
0.0098039216 0.62671569 0.068382353
0.060110294 0.625 0.078125
0.13578431 0.62156863 0.089705882
0.21029412 0.61764706 0.098529412
0.27843137 0.61764706 0.084313725
0.33290441 0.62009804 0.057352941
0.38676471 0.62156863 0.033823529
0.43909314 0.62530637 0.023406863
0.48602941 0.62794118 0.013235294
0.53431373 0.62794118 0.014705882
0.58284314 0.62904412 0.014705882
0.63033088 0.63333333 0.0087622549
0.67696078 0.63578431 0.0053921569
0.72205882 0.64215686 0.0078431373
0.76715686 0.64754902 0.0078431373
0.80833333 0.65147059 0.0039215686
0.84754902 0.65612745 0.0039215686
0.88627451 0.66323529 0.0052083333
0.91862745 0.66323529 0.0039215686
0.94803922 0.66470588 0.0039215686
0.96323529 0.66470588 0.0078431373
0.0039215686 0.66666667 0.078431373
0.0039215686 0.66666667 0.084803922
0.0068627451 0.66666667 0.090196078
0.0039215686 0.66666667 0.090196078
0.0039215686 0.66666667 0.090196078
0.066666667 0.66666667 0.10294118
0.14509804 0.6627451 0.12058824
0.21813725 0.65882353 0.13088235
0.28235294 0.65882353 0.1254902
0.3377451 0.65490196 0.10490196
0.39215686 0.65882353 0.084313725
0.43676471 0.65882353 0.06372549
0.47843137 0.65882353 0.050980392
0.52401961 0.65931373 0.043137255
0.5754902 0.6627451 0.043137255
0.62156863 0.66666667 0.032352941
0.66666667 0.67058824 0.011764706
0.71029412 0.6745098 0.0053921569
0.75686275 0.67941176 0.0068627451
0.79803922 0.68235294 0.0039215686
0.83529412 0.68823529 0.0078431373
0.87647059 0.69803922 0.0078431373
0.91470588 0.70196078 0.0039215686
0.94019608 0.70196078 0.0053921569
0.95686275 0.70196078 0.0078431373
0.0039215686 0.70147059 0.11715686
0.006372549 0.70147059 0.12261029
0.010294118 0.70208333 0.13137255
0.018504902 0.70392157 0.13137255
0.044607843 0.70392157 0.12990196
0.098039216 0.70392157 0.13596814
0.17156863 0.70147059 0.15110294
0.24025735 0.69908088 0.16176471
0.29264706 0.69607843 0.16421569
0.34319853 0.69270833 0.1533701
0.39276961 0.69215686 0.13578431
0.4372549 0.69362745 0.11911765
0.47843137 0.69362745 0.10833333
0.5213848 0.69362745 0.096568627
0.56801471 0.69607843 0.085539216
0.61427696 0.69846814 0.066605392
0.65637255 0.70147059 0.03872549
0.69754902 0.70692402 0.013602941
0.74080882 0.71213235 0.0039215686
0.78382353 0.71697304 0.0060661765
0.82818627 0.72303922 0.012990196
0.87009804 0.73186275 0.01127451
0.90796569 0.73860294 0.0049019608
0.93327206 0.73921569 0.0039215686
0.94264706 0.74068627 0.0078431373
0.0029411765 0.7372549 0.15588235
0.011519608 0.7372549 0.16041667
0.035784314 0.7372549 0.16960784
0.071568627 0.74019608 0.17634804
0.11862745 0.74019608 0.18039216
0.15882353 0.73762255 0.17769608
0.20906863 0.73651961 0.18259804
0.26813725 0.73333333 0.19227941
0.31176471 0.73235294 0.19509804
0.35232843 0.72879902 0.19718137
0.39779412 0.7254902 0.18651961
0.44117647 0.7254902 0.17487745
0.48235294 0.72843137 0.16617647
0.52352941 0.72843137 0.15833333
0.56470588 0.73161765 0.14803922
0.60882353 0.73333333 0.12794118
0.65098039 0.73627451 0.096078431
0.69117647 0.74019608 0.062254902
0.73235294 0.74411765 0.041176471
0.77352941 0.75147059 0.033455882
0.81862745 0.75784314 0.029411765
0.85980392 0.76421569 0.018014706
0.90098039 0.7745098 0.0051470588
0.92561275 0.77647059 0.0039215686
0.92745098 0.77647059 0.0078431373
0 0.7745098 0.19068627
0.048713235 0.7723652 0.2004902
0.096078431 0.77193627 0.20723039
0.13927696 0.7745098 0.21415441
0.18382353 0.7745098 0.21813725
0.21813725 0.77107843 0.21807598
0.24595588 0.77107843 0.21421569
0.29117647 0.76930147 0.21960784
0.33235294 0.76715686 0.22941176
0.37322304 0.76323529 0.23547794
0.40992647 0.7627451 0.23933824
0.44503676 0.7627451 0.23284314
0.48578431 0.7629902 0.22647059
0.52352941 0.76323529 0.21709559
0.56470588 0.76666667 0.20980392
0.60588235 0.76844363 0.19626225
0.64705882 0.77107843 0.16519608
0.68480392 0.77107843 0.14019608
0.72561275 0.775 0.12438725
0.76715686 0.77892157 0.11029412
0.80833333 0.78872549 0.094117647
0.8495098 0.79509804 0.070098039
0.89068627 0.80539216 0.045220588
0.91390931 0.81029412 0.036764706
0.91421569 0.81029412 0.043137255
0.082352941 0.80588235 0.24705882
0.11960784 0.80588235 0.24901961
0.15833333 0.80784314 0.24852941
0.19436275 0.80980392 0.25073529
0.22941176 0.80588235 0.25980392
0.26029412 0.80588235 0.2627451
0.28823529 0.80245098 0.2622549
0.31764706 0.80196078 0.26740196
0.35686275 0.8 0.28039216
0.39681373 0.79803922 0.29068627
0.43235294 0.79803922 0.29607843
0.46127451 0.79607843 0.29068627
0.49705882 0.79705882 0.28333333
0.53284314 0.79803922 0.27622549
0.56764706 0.80147059 0.26911765
0.60318627 0.80465686 0.2620098
0.64117647 0.80588235 0.24313725
0.67916667 0.80588235 0.22647059
0.71715686 0.80833333 0.2127451
0.75686275 0.81323529 0.19901961
0.8 0.81960784 0.17843137
0.84313725 0.82769608 0.15784314
0.88431373 0.83627451 0.14019608
0.90539216 0.83995098 0.13406863
0.90980392 0.84117647 0.13921569
0.16862745 0.8372549 0.30882353
0.20214461 0.84068627 0.30882353
0.23137255 0.84203431 0.30882353
0.24852941 0.84160539 0.30882353
0.2745098 0.83897059 0.3127451
0.30496324 0.83676471 0.32009804
0.32941176 0.83676471 0.32058824
0.3536152 0.83676471 0.32598039
0.38186275 0.83333333 0.33627451
0.42040441 0.83333333 0.34656863
0.45526961 0.83590686 0.35539216
0.48235294 0.83290441 0.34852941
0.5127451 0.82941176 0.34240196
0.5471201 0.83333333 0.33670343
0.58186275 0.83713235 0.33247549
0.61323529 0.84068627 0.32714461
0.64754902 0.84068627 0.31715686
0.68216912 0.84068627 0.30294118
0.71715686 0.84203431 0.29264706
0.75104167 0.84503676 0.28327206
0.79387255 0.85073529 0.26495098
0.83676471 0.86078431 0.25006127
0.87205882 0.86090686 0.23676471
0.89509804 0.86813725 0.228125
0.90196078 0.86813725 0.23186275
0.25490196 0.8745098 0.37058824
0.27745098 0.87512255 0.37058824
0.29019608 0.87622549 0.37352941
0.30686275 0.87585784 0.3745098
0.3245098 0.87156863 0.3745098
0.34656863 0.86764706 0.37843137
0.36838235 0.86764706 0.37843137
0.38933824 0.86764706 0.38382353
0.41666667 0.87058824 0.39411765
0.44460784 0.87058824 0.40441176
0.47941176 0.87156863 0.41372549
0.50551471 0.86801471 0.40723039
0.53186275 0.86764706 0.40882353
0.56421569 0.87058824 0.40490196
0.59607843 0.8745098 0.40098039
0.62696078 0.8754902 0.39375
0.65490196 0.8754902 0.38627451
0.68933824 0.8754902 0.375
0.72132353 0.87843137 0.36789216
0.75526961 0.87941176 0.36127451
0.79215686 0.88529412 0.3495098
0.83039216 0.89166667 0.33970588
0.86789216 0.89534314 0.33014706
0.8877451 0.89901961 0.32389706
0.89803922 0.89901961 0.3245098
0.33431373 0.90784314 0.43235294
0.33731618 0.91029412 0.4338848
0.34705882 0.91176471 0.43627451
0.36109069 0.91047794 0.43627451
0.37916667 0.90637255 0.43627451
0.39117647 0.90214461 0.43627451
0.4067402 0.89852941 0.43627451
0.42542892 0.89852941 0.44166667
0.44754902 0.90245098 0.45196078
0.4745098 0.90729167 0.4622549
0.50392157 0.90968137 0.47120098
0.52745098 0.90294118 0.4627451
0.55196078 0.90637255 0.47083333
0.57941176 0.90814951 0.47303922
0.61029412 0.91176471 0.46973039
0.63970588 0.91029412 0.4622549
0.66421569 0.91029412 0.45588235
0.69417892 0.91329657 0.45582108
0.7245098 0.91568627 0.45036765
0.75667892 0.91783088 0.44362745
0.79215686 0.92083333 0.43480392
0.82794118 0.92647059 0.43284314
0.86262255 0.92990196 0.42303922
0.87898284 0.92751225 0.41268382
0.89019608 0.92598039 0.41176471
0.38431373 0.93333333 0.47843137
0.39068627 0.9372549 0.48235294
0.39705882 0.94117647 0.4872549
0.40735294 0.94166667 0.49068627
0.41568627 0.93333333 0.48627451
0.42794118 0.92941176 0.48284314
0.43823529 0.9254902 0.48627451
0.45784314 0.92696078 0.49166667
0.47843137 0.92941176 0.49803922
0.49901961 0.93578431 0.50833333
0.52352941 0.94019608 0.51666667
0.54411765 0.92990196 0.50637255
0.56666667 0.93333333 0.51372549
0.59362745 0.94215686 0.53088235
0.62058824 0.94215686 0.52745098
0.64754902 0.93970588 0.51617647
0.6745098 0.9372549 0.50980392
0.69901961 0.94362745 0.51617647
0.72843137 0.94901961 0.52156863
0.75931373 0.94901961 0.51764706
0.79019608 0.95294118 0.51176471
0.8254902 0.95735294 0.51029412
0.85686275 0.96176471 0.50980392
0.87352941 0.95147059 0.48480392
0.88627451 0.94901961 0.47843137
0.099019608 0.082352941 0.051960784
0.11115196 0.085723039 0.055330882
0.13284314 0.087745098 0.061642157
0.15588235 0.091482843 0.061764706
0.1875 0.10147059 0.04877451
0.228125 0.10343137 0.048345588
0.27745098 0.096078431 0.050490196
0.32984069 0.079411765 0.050490196
0.38431373 0.057352941 0.046568627
0.43578431 0.034313725 0.046568627
0.48615196 0.01997549 0.042647059
0.54246324 0.014522059 0.042647059
0.6 0.014215686 0.03872549
0.65704657 0.011580882 0.038235294
0.70637255 0.010294118 0.031862745
0.75098039 0.0078431373 0.034803922
0.79215686 0.0078431373 0.034803922
0.83333333 0.009375 0.030882353
0.86960784 0.036642157 0.025
0.90196078 0.082352941 0.013235294
0.93529412 0.11960784 0.0036764706
0.96519608 0.15441176 0
0.97659314 0.1932598 0.0053921569
0.98970588 0.22346814 0.018137255
0.99607843 0.23529412 0.030882353
0.093566176 0.10055147 0.055330882
0.10720741 0.10238971 0.055882353
0.12800245 0.10294118 0.057352941
0.15539216 0.1016008 0.054901961
0.1875 0.10496324 0.047855392
0.228125 0.10657169 0.047234988
0.27745098 0.098606005 0.050490196
0.32892157 0.085439645 0.050490196
0.38431373 0.071017157 0.048039216
0.43578431 0.056227022 0.045036765
0.48924632 0.047962623 0.039828431
0.54479167 0.041666667 0.03627451
0.60196078 0.030422794 0.037745098
0.65735294 0.015372243 0.034612439
0.70813419 0.0082261029 0.030882353
0.75006127 0.015709252 0.030307904
0.78823529 0.030882353 0.028431373
0.82996324 0.044952512 0.024509804
0.86776961 0.070098039 0.017126225
0.9004902 0.10980392 0.0093137255
0.93137255 0.14610907 0.0029105392
0.96176471 0.17322304 0.0016467525
0.9754902 0.20306373 0.0056219363
0.9872549 0.22926624 0.015134804
0.99607843 0.24803922 0.024509804
0.096936275 0.12352941 0.055882353
0.10519301 0.12329963 0.055882353
