site/assets/luts/sha256-cf7b092db252aa90cad344bf7acbac57345d510e8977b1251feb7e514811abe4.cube
# LUTr-Schema-Version: 2
# LUTr-ID: sha256-cf7b092db252aa90cad344bf7acbac57345d510e8977b1251feb7e514811abe4
# LUTr-Title: fuji fp-100c cool ++
# LUTr-Collection: Natron HaldCLUT
# LUTr-Collection-ID: natron-haldclut-presets
# LUTr-Source: https://github.com/NatronGitHub/clut
# LUTr-Retrieved: 2026-07-27
# LUTr-Source-File: submissions/natron-haldclut-presets/instant_pro/fuji_fp-100c_cool_++.png
# LUTr-Source-Format: HALD-PNG
# LUTr-Source-SHA256: cf7b092db252aa90cad344bf7acbac57345d510e8977b1251feb7e514811abe4
# LUTr-License: CC-BY-SA-4.0
# LUTr-License-URL: https://github.com/NatronGitHub/clut#license
# LUTr-License-Basis: repo-license-file
# LUTr-Transform-Class: film-emulation
# LUTr-Tags: creative, film, film-emulation, hald-clut, natron, png, cool, cube
# LUTr-Input-Color-Space: srgb
# LUTr-Input-Gamut: rec709
# LUTr-Input-Transfer: srgb
# LUTr-Output-Color-Space: srgb
# LUTr-Output-Gamut: rec709
# LUTr-Output-Transfer: srgb
# LUTr-Color-Space-Confidence: assumed-display-referred
# LUTr-Domain-Normalized: true
# LUTr-Shaper: none
# LUTr-Original-Grid: 64x64x64
# LUTr-Conversion-Grid: 25x25x25
# LUTr-Conversion-Interpolation: trilinear
# LUTr-Conversion-Method: HALD-PNG LUT image decoded at 16-bit and sampled to 25x25x25 3D CUBE
# LUTr-Conversion-Tool: LUTr scripts/convert-all-to-cube.mjs 2.0.0
# LUTr-Conversion-Date: 2026-07-27
# LUTr-Note: Preserve this metadata and the upstream license notices when redistributing.
TITLE "fuji fp-100c cool ++"
LUT_3D_SIZE 9
DOMAIN_MIN 0 0 0
DOMAIN_MAX 1 1 1
0.16470588 0.12941176 0.16078431
0.17598039 0.12941176 0.16470588
0.20294118 0.12941176 0.15784314
0.31960784 0.11519608 0.16078431
0.45686275 0.10392157 0.16078431
0.61127451 0.069117647 0.16078431
0.74607843 0.052941176 0.14901961
0.87205882 0.068137255 0.14901961
0.97647059 0.14509804 0.15294118
0.16421569 0.14068627 0.16078431
0.17947304 0.14068627 0.16470588
0.22487745 0.14460784 0.15784314
0.33137255 0.14430147 0.15686275
0.47181373 0.1379902 0.15294118
0.62598039 0.12794118 0.14901961
0.76433824 0.11997549 0.14509804
0.87647059 0.15637255 0.15245098
0.97990196 0.20637255 0.14901961
0.16568627 0.19803922 0.16078431
0.18247549 0.19276961 0.15686275
0.24411765 0.20882353 0.15318627
0.36997549 0.22058824 0.14509804
0.53039216 0.23137255 0.14803922
0.66948529 0.23921569 0.14901961
0.78651961 0.24632353 0.15220588
0.89558824 0.27107843 0.14558824
0.98529412 0.30196078 0.15686275
0.12843137 0.30245098 0.15294118
0.16390931 0.31176471 0.16470588
0.24411765 0.31470588 0.15183824
0.37205882 0.34558824 0.12395833
0.5372549 0.36397059 0.1120098
0.68670343 0.37990196 0.11966912
0.80392157 0.38872549 0.13848039
0.90343137 0.39834559 0.16158088
0.98823529 0.42941176 0.19068627
0.050980392 0.43529412 0.15686275
0.12598039 0.43137255 0.16862745
0.23039216 0.43676471 0.15980392
0.34509804 0.45147059 0.13357843
0.49705882 0.48823529 0.084313725
0.65490196 0.49754902 0.021813725
0.79411765 0.51617647 0.080882353
0.90735294 0.52990196 0.17009804
0.98431373 0.54901961 0.22745098
0.0039215686 0.55882353 0.17647059
0.060294118 0.55539216 0.17775735
0.21323529 0.54705882 0.18039216
0.33829657 0.55251225 0.15980392
0.46911765 0.57573529 0.12181373
0.61372549 0.59803922 0.017156863
0.76813725 0.61715686 0.0078431373
0.88805147 0.63186275 0.049019608
0.98039216 0.65392157 0.1995098
0.0078431373 0.68235294 0.21764706
0.073529412 0.67352941 0.21066176
0.22377451 0.67058824 0.21372549
0.35588235 0.66666667 0.20343137
0.46764706 0.67794118 0.18137255
0.60232843 0.6935049 0.11678922
0.73651961 0.7127451 0.0071078431
0.87156863 0.72463235 0.015808824
0.97156863 0.73529412 0.031372549
0.22401961 0.79411765 0.28970588
0.26127451 0.79019608 0.30441176
0.32904412 0.78627451 0.29705882
0.425 0.778125 0.28431373
0.52720588 0.78406863 0.28161765
0.63872549 0.79148284 0.26292892
0.7560049 0.80931373 0.20539216
0.87647059 0.81715686 0.13229167
0.97303922 0.825 0.0034313725
0.49803922 0.90196078 0.49803922
0.46666667 0.88235294 0.46323529
0.54705882 0.89803922 0.49803922
0.58529412 0.88235294 0.47843137
0.6627451 0.88627451 0.49411765
0.75196078 0.90196078 0.50980392
0.82647059 0.89901961 0.46078431
0.91519608 0.91029412 0.45441176
0.97647059 0.92156863 0.43921569
0.17205882 0.12941176 0.17990196
0.18033088 0.1254902 0.17598039
0.21458333 0.12156863 0.17205882
0.31176471 0.11372549 0.17971814
0.46421569 0.067647059 0.17598039
0.61127451 0.038541667 0.17726716
0.74509804 0.029044118 0.17855392
0.86862745 0.061764706 0.17598039
0.97205882 0.13333333 0.18333333
0.16078431 0.1411152 0.18039216
0.17555147 0.14417892 0.17603401
0.22892157 0.14036458 0.17956495
0.34109222 0.13329504 0.17297794
0.48483456 0.12818627 0.17570466
0.63415288 0.10817249 0.17898284
0.76421569 0.11741728 0.17715993
0.88339461 0.14417892 0.17640931
0.975 0.19754902 0.18382353
0.14656863 0.20796569 0.18382353
0.17329963 0.20813419 0.17990196
0.25196078 0.22058824 0.18342525
0.38762255 0.2310049 0.1872549
0.53406863 0.23431373 0.1872549
0.66666667 0.23449755 0.18333333
0.79022672 0.24414828 0.18235294
0.89237132 0.26715686 0.18762255
0.97352941 0.29509804 0.19767157
0.10753676 0.33302696 0.20098039
0.15345435 0.33480392 0.20147059
0.25098039 0.33088235 0.18988971
0.39492188 0.35716146 0.16439185
0.54834559 0.37460172 0.15867034
0.68578431 0.38509498 0.16929381
0.80747549 0.39656863 0.19117647
0.90622702 0.40285692 0.20163143
0.9846201 0.42941176 0.2223652
0.031862745 0.46004902 0.20245098
0.10787377 0.46053922 0.20294118
0.23382353 0.4504902 0.20147059
0.36167279 0.46666667 0.18455882
0.50955882 0.49289216 0.14754902
0.66127451 0.50646446 0.099908088
0.80539216 0.52726716 0.16501225
0.91127451 0.53878676 0.21672794
0.98602941 0.54901961 0.25759804
0.0078431373 0.5745098 0.21617647
0.050490196 0.57273284 0.21209406
0.22144608 0.56314338 0.21648284
0.34313725 0.56636795 0.20618873
0.4747549 0.58848039 0.17028186
0.62941176 0.60569853 0.096193321
0.77107843 0.62009804 0.014935662
0.88789062 0.63627451 0.13763787
0.98823529 0.65900735 0.25765931
0.013112745 0.68627451 0.24705882
0.08817402 0.68147978 0.24324449
0.24497549 0.6745098 0.24813113
0.35994179 0.67316176 0.24024203
0.4776348 0.68572304 0.21948529
0.60903799 0.70098039 0.1734375
0.74436275 0.71629902 0.086488971
0.86862745 0.7245098 0.025719975
0.97855392 0.74276961 0.14693627
0.2122549 0.79754902 0.31666667
0.26220129 0.79411765 0.33186275
0.3377451 0.78982843 0.32794118
0.42790288 0.78611366 0.31813725
0.53728554 0.78627451 0.32233456
0.63872549 0.79513634 0.28520987
0.75379902 0.80594363 0.23665748
0.87303922 0.81802237 0.15893842
0.97555147 0.82457108 0.048897059
0.49803922 0.90539216 0.5127451
0.50919118 0.90189951 0.50882353
0.53541667 0.89411765 0.50539216
0.59754902 0.89264706 0.51029412
0.68333333 0.89852941 0.53431373
0.75422794 0.90453431 0.52886029
0.82647059 0.90281863 0.49105392
0.91868873 0.91421569 0.47843137
0.97990196 0.92107843 0.45
0.16078431 0.1254902 0.21470588
0.19375 0.11813725 0.23970588
0.26691176 0.10294118 0.25980392
0.30441176 0.1067402 0.23970588
0.45784314 0.074019608 0.25098039
0.61862745 0.014093137 0.24705882
0.74607843 0.016421569 0.25490196
0.87598039 0.040318627 0.24816176
0.96470588 0.12647059 0.25588235
0.15428922 0.14718137 0.23186275
0.17990196 0.13762255 0.24318321
0.27202819 0.12913603 0.26629902
0.35081189 0.13872549 0.25663297
0.49393382 0.11378676 0.25355392
0.63690257 0.044561887 0.2467065
0.76813725 0.098590686 0.25539216
0.87990196 0.11176471 0.25588235
0.97058824 0.18823529 0.25980392
0.14142157 0.20882353 0.25661765
0.17264093 0.22120098 0.2627451
0.2661152 0.23039216 0.27377451
0.39751838 0.24215686 0.27889093
0.53468137 0.23443627 0.27401961
0.66372549 0.22411152 0.2703125
0.78406863 0.23474265 0.26905637
0.88811275 0.2622549 0.26865809
0.99289216 0.30588235 0.2745098
0.057352941 0.37095588 0.31164216
0.13570772 0.36960784 0.30001532
0.26620711 0.36614583 0.29338235
0.41141238 0.38797488 0.27336091
0.5627451 0.39577206 0.28707108
0.69468444 0.39836091 0.29174326
0.80539216 0.40094975 0.29362745
0.9024663 0.40747549 0.29264706
0.98615196 0.4254902 0.30147059
0.026960784 0.50245098 0.3127451
0.10128676 0.50030637 0.31139706
0.24571078 0.48443627 0.30098039
0.37653186 0.48780637 0.28498775
0.52843137 0.51078431 0.25784314
0.678125 0.52040441 0.24932598
0.80980392 0.53958333 0.29473039
0.91470588 0.55294118 0.33272059
0.98088235 0.55294118 0.34264706
0.0078431373 0.60735294 0.32156863
0.046522672 0.60366115 0.30588235
0.22610294 0.59203431 0.3036152
0.36176471 0.5877451 0.29817708
0.49595588 0.6 0.27193627
0.6372549 0.61450674 0.23492647
0.77610294 0.62867647 0.21363358
0.89750306 0.64299939 0.27806373
0.98970588 0.6689951 0.36752451
0.011029412 0.7 0.32181373
0.078921569 0.69705882 0.31862745
0.23137255 0.68848039 0.31433824
0.36727941 0.68602941 0.31283701
0.48884804 0.69080882 0.30514706
0.6145527 0.70572917 0.27545956
0.75159314 0.72132353 0.22726716
0.87647059 0.72870711 0.16838235
0.98039216 0.74705882 0.27769608
0.21568627 0.8004902 0.38345588
0.25811887 0.80147059 0.38872549
0.32904412 0.79791667 0.37257966
0.43102022 0.79116115 0.37654718
0.54007353 0.78627451 0.38229167
0.6370864 0.79901961 0.35392157
0.76176471 0.81323529 0.33161765
0.87657782 0.825 0.27970282
0.96911765 0.8254902 0.19166667
0.45980392 0.89117647 0.52843137
0.49705882 0.90147059 0.53872549
0.53039216 0.89779412 0.53431373
0.57340686 0.8817402 0.51838235
0.66813725 0.89411765 0.5495098
0.74742647 0.89914216 0.55490196
0.83504902 0.91446078 0.55220588
0.91127451 0.91017157 0.50232843
0.9872549 0.9254902 0.50392157
0.16617647 0.11519608 0.34166667
0.19509804 0.11372549 0.35422794
0.31237745 0.059313725 0.39313725
0.44460784 0.021997549 0.41862745
0.4877451 0.073284314 0.37843137
0.57984069 0.11905637 0.3745098
0.73186275 0.021936275 0.37058824
0.86746324 0.013051471 0.35343137
0.96862745 0.031862745 0.35490196
0.13431373 0.14430147 0.34920343
0.18709406 0.14019608 0.36568627
0.29865196 0.09754902 0.40214461
0.46550245 0.03816636 0.4417356
0.52083333 0.11470588 0.40392157
0.60533088 0.16022518 0.38952972
0.7484375 0.08125 0.37487745
0.87732843 0.024977022 0.35124847
0.97567402 0.11458333 0.35735294
0.11029412 0.22352941 0.37352941
0.16462929 0.22058824 0.37058824
0.28740809 0.22585784 0.41458333
0.47587316 0.22400429 0.45663297
0.51709559 0.27034314 0.42064951
0.64908088 0.25392157 0.40026042
0.77668505 0.22628676 0.38446691
0.88560049 0.23301164 0.37107843
0.97867647 0.26801471 0.37107843
0.10827206 0.36519608 0.42254902
0.15618107 0.37738971 0.43089001
0.27712929 0.40234375 0.44791667
0.44552696 0.41619945 0.45903033
0.56372549 0.42598039 0.44877451
0.69123775 0.40839461 0.42892157
0.79640012 0.39901961 0.40833333
0.89418658 0.40245098 0.4004902
0.98039216 0.41372549 0.39803922
0.018382353 0.53186275 0.46715686
0.11029412 0.53333333 0.46544118
0.27977941 0.53578431 0.46323529
0.41590074 0.54019608 0.45346201
0.55870098 0.55110294 0.43186275
0.69065564 0.54782475 0.42447917
0.81378676 0.55808824 0.45539216
0.90882353 0.55670956 0.44813113
0.97303922 0.55563725 0.44387255
0.09497549 0.64215686 0.46476716
0.15924479 0.6408701 0.45778186
0.27071078 0.63607537 0.44852941
0.39397212 0.62800245 0.43970588
0.51277574 0.625 0.41712623
0.66023284 0.63488817 0.393053
0.79437806 0.64669118 0.39180453
0.8995098 0.66096048 0.44271599
0.96470588 0.66715686 0.47346814
0.023406863 0.72990196 0.44301471
0.10160846 0.72340686 0.4372549
0.25404412 0.71911765 0.43394608
0.38411458 0.71196385 0.43200061
0.50539216 0.7067402 0.42628676
0.63163297 0.717356 0.40147059
0.75989583 0.73207721 0.37279412
0.88296569 0.73832721 0.34515931
0.97463235 0.75379902 0.42316176
0.21715686 0.81323529 0.48069853
0.24842984 0.81323529 0.47118566
0.33501838 0.80931373 0.46818321
0.43088235 0.80458793 0.4658701
0.54068627 0.79617034 0.4620098
0.6414905 0.80238971 0.4504902
0.75784314 0.81323529 0.42859988
0.87647059 0.825 0.39947151
0.97683824 0.83265931 0.33167892
0.46127451 0.90196078 0.5877451
0.48039216 0.90441176 0.5877451
0.5122549 0.89705882 0.58247549
0.58621324 0.89895833 0.58921569
0.66887255 0.89803922 0.60245098
0.74558824 0.8971201 0.60245098
0.83088235 0.90919118 0.60294118
0.90735294 0.91029412 0.57058824
0.97009804 0.92401961 0.56519608
0.14313725 0.10588235 0.48627451
0.19877451 0.092647059 0.49191176
0.30882353 0.040196078 0.52352941
0.50269608 0.0039215686 0.5747549
0.65098039 0.0039215686 0.59411765
0.65784314 0.041911765 0.5247549
0.71568627 0.17401961 0.51960784
0.83529412 0.18578431 0.51764706
0.95098039 0.15882353 0.51372549
0.12009804 0.12892157 0.49387255
0.18697917 0.11740196 0.50147059
0.30398284 0.086090686 0.53535539
0.5020527 0.014031863 0.58897059
0.66642157 0.033578431 0.61727941
0.68079044 0.098927696 0.55612745
0.72034314 0.23523284 0.52732843
0.84485294 0.22034314 0.52132353
0.9627451 0.20465686 0.51372549
0.038235294 0.20686275 0.49411765
0.1341299 0.2125 0.51317402
0.27794118 0.21286765 0.54485294
0.47959559 0.20018382 0.58921569
0.66470588 0.19240196 0.62156863
0.67101716 0.27775735 0.55882353
0.73590686 0.32389706 0.53823529
0.85833333 0.30802696 0.52677696
0.96568627 0.28480392 0.51078431
0.061519608 0.34362745 0.5004902
0.14166667 0.35490196 0.51544118
0.26121324 0.37328431 0.54558824
0.43728554 0.3948223 0.58180147
0.62953431 0.41164216 0.61776961
0.6651348 0.44463848 0.57941176
0.77132353 0.44209559 0.55153186
0.88048407 0.39705882 0.52303922
0.95955882 0.40318627 0.51568627
0.10784314 0.50490196 0.56078431
0.17058824 0.51544118 0.56642157
0.27745098 0.53235294 0.57843137
0.42990196 0.55539216 0.59362745
0.5995098 0.57843137 0.61911765
0.70526961 0.57414216 0.60625
0.79166667 0.56960784 0.58431373
0.89154412 0.53713235 0.55845588
0.95882353 0.53627451 0.54411765
0.081862745 0.66911765 0.61764706
0.16905637 0.66216299 0.60833333
0.2997549 0.66446078 0.60490196
0.4379902 0.66519608 0.59895833
0.55931373 0.67156863 0.58676471
0.68088235 0.67230392 0.57156863
0.80018382 0.67659314 0.57959559
0.89558824 0.67469363 0.59984681
0.97230392 0.67892157 0.59362745
0.23578431 0.75147059 0.60686275
0.26960784 0.7495098 0.60196078
0.32941176 0.74901961 0.58860294
0.43137255 0.74509804 0.57922794
0.53676471 0.73161765 0.56397059
0.6504902 0.73406863 0.5495098
0.77156863 0.7439951 0.52892157
0.88688725 0.75122549 0.52107843
0.97107843 0.76715686 0.57647059
0.2875 0.82892157 0.59852941
0.33109681 0.82892157 0.60094975
0.36446078 0.82542892 0.58682598
0.44730392 0.81887255 0.57696078
0.54129902 0.81397059 0.56740196
0.6495098 0.80931373 0.56348039
0.75851716 0.81740196 0.54601716
0.87405025 0.82870711 0.52576593
0.96348039 0.83480392 0.48848039
0.46862745 0.91372549 0.66470588
0.47794118 0.91323529 0.66053922
0.50245098 0.90686275 0.65196078
0.56740196 0.90318627 0.65220588
0.6627451 0.90882353 0.66568627
0.74436275 0.90343137 0.66887255
0.81862745 0.90245098 0.65686275
0.89926471 0.90392157 0.63088235
0.98431373 0.92941176 0.64313725
0.15833333 0.084803922 0.6254902
0.20569853 0.061764706 0.63302696
0.31911765 0.0069852941 0.65588235
0.50827206 0.0039215686 0.69221814
0.70441176 0.0039215686 0.74485294
0.80496324 0 0.72990196
0.81323529 0.053431373 0.67009804
0.85833333 0.23841912 0.64901961
0.91617647 0.35 0.6622549
0.13137255 0.12303922 0.62941176
0.2004902 0.10359222 0.6408701
0.31827512 0.072303922 0.66404718
0.49233303 0.00048253676 0.7008655
0.70245098 0.0020526961 0.74788603
0.81109069 0.0051393995 0.73952972
0.83123468 0.11403186 0.69015012
0.85255821 0.28529412 0.65713082
0.915625 0.36035539 0.66439951
0.036151961 0.20772059 0.62941176
0.1441636 0.20392157 0.63823529
0.28676471 0.20033701 0.66344975
0.46666667 0.18345588 0.69705882
0.67598039 0.14583333 0.74307598
0.80438113 0.16404718 0.74203431
0.80683211 0.30401348 0.68397672
0.84473039 0.38468137 0.66959252
0.91335784 0.41960784 0.66470588
0.021507353 0.32352941 0.60735294
0.092938113 0.33118873 0.61354933
0.24653799 0.34719669 0.64558824
0.42794118 0.36433824 0.68114277
0.6379902 0.38262868 0.73186275
0.79300705 0.41770833 0.75012255
0.79155944 0.46173407 0.69362745
0.83713235 0.49497549 0.67696844
0.92254902 0.48474265 0.66133578
0.048529412 0.47107843 0.62254902
0.11240809 0.48106618 0.6245098
0.24656863 0.48823529 0.63259804
0.39996936 0.51547181 0.66421569
0.57463235 0.55073529 0.70919118
0.73697917 0.57751225 0.7370098
0.79852941 0.59074755 0.71072304
0.87083333 0.56593137 0.67598039
0.94779412 0.55392157 0.6629902
0.15098039 0.63039216 0.68192402
0.2348652 0.62794118 0.6797258
0.32401961 0.63823529 0.68543199
0.4370481 0.65153186 0.69558824
0.58673407 0.68556985 0.7216299
0.72261029 0.70426624 0.73829657
0.81086091 0.70248162 0.73362439
0.88511029 0.67971048 0.70704657
0.96078431 0.65931373 0.68039216
0.27316176 0.76911765 0.73676471
0.30307904 0.75602022 0.72022059
0.38063725 0.76262255 0.72696078
0.4870098 0.76911765 0.72461703
0.58351716 0.76452206 0.70784314
0.69310662 0.76813725 0.7122549
0.7877451 0.77169118 0.70459559
0.88382353 0.77598039 0.70687806
0.94852941 0.78664216 0.73088235
0.37959559 0.84197304 0.73578431
0.40320925 0.84084712 0.73776808
0.44460784 0.84024203 0.72806373
0.50245098 0.83645833 0.71441483
0.57628676 0.83805147 0.70245098
0.67266391 0.82990196 0.68823529
0.76568627 0.82605699 0.67683824
0.87221967 0.83627451 0.66029412
0.9473652 0.84148284 0.653125
0.50882353 0.91372549 0.76666667
0.52677696 0.91764706 0.76550245
0.54215686 0.91482843 0.75490196
0.58180147 0.90729167 0.74699755
0.65171569 0.9125 0.74558824
0.73682598 0.91372549 0.74411765
0.80294118 0.89227941 0.71875
0.89148284 0.8932598 0.70533088
0.975 0.92401961 0.7245098
0.19117647 0.069607843 0.75294118
0.25245098 0.032720588 0.76715686
0.35857843 0.00073529412 0.77941176
0.50526961 0.0039215686 0.7939951
0.68382353 0.0039215686 0.82058824
0.86127451 0 0.85833333
0.92867647 0.0068627451 0.83529412
0.93492647 0.13590686 0.78823529
0.95490196 0.36078431 0.76862745
0.18823529 0.10490196 0.76078431
0.24816176 0.093458946 0.7685049
0.35490196 0.044761029 0.77867647
0.50196078 0.0060661765 0.79509804
0.67493873 0.0015318627 0.82438725
0.85695466 0.0039215686 0.85686275
0.93048407 0.0099877451 0.84568015
0.93938419 0.21231618 0.79607843
0.95490196 0.38186275 0.77254902
0.13627451 0.20490196 0.75686275
0.20343137 0.20392157 0.7578125
0.32322304 0.18118873 0.76844363
0.48370098 0.16666667 0.79362745
0.65196078 0.12745098 0.81985294
0.83039216 0.10064338 0.84990809
0.93357843 0.21764706 0.85392157
0.92156863 0.35199142 0.79252451
0.94338235 0.44901961 0.78112745
0.031985294 0.31960784 0.73811275
0.082582721 0.32352941 0.73872549
0.2622549 0.32665441 0.7536152
0.43370098 0.33751532 0.77794118
0.62071078 0.3502451 0.81213235
0.80908395 0.3877451 0.84411765
0.88728554 0.43112745 0.83357843
0.90686275 0.4884038 0.79992341
0.93137255 0.54166667 0.7872549
0.0053921569 0.44019608 0.69460784
0.01629902 0.44834559 0.70814951
0.1627451 0.45772059 0.71372549
0.36574755 0.47598039 0.75398284
0.55392157 0.50294118 0.78382353
0.75735294 0.55294118 0.83180147
0.86188725 0.58982843 0.8307598
0.8877451 0.60980392 0.80343137
0.92156863 0.625 0.79117647
0.024387255 0.57990196 0.72990196
0.099571078 0.58284314 0.73039216
0.22300858 0.59004289 0.73284314
0.35147059 0.59954044 0.74160539
0.5057598 0.62567402 0.75496324
0.70294118 0.66911765 0.80735294
0.84188113 0.70719975 0.83385417
0.88118873 0.70382966 0.80343137
0.92941176 0.69509804 0.78823529
0.29166667 0.7252451 0.77867647
0.30750613 0.72441789 0.77815564
0.3817402 0.72689951 0.78014706
0.46176471 0.74558824 0.79411765
0.58970588 0.76041667 0.80637255
0.68912377 0.76372549 0.80183824
0.82279412 0.79901961 0.83449755
0.9 0.79473039 0.82291667
0.94117647 0.7872549 0.81544118
0.41862745 0.85110294 0.83688725
0.43284314 0.84722733 0.83644301
0.47867647 0.83915441 0.82509191
0.54771752 0.85099571 0.8317402
0.62726716 0.85128676 0.82971814
0.71617647 0.85196078 0.82215074
0.79862132 0.85094975 0.80750613
0.88028493 0.85174632 0.7995098
0.94791667 0.85588235 0.8004902
0.54607843 0.92156863 0.86176471
0.55943627 0.92414216 0.86384804
0.58014706 0.91764706 0.85294118
0.62156863 0.92120098 0.85183824
0.67156863 0.92009804 0.84019608
0.7377451 0.91372549 0.82647059
0.81960784 0.91397059 0.82647059
0.89914216 0.91776961 0.81862745
0.97352941 0.93039216 0.81862745
0.32745098 0.034803922 0.87647059
0.35784314 0.030453431 0.87647059
0.43627451 0.0039215686 0.88333333
0.56550245 0.016176471 0.89411765
0.70073529 0.006127451 0.90735294
0.84675245 0.0078431373 0.92401961
0.98872549 0.0039215686 0.94203431
0.99613971 0.0096813725 0.934375
1 0.30735294 0.89215686
0.30790441 0.1127451 0.87647059
0.34968597 0.11421569 0.87598039
0.42604167 0.066467525 0.88382353
0.55298713 0.0097886029 0.89542739
0.68483456 0.0024509804 0.9049326
0.83876379 0.0060202206 0.92401961
0.96994485 0.0039368873 0.93834252
0.99662224 0.094538909 0.93082874
0.99607843 0.33321078 0.89264706
0.27573529 0.21813725 0.87598039
0.31692708 0.21934743 0.87598039
0.40698529 0.20272672 0.87990196
0.53071385 0.17616422 0.88782169
0.66636029 0.15067402 0.90122549
0.82611826 0.12699142 0.92045037
0.96908701 0.14022672 0.93995098
0.99742647 0.31001838 0.93506434
0.9935049 0.43468137 0.89117647
0.13167892 0.33363971 0.85833333
0.2276731 0.33639706 0.86207108
0.3399663 0.33221507 0.86617647
0.47615656 0.33627451 0.87609528
0.63250613 0.35033701 0.89034926
0.79320619 0.36557138 0.9122549
0.94241728 0.4067402 0.93521752
0.98153339 0.46577053 0.92320006
0.98872549 0.51372549 0.90814951
0.01004902 0.45539216 0.83137255
0.017371324 0.44782475 0.83529412
0.19050245 0.45514706 0.83878676
0.38520221 0.46020221 0.85784314
0.56752451 0.48186275 0.87708333
0.74181985 0.51583946 0.8986826
0.89607843 0.56464461 0.92254902
0.96372549 0.60395221 0.91470588
0.96936275 0.63333333 0.88578431
0.019730392 0.59068627 0.83284314
0.011764706 0.58171722 0.82156863
0.015410539 0.56910233 0.80856311
0.27529105 0.57733609 0.82120864
0.47634804 0.5919424 0.84411765
0.68291207 0.63480392 0.87971814
0.85692402 0.69117647 0.91360294
0.94311428 0.71378676 0.91486673
0.95784314 0.72843137 0.8877451
0.076470588 0.70539216 0.84252451
0.10909926 0.69803922 0.8372549
0.24166667 0.70196078 0.8372549
0.37581189 0.70833333 0.84148284
0.48235294 0.71029412 0.84901961
0.60654105 0.72000613 0.84888174
0.78710172 0.77107843 0.89206495
0.92576593 0.80294118 0.91862745
0.95686275 0.79816176 0.9004902
0.41084559 0.82199755 0.87254902
0.42113971 0.81845129 0.87603401
0.454856 0.81715686 0.87599571
0.53649663 0.82457108 0.87785692
0.62208946 0.83235294 0.88529412
0.70278033 0.83676471 0.89532016
0.78921569 0.84837623 0.89263174
0.90245864 0.87156863 0.91078431
0.96078431 0.87113971 0.91078431
0.57647059 0.925 0.9377451
0.58033088 0.92199755 0.92689951
0.59938725 0.91629902 0.92598039
0.6473652 0.91911765 0.92794118
0.70563725 0.92892157 0.92990196
0.76390931 0.92156863 0.91911765
0.83468137 0.9254902 0.91421569
0.90294118 0.9254902 0.90686275
0.96862745 0.92156863 0.90343137
0.49411765 0.18431373 0.98039216
0.50539216 0.15735294 0.97254902
0.57156863 0.14803922 0.98529412
0.64019608 0.080392157 0.98039216
0.74705882 0.017647059 0.98431373
0.86470588 0.011764706 0.98578431
0.97058824 0.0078431373 0.98823529
0.99607843 0.0039215686 0.99215686
1 0.2627451 0.98823529
0.49068627 0.23382353 0.97696078
0.51231618 0.22598039 0.97647059
0.56678922 0.20698529 0.98394608
0.64675245 0.18057598 0.98088235
0.74901961 0.1252451 0.99019608
0.85949755 0.033455882 0.98566176
0.98026961 0.0055147059 0.99693627
1 0.0053921569 0.99650735
1 0.325 0.98823529
0.4745098 0.31862745 0.97647059
0.49754902 0.31507353 0.97647059
0.54901961 0.30882353 0.97916667
0.62977941 0.29411765 0.97830882
0.72990196 0.27058824 0.97941176
0.85355392 0.25539216 0.98823529
0.95882353 0.2379902 0.99117647
0.99656863 0.26188725 0.99264706
0.99901961 0.42058824 0.96666667
0.4127451 0.4245098 0.96127451
0.45098039 0.43088235 0.97009804
0.48970588 0.41372549 0.95686275
0.58284314 0.41035539 0.96862745
0.69705882 0.40661765 0.96887255
0.82395833 0.41372549 0.98131127
0.94056373 0.42009804 0.98492647
1 0.44460784 0.98823529
1 0.5377451 0.98676471
0.33529412 0.54313725 0.9627451
0.35931373 0.53823529 0.95784314
0.41568627 0.52647059 0.95588235
0.53823529 0.53284314 0.96617647
0.66078431 0.53333333 0.96960784
0.78970588 0.5497549 0.97794118
0.90343137 0.56862745 0.97843137
0.99093137 0.59632353 0.97303922
0.99607843 0.62745098 0.98039216
0.26470588 0.6622549 0.94901961
0.27953431 0.65723039 0.94791667
0.32316176 0.64522059 0.94129902
0.44460784 0.63878676 0.95
0.57328431 0.63014706 0.94338235
0.73235294 0.64901961 0.9622549
0.86703431 0.67708333 0.97156863
0.97224265 0.70441176 0.9627451
0.99460784 0.72843137 0.98284314
0.31372549 0.75588235 0.94117647
0.33946078 0.75894608 0.94509804
0.36764706 0.75196078 0.93823529
0.42414216 0.74620098 0.93933824
0.55343137 0.74509804 0.94754902
0.65490196 0.74558824 0.95294118
0.82009804 0.76372549 0.97303922
0.94522059 0.79901961 0.95257353
0.98823529 0.80686275 0.97745098
0.48137255 0.84852941 0.95735294
0.48339461 0.84368873 0.95251225
0.51605392 0.84411765 0.95686275
0.54589461 0.83676471 0.95343137
0.61348039 0.84068627 0.94901961
0.69411765 0.83529412 0.94381127
0.76066176 0.83419118 0.93492647
0.88474265 0.86421569 0.96072304
0.98039216 0.88382353 0.98039216
0.6 0.90588235 0.96470588
0.64264706 0.92156863 0.97254902
0.63137255 0.90784314 0.96372549
0.67352941 0.90931373 0.96568627
0.70588235 0.90980392 0.95490196
0.76764706 0.91911765 0.95441176
0.83823529 0.92941176 0.96470588
0.91127451 0.9372549 0.97696078
0.98039216 0.92156863 0.98039216
