site/assets/luts/sha256-fd8ea766f4a2f27bd90979be3526afe2eb2f1f848dad45b3886f81b25ea50f42.cube
# LUTr-Schema-Version: 2
# LUTr-ID: sha256-fd8ea766f4a2f27bd90979be3526afe2eb2f1f848dad45b3886f81b25ea50f42
# LUTr-Title: kodak portra 800 -
# LUTr-Collection: Natron HaldCLUT
# LUTr-Collection-ID: natron-haldclut-presets
# LUTr-Source: https://github.com/NatronGitHub/clut
# LUTr-Retrieved: 2026-07-27
# LUTr-Source-File: submissions/natron-haldclut-presets/negative_new/kodak_portra_800_-.png
# LUTr-Source-Format: HALD-PNG
# LUTr-Source-SHA256: fd8ea766f4a2f27bd90979be3526afe2eb2f1f848dad45b3886f81b25ea50f42
# LUTr-License: CC-BY-SA-4.0
# LUTr-License-URL: https://github.com/NatronGitHub/clut#license
# LUTr-License-Basis: repo-license-file
# LUTr-Transform-Class: film-emulation
# LUTr-Tags: creative, film, film-emulation, hald-clut, natron, png, cube
# LUTr-Input-Color-Space: srgb
# LUTr-Input-Gamut: rec709
# LUTr-Input-Transfer: srgb
# LUTr-Output-Color-Space: srgb
# LUTr-Output-Gamut: rec709
# LUTr-Output-Transfer: srgb
# LUTr-Color-Space-Confidence: assumed-display-referred
# LUTr-Domain-Normalized: true
# LUTr-Shaper: none
# LUTr-Original-Grid: 64x64x64
# LUTr-Conversion-Grid: 25x25x25
# LUTr-Conversion-Interpolation: trilinear
# LUTr-Conversion-Method: HALD-PNG LUT image decoded at 16-bit and sampled to 25x25x25 3D CUBE
# LUTr-Conversion-Tool: LUTr scripts/convert-all-to-cube.mjs 2.0.0
# LUTr-Conversion-Date: 2026-07-27
# LUTr-Note: Preserve this metadata and the upstream license notices when redistributing.
TITLE "kodak portra 800 -"
LUT_3D_SIZE 5
DOMAIN_MIN 0 0 0
DOMAIN_MAX 1 1 1
0.019607843 0.050980392 0.039215686
0.25098039 0.0049019608 0.0049019608
0.62745098 0 0.0078431373
0.91764706 0.0039215686 0
1 0.090196078 0
0.0039215686 0.20294118 0.038235294
0.21176471 0.24534314 0.010784314
0.59460784 0.25490196 0.006372549
0.89901961 0.27254902 0.0041666667
1 0.30490196 0
0 0.45882353 0.096078431
0.0029411765 0.45735294 0.071568627
0.49803922 0.53627451 0.0039215686
0.83382353 0.57892157 0
0.99607843 0.59215686 0
0.0088235294 0.69411765 0.19509804
0 0.68627451 0.18137255
0.38431373 0.71078431 0.095588235
0.7497549 0.77647059 0.0039215686
1 0.82254902 0
0.29019608 0.95294118 0.42745098
0.35882353 0.94215686 0.4245098
0.52745098 0.94901961 0.42745098
0.74117647 0.96470588 0.36666667
0.96862745 0.98039216 0.10588235
0.0049019608 0.011764706 0.25392157
0.26372549 0.0078431373 0.25784314
0.63529412 0.0039215686 0.25490196
0.9247549 0.018627451 0.21470588
1 0.092156863 0.18823529
0.0031862745 0.24215686 0.24705882
0.25428922 0.2497549 0.2466299
0.6122549 0.24080882 0.24914216
0.90294118 0.25955882 0.2120098
1 0.33455882 0.18210784
0.054901961 0.49362745 0.28039216
0.18590686 0.48921569 0.27058824
0.53039216 0.53651961 0.21838235
0.85147059 0.57647059 0.14901961
0.99509804 0.58970588 0.16127451
0.0068627451 0.7120098 0.3
0.06439951 0.70251225 0.29515931
0.40294118 0.70821078 0.2627451
0.74957108 0.7754902 0.17420343
0.98602941 0.81862745 0.055392157
0.30490196 0.94901961 0.48039216
0.38431373 0.94828431 0.48112745
0.52941176 0.94215686 0.46813725
0.74191176 0.96568627 0.44044118
0.94019608 0.9872549 0.32647059
0.0078431373 0.029411765 0.57058824
0.28137255 0.0078431373 0.57843137
0.65294118 0.011764706 0.59705882
0.90735294 0.0014705882 0.56421569
1 0.0039215686 0.52941176
0.0053921569 0.25882353 0.56372549
0.28921569 0.25428922 0.56985294
0.63872549 0.25196078 0.5870098
0.90245098 0.19509804 0.55686275
1 0.27941176 0.55
0.10980392 0.5254902 0.52941176
0.31544118 0.5372549 0.53235294
0.56666667 0.5495098 0.54215686
0.85318627 0.56397059 0.54313725
0.99607843 0.59411765 0.54411765
0.3245098 0.74607843 0.56568627
0.40171569 0.74767157 0.56470588
0.50514706 0.73259804 0.52132353
0.77205882 0.77953431 0.51078431
0.98921569 0.81176471 0.51078431
0.43529412 0.95294118 0.64705882
0.40588235 0.92598039 0.60343137
0.5627451 0.95294118 0.61764706
0.74509804 0.9622549 0.59852941
0.96470588 0.96078431 0.52352941
0.17254902 0.029411765 0.82745098
0.38529412 0.0088235294 0.83431373
0.66568627 0.0078431373 0.84460784
0.92058824 0.0049019608 0.85098039
1 0.016666667 0.82745098
0.19803922 0.26568627 0.82671569
0.3841299 0.2627451 0.82818627
0.66176471 0.27512255 0.83823529
0.90661765 0.28553922 0.84276961
1 0.26985294 0.83529412
0.016666667 0.52696078 0.78480392
0.26237745 0.5254902 0.78970588
0.59583333 0.54558824 0.80588235
0.8682598 0.58210784 0.8254902
0.99166667 0.59215686 0.82647059
0.3120098 0.7754902 0.78137255
0.41550245 0.77328431 0.78805147
0.59693627 0.78014706 0.78897059
0.80055147 0.79215686 0.79123775
0.98897059 0.82254902 0.81102941
0.57843137 0.95686275 0.83039216
0.60882353 0.95686275 0.8372549
0.69362745 0.9622549 0.83333333
0.78823529 0.96078431 0.79828431
0.96862745 0.95098039 0.78823529
0.47058824 0.16470588 0.99607843
0.55 0.16372549 0.99901961
0.72352941 0.17254902 0.99215686
0.92058824 0.2372549 0.98529412
1 0.25098039 1
0.46764706 0.33333333 0.99313725
0.53995098 0.33235294 0.99215686
0.71029412 0.33970588 0.98235294
0.90882353 0.37058824 0.9875
0.99607843 0.4245098 0.98921569
0.36470588 0.56470588 0.99019608
0.46911765 0.56421569 0.9872549
0.65490196 0.57156863 0.97254902
0.88333333 0.6127451 0.99215686
0.99411765 0.6372549 0.98627451
0.2872549 0.78039216 0.96862745
0.3872549 0.78504902 0.97426471
0.57352941 0.78333333 0.9877451
0.82254902 0.80367647 0.98406863
0.99215686 0.84117647 0.99117647
0.61960784 0.98431373 0.98823529
0.63333333 0.97647059 0.96666667
0.69215686 0.93921569 0.9627451
0.86568627 0.97745098 0.96862745
0.98823529 0.94901961 0.98823529
