site/assets/luts/sha256-cf00e8b5c48d192e3c3ecfe562e001b804b63ca397b6aa63cfe58911091e1be6.cube
# LUTr-Schema-Version: 2
# LUTr-ID: sha256-cf00e8b5c48d192e3c3ecfe562e001b804b63ca397b6aa63cfe58911091e1be6
# LUTr-Title: polaroid 690 warm --
# LUTr-Collection: Natron HaldCLUT
# LUTr-Collection-ID: natron-haldclut-presets
# LUTr-Source: https://github.com/NatronGitHub/clut
# LUTr-Retrieved: 2026-07-27
# LUTr-Source-File: submissions/natron-haldclut-presets/instant_pro/polaroid_690_warm_--.png
# LUTr-Source-Format: HALD-PNG
# LUTr-Source-SHA256: cf00e8b5c48d192e3c3ecfe562e001b804b63ca397b6aa63cfe58911091e1be6
# LUTr-License: CC-BY-SA-4.0
# LUTr-License-URL: https://github.com/NatronGitHub/clut#license
# LUTr-License-Basis: repo-license-file
# LUTr-Transform-Class: film-emulation
# LUTr-Tags: creative, film, film-emulation, hald-clut, natron, png, warm, cube
# LUTr-Input-Color-Space: srgb
# LUTr-Input-Gamut: rec709
# LUTr-Input-Transfer: srgb
# LUTr-Output-Color-Space: srgb
# LUTr-Output-Gamut: rec709
# LUTr-Output-Transfer: srgb
# LUTr-Color-Space-Confidence: assumed-display-referred
# LUTr-Domain-Normalized: true
# LUTr-Shaper: none
# LUTr-Original-Grid: 64x64x64
# LUTr-Conversion-Grid: 25x25x25
# LUTr-Conversion-Interpolation: trilinear
# LUTr-Conversion-Method: HALD-PNG LUT image decoded at 16-bit and sampled to 25x25x25 3D CUBE
# LUTr-Conversion-Tool: LUTr scripts/convert-all-to-cube.mjs 2.0.0
# LUTr-Conversion-Date: 2026-07-27
# LUTr-Note: Preserve this metadata and the upstream license notices when redistributing.
TITLE "polaroid 690 warm --"
LUT_3D_SIZE 9
DOMAIN_MIN 0 0 0
DOMAIN_MAX 1 1 1
0 0 0
0.1 0.019117647 0.0078431373
0.29509804 0.0088235294 0.0078431373
0.43333333 0.0039215686 0.0014705882
0.57058824 0 0.0039215686
0.70392157 0 0
0.82745098 0 0
0.94264706 0 0
0.99607843 0 0
0.016176471 0.084803922 0.0044117647
0.11427696 0.095098039 0.015196078
0.29558824 0.034436275 0.00098039216
0.4622549 0.020404412 0.021568627
0.61470588 0 0.006127451
0.73676471 0 0
0.84607843 0 0
0.95441176 0.0039215686 0
0.99215686 0.0034313725 0
0.0039215686 0.24607843 0
0.094485294 0.25 0.01127451
0.29828431 0.25294118 0.0039215686
0.51115196 0.23566176 0.0039215686
0.67303922 0.19509804 0
0.78676471 0.1245098 0
0.88431373 0.027941176 0
0.97267157 0.0079656863 0
0.99607843 0.0039215686 0
0.006372549 0.39803922 0.0024509804
0.028247549 0.40441176 0
0.25490196 0.40980392 0.0039215686
0.46317402 0.4004902 0
0.64852941 0.39901961 0.0039215686
0.80189951 0.38627451 0
0.90882353 0.37156863 0
0.98480392 0.32922794 0
1 0.30735294 0
0.0078431373 0.52352941 0
0.044117647 0.5254902 0
0.24117647 0.52352941 0
0.41544118 0.53137255 0
0.60490196 0.5372549 0.0029411765
0.75563725 0.5372549 0
0.89215686 0.5495098 0.00049019608
0.98112745 0.54117647 0
0.99803922 0.52745098 0.0039215686
0.034803922 0.62156863 0
0.12175245 0.62794118 0
0.26678922 0.6182598 0
0.41133578 0.62254902 0
0.57058824 0.64485294 0
0.71868873 0.65931373 0.0039215686
0.86164216 0.66715686 0.0078431373
0.95637255 0.67518382 0.0080269608
0.99607843 0.68823529 0.0039215686
0.19313725 0.72941176 0
0.25502451 0.72977941 0
0.33137255 0.7254902 0
0.4442402 0.72156863 0
0.56960784 0.73431373 0
0.70392157 0.74620098 0.0039215686
0.84705882 0.76470588 0.0039215686
0.95392157 0.77683824 0.0069852941
0.99215686 0.7872549 0.010784314
0.36372549 0.84901961 0.0039215686
0.40104167 0.84901961 0.00042892157
0.45490196 0.84595588 0.0079656863
0.51911765 0.83480392 0.0044117647
0.64460784 0.84509804 0.0039215686
0.74264706 0.85030637 0.0039215686
0.85147059 0.86433824 0.0025735294
0.95790441 0.87598039 0
0.99607843 0.87990196 0
0.53333333 0.96078431 0.13333333
0.54068627 0.95294118 0.098039216
0.58431373 0.95784314 0.091176471
0.64803922 0.95294118 0.056372549
0.72745098 0.95490196 0.0078431373
0.80441176 0.94509804 0.0024509804
0.89705882 0.96176471 0
0.96127451 0.96029412 0
0.99607843 0.97254902 0
0.023529412 0.016176471 0.072058824
0.11176471 0.015747549 0.080453431
0.24914216 0.00049019608 0.056495098
0.42303922 0.0014705882 0.06127451
0.5745098 0 0.038235294
0.7004902 0 0.035968137
0.82267157 0 0.02254902
0.92738971 0 0.018688725
0.99215686 0 0.0078431373
0.030882353 0.088664216 0.076409314
0.13001685 0.1008655 0.073039216
0.29644608 0.035876225 0.067984069
0.45909161 0.0016314338 0.055476409
0.59825368 0.00021446078 0.04877451
0.72303922 0.0038985907 0.029718137
0.83169424 0.0034313725 0.014659926
0.94221048 0 0.0039215686
0.97990196 0 0.0039215686
0.023039216 0.25735294 0.083946078
0.1377451 0.26007966 0.059926471
0.30882353 0.25710784 0.041911765
0.50894608 0.25148591 0.033685662
0.65563725 0.18321078 0.05814951
0.77495404 0.11571691 0.0265625
0.87303922 0.0097732843 0.010477941
0.9535386 0.02901348 0.0039215686
0.99509804 0 0.0039215686
0.025980392 0.40196078 0.041482843
0.12105545 0.4095818 0.032268689
0.29168199 0.41335784 0.015012255
0.48284314 0.42892157 0.0021446078
0.65701593 0.42352941 0.0081495098
0.79755668 0.39852941 0.018818934
0.90249694 0.36894914 0.030652574
0.98717065 0.32889859 0.0037377451
0.99607843 0.30876225 0.0034313725
0.0075980392 0.53480392 0
0.13118873 0.53115809 0.0077818627
0.275 0.52745098 0.015196078
0.44044118 0.53529412 0.0078431373
0.61348039 0.54889706 0
0.76332721 0.54901961 0.0095588235
0.8995098 0.55686275 0.0048406863
0.99044118 0.55787377 0.0092830882
1 0.54117647 0.023284314
0.084681373 0.62922794 0.018014706
0.1879519 0.63551624 0
0.29952512 0.6276348 0.0062040441
0.42537531 0.62794118 0
0.57647059 0.64558824 0.0010723039
0.72346048 0.65931373 0.0039215686
0.86335784 0.6692402 0.0069852941
0.96938572 0.67865349 0.010071998
1 0.69117647 0.029166667
0.23566176 0.7372549 0.033455882
0.27634804 0.73627451 0.018244485
0.34803922 0.72867647 0.0054534314
0.4442402 0.72120098 0
0.56960784 0.73351716 0.0056372549
0.70931373 0.74803922 0.0020833333
0.84705882 0.76470588 0.0039215686
0.95741422 0.77941176 0.0039675245
0.99607843 0.79460784 0.0039215686
0.36231618 0.84852941 0.003002451
0.38976716 0.84859069 0.0030560662
0.44384191 0.84117647 0.014445466
0.53273591 0.8437883 0.0035768995
0.63333333 0.84509804 0.0078431373
0.74803922 0.85610447 0.0078431373
0.8592065 0.86421569 0.0039215686
0.95446538 0.87205882 0.0034849877
0.99607843 0.88731618 0
0.52941176 0.96078431 0.18333333
0.54810049 0.96078431 0.17898284
0.59534314 0.96593137 0.17438725
0.6435049 0.95882353 0.12506127
0.7252451 0.95857843 0.084803922
0.80441176 0.95245098 0
0.89963235 0.96813725 0
0.96954657 0.96470588 0.003002451
1 0.98480392 0
0.019607843 0.0078431373 0.24019608
0.063357843 0.0087009804 0.24509804
0.28210784 0 0.26004902
0.43872549 0.0018382353 0.2377451
0.57156863 0 0.2004902
0.68284314 0 0.17941176
0.79142157 0 0.15980392
0.89313725 0 0.13137255
0.98137255 0 0.1
0.037745098 0.087745098 0.23382353
0.14882047 0.08861826 0.24852941
0.30407475 0.083333333 0.26461397
0.45833333 0.04620098 0.23439032
0.58431373 0.0034313725 0.21268382
0.70012255 0.0068167892 0.18909314
0.79656863 0.0034313725 0.16237745
0.90359988 0 0.12798713
0.9872549 0 0.093627451
0.078676471 0.25294118 0.24411765
0.17610294 0.26041667 0.24966299
0.33897059 0.27156863 0.27254902
0.50101103 0.26421569 0.26703431
0.62254902 0.19816176 0.23431373
0.73756127 0.11231618 0.20232843
0.8435049 0.023590686 0.171875
0.94485294 0.0041666667 0.1379902
0.99607843 0.0039215686 0.099019608
0.11813725 0.41948529 0.25294118
0.21470588 0.43707108 0.26801471
0.34387255 0.42904412 0.25171569
0.5 0.43272059 0.25068934
0.65833333 0.43235294 0.25159314
0.78431373 0.40196078 0.24460784
0.87696078 0.34610907 0.21697304
0.97308517 0.30919118 0.17964154
1 0.28970588 0.15171569
0.1504902 0.54460784 0.2372549
0.22567402 0.55 0.24332108
0.33272059 0.54607843 0.22022059
0.46813725 0.54405637 0.19877451
0.62352941 0.55563725 0.19240196
0.76617647 0.55863971 0.19295343
0.89522059 0.56115196 0.23762255
0.98088235 0.55055147 0.24828431
1 0.5377451 0.22598039
0.19460784 0.64656863 0.21629902
0.25317096 0.64560355 0.2144761
0.33691789 0.63924632 0.20150123
0.4495098 0.63434436 0.17023591
0.58357843 0.64166667 0.1536152
0.72859988 0.65931373 0.13088235
0.87009804 0.675 0.16145833
0.97794118 0.67910539 0.17843137
1 0.69791667 0.25183824
0.26372549 0.74019608 0.2002451
0.29846814 0.73627451 0.18884804
0.37824755 0.73627451 0.1754902
0.45441176 0.7260723 0.12598039
0.57352941 0.73198529 0.10392157
0.70931373 0.7495098 0.10358456
0.84761029 0.76544118 0.089338235
0.96262255 0.77941176 0.083823529
0.99607843 0.79509804 0.15588235
0.36323529 0.84509804 0.20637255
0.38921569 0.84509804 0.1948223
0.44568015 0.84405637 0.17405025
0.51904105 0.84019608 0.15237439
0.61936275 0.8372549 0.088602941
0.73328738 0.84871324 0.058639706
0.85404412 0.86421569 0.062224265
0.95801164 0.87604167 0.026531863
0.99607843 0.88382353 0.083455882
0.51862745 0.96078431 0.29117647
0.54019608 0.96458333 0.29007353
0.57083333 0.95612745 0.26764706
0.62904412 0.9557598 0.25098039
0.7122549 0.95735294 0.22156863
0.79865196 0.95441176 0.18088235
0.88823529 0.96372549 0.15367647
0.96715686 0.96605392 0.10098039
1 0.98333333 0
0.0053921569 0.011764706 0.41617647
0.025980392 0.028921569 0.42647059
0.2432598 0.0039215686 0.44264706
0.46323529 0.0039215686 0.45055147
0.59656863 0.0039215686 0.39485294
0.69705882 0 0.3411152
0.79509804 0 0.31715686
0.89197304 0.0026348039 0.29019608
0.98431373 0.0024509804 0.26715686
0.016666667 0.10422794 0.41648284
0.10388327 0.10588235 0.42244179
0.30404412 0.099494485 0.44656863
0.47793352 0.082467831 0.45300245
0.6122549 0.047640931 0.41568627
0.70098039 0.0097426471 0.35104167
0.79724265 0.0073529412 0.32553615
0.89589461 0.0039215686 0.29393382
0.98970588 0.0024509804 0.25655637
0.097916667 0.25686275 0.41017157
0.18422181 0.26029412 0.41657475
0.34681373 0.28039216 0.4504902
0.49708946 0.28754596 0.46156556
0.61838235 0.25655637 0.42205882
0.72316176 0.18235294 0.36801471
0.81838235 0.070435049 0.32745098
0.90850184 0.012882966 0.29707414
0.98823529 0.0067401961 0.26960784
0.18363971 0.42555147 0.42555147
0.24656863 0.42905178 0.43640472
0.36623775 0.43578431 0.44731924
0.51029412 0.45392157 0.45743719
0.63428309 0.41246936 0.43403799
0.74201134 0.36752451 0.3964231
0.84238664 0.30519301 0.3627451
0.9457644 0.24901961 0.31617647
0.99362745 0.1995098 0.28621324
0.22794118 0.55563725 0.42401961
0.29117647 0.56798407 0.43627451
0.38651961 0.56881127 0.44019608
0.49310662 0.56366422 0.42254902
0.62745098 0.55980392 0.41862745
0.76424632 0.56246936 0.43235294
0.88553922 0.55545343 0.42965686
0.97377451 0.51127451 0.38465074
1 0.49779412 0.36151961
0.27095588 0.66323529 0.41715686
0.30998775 0.66960784 0.41715686
0.38927696 0.66176471 0.41282169
0.48226869 0.65 0.3908318
0.59779412 0.65196078 0.37962623
0.73045343 0.65720741 0.37647059
0.86911765 0.67107843 0.38114277
0.97401961 0.67990962 0.41206342
1 0.69846814 0.44264706
0.29509804 0.75196078 0.3877451
0.33445159 0.75441176 0.38627451
0.39754902 0.75257353 0.37843137
0.47924326 0.7411152 0.35729167
0.58321078 0.73964461 0.33192402
0.70853248 0.7495098 0.32167586
0.84644608 0.76764706 0.32717525
0.95530025 0.77990196 0.34541973
0.99607843 0.79791667 0.36997549
0.3622549 0.85637255 0.37156863
0.39967065 0.85508578 0.37352941
0.43837316 0.85548407 0.3564185
0.51341146 0.84724265 0.33469669
0.61519608 0.84436275 0.31568627
0.72176011 0.84852941 0.27433364
0.84381127 0.86164216 0.29339767
0.93890931 0.87689951 0.29941023
0.99264706 0.88792892 0.31617647
0.50343137 0.96617647 0.42401961
0.50949755 0.95294118 0.41617647
0.55735294 0.9622549 0.40980392
0.62058824 0.96317402 0.39166667
0.69313725 0.95318627 0.36470588
0.78627451 0.95686275 0.33866422
0.88137255 0.96470588 0.32745098
0.96176471 0.97254902 0.30814951
0.99852941 0.96176471 0.28921569
0 0.025490196 0.5745098
0.0075980392 0.021813725 0.58039216
0.22156863 0.0088235294 0.59166667
0.46495098 0.0078431373 0.6252451
0.6372549 0.011764706 0.6127451
0.73897059 0.006372549 0.54803922
0.81960784 0.0098039216 0.50245098
0.90367647 0.0039215686 0.4627451
0.98431373 0.0039215686 0.44509804
0.020343137 0.1254902 0.56862745
0.088939951 0.12895221 0.57426471
0.28805147 0.13284314 0.59160539
0.48186275 0.14387255 0.62205882
0.65061275 0.11593137 0.62120098
0.74411765 0.10995711 0.55603554
0.81446078 0.090073529 0.49852941
0.9049326 0.0093137255 0.4622549
0.98063725 0.0056372549 0.44705882
0.12647059 0.26813725 0.56078431
0.20502451 0.27726716 0.57230392
0.3435049 0.28333333 0.58811275
0.50428922 0.30490196 0.61862745
0.6497549 0.31446078 0.61568627
0.74025735 0.28272059 0.55471814
0.81727941 0.24264706 0.50441176
0.90759804 0.11366422 0.4713848
0.99117647 0.0044117647 0.44313725
0.19117647 0.40710784 0.55563725
0.2504902 0.41029412 0.56446078
0.35343137 0.41476716 0.56574755
0.50125613 0.43970588 0.5950674
0.65526961 0.46139706 0.61838235
0.74754902 0.41789216 0.56715686
0.83039216 0.36084559 0.51176471
0.92239583 0.26133578 0.46194853
0.99215686 0.052941176 0.40735294
0.26666667 0.55294118 0.56568627
0.32132353 0.55882353 0.5745098
0.40294118 0.56323529 0.58039216
0.52156863 0.5692402 0.58786765
0.64705882 0.5754902 0.59215686
0.75441176 0.56115196 0.57855392
0.85563725 0.52377451 0.54705882
0.93982843 0.44938725 0.48284314
0.99607843 0.39411765 0.43921569
0.34289216 0.67647059 0.58504902
0.37833946 0.68284314 0.58627451
0.43817402 0.68057598 0.57910539
0.52230392 0.67303922 0.57257966
0.62365196 0.67156863 0.55931373
0.74120711 0.67034314 0.55196078
0.86960784 0.68333333 0.56421569
0.96338848 0.67077206 0.56081495
0.99607843 0.65073529 0.54044118
0.35686275 0.77352941 0.56127451
0.37150735 0.7754902 0.55784314
0.43639706 0.77107843 0.55012255
0.50343137 0.76642157 0.54031863
0.6 0.75490196 0.50980392
0.71115196 0.75465686 0.49534314
0.84215686 0.77193627 0.51029412
0.95189951 0.7872549 0.53180147
0.99607843 0.79901961 0.55882353
0.35588235 0.86446078 0.53504902
0.38995098 0.86813725 0.53091299
0.44803922 0.86121324 0.52395833
0.51780025 0.85857843 0.50441176
0.61139706 0.85465686 0.47953431
0.71011029 0.84852941 0.45505515
0.83161765 0.86041667 0.46813725
0.94748775 0.87996324 0.47990196
0.98823529 0.88406863 0.48970588
0.46470588 0.95490196 0.55882353
0.50171569 0.96911765 0.55882353
0.53921569 0.96666667 0.54754902
0.59901961 0.96151961 0.53210784
0.67254902 0.95294118 0.50882353
0.76715686 0.95686275 0.48284314
0.86764706 0.96617647 0.47254902
0.95392157 0.93970588 0.46078431
0.99607843 0.97843137 0.46470588
0.0014705882 0.046078431 0.71029412
0.0027573529 0.03872549 0.71127451
0.25526961 0.04375 0.72352941
0.45392157 0.059865196 0.74166667
0.63921569 0.081127451 0.75808824
0.78627451 0.053492647 0.75006127
0.85833333 0.071568627 0.6995098
0.92794118 0.054105392 0.63970588
0.99607843 0.02254902 0.6127451
0.033333333 0.15245098 0.70018382
0.11417739 0.15615043 0.7
0.30919118 0.16372549 0.71862745
0.47303922 0.17531403 0.73873315
0.65 0.19754902 0.75441176
0.77439491 0.18498775 0.73890931
0.86262255 0.1685049 0.69787071
0.93186275 0.13796722 0.64748775
0.9973652 0.088235294 0.61666667
0.16323529 0.27843137 0.69252451
0.23468137 0.2873315 0.69669118
0.35588235 0.30079657 0.71531863
0.5022212 0.31090686 0.73474265
0.65392157 0.33137255 0.75183824
0.78235294 0.33664216 0.74581801
0.8622549 0.30723039 0.69721201
0.93025429 0.2745098 0.64969363
0.99117647 0.20833333 0.6245098
0.20238971 0.39166667 0.66764706
0.25790441 0.39784773 0.67390472
0.36571691 0.41703431 0.69149816
0.5 0.44025735 0.71476716
0.64509804 0.46155025 0.73771446
0.77529105 0.47310049 0.74129902
0.84895833 0.43898591 0.68460478
0.92370558 0.38775276 0.64051011
0.98039216 0.32205882 0.61421569
0.25294118 0.52990196 0.66397059
0.29920343 0.52990196 0.67107843
0.3745098 0.52794118 0.67303922
0.49901961 0.54607843 0.69313725
0.63848039 0.57303922 0.72205882
0.76155025 0.58504902 0.72941176
0.84803922 0.54822304 0.67898284
0.92665441 0.46960784 0.62564338
0.99607843 0.36421569 0.5754902
0.32303922 0.66323529 0.68376225
0.37176777 0.6672258 0.69215686
0.44212623 0.67069547 0.69607843
0.53431373 0.675 0.7
0.63229167 0.68192402 0.70591299
0.75455729 0.69123775 0.71960784
0.84644608 0.65680147 0.68656556
0.93841912 0.60533088 0.6411152
0.99607843 0.53713235 0.6004902
0.43125 0.7872549 0.70784314
0.44446998 0.78319547 0.70968137
0.49607843 0.78452819 0.70441176
0.56078431 0.78180147 0.70654105
0.64203431 0.77818627 0.69215686
0.73186275 0.77267157 0.67169118
0.83897059 0.77647059 0.67558211
0.95306373 0.79523591 0.70343137
0.99142157 0.78909314 0.70306373
0.43333333 0.87598039 0.68707108
0.45369945 0.87240349 0.69166667
0.48529412 0.87205882 0.68186275
0.54932598 0.87217371 0.6801011
0.62539828 0.86813725 0.66004902
0.7122549 0.85648744 0.6328508
0.82745098 0.86519608 0.63057598
0.93899357 0.88039216 0.64785539
0.98560049 0.89166667 0.66960784
0.49705882 0.97009804 0.70931373
0.50833333 0.97254902 0.70539216
0.53321078 0.97340686 0.69693627
0.59123775 0.96470588 0.68278186
0.66470588 0.95465686 0.6627451
0.74803922 0.94607843 0.6372549
0.84497549 0.95931373 0.62696078
0.94117647 0.97156863 0.63088235
0.97794118 0.97647059 0.63872549
0.048039216 0.10980392 0.82352941
0.17414216 0.1127451 0.83039216
0.32671569 0.11568627 0.83504902
0.48272059 0.13664216 0.84215686
0.64166667 0.14901961 0.85588235
0.78737745 0.17696078 0.85784314
0.90122549 0.20882353 0.85
0.97071078 0.20784314 0.82414216
0.99607843 0.19509804 0.78137255
0.16556373 0.19264706 0.82647059
0.22977941 0.19252451 0.82359069
0.36397059 0.20269608 0.83431373
0.49554228 0.21017157 0.84068627
0.64901961 0.22849265 0.85588235
0.79313725 0.26484375 0.86862745
0.89715074 0.26792279 0.84901961
0.97071078 0.25206801 0.82401961
0.99571078 0.24460784 0.78529412
0.24828431 0.30294118 0.80784314
0.28679534 0.3064951 0.81568627
0.38370098 0.31568627 0.82781863
0.5158701 0.32830882 0.83795956
0.65379902 0.35122549 0.85232843
0.79411765 0.37699142 0.86568627
0.89705882 0.37922794 0.85784314
0.96666667 0.3504902 0.81960784
0.99509804 0.3370098 0.78235294
0.25294118 0.40441176 0.79362745
0.29263174 0.41090686 0.79719669
0.39019608 0.42322304 0.80833333
0.50859375 0.43748468 0.81655944
0.6536152 0.4627451 0.84019608
0.79411765 0.50294118 0.85963542
0.89240196 0.50098039 0.85392157
0.95482537 0.46433824 0.80698529
0.98529412 0.44068627 0.78529412
0.22794118 0.50784314 0.76666667
0.26482843 0.50931373 0.76942402
0.36115196 0.51813725 0.77843137
0.48517157 0.53382353 0.79215686
0.62598039 0.56470588 0.81862745
0.76936275 0.59705882 0.84313725
0.88051471 0.60796569 0.84301471
0.94485294 0.56507353 0.80496324
0.99068627 0.52156863 0.77647059
0.27585784 0.63664216 0.77303922
0.31876532 0.64019608 0.7754902
0.39108456 0.64019608 0.78023897
0.47892157 0.63921569 0.78595282
0.596875 0.65300245 0.79779412
0.74382659 0.68500306 0.82688419
0.86740196 0.70790441 0.84188113
0.93935355 0.66127451 0.79705882
0.99607843 0.58186275 0.73443627
0.40122549 0.76789216 0.80073529
0.40514706 0.76476716 0.79905025
0.4745098 0.76819853 0.80220588
0.55343137 0.77074142 0.80686275
0.64558824 0.7754902 0.81127451
0.75254289 0.78480392 0.82622549
0.85367647 0.79142157 0.82683824
0.94644608 0.79929534 0.82889093
0.99607843 0.72083333 0.76323529
0.53235294 0.88382353 0.82659314
0.54134498 0.88382353 0.82685355
0.57708333 0.87990196 0.82582721
0.62801777 0.88382353 0.82696078
0.69215686 0.8807598 0.82107843
0.76127451 0.88051471 0.80686275
0.83517157 0.87990196 0.79264706
0.93088235 0.89145221 0.79961703
0.99313725 0.90343137 0.82267157
0.5745098 0.95980392 0.83137255
0.58284314 0.95772059 0.83823529
0.61053922 0.96470588 0.83529412
0.64460784 0.96678922 0.82389706
0.7 0.95637255 0.80931373
0.75147059 0.93284314 0.78884804
0.82818627 0.94313725 0.77181373
0.92303922 0.97745098 0.76875
0.99215686 0.98039216 0.78137255
0.30833333 0.21372549 0.91862745
0.35055147 0.19460784 0.92647059
0.43517157 0.20968137 0.92953431
0.55196078 0.23382353 0.93431373
0.6752451 0.24313725 0.93039216
0.79460784 0.28155637 0.93872549
0.9127451 0.31617647 0.94080882
0.98921569 0.35098039 0.93872549
1 0.32058824 0.91862745
0.33186275 0.25588235 0.92254902
0.38137255 0.26328891 0.92254902
0.45294118 0.2622549 0.93088235
0.5557981 0.26897212 0.93045343
0.675 0.29414828 0.93259804
0.79460784 0.31884957 0.93845741
0.90657169 0.35441176 0.93834252
0.98964461 0.37658548 0.94178156
0.99607843 0.36268382 0.90827206
0.3504902 0.33958333 0.91482843
0.38949142 0.35108762 0.91438419
0.46155025 0.35539216 0.92061887
0.56230086 0.36282169 0.92126225
0.67395833 0.37205882 0.9348652
0.798269 0.41372549 0.9388174
0.90297181 0.44215686 0.94264706
0.98000919 0.44558824 0.9338848
0.99264706 0.42732843 0.91568627
0.33511029 0.43756127 0.8995098
0.38155637 0.44362745 0.90343137
0.45439645 0.45134804 0.91260723
0.55643382 0.46519608 0.91531097
0.66749387 0.47303922 0.9265625
0.79442402 0.51341912 0.93197763
0.89491422 0.53821998 0.93872549
0.97846967 0.54493719 0.93586857
1 0.51862745 0.91096814
0.27671569 0.52622549 0.88627451
0.33210784 0.53599877 0.88777574
0.4088848 0.53884804 0.89362745
0.51920956 0.54770221 0.90278799
0.64889706 0.56911765 0.91323529
0.77696078 0.60392157 0.92469363
0.88921569 0.63651961 0.93651961
0.97009804 0.64564951 0.93088235
0.99607843 0.61715686 0.91176471
0.24803922 0.62941176 0.87254902
0.27640931 0.62912071 0.87775735
0.34607843 0.62794118 0.87628676
0.44607077 0.62292433 0.87880668
0.59427083 0.64353554 0.88645833
0.74699755 0.6754902 0.90704657
0.87598039 0.72291667 0.92928922
0.95831036 0.73780637 0.92661612
0.99607843 0.70214461 0.90655637
0.3317402 0.75294118 0.88345588
0.36758578 0.75658701 0.88382353
0.42778799 0.7549326 0.8877451
0.50379902 0.75663297 0.88860294
0.59981618 0.74852941 0.88988971
0.71853554 0.75730699 0.89655331
0.84632353 0.79289216 0.91204044
0.94931066 0.82352941 0.92222733
0.98811275 0.78137255 0.88872549
0.49558824 0.87647059 0.89993873
0.50262714 0.87119332 0.89993873
0.54863664 0.87610294 0.89995404
0.60467984 0.87248775 0.90181526
0.69708946 0.87555147 0.90689338
0.76797641 0.8723269 0.90949755
0.84575674 0.88120404 0.90821078
0.93823529 0.89902727 0.91862745
0.97591912 0.89509804 0.91421569
0.6622549 0.97254902 0.92598039
0.65484069 0.9651348 0.9221201
0.66262255 0.94901961 0.91862745
0.72518382 0.96930147 0.92273284
0.75367647 0.96470588 0.91495098
0.79803922 0.96599265 0.91109069
0.85428922 0.97512255 0.91127451
0.92297794 0.96868873 0.89558824
0.98823529 0.98039216 0.89558824
0.47843137 0.30980392 0.98039216
0.49460784 0.30294118 0.98088235
0.57156863 0.33137255 0.99509804
0.62696078 0.32794118 0.98823529
0.72352941 0.35490196 0.98823529
0.82401961 0.38823529 0.99607843
0.91666667 0.40882353 0.99215686
0.98529412 0.45588235 0.99215686
0.99607843 0.47058824 0.99215686
0.50980392 0.36372549 0.99264706
0.52457108 0.36072304 0.98866422
0.57879902 0.36470588 0.99693627
0.63480392 0.36617647 0.98823529
0.72352941 0.37941176 0.98823529
0.82665441 0.40098039 0.99607843
0.91666667 0.43517157 0.99595588
0.99307598 0.48180147 0.99558824
0.99607843 0.48480392 0.98431373
0.5127451 0.4254902 0.98823529
0.52585784 0.42941176 0.98823529
0.57745098 0.43627451 0.99191176
0.64411765 0.44019608 0.99154412
0.73039216 0.44656863 0.98970588
0.82757353 0.46813725 0.99509804
0.91568627 0.49901961 0.99509804
0.98958333 0.54056373 0.99607843
1 0.54803922 0.99607843
0.48921569 0.50294118 0.98431373
0.52598039 0.51060049 0.98823529
0.55735294 0.50686275 0.98039216
0.64264706 0.52015931 0.99215686
0.725 0.52769608 0.98823529
0.82401961 0.55245098 0.99460784
0.90882353 0.57696078 0.99497549
0.98137255 0.6026348 0.98694853
1 0.61519608 0.99215686
0.47254902 0.59019608 0.99019608
0.4877451 0.59019608 0.98431373
0.54803922 0.59313725 0.98970588
0.6129902 0.59191176 0.98210784
0.70490196 0.60196078 0.98039216
0.80318627 0.62696078 0.98382353
0.89901961 0.65784314 0.98823529
0.97745098 0.67058824 0.97401961
0.99607843 0.7 0.99215686
0.3995098 0.67107843 0.97107843
0.42352941 0.6723652 0.97990196
0.46801471 0.66605392 0.9685049
0.56078431 0.67205882 0.97800245
0.67230392 0.68210784 0.98357843
0.78633578 0.70245098 0.98192402
0.88137255 0.73333333 0.98431373
0.96176471 0.76127451 0.98560049
0.99607843 0.7504902 0.96323529
0.41568627 0.76862745 0.95686275
0.41789216 0.76948529 0.95526961
0.47377451 0.77083333 0.96985294
0.53382353 0.76372549 0.96617647
0.63431373 0.76470588 0.97598039
0.72401961 0.76237745 0.9622549
0.86078431 0.8 0.98137255
0.9504902 0.84264706 0.975
0.99607843 0.84313725 0.97843137
0.54607843 0.89117647 0.97990196
0.53921569 0.88382353 0.96862745
0.57659314 0.88480392 0.97340686
0.62628676 0.88039216 0.96942402
0.6877451 0.86862745 0.96862745
0.74920343 0.86519608 0.96783088
0.85294118 0.88345588 0.97205882
0.92555147 0.89552696 0.98088235
0.99166667 0.92254902 0.98431373
0.66666667 0.98039216 0.98431373
0.63039216 0.94852941 0.97303922
0.67941176 0.97058824 0.9754902
0.6754902 0.93578431 0.97647059
0.75882353 0.95686275 0.95882353
0.81862745 0.97892157 0.98284314
0.8754902 0.97647059 0.98431373
0.93382353 0.97990196 0.98382353
0.99607843 0.99215686 0.99215686
