site/assets/luts/sha256-e8f782b2013cbc354c494d4aca2fd4a5093b6af151cb84dc57265fa67d4127dc.cube
# LUTr-Schema-Version: 2
# LUTr-ID: sha256-e8f782b2013cbc354c494d4aca2fd4a5093b6af151cb84dc57265fa67d4127dc
# LUTr-Title: kodak portra 160 vc +
# LUTr-Collection: Natron HaldCLUT
# LUTr-Collection-ID: natron-haldclut-presets
# LUTr-Source: https://github.com/NatronGitHub/clut
# LUTr-Retrieved: 2026-07-27
# LUTr-Source-File: submissions/natron-haldclut-presets/negative_old/kodak_portra_160_vc_+.png
# LUTr-Source-Format: HALD-PNG
# LUTr-Source-SHA256: e8f782b2013cbc354c494d4aca2fd4a5093b6af151cb84dc57265fa67d4127dc
# LUTr-License: CC-BY-SA-4.0
# LUTr-License-URL: https://github.com/NatronGitHub/clut#license
# LUTr-License-Basis: repo-license-file
# LUTr-Transform-Class: film-emulation
# LUTr-Tags: creative, film, film-emulation, hald-clut, natron, png, cube
# LUTr-Input-Color-Space: srgb
# LUTr-Input-Gamut: rec709
# LUTr-Input-Transfer: srgb
# LUTr-Output-Color-Space: srgb
# LUTr-Output-Gamut: rec709
# LUTr-Output-Transfer: srgb
# LUTr-Color-Space-Confidence: assumed-display-referred
# LUTr-Domain-Normalized: true
# LUTr-Shaper: none
# LUTr-Original-Grid: 64x64x64
# LUTr-Conversion-Grid: 25x25x25
# LUTr-Conversion-Interpolation: trilinear
# LUTr-Conversion-Method: HALD-PNG LUT image decoded at 16-bit and sampled to 25x25x25 3D CUBE
# LUTr-Conversion-Tool: LUTr scripts/convert-all-to-cube.mjs 2.0.0
# LUTr-Conversion-Date: 2026-07-27
# LUTr-Note: Preserve this metadata and the upstream license notices when redistributing.
TITLE "kodak portra 160 vc +"
LUT_3D_SIZE 25
DOMAIN_MIN 0 0 0
DOMAIN_MAX 1 1 1
0.0039215686 0.070588235 0.11372549
0.014215686 0.074509804 0.11372549
0.029411765 0.078431373 0.10882353
0.053431373 0.082352941 0.10245098
0.094117647 0.088235294 0.1
0.13921569 0.090196078 0.094117647
0.18431373 0.094117647 0.090196078
0.23480392 0.094117647 0.080882353
0.29803922 0.08627451 0.078431373
0.37009804 0.069607843 0.080882353
0.44607843 0.05 0.082352941
0.51421569 0.043137255 0.082352941
0.58039216 0.037254902 0.082352941
0.64215686 0.030882353 0.07745098
0.7 0.024509804 0.056862745
0.75637255 0.014215686 0.030882353
0.80784314 0.019607843 0.015686275
0.84656863 0.048039216 0.011764706
0.88529412 0.07254902 0.0078431373
0.92352941 0.093137255 0.0044117647
0.94901961 0.12156863 0.0039215686
0.96568627 0.15882353 0.011764706
0.98039216 0.19117647 0.012745098
0.98970588 0.20147059 0.006372549
1 0.21176471 0
0.0078431373 0.080882353 0.11127451
0.014767157 0.080882353 0.11035539
0.026593137 0.082965686 0.10882353
0.053125 0.086090686 0.10245098
0.090196078 0.094607843 0.09877451
0.13333333 0.1 0.093627451
0.18370098 0.096568627 0.087254902
0.23572304 0.09564951 0.080882353
0.29803922 0.090196078 0.075980392
0.37009804 0.080882353 0.07689951
0.44607843 0.076960784 0.075980392
0.51452206 0.070588235 0.075980392
0.57965686 0.062745098 0.075980392
0.63823529 0.05 0.073345588
0.7 0.042647059 0.058946078
0.75637255 0.042647059 0.034803922
0.80539216 0.049019608 0.018137255
0.84509804 0.071078431 0.013235294
0.88345588 0.095588235 0.010784314
0.92009804 0.11403186 0.0044117647
0.94901961 0.13504902 0.0039215686
0.96783088 0.16488971 0.0078431373
0.98333333 0.19301471 0.0082107843
0.99123775 0.20631127 0.0039215686
0.99607843 0.22205882 0.0039215686
0.0078431373 0.095098039 0.10588235
0.0096813725 0.095098039 0.10490196
0.016666667 0.095098039 0.10416667
0.044607843 0.098651961 0.10098039
0.083823529 0.10882353 0.093627451
0.12794118 0.11164216 0.088848039
0.17941176 0.10857843 0.084068627
0.23627451 0.10821078 0.080269608
0.29803922 0.1127451 0.073529412
0.37009804 0.1127451 0.069607843
0.44534314 0.10882353 0.065686275
0.51813725 0.10625 0.062132353
0.58431373 0.099019608 0.061764706
0.64215686 0.08872549 0.060416667
0.7002451 0.079411765 0.053921569
0.75245098 0.083823529 0.03627451
0.8 0.090196078 0.023529412
0.84473039 0.10232843 0.015686275
0.88235294 0.12230392 0.010784314
0.91875 0.13835784 0.0078431373
0.95098039 0.15490196 0.0039215686
0.97316176 0.17965686 0.0039215686
0.98333333 0.19901961 0.0039215686
0.99215686 0.22058824 0.0078431373
0.99607843 0.2372549 0.0078431373
0.0039215686 0.10931373 0.098529412
0.0039215686 0.10882353 0.098529412
0.0055147059 0.10637255 0.098039216
0.037316176 0.1127451 0.097610294
0.078676471 0.12107843 0.090441176
0.12401961 0.125 0.082352941
0.17941176 0.12843137 0.084436275
0.24019608 0.13854167 0.076960784
0.30539216 0.14754902 0.070588235
0.37352941 0.14491422 0.062928922
0.44571078 0.14362745 0.054411765
0.51813725 0.1401348 0.048468137
0.5879902 0.13553922 0.045833333
0.64908088 0.12696078 0.043627451
0.70098039 0.12316176 0.040196078
0.74852941 0.125 0.034313725
0.79607843 0.13137255 0.023529412
0.84117647 0.13823529 0.017156863
0.88235294 0.15245098 0.0078431373
0.91617647 0.16666667 0.0039828431
0.95294118 0.17720588 0.00024509804
0.97696078 0.19264706 0.00049019608
0.98431373 0.21666667 0.006495098
0.99215686 0.2377451 0.0078431373
0.99607843 0.25441176 0.0078431373
0 0.13333333 0.1
0 0.12941176 0.096813725
0 0.12745098 0.093627451
0.029166667 0.13651961 0.10122549
0.070588235 0.14509804 0.093137255
0.12279412 0.1495098 0.078431373
0.18627451 0.16127451 0.076960784
0.24877451 0.17279412 0.07377451
0.31176471 0.18431373 0.066666667
0.37990196 0.18431373 0.058333333
0.45 0.17941176 0.04754902
0.52205882 0.1747549 0.034068627
0.59313725 0.17254902 0.02745098
0.65343137 0.16470588 0.023529412
0.70343137 0.16470588 0.023529412
0.74852941 0.16862745 0.021568627
0.79215686 0.17254902 0.021568627
0.83970588 0.17892157 0.0125
0.88235294 0.1872549 0.0034313725
0.91642157 0.19754902 0.0019607843
0.94803922 0.20882353 0.00098039216
0.97303922 0.22254902 0.0022058824
0.98333333 0.24313725 0.0068627451
0.99093137 0.25980392 0.0078431373
0.99607843 0.2745098 0.0078431373
0 0.17892157 0.11078431
0 0.17892157 0.10998775
0.00098039216 0.17892157 0.10637255
0.014705882 0.17892157 0.10637255
0.053921569 0.18651961 0.1004902
0.10398284 0.1911152 0.090196078
0.18026961 0.20098039 0.079901961
0.25557598 0.21127451 0.070894608
0.32205882 0.22156863 0.062254902
0.3877451 0.22941176 0.048039216
0.45833333 0.22107843 0.037745098
0.52689951 0.21378676 0.02745098
0.59632353 0.20980392 0.01127451
0.65686275 0.20588235 0.0069240196
0.70196078 0.20980392 0.01127451
0.74705882 0.21158088 0.015196078
0.79215686 0.21764706 0.015196078
0.8372549 0.22009804 0.0078431373
0.88235294 0.2254902 0.0030637255
0.91574755 0.23284314 0.00049019608
0.94093137 0.24289216 0.0039215686
0.965625 0.25686275 0.0039215686
0.97941176 0.27401961 0.0078431373
0.98970588 0.28921569 0.0078431373
0.99607843 0.29901961 0.0078431373
0 0.23039216 0.1245098
0 0.23039216 0.11813725
0.0039215686 0.22965686 0.11666667
0.01127451 0.23002451 0.11666667
0.028431373 0.23088235 0.11078431
0.074019608 0.23578431 0.10392157
0.15196078 0.24607843 0.090196078
0.23982843 0.25637255 0.079901961
0.32941176 0.26960784 0.050980392
0.39803922 0.27634804 0.034803922
0.46789216 0.27254902 0.024509804
0.53676471 0.2622549 0.013357843
0.59852941 0.25588235 0.0058823529
0.65428922 0.24963235 0.0030637255
0.70196078 0.25098039 0.0068627451
0.74705882 0.25306373 0.011764706
0.79215686 0.25882353 0.011764706
0.8372549 0.2627451 0.0093137255
0.88161765 0.26666667 0.006127451
0.91237745 0.27058824 0.0039215686
0.9372549 0.27892157 0.0039215686
0.95882353 0.28811275 0.0078431373
0.9754902 0.30269608 0.0078431373
0.98578431 0.31323529 0.0078431373
0.99607843 0.31960784 0.0039215686
0 0.27794118 0.12941176
0 0.27794118 0.12696078
0.0039215686 0.27794118 0.12696078
0.0039215686 0.27794118 0.12322304
0.006372549 0.27720588 0.11911765
0.032843137 0.28057598 0.11078431
0.1245098 0.28872549 0.10159314
0.22444853 0.30147059 0.094117647
0.31862745 0.31323529 0.056372549
0.40484069 0.32745098 0.020710784
0.47316176 0.3254902 0.0085784314
0.53676471 0.31372549 0.009129902
0.59264706 0.30735294 0.011764706
0.64803922 0.30098039 0.009129902
0.69987745 0.29362745 0.0078431373
0.74705882 0.29362745 0.0078431373
0.79215686 0.29852941 0.0078431373
0.83970588 0.30245098 0.0069240196
0.88137255 0.30784314 0.0057598039
0.90882353 0.31176471 0.0076593137
0.9372549 0.31764706 0.0078431373
0.9591299 0.32383578 0.0078431373
0.9754902 0.33284314 0.0067401961
0.9872549 0.33921569 0.0039215686
0.99607843 0.34558824 0.0039215686
0 0.3254902 0.13333333
0 0.3254902 0.13578431
0.0039215686 0.3254902 0.1372549
0.00049019608 0.3254902 0.1372549
0 0.3254902 0.13333333
0.0078431373 0.3254902 0.12892157
0.10392157 0.33235294 0.11862745
0.20539216 0.34656863 0.10833333
0.29803922 0.35686275 0.074509804
0.39068627 0.37352941 0.033333333
0.46862745 0.37941176 0.0078431373
0.52647059 0.36911765 0.011764706
0.58235294 0.35882353 0.015686275
0.63823529 0.35245098 0.015196078
0.69313725 0.34607843 0.0088235294
0.74313725 0.3372549 0.0078431373
0.79215686 0.3372549 0.0039215686
0.8372549 0.34117647 0.0039215686
0.87745098 0.34509804 0.0039215686
0.90833333 0.34901961 0.0073529412
0.93921569 0.35294118 0.0078431373
0.96176471 0.35735294 0.0078431373
0.97843137 0.36470588 0.0049019608
0.98970588 0.37009804 0.0039215686
0.99607843 0.37254902 0
0 0.36911765 0.14460784
0 0.37457108 0.15245098
0.0039215686 0.37696078 0.15845588
0.0039215686 0.37696078 0.16029412
0.0039215686 0.37573529 0.15906863
0.011764706 0.37696078 0.15373775
0.094117647 0.38382353 0.14203431
0.18143382 0.39166667 0.12408088
0.275 0.40441176 0.10294118
0.36464461 0.41617647 0.066666667
0.44718137 0.42156863 0.036151961
0.51617647 0.42028186 0.024509804
0.57205882 0.41029412 0.022794118
0.62794118 0.40441176 0.019117647
0.68860294 0.40110294 0.01127451
0.74068627 0.39117647 0.0078431373
0.78823529 0.37843137 0.0039215686
0.83333333 0.37751225 0.0039215686
0.87107843 0.38333333 0.0067401961
0.90441176 0.38970588 0.0078431373
0.93529412 0.39019608 0.010294118
0.96176471 0.39460784 0.0099877451
0.98125 0.40134804 0.0078431373
0.99362745 0.40643382 0.0024509804
1 0.40980392 0
0.0039215686 0.4245098 0.1754902
0.0020833333 0.42843137 0.17941176
0.0031862745 0.42916667 0.18333333
0.0039215686 0.42843137 0.18333333
0.0029411765 0.42843137 0.18235294
0.0047794118 0.42843137 0.17806373
0.072303922 0.43235294 0.16544118
0.16421569 0.44068627 0.14803922
0.25392157 0.45098039 0.1245098
0.33811275 0.45735294 0.10147059
0.42156863 0.4627451 0.070588235
0.49656863 0.46752451 0.038357843
0.55931373 0.46372549 0.027941176
0.6189951 0.45943627 0.020465686
0.68406863 0.45588235 0.012745098
0.73860294 0.44718137 0.0067401961
0.78431373 0.43333333 0.0049019608
0.82659314 0.4254902 0.0078431373
0.8625 0.4252451 0.0078431373
0.89644608 0.4310049 0.01127451
0.93039216 0.43382353 0.011764706
0.96090686 0.43884804 0.012622549
0.98308824 0.4375 0.0078431373
0.99644608 0.44031863 0.0024509804
1 0.44313725 0
0.0073529412 0.47254902 0.20294118
0.0039215686 0.4786152 0.20667892
0.0025735294 0.48382353 0.21029412
0 0.48039216 0.21029412
0 0.47990196 0.20637255
0.0017156863 0.47947304 0.20245098
0.065196078 0.47683824 0.19264706
0.16176471 0.48186275 0.17598039
0.25490196 0.48872549 0.15931373
0.33088235 0.4963848 0.13970588
0.40735294 0.50392157 0.10441176
0.47941176 0.51127451 0.063235294
0.54730392 0.51519608 0.031127451
0.61170343 0.51127451 0.026470588
0.67696078 0.51127451 0.016666667
0.73314951 0.50196078 0.0099877451
0.78039216 0.49117647 0.0078431373
0.81942402 0.48351716 0.0078431373
0.85526961 0.48333333 0.0088235294
0.88921569 0.47990196 0.011764706
0.92377451 0.48014706 0.01372549
0.95490196 0.48039216 0.015196078
0.98529412 0.47389706 0.0087009804
0.99969363 0.47432598 0.0039215686
1 0.47696078 0.0034313725
0.0078431373 0.51764706 0.22745098
0.0078431373 0.52401961 0.23137255
0.0039215686 0.52941176 0.23529412
0.0019607843 0.53137255 0.23529412
0.0039215686 0.53039216 0.23333333
0.036029412 0.525 0.22916667
0.092156863 0.51813725 0.22254902
0.17083333 0.52156863 0.21078431
0.25490196 0.52941176 0.19607843
0.33088235 0.53578431 0.18186275
0.40294118 0.54215686 0.15098039
0.475 0.54877451 0.11151961
0.53921569 0.55294118 0.078431373
0.60490196 0.55686275 0.050245098
0.66666667 0.55882353 0.032843137
0.72303922 0.55735294 0.015441176
0.77254902 0.54509804 0.0078431373
0.8125 0.53921569 0.0078431373
0.84803922 0.53921569 0.0088235294
0.88259804 0.53553922 0.011764706
0.91666667 0.53137255 0.015686275
0.94852941 0.52696078 0.015196078
0.97794118 0.52009804 0.0083333333
0.99289216 0.51568627 0.0039215686
0.99607843 0.51568627 0.0039215686
0.0078431373 0.55931373 0.24803922
0.0075367647 0.56666667 0.25196078
0.0039215686 0.57156863 0.25588235
0.0087009804 0.5745098 0.25931373
0.027696078 0.57426471 0.25980392
0.075061275 0.57009804 0.25588235
0.13333333 0.56372549 0.2495098
0.19871324 0.5627451 0.24283088
0.26421569 0.56666667 0.23284314
0.33204657 0.5745098 0.22254902
0.39889706 0.58186275 0.19914216
0.46715686 0.58229167 0.16519608
0.53284314 0.5877451 0.13382353
0.59460784 0.59411765 0.098529412
0.65330882 0.60061275 0.063357843
0.71243873 0.60557598 0.028247549
0.76421569 0.59901961 0.0039215686
0.80539216 0.59509804 0.0039215686
0.83909314 0.59362745 0.0088235294
0.87297794 0.58676471 0.015196078
0.90955882 0.57867647 0.015686275
0.94215686 0.57408088 0.014767157
0.96617647 0.56801471 0.0078431373
0.98400735 0.56323529 0.0075367647
0.99215686 0.5627451 0.0078431373
0.0049019608 0.6 0.26862745
0.0042892157 0.6067402 0.27254902
0.0056372549 0.6127451 0.27647059
0.037377451 0.6127451 0.27990196
0.084313725 0.60882353 0.28333333
0.12647059 0.60784314 0.28333333
0.1752451 0.60416667 0.27965686
0.23333333 0.60098039 0.27009804
0.29803922 0.60784314 0.26372549
0.35355392 0.61237745 0.25343137
0.40318627 0.6127451 0.23897059
0.45980392 0.61666667 0.21580882
0.52254902 0.62058824 0.18921569
0.58394608 0.62757353 0.15294118
0.64215686 0.63529412 0.10955882
0.69852941 0.64166667 0.06372549
0.75392157 0.64705882 0.016666667
0.79620098 0.64644608 0.0053921569
0.83137255 0.63823529 0.0125
0.86617647 0.6317402 0.018259804
0.90441176 0.625 0.015686275
0.93566176 0.61911765 0.011397059
0.95980392 0.61495098 0.0078431373
0.97794118 0.60968137 0.0042892157
0.99117647 0.60784314 0.0078431373
0 0.64117647 0.28529412
0.023468137 0.64607843 0.29313725
0.048529412 0.64754902 0.29914216
0.090502451 0.64754902 0.30245098
0.14019608 0.64362745 0.30759804
0.18333333 0.64362745 0.30882353
0.22340686 0.64178922 0.30637255
0.26905637 0.640625 0.30098039
0.3245098 0.64362745 0.29215686
0.36960784 0.64509804 0.28431373
0.41323529 0.64754902 0.27340686
0.45686275 0.65116422 0.25784314
0.51029412 0.65416667 0.23872549
0.56862745 0.65980392 0.20539216
0.62794118 0.66654412 0.16568627
0.68431373 0.67408088 0.12506127
0.73823529 0.67892157 0.091666667
0.78425245 0.68137255 0.063235294
0.82205882 0.67830882 0.044240196
0.86109069 0.67303922 0.027634804
0.89926471 0.66936275 0.01372549
0.93069853 0.66439951 0.0076593137
0.95453431 0.65784314 0.0045343137
0.97640931 0.65294118 0.0039215686
0.99215686 0.64901961 0.0039215686
0.082352941 0.67843137 0.32156863
0.099019608 0.67843137 0.32401961
0.13137255 0.67843137 0.32941176
0.15931373 0.68186275 0.33284314
0.20392157 0.67843137 0.33529412
0.24509804 0.67843137 0.3372549
0.28333333 0.67843137 0.33333333
0.31421569 0.67696078 0.33333333
0.34901961 0.67843137 0.32941176
0.39019608 0.67843137 0.32303922
0.43137255 0.68235294 0.31176471
0.46862745 0.68578431 0.29852941
0.50588235 0.68823529 0.28431373
0.55588235 0.69411765 0.26470588
0.61372549 0.69803922 0.23039216
0.67009804 0.70343137 0.20098039
0.72156863 0.70588235 0.17647059
0.76666667 0.70980392 0.14558824
0.80784314 0.70980392 0.11764706
0.84901961 0.70980392 0.076470588
0.89411765 0.71176471 0.033333333
0.92696078 0.70931373 0.0078431373
0.95392157 0.69901961 0.0078431373
0.97794118 0.69411765 0.006372549
0.99215686 0.69019608 0.0039215686
0.19313725 0.71323529 0.35882353
0.20196078 0.71568627 0.36182598
0.22120098 0.71323529 0.3627451
0.2403799 0.7153799 0.3627451
0.27205882 0.71715686 0.36421569
0.30784314 0.7153799 0.36452206
0.33517157 0.71323529 0.36997549
0.36268382 0.70931373 0.3745098
0.38627451 0.71176471 0.37696078
0.42408088 0.71323529 0.37058824
0.46127451 0.71323529 0.36029412
0.49362745 0.71715686 0.34626225
0.52843137 0.72107843 0.33578431
0.56341912 0.725 0.31715686
0.60110294 0.72794118 0.29546569
0.65343137 0.73131127 0.26911765
0.70098039 0.73431373 0.24607843
0.74944853 0.73676471 0.22156863
0.79362745 0.73676471 0.19007353
0.83480392 0.74019608 0.14871324
0.87745098 0.74068627 0.11102941
0.91844363 0.74460784 0.081372549
0.94816176 0.74019608 0.065196078
0.97395833 0.73529412 0.046507353
0.99362745 0.73137255 0.025
0.3 0.75294118 0.4
0.30367647 0.75232843 0.4
0.30980392 0.74803922 0.4
0.31997549 0.74803922 0.4
0.33921569 0.75098039 0.40098039
0.35882353 0.74803922 0.40404412
0.38333333 0.74509804 0.41078431
0.40894608 0.74411765 0.41568627
0.43137255 0.74411765 0.41960784
0.45625 0.74411765 0.41776961
0.48823529 0.74583333 0.40784314
0.5182598 0.74803922 0.39840686
0.54901961 0.75196078 0.38970588
0.57990196 0.75588235 0.37254902
0.61004902 0.75588235 0.35269608
0.63995098 0.75980392 0.33272059
0.68627451 0.76372549 0.3127451
0.73431373 0.76617647 0.29031863
0.77941176 0.76764706 0.26372549
0.82058824 0.77107843 0.23284314
0.86323529 0.77205882 0.20196078
0.90686275 0.77683824 0.17205882
0.94215686 0.78039216 0.14705882
0.96948529 0.77647059 0.12438725
0.97843137 0.77352941 0.11078431
0.37352941 0.78284314 0.44509804
0.37352941 0.78284314 0.44479167
0.37745098 0.77892157 0.44473039
0.38474265 0.77892157 0.44509804
0.39901961 0.77892157 0.44877451
0.41415441 0.77892157 0.44901961
0.43480392 0.77892157 0.45281863
0.45588235 0.77843137 0.45686275
0.47598039 0.775 0.46078431
0.49313725 0.775 0.46421569
0.51519608 0.77892157 0.45931373
0.54264706 0.77892157 0.45294118
0.56960784 0.78284314 0.44264706
0.6004902 0.78676471 0.4283701
0.62745098 0.78676471 0.41115196
0.65833333 0.79068627 0.39932598
0.68970588 0.79460784 0.38480392
0.72745098 0.79491422 0.36813725
0.76911765 0.79852941 0.3435049
0.80729167 0.79852941 0.31862745
0.8497549 0.80441176 0.2879902
0.89270833 0.81078431 0.26078431
0.9377451 0.81678922 0.23026961
0.96127451 0.81764706 0.21109069
0.96176471 0.81764706 0.21078431
0.43529412 0.80980392 0.49215686
0.43455882 0.80980392 0.49215686
0.43627451 0.80980392 0.49460784
0.44656863 0.80588235 0.49607843
0.45882353 0.80588235 0.49803922
0.47328431 0.80980392 0.49803922
0.48676471 0.80980392 0.49803922
0.50220588 0.80980392 0.50073529
0.51764706 0.80980392 0.50784314
0.53504902 0.80588235 0.51176471
0.55392157 0.80980392 0.51078431
0.57156863 0.80980392 0.50441176
0.59411765 0.81372549 0.49705882
0.62058824 0.81397059 0.48382353
0.64803922 0.81764706 0.47156863
0.675 0.82156863 0.46127451
0.70588235 0.82156863 0.45098039
0.73480392 0.8254902 0.43553922
0.76372549 0.82794118 0.41813725
0.79656863 0.82941176 0.39558824
0.8372549 0.83235294 0.36862745
0.87867647 0.83970588 0.34411765
0.92156863 0.84656863 0.31813725
0.94779412 0.85171569 0.30392157
0.94901961 0.85294118 0.30588235
0.5004902 0.83676471 0.54754902
0.49754902 0.83676471 0.54411765
0.50098039 0.83676471 0.54497549
0.50833333 0.83676471 0.54754902
0.51862745 0.83676471 0.54754902
0.53186275 0.84068627 0.54754902
0.53872549 0.84068627 0.54803922
0.54901961 0.84068627 0.55147059
0.5627451 0.84068627 0.55539216
0.57726716 0.83676471 0.56176471
0.59509804 0.84068627 0.56188725
0.60931373 0.84068627 0.55539216
0.6254902 0.84264706 0.54754902
0.64209559 0.84460784 0.53970588
0.66862745 0.84754902 0.53333333
0.69540441 0.84852941 0.52303922
0.72205882 0.85245098 0.51323529
0.74705882 0.85459559 0.50030637
0.77242647 0.85637255 0.48345588
0.79908088 0.859375 0.46709559
0.82573529 0.8620098 0.44681373
0.86372549 0.86770833 0.43088235
0.90490196 0.87193627 0.41029412
0.93400735 0.87726716 0.39509804
0.94068627 0.87941176 0.39264706
0.55882353 0.86764706 0.59901961
0.55882353 0.86764706 0.59901961
0.5627451 0.86764706 0.59901961
0.56372549 0.86764706 0.59901961
0.57352941 0.86764706 0.59901961
0.57990196 0.87156863 0.60294118
0.59019608 0.87156863 0.60294118
0.59901961 0.87156863 0.60441176
0.60784314 0.87156863 0.60686275
0.62169118 0.86764706 0.61323529
0.6370098 0.87156863 0.61078431
0.6504902 0.87156863 0.60723039
0.66519608 0.87156863 0.60245098
0.67904412 0.87291667 0.60147059
0.69313725 0.8754902 0.59436275
0.71470588 0.87941176 0.58872549
0.73921569 0.88039216 0.57843137
0.76372549 0.88333333 0.56752451
0.78627451 0.8872549 0.55294118
0.80980392 0.8872549 0.53872549
0.83039216 0.88578431 0.51911765
0.85637255 0.89252451 0.51409314
0.89117647 0.89828431 0.5
0.92156863 0.90330882 0.48480392
0.93333333 0.90686275 0.47843137
0.61666667 0.90245098 0.65196078
0.61819853 0.90153186 0.65104167
0.61911765 0.89852941 0.6504902
0.61911765 0.89852941 0.64901961
0.625 0.89852941 0.65171569
0.63137255 0.90245098 0.65441176
0.64166667 0.90245098 0.65441176
0.64748775 0.90006127 0.65686275
0.65441176 0.90245098 0.6622549
0.66623775 0.90245098 0.66525735
0.68137255 0.90245098 0.66335784
0.69166667 0.90245098 0.6622549
0.70441176 0.90171569 0.65906863
0.71488971 0.90245098 0.65980392
0.72830882 0.90245098 0.65294118
0.74368873 0.90637255 0.64748775
0.75980392 0.90882353 0.64264706
0.77892157 0.9127451 0.63719363
0.7995098 0.91482843 0.62683824
0.82009804 0.91452206 0.60784314
0.83676471 0.91151961 0.5879902
0.86127451 0.91844363 0.58284314
0.8872549 0.925 0.57953431
0.91666667 0.93082108 0.57107843
0.92794118 0.93235294 0.56078431
0.6745098 0.93333333 0.70588235
0.66421569 0.9254902 0.69558824
0.65882353 0.92156863 0.69019608
0.6622549 0.92156863 0.68970588
0.66666667 0.92156863 0.69215686
0.675 0.92598039 0.69852941
0.68235294 0.92941176 0.70196078
0.68627451 0.9254902 0.69803922
0.69411765 0.9254902 0.70196078
0.71078431 0.93186275 0.71470588
0.71764706 0.92941176 0.70980392
0.725 0.9254902 0.70980392
0.73529412 0.9254902 0.70980392
0.74607843 0.9254902 0.70980392
0.75980392 0.9254902 0.70294118
0.77009804 0.92696078 0.69264706
0.78039216 0.92941176 0.68627451
0.79460784 0.93333333 0.68235294
0.80980392 0.9372549 0.68137255
0.82647059 0.9372549 0.66764706
0.84509804 0.93529412 0.65098039
0.86764706 0.94117647 0.64313725
0.89117647 0.94803922 0.63921569
0.91666667 0.95441176 0.63921569
0.9254902 0.95686275 0.63137255
0.0039215686 0.068137255 0.11372549
0.014215686 0.073039216 0.11372549
0.029411765 0.078431373 0.10882353
0.053431373 0.082046569 0.10588235
0.094117647 0.08627451 0.10441176
0.13578431 0.087745098 0.10422794
0.18333333 0.087745098 0.099387255
0.23780637 0.079901961 0.094178922
0.29803922 0.073529412 0.08872549
0.37009804 0.063235294 0.085723039
0.44215686 0.047181373 0.085171569
0.51047794 0.03939951 0.08627451
0.57843137 0.035294118 0.08872549
0.64215686 0.030882353 0.084313725
0.70098039 0.023897059 0.071078431
0.75692402 0.016666667 0.04754902
0.80539216 0.024509804 0.034803922
0.84509804 0.059252451 0.028431373
0.88235294 0.081985294 0.019607843
0.9213848 0.093443627 0.0071691176
0.94901961 0.12156863 0.0083333333
0.96568627 0.16096814 0.01439951
0.98039216 0.19117647 0.014583333
0.98970588 0.20147059 0.0088235294
1 0.21176471 0
0.0078431373 0.079411765 0.11280637
0.017792586 0.077856924 0.11035539
0.028431373 0.07935049 0.10767463
0.053125 0.083042279 0.10245098
0.092432598 0.089460784 0.10150123
0.13578431 0.092401961 0.1004902
0.18477328 0.090196078 0.098008578
0.23780637 0.084803922 0.094178922
0.29957108 0.079901961 0.091176471
0.37197457 0.078147978 0.085723039
0.44215686 0.074019608 0.080039828
0.51341146 0.069600184 0.077512255
0.57769608 0.060294118 0.078982843
0.64215686 0.048820466 0.078607537
0.70061275 0.037117034 0.068933824
0.75510876 0.039414828 0.050513174
0.80055147 0.052941176 0.034803922
0.84299173 0.07745098 0.026554841
0.88235294 0.099310662 0.019607843
0.91979167 0.11403186 0.01060049
0.94901961 0.13504902 0.0068321078
0.96813725 0.16814491 0.011075368
0.98333333 0.19385723 0.011443015
0.99028033 0.20631127 0.0072916667
0.9966299 0.2245098 0.0072916667
0.012377451 0.095098039 0.10943627
0.016467525 0.092156863 0.10657169
0.022702206 0.089705882 0.10579044
0.045465686 0.093367034 0.10232843
