site/assets/luts/sha256-1699b78d7df57230982121c956510f7b7b49800c08b42060a49da69493eb4eb3.cube
# LUTr-Schema-Version: 2
# LUTr-ID: sha256-1699b78d7df57230982121c956510f7b7b49800c08b42060a49da69493eb4eb3
# LUTr-Title: fuji superia 400 -
# LUTr-Collection: Natron HaldCLUT
# LUTr-Collection-ID: natron-haldclut-presets
# LUTr-Source: https://github.com/NatronGitHub/clut
# LUTr-Retrieved: 2026-07-27
# LUTr-Source-File: submissions/natron-haldclut-presets/negative_old/fuji_superia_400_-.png
# LUTr-Source-Format: HALD-PNG
# LUTr-Source-SHA256: 1699b78d7df57230982121c956510f7b7b49800c08b42060a49da69493eb4eb3
# LUTr-License: CC-BY-SA-4.0
# LUTr-License-URL: https://github.com/NatronGitHub/clut#license
# LUTr-License-Basis: repo-license-file
# LUTr-Transform-Class: film-emulation
# LUTr-Tags: creative, film, film-emulation, hald-clut, natron, png, cube
# LUTr-Input-Color-Space: srgb
# LUTr-Input-Gamut: rec709
# LUTr-Input-Transfer: srgb
# LUTr-Output-Color-Space: srgb
# LUTr-Output-Gamut: rec709
# LUTr-Output-Transfer: srgb
# LUTr-Color-Space-Confidence: assumed-display-referred
# LUTr-Domain-Normalized: true
# LUTr-Shaper: none
# LUTr-Original-Grid: 64x64x64
# LUTr-Conversion-Grid: 25x25x25
# LUTr-Conversion-Interpolation: trilinear
# LUTr-Conversion-Method: HALD-PNG LUT image decoded at 16-bit and sampled to 25x25x25 3D CUBE
# LUTr-Conversion-Tool: LUTr scripts/convert-all-to-cube.mjs 2.0.0
# LUTr-Conversion-Date: 2026-07-27
# LUTr-Note: Preserve this metadata and the upstream license notices when redistributing.
TITLE "fuji superia 400 -"
LUT_3D_SIZE 25
DOMAIN_MIN 0 0 0
DOMAIN_MAX 1 1 1
0 0.019607843 0.019607843
0 0.017156863 0.017156863
0.030392157 0.03627451 0.028431373
0.065196078 0.050490196 0.035294118
0.098039216 0.050980392 0.033333333
0.13088235 0.042647059 0.018627451
0.18235294 0.039215686 0.015686275
0.24411765 0.039215686 0.023529412
0.30588235 0.039215686 0.023529412
0.36372549 0.039215686 0.021078431
0.43333333 0.034313725 0.018627451
0.50245098 0.024019608 0.015686275
0.5745098 0.015686275 0.011764706
0.64215686 0.0039215686 0.0078431373
0.69411765 0.0039215686 0.010784314
0.74068627 0.0078431373 0.015686275
0.78823529 0.0078431373 0.015686275
0.8254902 0.0078431373 0.011764706
0.86666667 0.0068627451 0.0068627451
0.91176471 0.0039215686 0.00049019608
0.93333333 0.045098039 0
0.95392157 0.1004902 0
0.97058824 0.14803922 0
0.98578431 0.19411765 0
1 0.23529412 0
0.0024509804 0.042647059 0.029901961
0.0049019608 0.042647059 0.029901961
0.026838235 0.051838235 0.03872549
0.062561275 0.063235294 0.045281863
0.094852941 0.064460784 0.039705882
0.13590686 0.062254902 0.025
0.18970588 0.059313725 0.015686275
0.24748775 0.050490196 0.021078431
0.30588235 0.044117647 0.023529412
0.36764706 0.039215686 0.020159314
0.43431373 0.031372549 0.018627451
0.50275735 0.026164216 0.015686275
0.57254902 0.015686275 0.011764706
0.63970588 0.0039215686 0.0078431373
0.69313725 0.0039215686 0.0078431373
0.74068627 0.0078431373 0.014154412
0.78823529 0.0078431373 0.015686275
0.82849265 0.0093137255 0.011764706
0.87058824 0.0057598039 0.0068627451
0.91421569 0.0039215686 0.00049019608
0.93529412 0.050245098 0
0.95392157 0.10686275 0
0.97058824 0.16078431 0
0.9872549 0.20925245 0
0.99607843 0.24166667 0
0.0039215686 0.068627451 0.043137255
0.0067401961 0.069240196 0.042647059
0.018382353 0.076715686 0.044852941
0.052328431 0.083946078 0.050980392
0.093137255 0.084313725 0.045098039
0.14497549 0.084436275 0.027818627
0.19901961 0.085294118 0.015686275
0.25477941 0.079289216 0.014705882
0.31372549 0.069607843 0.015686275
0.37254902 0.060906863 0.019240196
0.4375 0.05 0.015686275
0.50379902 0.03872549 0.015686275
0.57058824 0.019117647 0.0098039216
0.6372549 0.0034313725 0.0039215686
0.68995098 0.0029411765 0.0068627451
0.74068627 0.0091911765 0.013235294
0.78921569 0.012745098 0.015686275
0.82941176 0.019240196 0.011764706
0.87058824 0.024754902 0.0068627451
0.91470588 0.032843137 0.00049019608
0.93529412 0.068137255 0
0.95392157 0.12254902 0
0.9745098 0.18137255 0.0031862745
0.98970588 0.22892157 0.0039215686
0.99509804 0.25098039 0.0039215686
0.0039215686 0.089215686 0.047058824
0.0078431373 0.095281863 0.050490196
0.012867647 0.10183824 0.047058824
0.034742647 0.10833333 0.047487745
0.084558824 0.10857843 0.039460784
0.14761029 0.1122549 0.026531863
0.20294118 0.10968137 0.010171569
0.25931373 0.10814951 0.0056985294
0.31764706 0.10784314 0.011764706
0.37892157 0.10520833 0.018137255
0.44460784 0.09375 0.015686275
0.5098652 0.076960784 0.012254902
0.57254902 0.052696078 0.0078431373
0.63731618 0.028308824 0.0034313725
0.68921569 0.031740196 0.0042892157
0.74068627 0.047365196 0.011764706
0.78872549 0.059803922 0.015686275
0.82941176 0.072732843 0.011764706
0.87058824 0.084313725 0.0068627451
0.90876225 0.094607843 0.00049019608
0.93333333 0.12058824 0
0.95392157 0.15300245 0
0.97487745 0.20232843 0.0039215686
0.98952206 0.24589461 0.0039215686
0.99215686 0.26470588 0.0039215686
0 0.11960784 0.052941176
0.0039215686 0.12401961 0.051715686
0.0058823529 0.12745098 0.046078431
0.014705882 0.13112745 0.041176471
0.076470588 0.13823529 0.030392157
0.14411765 0.14754902 0.019117647
0.20392157 0.15441176 0.0073529412
0.26960784 0.15686275 0.0039215686
0.33137255 0.15294118 0.0058823529
0.38921569 0.14583333 0.0083333333
0.45147059 0.13431373 0.0058823529
0.51666667 0.12401961 0.0075980392
0.57941176 0.11176471 0.0068627451
0.64166667 0.10171569 0.0039215686
0.69019608 0.1 0.0039215686
0.73676471 0.11127451 0.0085784314
0.78627451 0.12156863 0.011764706
0.82941176 0.13382353 0.011764706
0.87058824 0.14411765 0.0068627451
0.90833333 0.15441176 0.0039215686
0.93333333 0.17941176 0
0.95392157 0.20686275 0
0.97058824 0.23186275 0
0.9872549 0.27058824 0.00073529412
0.99607843 0.3 0.0019607843
0 0.16666667 0.067156863
0.0039215686 0.16715686 0.063235294
0.0039215686 0.16678922 0.054534314
0.0073529412 0.16715686 0.048039216
0.06372549 0.18063725 0.034068627
0.13529412 0.19852941 0.023039216
0.21115196 0.21311275 0.0088235294
0.28204657 0.22028186 0.0044117647
0.34117647 0.20735294 0.0044117647
0.4 0.18786765 0.00018382353
0.46127451 0.1877451 0.0039215686
0.52254902 0.18731618 0.0043504902
0.58431373 0.18161765 0.0078431373
0.64515931 0.17156863 0.0074142157
0.69019608 0.16764706 0.0039215686
0.73676471 0.17303922 0.0078431373
0.78039216 0.18333333 0.0078431373
0.8254902 0.19332108 0.0078431373
0.87058824 0.2 0.006495098
0.9122549 0.20980392 0.00049019608
0.9372549 0.23382353 0
0.95392157 0.25392157 0
0.97058824 0.27745098 0
0.98578431 0.3004902 0
1 0.33088235 0
0.0039215686 0.21176471 0.07745098
0.0039215686 0.21470588 0.076838235
0.0039215686 0.21789216 0.076960784
0.01127451 0.22205882 0.068995098
0.049509804 0.22843137 0.055882353
0.10955882 0.24007353 0.029044118
0.17647059 0.25392157 0.0066176471
0.25796569 0.27156863 0.0078431373
0.35392157 0.28921569 0.0078431373
0.42414216 0.28578431 0.0039215686
0.48063725 0.27254902 0.0039215686
0.53627451 0.26311275 0.0077205882
0.59264706 0.25294118 0.0078431373
0.64558824 0.23970588 0.0078431373
0.69313725 0.23333333 0.0039215686
0.73529412 0.23370098 0.0078431373
0.78039216 0.24117647 0.0078431373
0.82401961 0.24852941 0.0078431373
0.86838235 0.25710784 0.0039215686
0.91262255 0.26176471 0
0.93529412 0.27696078 0
0.95392157 0.29509804 0
0.97058824 0.31568627 0
0.98578431 0.34056373 0
0.99607843 0.35784314 0
0 0.25833333 0.087745098
0.0039215686 0.26378676 0.092279412
0.0078431373 0.26715686 0.091053922
0.013909314 0.27352941 0.089215686
0.03627451 0.27916667 0.081372549
0.090196078 0.29019608 0.055882353
0.15392157 0.3004902 0.032107843
0.24797794 0.33033088 0.014154412
0.35931373 0.36421569 0.0093137255
0.45202206 0.37849265 0
0.50196078 0.36335784 0.0039215686
0.55716912 0.3473652 0.0076593137
0.6120098 0.33333333 0.0078431373
0.65441176 0.31488971 0.0078431373
0.6935049 0.29754902 0.0049019608
0.73529412 0.29117647 0.0039215686
0.78039216 0.29362745 0.0039215686
0.82156863 0.30392157 0.0039215686
0.86519608 0.30931373 0.0039215686
0.90294118 0.31305147 0.0039215686
0.93333333 0.32034314 0
0.95392157 0.33627451 0
0.97156863 0.35539216 0
0.98431373 0.37598039 0
0.99068627 0.38480392 0
0 0.30588235 0.094117647
0.0039215686 0.3122549 0.10441176
0.0078431373 0.31862745 0.11078431
0.011764706 0.325 0.11029412
0.017647059 0.3254902 0.10392157
0.066666667 0.33431373 0.093137255
0.14509804 0.35490196 0.069607843
0.22598039 0.37696078 0.037254902
0.3254902 0.40784314 0.015686275
0.43480392 0.43480392 0.0078431373
0.51960784 0.44607843 0.0039215686
0.57745098 0.43578431 0.0039215686
0.62745098 0.41960784 0.0039215686
0.66470588 0.39509804 0.0039215686
0.70196078 0.3745098 0.0039215686
0.73921569 0.35392157 0.0039215686
0.78039216 0.34509804 0.0039215686
0.82156863 0.35294118 0.0039215686
0.85882353 0.35784314 0.0039215686
0.89607843 0.36078431 0.0039215686
0.92941176 0.36666667 0.0019607843
0.95392157 0.37745098 0
0.97058824 0.39411765 0
0.97794118 0.40784314 0
0.98431373 0.41176471 0
0 0.35735294 0.12352941
0.0039215686 0.36372549 0.1283701
0.0042892157 0.36948529 0.13529412
0.0088235294 0.37273284 0.13694853
0.0125 0.37303922 0.12573529
0.054901961 0.37941176 0.11519608
0.1372549 0.40110294 0.1004902
0.21568627 0.42205882 0.070588235
0.29019608 0.44509804 0.031862745
0.39117647 0.46868873 0.016605392
0.49803922 0.49656863 0.0093137255
0.59681373 0.52328431 0.00049019608
0.63848039 0.50073529 0.0019607843
0.675 0.475 0.0039215686
0.7122549 0.45330882 0.0039215686
0.7495098 0.42935049 0.0024509804
0.78676471 0.40392157 0
0.81911765 0.40386029 0
0.85490196 0.40833333 0.0039215686
0.89215686 0.4096201 0.0039215686
0.92941176 0.41176471 0.0039215686
0.95392157 0.42205882 0
0.96764706 0.43345588 0
0.97310049 0.43872549 0
0.97647059 0.44264706 0
0.0039215686 0.40882353 0.15980392
0.0039215686 0.41519608 0.16262255
0.0039215686 0.41985294 0.16372549
0.00049019608 0.41973039 0.16286765
0.011764706 0.42009804 0.15588235
0.072058824 0.42892157 0.15147059
0.13627451 0.44142157 0.14117647
0.20539216 0.45784314 0.12144608
0.28921569 0.48137255 0.091176471
0.36973039 0.50257353 0.052083333
0.4502451 0.52647059 0.0088235294
0.55477941 0.55257353 0.0073529412
0.64264706 0.56666667 0.0068627451
0.68921569 0.55110294 0.0039215686
0.72745098 0.53137255 0.0031862745
0.7622549 0.51078431 0
0.79215686 0.48627451 0.0039215686
0.82365196 0.47389706 0.0039215686
0.85784314 0.46764706 0.0039215686
0.89227941 0.46127451 0.0039215686
0.92941176 0.45588235 0
0.95735294 0.46323529 0
0.96372549 0.46960784 0
0.96409314 0.47058824 0
0.96764706 0.47352941 0
0.0039215686 0.46029412 0.19460784
0.0039215686 0.46452206 0.19460784
0.00012254902 0.46813725 0.19375
0.0034926471 0.4651348 0.19068627
0.037254902 0.46642157 0.19044118
0.10294118 0.47303922 0.1901348
0.15833333 0.48333333 0.17941176
0.20851716 0.49411765 0.16372549
0.27892157 0.5122549 0.14264706
0.36488971 0.53676471 0.10686275
0.43480392 0.5564951 0.069485294
0.51807598 0.5745098 0.048406863
0.61127451 0.59852941 0.03504902
0.6939951 0.61752451 0.0099264706
0.7442402 0.61286765 0
0.77126225 0.58952206 0.0034313725
0.7995098 0.56470588 0.0039215686
0.82910539 0.54705882 0.0073529412
0.86262255 0.53333333 0.0039215686
0.89650735 0.52303922 0.0039215686
0.93308824 0.50882353 0.0017156863
0.95386029 0.50392157 0
0.95686275 0.50772059 0
0.95863971 0.50784314 0
0.96078431 0.50784314 0
0.0039215686 0.50588235 0.22156863
0.0090686275 0.50980392 0.22279412
0.0098039216 0.50980392 0.22058824
0.013235294 0.50980392 0.21593137
0.069607843 0.51176471 0.22156863
0.13431373 0.51372549 0.22769608
0.18823529 0.52058824 0.22156863
0.22941176 0.53014706 0.20637255
0.29019608 0.54705882 0.18823529
0.36102941 0.56642157 0.16813725
0.42156863 0.58235294 0.16323529
0.49803922 0.60098039 0.13504902
0.58431373 0.62352941 0.10098039
0.66838235 0.64803922 0.063235294
0.73382353 0.66372549 0.026470588
0.76911765 0.64730392 0.012990196
0.8 0.62745098 0.0078431373
0.83676471 0.61397059 0.0078431373
0.87009804 0.59901961 0.0098039216
0.90245098 0.5870098 0.0080882353
0.9372549 0.5745098 0.0049019608
0.95931373 0.56642157 0.0039215686
0.9627451 0.56470588 0.0039215686
0.96470588 0.56470588 0.0058823529
0.96666667 0.56470588 0.0058823529
0.0039215686 0.54313725 0.24411765
0.025306373 0.54920343 0.24852941
0.055882353 0.55098039 0.25294118
0.079963235 0.55098039 0.25294118
0.10857843 0.55098039 0.25294118
0.15729167 0.55533088 0.2528799
0.20404412 0.55882353 0.25245098
0.24215686 0.56403186 0.24705882
0.29411765 0.57794118 0.23333333
0.35980392 0.59430147 0.22518382
0.42156863 0.60992647 0.21654412
0.48676471 0.62751225 0.19552696
0.56176471 0.64803922 0.16397059
0.63192402 0.66770833 0.13958333
0.69754902 0.68529412 0.084313725
0.76721814 0.69987745 0.016727941
0.8127451 0.68970588 0.011764706
0.84852941 0.68039216 0.01060049
0.87794118 0.66470588 0.016053922
0.91231618 0.65441176 0.012254902
0.93946078 0.64411765 0.01004902
0.96219363 0.63382353 0.0078431373
0.97169118 0.62610294 0.0083333333
0.97303922 0.6223652 0.0083333333
0.97303922 0.61862745 0.0078431373
0.058823529 0.58431373 0.27843137
0.079901961 0.58823529 0.28296569
0.11470588 0.58995098 0.2879902
0.14215686 0.59215686 0.29019608
0.16323529 0.58921569 0.2872549
0.19803922 0.59227941 0.2872549
0.23553922 0.59607843 0.28333333
0.27144608 0.60036765 0.27904412
0.31078431 0.60784314 0.27745098
0.3627451 0.62156863 0.26776961
0.41862745 0.6372549 0.25759804
0.48039216 0.65490196 0.24019608
0.54117647 0.67058824 0.22892157
0.5942402 0.68786765 0.21740196
0.66495098 0.70588235 0.15882353
0.73933824 0.72316176 0.10257353
0.8127451 0.74117647 0.06372549
0.85330882 0.73664216 0.039705882
0.88921569 0.73039216 0.021813725
0.91960784 0.72046569 0.015686275
0.94460784 0.70833333 0.014705882
0.9682598 0.69522059 0.014705882
0.97941176 0.68235294 0.0125
0.98333333 0.67745098 0.011764706
0.98333333 0.67352941 0.011764706
0.14509804 0.62794118 0.32352941
0.15300245 0.62794118 0.32205882
0.17610294 0.62941176 0.32352941
0.19852941 0.628125 0.32383578
0.21519608 0.62794118 0.32083333
0.23872549 0.62941176 0.31813725
0.27205882 0.63125 0.31629902
0.30686275 0.63578431 0.31868873
0.34166667 0.64117647 0.31568627
0.37800245 0.65300245 0.30931373
0.41348039 0.66421569 0.30232843
0.46666667 0.68039216 0.29509804
0.51960784 0.69509804 0.29485294
0.57156863 0.70980392 0.29430147
0.64154412 0.72647059 0.25269608
0.70484069 0.73921569 0.22297794
0.77058824 0.75343137 0.2
0.825 0.7622549 0.14607843
0.88186275 0.77254902 0.090686275
0.92040441 0.77107843 0.071568627
0.94583333 0.76078431 0.062254902
0.97352941 0.74803922 0.040502451
0.98872549 0.7377451 0.021323529
0.99307598 0.73137255 0.014154412
0.98970588 0.72107843 0.011764706
0.22352941 0.66666667 0.36078431
0.22745098 0.66666667 0.36078431
0.23333333 0.66666667 0.35686275
0.2504902 0.66666667 0.35686275
0.26666667 0.66470588 0.35294118
0.28284314 0.66666667 0.34901961
0.30686275 0.66666667 0.35196078
0.33921569 0.67058824 0.35686275
0.37254902 0.6745098 0.35686275
0.40343137 0.68088235 0.35294118
0.43431373 0.69215686 0.34803922
0.47598039 0.70539216 0.34509804
0.52745098 0.71960784 0.34313725
0.5754902 0.73431373 0.33235294
0.63431373 0.74803922 0.30784314
0.69509804 0.7622549 0.2872549
0.75294118 0.77647059 0.27058824
0.80686275 0.78676471 0.24362745
0.86470588 0.80098039 0.20588235
0.91568627 0.81127451 0.18529412
0.94705882 0.80588235 0.1627451
0.97401961 0.79607843 0.10735294
0.99607843 0.78921569 0.057843137
1 0.77892157 0.028431373
0.99607843 0.77254902 0.011764706
0.29313725 0.70392157 0.39803922
0.29313725 0.70392157 0.39803922
0.2935049 0.70330882 0.39411765
0.30196078 0.70147059 0.39197304
0.31495098 0.70147059 0.39019608
0.32824755 0.70147059 0.39019608
0.34509804 0.70330882 0.39129902
0.375 0.70392157 0.3995098
0.40196078 0.70539216 0.40588235
0.43039216 0.71176471 0.40588235
0.4627451 0.72205882 0.39375
0.49883578 0.73363971 0.38805147
0.53259804 0.74656863 0.38308824
0.57892157 0.76078431 0.36991422
0.63431373 0.77254902 0.35723039
0.6872549 0.78431373 0.34656863
0.74264706 0.79705882 0.33235294
0.79656863 0.81127451 0.31813725
0.85343137 0.82830882 0.30245098
0.90863971 0.84558824 0.29215686
0.94460784 0.84460784 0.26568627
0.96764706 0.83039216 0.21305147
0.99166667 0.82879902 0.18223039
0.9966299 0.82156863 0.14607843
0.99754902 0.81372549 0.10490196
0.35 0.74117647 0.43921569
0.34816176 0.74019608 0.43921569
0.34705882 0.74019608 0.43529412
0.35343137 0.7372549 0.43186275
0.36372549 0.7372549 0.43137255
0.37438725 0.7372549 0.43137255
0.39044118 0.74117647 0.43137255
0.41617647 0.74117647 0.43921569
0.43921569 0.74411765 0.44607843
0.46164216 0.74411765 0.44705882
0.48897059 0.75294118 0.43823529
0.52205882 0.76237745 0.43272059
0.55 0.77352941 0.42647059
0.58566176 0.78419118 0.42058824
0.63455882 0.79705882 0.41446078
0.6814951 0.80772059 0.40833333
0.73235294 0.82156863 0.39803922
0.78835784 0.83578431 0.38382353
0.84313725 0.85 0.37034314
0.89375 0.86029412 0.3567402
0.92941176 0.86617647 0.34607843
0.95735294 0.86531863 0.32622549
0.98602941 0.86666667 0.31470588
0.99607843 0.86127451 0.28198529
0.99215686 0.85392157 0.24411765
0.40147059 0.77843137 0.48039216
0.40147059 0.77843137 0.48039216
0.40147059 0.77843137 0.47647059
0.40490196 0.77843137 0.47604167
0.41519608 0.775 0.47254902
0.4254902 0.77542892 0.47254902
0.43872549 0.78137255 0.47512255
0.45588235 0.78106618 0.47665441
0.47303922 0.77892157 0.48039216
0.49362745 0.77892157 0.48088235
0.51568627 0.78382353 0.48039216
0.54656863 0.79068627 0.47647059
0.57745098 0.8004902 0.47426471
0.60882353 0.81078431 0.47205882
0.65 0.82144608 0.46813725
0.68756127 0.83186275 0.46403186
0.7254902 0.84215686 0.45980392
0.77775735 0.85637255 0.44920343
0.83198529 0.86678922 0.43786765
0.87395833 0.87696078 0.4245098
0.91078431 0.88161765 0.41642157
0.94362745 0.88921569 0.4122549
0.97794118 0.89607843 0.41188725
0.98872549 0.896875 0.40159314
0.98872549 0.88872549 0.3745098
0.45686275 0.81568627 0.5254902
0.45490196 0.81446078 0.52156863
0.45686275 0.81372549 0.52156863
0.45882353 0.81372549 0.51960784
0.46862745 0.8127451 0.52058824
0.48284314 0.81176471 0.52352941
0.49705882 0.81372549 0.52696078
0.50539216 0.81372549 0.52598039
0.51960784 0.81372549 0.52352941
0.53382353 0.81372549 0.52352941
0.54901961 0.81764706 0.52401961
0.57328431 0.82132353 0.52352941
0.60392157 0.82745098 0.52352941
0.63504902 0.83578431 0.52352941
0.67107843 0.84803922 0.52205882
0.70637255 0.85637255 0.51691176
0.73921569 0.86470588 0.51176471
0.7745098 0.87696078 0.5129902
0.81568627 0.8872549 0.50686275
0.85686275 0.89362745 0.49656863
0.89313725 0.89901961 0.48823529
0.92941176 0.90637255 0.48431373
0.96421569 0.91323529 0.47941176
0.97990196 0.91568627 0.47647059
0.98235294 0.91372549 0.47254902
0.51323529 0.85245098 0.57156863
0.51697304 0.84852941 0.57156863
0.52071078 0.84852941 0.57512255
0.525 0.84852941 0.5754902
0.53480392 0.84681373 0.57892157
0.54852941 0.84509804 0.57941176
0.55882353 0.84509804 0.58284314
0.56501225 0.8463848 0.57922794
0.57156863 0.84901961 0.57892157
0.58823529 0.85245098 0.57941176
0.60477941 0.84901961 0.58296569
0.62113971 0.85202206 0.57990196
0.64166667 0.85833333 0.57941176
0.66568627 0.86470588 0.57941176
0.69227941 0.87463235 0.57904412
0.72303922 0.88088235 0.5713848
0.75392157 0.8872549 0.56764706
0.78480392 0.89754902 0.57009804
0.81164216 0.9064951 0.57022059
0.84509804 0.91072304 0.56415441
0.88406863 0.91666667 0.55808824
0.92261029 0.92297794 0.55238971
0.95343137 0.92904412 0.54509804
0.96960784 0.93039216 0.54411765
0.97598039 0.93039216 0.54411765
0.58137255 0.88039216 0.62941176
0.58529412 0.88272059 0.63039216
0.59019608 0.87941176 0.63333333
0.59656863 0.87941176 0.63688725
0.60392157 0.87941176 0.6372549
0.61678922 0.87941176 0.64117647
0.62156863 0.87941176 0.63897059
0.62659314 0.88235294 0.6372549
0.63333333 0.88333333 0.6372549
0.64607843 0.88333333 0.63970588
0.6620098 0.88333333 0.64117647
0.67561275 0.88333333 0.64117647
0.69166667 0.88921569 0.64117647
0.70686275 0.89522059 0.63995098
0.72352941 0.8997549 0.6372549
0.74656863 0.90392157 0.63333333
0.77745098 0.91176471 0.63235294
0.8064951 0.91813725 0.63088235
0.8245098 0.92132353 0.62254902
0.84595588 0.92708333 0.62512255
0.88088235 0.93382353 0.6245098
0.91654412 0.94056373 0.62022059
0.94411765 0.94313725 0.60686275
0.9622549 0.94742647 0.60882353
0.96862745 0.94803922 0.60980392
0.65343137 0.91421569 0.69117647
0.65735294 0.91421569 0.69117647
0.66127451 0.91421569 0.69301471
0.66715686 0.91421569 0.69491422
0.67426471 0.91421569 0.69754902
0.67971814 0.91421569 0.69754902
0.68517157 0.91421569 0.69754902
0.69117647 0.91421569 0.69810049
0.69509804 0.91421569 0.69901961
0.70539216 0.9151348 0.69901961
0.71960784 0.91568627 0.70294118
0.72843137 0.91813725 0.70294118
0.73872549 0.91813725 0.70294118
0.75147059 0.92205882 0.70294118
0.76617647 0.92561275 0.69938725
0.78529412 0.92990196 0.69901961
0.80441176 0.93382353 0.69901961
0.82745098 0.94019608 0.69264706
0.84203431 0.94019608 0.68333333
0.85716912 0.94626225 0.68333333
0.88186275 0.95392157 0.68995098
0.91470588 0.9596201 0.68627451
0.93480392 0.95833333 0.66862745
0.95349265 0.96280637 0.67303922
0.96323529 0.96617647 0.6754902
0.71372549 0.94117647 0.74117647
0.71617647 0.94117647 0.74117647
0.71372549 0.9372549 0.7372549
0.72107843 0.94117647 0.74117647
0.72941176 0.94117647 0.74509804
0.72941176 0.94068627 0.74117647
0.73235294 0.9372549 0.74117647
0.73872549 0.94117647 0.74264706
0.74509804 0.94117647 0.74509804
0.75931373 0.94509804 0.75147059
0.76470588 0.94117647 0.75294118
0.77205882 0.94117647 0.75294118
0.78039216 0.94117647 0.75294118
0.79264706 0.94558824 0.75686275
0.80294118 0.94901961 0.75784314
0.81715686 0.9504902 0.75294118
0.82745098 0.95294118 0.75294118
0.84166667 0.95686275 0.74411765
0.85294118 0.95686275 0.73235294
0.86960784 0.96078431 0.73333333
0.89019608 0.97058824 0.74509804
0.91078431 0.97254902 0.74411765
0.92745098 0.97254902 0.72647059
0.94656863 0.97794118 0.72843137
0.95686275 0.98039216 0.73333333
0.0039215686 0.025980392 0.044117647
0.0054534314 0.028431373 0.042647059
0.028553922 0.042647059 0.044117647
0.065196078 0.052941176 0.047732843
0.1 0.054166667 0.042892157
0.13560049 0.046568627 0.035784314
0.18578431 0.034068627 0.032352941
0.24411765 0.028921569 0.03682598
0.30588235 0.030392157 0.033823529
0.36764706 0.036764706 0.024448529
0.43431373 0.03247549 0.024877451
0.50294118 0.024019608 0.028431373
0.5745098 0.017647059 0.030882353
0.64166667 0.0078431373 0.028247549
0.6935049 0.006372549 0.021568627
0.74405637 0.0039215686 0.019607843
0.78823529 0.0078431373 0.022058824
0.82941176 0.011764706 0.018137255
0.87058824 0.011764706 0.010784314
0.91176471 0.01127451 0.0039215686
0.93970588 0.045098039 0
0.95765931 0.10128676 0
0.97512255 0.15772059 0.0024509804
0.98333333 0.1877451 0.0024509804
0.99215686 0.21470588 0.0039215686
0.0054534314 0.04564951 0.046568627
0.0072916667 0.046223958 0.044692096
0.026608456 0.055530025 0.049019608
0.062561275 0.066942402 0.057375919
0.09877451 0.06127451 0.05
0.13670343 0.05569087 0.036703431
0.19264706 0.05301777 0.032352941
0.25014553 0.046913297 0.031985294
0.30833333 0.039215686 0.028982843
0.36917892 0.038296569 0.02165288
0.4368413 0.031372549 0.023360907
0.50589001 0.026164216 0.028316483
0.57405025 0.017647059 0.02935049
0.63823529 0.0076593137 0.027941176
0.69313725 0.005223652 0.020955882
0.74405637 0.0039215686 0.018344056
0.78823529 0.0078431373 0.018688725
0.82941176 0.011764706 0.016030944
0.87120098 0.012515319 0.012545956
0.91305913 0.01316636 0.0029411765
0.9372549 0.061060049 0.00076593137
0.9577742 0.11868873 0.0015318627
0.97627145 0.16855086 0.0013020833
0.98970588 0.2098652 0.0024509804
0.99515931 0.23137255 0.0039215686
0.0039215686 0.068627451 0.048406863
0.009375 0.071446078 0.051271446
0.020588235 0.0765625 0.056219363
0.055560662 0.080713848 0.06127451
0.093321078 0.079473039 0.054411765
0.14407169 0.078599877 0.040916054
0.19929534 0.078645833 0.030637255
0.25672488 0.075980392 0.028431373
0.31654412 0.067769608 0.024509804
0.37480086 0.060906863 0.022058824
0.43841912 0.050459559 0.022671569
