site/assets/luts/sha256-5d135d93336bbf8536e9c655c9b60d88d11499a5e42904d049cbd022ac784bbf.cube
# LUTr-Schema-Version: 2
# LUTr-ID: sha256-5d135d93336bbf8536e9c655c9b60d88d11499a5e42904d049cbd022ac784bbf
# LUTr-Title: polaroid 690 cold --
# LUTr-Collection: Natron HaldCLUT
# LUTr-Collection-ID: natron-haldclut-presets
# LUTr-Source: https://github.com/NatronGitHub/clut
# LUTr-Retrieved: 2026-07-27
# LUTr-Source-File: submissions/natron-haldclut-presets/instant_pro/polaroid_690_cold_--.png
# LUTr-Source-Format: HALD-PNG
# LUTr-Source-SHA256: 5d135d93336bbf8536e9c655c9b60d88d11499a5e42904d049cbd022ac784bbf
# LUTr-License: CC-BY-SA-4.0
# LUTr-License-URL: https://github.com/NatronGitHub/clut#license
# LUTr-License-Basis: repo-license-file
# LUTr-Transform-Class: film-emulation
# LUTr-Tags: creative, film, film-emulation, hald-clut, natron, png, cool, cube
# LUTr-Input-Color-Space: srgb
# LUTr-Input-Gamut: rec709
# LUTr-Input-Transfer: srgb
# LUTr-Output-Color-Space: srgb
# LUTr-Output-Gamut: rec709
# LUTr-Output-Transfer: srgb
# LUTr-Color-Space-Confidence: assumed-display-referred
# LUTr-Domain-Normalized: true
# LUTr-Shaper: none
# LUTr-Original-Grid: 64x64x64
# LUTr-Conversion-Grid: 25x25x25
# LUTr-Conversion-Interpolation: trilinear
# LUTr-Conversion-Method: HALD-PNG LUT image decoded at 16-bit and sampled to 25x25x25 3D CUBE
# LUTr-Conversion-Tool: LUTr scripts/convert-all-to-cube.mjs 2.0.0
# LUTr-Conversion-Date: 2026-07-27
# LUTr-Note: Preserve this metadata and the upstream license notices when redistributing.
TITLE "polaroid 690 cold --"
LUT_3D_SIZE 25
DOMAIN_MIN 0 0 0
DOMAIN_MAX 1 1 1
0 0.0078431373 0.0039215686
0.015196078 0.010294118 0.006372549
0.045098039 0.016666667 0.012745098
0.069607843 0.019607843 0.015686275
0.096078431 0.015686275 0.019607843
0.15637255 0.015686275 0.020098039
0.22156863 0.011764706 0.023529412
0.28333333 0.010294118 0.022058824
0.34509804 0.0078431373 0.015686275
0.4004902 0.0014705882 0.0093137255
0.45196078 0 0.0078431373
0.5 0 0.011764706
0.54509804 0 0.01372549
0.58627451 0 0.01127451
0.62745098 0 0.0049019608
0.66617647 0 0.0014705882
0.71764706 0 0.011764706
0.75637255 0 0.0093137255
0.78431373 0 0.0019607843
0.82156863 0 0.026470588
0.8627451 0 0.023529412
0.90343137 0 0.00049019608
0.9372549 0 0.0039215686
0.97303922 0 0.0039215686
0.99607843 0 0
0 0.042647059 0.0078431373
0.0072916667 0.044178922 0.022426471
0.029044118 0.04754902 0.0099264706
0.058823529 0.049203431 0.013051471
0.10245098 0.049754902 0.016421569
0.16243873 0.048529412 0.019791667
0.22794118 0.038235294 0.026470588
0.28878676 0.025490196 0.029901961
0.34509804 0.016666667 0.018137255
0.4004902 0.0048406863 0.0063112745
0.45196078 0.0006127451 0.0049019608
0.50196078 0.0037377451 0.01127451
0.5495098 0.0039215686 0.011764706
0.59528186 0.0039215686 0.01127451
0.6377451 0.0039215686 0.0049019608
0.67800245 0 0.0053921569
0.72794118 0 0.015686275
0.76329657 0 0.013235294
0.78970588 0 0.01127451
0.821875 0 0.030208333
0.8627451 0 0.025490196
0.90128676 0 0.010294118
0.93431373 0 0.011397059
0.96966912 0 0.009375
0.99215686 0 0.0039215686
0 0.078431373 0.0078431373
0 0.078431373 0.0078431373
0.0093137255 0.081617647 0.0031862745
0.056372549 0.085784314 0.010416667
0.10784314 0.089705882 0.015196078
0.16813725 0.089705882 0.015686275
0.2372549 0.083333333 0.018627451
0.3 0.069730392 0.02254902
0.35392157 0.054901961 0.015686275
0.40931373 0.040073529 0.0088235294
0.46078431 0.017401961 0.012745098
0.5122549 0.012745098 0.01629902
0.56078431 0.0083333333 0.01372549
0.60784314 0.0074754902 0.0078431373
0.64803922 0.0046568627 0.0078431373
0.68676471 0.0006127451 0.0093137255
0.73333333 0 0.015686275
0.76629902 0 0.012377451
0.79583333 0 0.017647059
0.82561275 0 0.031862745
0.8627451 0 0.030392157
0.9 0 0.024019608
0.93431373 0 0.017401961
0.96519608 0 0.014215686
0.98823529 0 0.0039215686
0 0.12352941 0.011764706
0 0.12352941 0.0078431373
0.0020833333 0.12696078 0.0091911765
0.037745098 0.13088235 0.011703431
0.085784314 0.13480392 0.012009804
0.16170343 0.13131127 0.012193627
0.24276961 0.12708333 0.0091911765
0.31029412 0.11636029 0.0086397059
0.36421569 0.1 0.0083333333
0.41568627 0.075980392 0.015502451
0.4685049 0.043137255 0.024019608
0.52254902 0.023468137 0.023958333
0.57401961 0.01372549 0.01372549
0.62107843 0.0078431373 0.0078431373
0.65833333 0.0078431373 0.0078431373
0.69558824 0 0.0058823529
0.7372549 0 0.011764706
0.76813725 0 0.014215686
0.80159314 0 0.024509804
0.82941176 0 0.034803922
0.86446078 0 0.03504902
0.9 0.003002451 0.030882353
0.93431373 0 0.023161765
0.96519608 0 0.014215686
0.98823529 0 0.0073529412
0 0.1745098 0.011764706
0 0.1745098 0.011764706
0.0034313725 0.1754902 0.01127451
0.0088235294 0.18014706 0.011519608
0.060784314 0.18039216 0.0068627451
0.15098039 0.17622549 0.0078431373
0.2372549 0.17107843 0.0049019608
0.32058824 0.16446078 0.00073529412
0.3745098 0.14509804 0.0098039216
0.42598039 0.12132353 0.018872549
0.47794118 0.093627451 0.02254902
0.53284314 0.068137255 0.021813725
0.58333333 0.030392157 0.0098039216
0.62745098 0.010294118 0.0039215686
0.66519608 0.01372549 0.0039215686
0.70318627 0 0.0019607843
0.73921569 0 0.0078431373
0.7752451 0.0012254902 0.018137255
0.80980392 0.0039215686 0.021568627
0.84362745 0.00049019608 0.021568627
0.87745098 0.00098039216 0.021568627
0.91151961 0.0056372549 0.025490196
0.94460784 0 0.018627451
0.96960784 0 0.012990196
0.98823529 0 0.0078431373
0 0.22205882 0.011764706
0 0.22420343 0.011764706
0 0.2254902 0.0078431373
0 0.2254902 0.0044117647
0.049264706 0.22598039 0.006127451
0.14166667 0.22598039 0.01182598
0.23125 0.22254902 0.0091911765
0.3158701 0.2223652 0.0042279412
0.38088235 0.21078431 0.0039215686
0.43872549 0.19705882 0.0073529412
0.49607843 0.17843137 0.01127451
0.55147059 0.15140931 0.01127451
0.59681373 0.1129902 0.0041666667
0.64209559 0.090196078 0.0039215686
0.67904412 0.073161765 0.0040441176
0.71488971 0.049019608 0.0017769608
0.74607843 0.024019608 0.012254902
0.78253676 0.010968137 0.023713235
0.82009804 0.0084558824 0.014705882
0.85735294 0.00055147059 0.0078431373
0.89264706 0.0019607843 0.01127451
0.92444853 0.0073529412 0.015196078
0.95833333 0 0.01127451
0.97579657 0 0.0078431373
0.99215686 0 0.0039215686
0 0.27058824 0.011764706
0 0.27058824 0.011764706
0 0.27058824 0.010784314
0.0025735294 0.27058824 0.0078431373
0.052941176 0.27205882 0.0098039216
0.14117647 0.27487745 0.014828431
0.22818627 0.28039216 0.012745098
0.31041667 0.28039216 0.0096813725
0.38431373 0.2754902 0.0039215686
0.44901961 0.2622549 0.0039215686
0.51151961 0.25490196 0.00098039216
0.56948529 0.23933824 0.00098039216
0.61078431 0.21323529 0.0044117647
0.65882353 0.19313725 0.0039215686
0.69632353 0.17279412 0.0039215686
0.72892157 0.15306373 0.0089460784
0.7627451 0.12745098 0.02254902
0.79644608 0.093137255 0.025
0.83259804 0.065931373 0.013970588
0.87058824 0.051102941 0.0044117647
0.90294118 0.041176471 0.0044117647
0.93811275 0.027328431 0.0074754902
0.96740196 0 0.00098039216
0.98296569 0 0.0039215686
0.99607843 0 0.00098039216
0 0.31176471 0.011764706
0 0.31176471 0.0078431373
0 0.31176471 0.0039215686
0 0.3153799 0.00030637255
0.043382353 0.31838235 0.0058823529
0.12107843 0.3213848 0.012254902
0.20784314 0.32647059 0.013848039
0.3004902 0.33284314 0.010294118
0.38823529 0.33676471 0.0039215686
0.44761029 0.32009804 0.0039215686
0.50637255 0.30723039 0.0033088235
0.56421569 0.30147059 0.0036151961
0.61691176 0.29264706 0.0039215686
0.67291667 0.28988971 0
0.71335784 0.2754902 0.0050245098
0.74552696 0.25882353 0.014154412
0.77941176 0.23823529 0.023529412
0.81366422 0.21219363 0.025
0.84901961 0.20098039 0.018627451
0.88106618 0.18449755 0.0083333333
0.9125 0.16789216 0.0039215686
0.94656863 0.13792892 0.0052083333
0.96764706 0.12316176 0.0039215686
0.98186275 0.12401961 0.0063112745
0.99215686 0.12254902 0.0053921569
0 0.35294118 0.0078431373
0 0.35294118 0.0053921569
0 0.35686275 0.0078431373
0 0.35686275 0.0078431373
0.015686275 0.36078431 0.0098039216
0.090686275 0.36470588 0.015686275
0.18627451 0.36862745 0.015686275
0.27990196 0.37401961 0.010294118
0.36862745 0.37647059 0.0039215686
0.43431373 0.36617647 0.0053921569
0.49509804 0.35980392 0.0039215686
0.5504902 0.35686275 0.0078431373
0.60784314 0.35294118 0.0078431373
0.66568627 0.35294118 0.0039215686
0.71764706 0.35686275 0.0068627451
0.75490196 0.34509804 0.017156863
0.79215686 0.3372549 0.023529412
0.82696078 0.32696078 0.025
0.85784314 0.30784314 0.019607843
0.88872549 0.2872549 0.012254902
0.91960784 0.28039216 0.0078431373
0.9504902 0.26519608 0.0039215686
0.97156863 0.25784314 0.0039215686
0.98186275 0.2627451 0.0078431373
0.98823529 0.25882353 0.011764706
0 0.39656863 0.0014705882
0 0.39411765 0.0014705882
0 0.39803922 0.0011029412
0 0.39803922 0
0.023039216 0.40196078 0.0058823529
0.068933824 0.40214461 0.0093137255
0.16029412 0.40588235 0.011151961
0.25539216 0.41127451 0.014215686
0.34656863 0.41764706 0.0053921569
0.42401961 0.41764706 0.003002451
0.48186275 0.41409314 0.0067401961
0.53970588 0.4122549 0.011580882
0.59754902 0.41078431 0.011764706
0.65490196 0.40863971 0.0078431373
0.70735294 0.41519608 0.0057598039
0.75189951 0.41623775 0.010784314
0.78970588 0.40931373 0.021078431
0.82941176 0.40839461 0.023529412
0.86176471 0.39693627 0.020098039
0.89264706 0.38333333 0.015686275
0.92352941 0.38284314 0.016666667
0.95802696 0.37696078 0.012928922
0.97438725 0.37107843 0.006004902
0.98186275 0.36476716 0.0093137255
0.99215686 0.35539216 0.011764706
0 0.43921569 0.00098039216
0 0.43529412 0.0028186275
0 0.43529412 0.0078431373
0 0.43823529 0.0074754902
0.0014705882 0.43823529 0.0058823529
0.039215686 0.43835784 0.0040441176
0.13897059 0.44289216 0.0085784314
0.23872549 0.44816176 0.011764706
0.32843137 0.45392157 0.0078431373
0.40490196 0.45845588 0.0039215686
0.46666667 0.4627451 0.0049019608
0.5254902 0.46666667 0.011151961
0.58529412 0.46666667 0.010784314
0.64460784 0.46384804 0.0068627451
0.69705882 0.47058824 0.0031862745
0.74607843 0.47830882 0.0044117647
0.78431373 0.47647059 0.014705882
0.8254902 0.4810049 0.018627451
0.86593137 0.48137255 0.01372549
0.89669118 0.4754902 0.021691176
0.92794118 0.4754902 0.059313725
0.95036765 0.46973039 0.052573529
0.96985294 0.46053922 0.033088235
0.98517157 0.45980392 0.015808824
0.99607843 0.45294118 0.010784314
0 0.47647059 0.01127451
0 0.47647059 0.01127451
0 0.47647059 0.015196078
0 0.47647059 0.015196078
0 0.47303922 0.0093137255
0.035784314 0.47346814 0.0078431373
0.12892157 0.47953431 0.014338235
0.2254902 0.48449755 0.013909314
0.31421569 0.48872549 0.0078431373
0.38302696 0.49479167 0.0039215686
0.44607843 0.50012255 0.0039215686
0.51127451 0.50735294 0.0044117647
0.57303922 0.50980392 0.0039215686
0.63137255 0.51525735 0
0.68578431 0.51948529 0
0.73235294 0.52714461 0.00018382353
0.77352941 0.53137255 0.0078431373
0.81685049 0.53903186 0.0080269608
0.85980392 0.54669118 0.0042892157
0.89705882 0.55006127 0.043688725
0.93137255 0.55906863 0.098284314
0.94650735 0.55245098 0.083823529
0.96409314 0.54509804 0.065808824
0.98333333 0.5403799 0.046078431
1 0.53823529 0.031862745
0 0.51764706 0.019607843
0 0.51764706 0.021568627
0 0.51372549 0.021568627
0 0.51372549 0.017892157
0 0.51176471 0.010784314
0.020098039 0.5120098 0.006127451
0.12107843 0.51519608 0.013235294
0.21838235 0.51838235 0.012990196
0.3 0.52352941 0.0098039216
0.36372549 0.53186275 0.0085784314
0.42941176 0.53823529 0.006372549
0.49117647 0.54681373 0.0078431373
0.55294118 0.55196078 0.0039215686
0.6125 0.55906863 0.0036764706
0.66568627 0.56078431 0
0.7125 0.56936275 0
0.75686275 0.57843137 0
0.8 0.58553922 0
0.84509804 0.58823529 0.0049019608
0.88455882 0.59166667 0.034803922
0.92254902 0.6 0.071568627
0.94607843 0.60392157 0.093137255
0.96372549 0.6004902 0.10588235
0.98186275 0.59730392 0.10588235
0.99607843 0.59411765 0.10392157
0 0.55833333 0.023529412
0 0.55490196 0.027757353
0 0.55490196 0.031862745
0 0.55140931 0.027941176
0 0.55098039 0.016176471
0.0053308824 0.55098039 0.0044117647
0.11176471 0.55098039 0.0078431373
0.20863971 0.55441176 0.0076593137
0.28529412 0.55882353 0.0078431373
0.34754902 0.56862745 0.011764706
0.41323529 0.5754902 0.011764706
0.47156863 0.58578431 0.0087622549
0.53259804 0.59607843 0.0058823529
0.59019608 0.60196078 0.0039215686
0.64509804 0.60196078 0.00012254902
0.69509804 0.60735294 0
0.74019608 0.61764706 0
0.78823529 0.62745098 0
0.83137255 0.62904412 0.0047794118
0.8721201 0.62941176 0.021629902
0.91323529 0.63504902 0.039705882
0.94613971 0.63768382 0.057843137
0.96678922 0.64362745 0.09497549
0.98333333 0.6504902 0.14577206
0.99656863 0.65 0.17107843
0 0.59607843 0.023529412
0 0.59607843 0.036764706
0 0.59607843 0.042156863
0 0.59215686 0.038235294
0.0029411765 0.59215686 0.025
0.015196078 0.59215686 0.010784314
0.11568627 0.58995098 0.011519608
0.20294118 0.59215686 0.006372549
0.2745098 0.59313725 0.0078431373
0.33909314 0.60061275 0.010661765
0.40294118 0.60980392 0.011764706
0.46384804 0.62009804 0.0091911765
0.52058824 0.63039216 0.0044117647
0.57303922 0.63676471 0.0039215686
0.62745098 0.64240196 0.0039215686
0.67598039 0.64558824 0
0.72647059 0.65196078 0.0029411765
0.77794118 0.65833333 0.0039215686
0.8245098 0.66078431 0.0046568627
0.86568627 0.66372549 0.0087009804
0.90588235 0.66911765 0.013235294
0.9439951 0.67463235 0.019607843
0.97058824 0.67843137 0.052941176
0.98578431 0.68480392 0.11372549
0.99607843 0.68823529 0.16470588
0 0.6372549 0.044607843
0 0.63817402 0.047058824
0.00036764706 0.6372549 0.047058824
0.0039215686 0.6372549 0.043321078
0.00073529412 0.63333333 0.02745098
0.014705882 0.63333333 0.011764706
0.11678922 0.63039216 0.011764706
0.21715686 0.62941176 0.0087622549
0.28137255 0.63186275 0.0093137255
0.33866422 0.6348652 0.011764706
0.39656863 0.64068627 0.0078431373
0.45459559 0.65098039 0.0042279412
0.51029412 0.66127451 0.0039215686
0.56305147 0.66764706 0.0039215686
0.61323529 0.67401961 0.0039215686
0.66525735 0.67892157 0.0063112745
0.72009804 0.68284314 0.0078431373
0.77156863 0.68676471 0.0078431373
0.81813725 0.69068627 0.0078431373
0.85931373 0.69460784 0.0065563725
0.89926471 0.6997549 0.0051470588
0.93921569 0.70637255 0.0021446078
0.97009804 0.71029412 0.019852941
0.98339461 0.7127451 0.098161765
0.99607843 0.71421569 0.13823529
0 0.67843137 0.054901961
0 0.68235294 0.048529412
0.0039215686 0.67843137 0.051960784
0.0078431373 0.67843137 0.054901961
0.0098039216 0.6745098 0.035294118
0.039215686 0.67401961 0.019117647
0.13529412 0.67058824 0.015686275
0.22745098 0.67058824 0.0078431373
0.29019608 0.67058824 0.0078431373
0.34803922 0.67303922 0.011764706
0.39705882 0.67843137 0.0068627451
0.44852941 0.68235294 0.00049019608
0.50392157 0.69019608 0.0039215686
0.55539216 0.69852941 0.0039215686
0.60686275 0.70490196 0.0039215686
0.65833333 0.70980392 0.0078431373
0.70980392 0.71372549 0.011764706
0.76127451 0.71617647 0.011764706
0.80882353 0.71862745 0.0078431373
0.85294118 0.725 0.0044117647
0.89411765 0.72745098 0.0039215686
0.93480392 0.73333333 0.0039215686
0.95980392 0.7372549 0.023529412
0.9754902 0.7372549 0.07254902
0.99607843 0.74117647 0.11372549
0 0.71715686 0.075490196
0 0.71715686 0.071568627
0.0039215686 0.71678922 0.069117647
0.013419118 0.71568627 0.065686275
0.061029412 0.7125 0.057843137
0.11911765 0.71145833 0.043321078
0.18333333 0.70931373 0.027941176
0.23933824 0.70784314 0.0069852941
0.3004902 0.70784314 0.006372549
0.36078431 0.70784314 0.0078431373
0.41372549 0.70931373 0.0050245098
0.4627451 0.71323529 0.0039215686
0.51029412 0.71911765 0.006372549
0.55753676 0.72910539 0.0039215686
0.60294118 0.73578431 0.0029411765
0.65741422 0.73823529 0.0053921569
0.70980392 0.74068627 0.0078431373
0.75882353 0.74368873 0.0093137255
0.80208333 0.74852941 0.0072303922
0.84656863 0.75214461 0.0039215686
0.89019608 0.75637255 0.0039215686
0.92696078 0.76029412 0.0044117647
0.95134804 0.76139706 0.025612745
0.97395833 0.76421569 0.052941176
0.99754902 0.76568627 0.079901961
0 0.75196078 0.091176471
0.015318627 0.75196078 0.09497549
0.015441176 0.75196078 0.084558824
0.063235294 0.74938725 0.086151961
0.13235294 0.74803922 0.088235294
0.18578431 0.74509804 0.067769608
0.22941176 0.74411765 0.05122549
0.28186275 0.74411765 0.037377451
0.32941176 0.74117647 0.029411765
0.37647059 0.74019608 0.012990196
0.4254902 0.74117647 0.0031862745
0.47696078 0.74411765 0.0088235294
0.52303922 0.74803922 0.012254902
0.56776961 0.75502451 0.0078431373
0.6127451 0.75955882 0.0049019608
0.6622549 0.7627451 0.0056372549
0.71372549 0.76372549 0.0078431373
0.75980392 0.76948529 0.0078431373
0.8 0.7747549 0.0039215686
0.84117647 0.77928922 0.0049019608
0.88382353 0.78235294 0.006372549
0.91911765 0.78333333 0.0040441176
0.94705882 0.78627451 0.019852941
0.97058824 0.78835784 0.046568627
0.9872549 0.79117647 0.069607843
0.099019608 0.78284314 0.12009804
0.10698529 0.78284314 0.12401961
0.12107843 0.78284314 0.12352941
0.15343137 0.78284314 0.12653186
0.20931373 0.77892157 0.11568627
0.25606618 0.77892157 0.099448529
0.29166667 0.77892157 0.085294118
0.32910539 0.77714461 0.071568627
0.37058824 0.775 0.053431373
0.40784314 0.7723652 0.028615196
0.44656863 0.77205882 0.019117647
0.49460784 0.775 0.026409314
0.54019608 0.77720588 0.019117647
0.58529412 0.78284314 0.0078431373
0.62683824 0.78333333 0.0078431373
0.66960784 0.78694853 0.0076593137
0.71764706 0.7872549 0.0039215686
0.7627451 0.79332108 0.0039215686
0.80392157 0.79987745 0.0074754902
0.84466912 0.80294118 0.011703431
0.88063725 0.80465686 0.0098039216
0.91525735 0.80729167 0.0082720588
0.94607843 0.81066176 0.012132353
0.97285539 0.81439951 0.018811275
0.99166667 0.81813725 0.037254902
0.23333333 0.80980392 0.14509804
0.23333333 0.80980392 0.15343137
0.22990196 0.81078431 0.16323529
0.25073529 0.81372549 0.16813725
0.29215686 0.8127451 0.16078431
0.3127451 0.81372549 0.14436275
0.34019608 0.81372549 0.13039216
0.37647059 0.81102941 0.11470588
0.41568627 0.80980392 0.094117647
0.4504902 0.80661765 0.077941176
0.48186275 0.80196078 0.065686275
0.52328431 0.80563725 0.06127451
0.56176471 0.80588235 0.043137255
0.60171569 0.80980392 0.019607843
0.63970588 0.80980392 0.019607843
0.68112745 0.80980392 0.022058824
0.72352941 0.81372549 0.011764706
0.76862745 0.82009804 0.0058823529
0.81176471 0.82794118 0.010294118
0.84926471 0.82941176 0.011764706
0.88039216 0.82941176 0.011764706
0.91323529 0.83333333 0.011764706
0.94411765 0.8372549 0.011764706
0.97230392 0.84117647 0.0078431373
0.99803922 0.84509804 0.0019607843
0.30441176 0.84460784 0.18627451
0.31256127 0.84460784 0.18872549
0.32156863 0.84460784 0.19509804
0.3348652 0.84460784 0.20496324
0.35171569 0.84681373 0.20563725
0.36813725 0.84852941 0.18927696
0.38872549 0.84852941 0.17254902
0.42254902 0.84509804 0.15765931
0.45686275 0.84460784 0.14313725
0.4877451 0.84068627 0.12696078
0.5185049 0.83590686 0.11029412
0.54901961 0.83333333 0.096629902
0.58357843 0.8370098 0.090931373
0.61905637 0.84068627 0.080882353
0.65588235 0.84375 0.073651961
0.69705882 0.84479167 0.072058824
0.74166667 0.84852941 0.057352941
0.77892157 0.85116422 0.025980392
0.81605392 0.85637255 0.011887255
0.85 0.85680147 0.016176471
0.88455882 0.86053922 0.022303922
0.91911765 0.86470588 0.015196078
0.95012255 0.8685049 0.0078431373
0.97205882 0.87205882 0.0078431373
0.99264706 0.87598039 0.0039215686
0.35882353 0.87843137 0.23039216
0.36617647 0.8754902 0.22928922
0.37426471 0.87843137 0.2377451
0.38933824 0.88198529 0.23627451
0.40343137 0.88235294 0.23823529
0.41703431 0.88333333 0.22781863
0.43946078 0.88333333 0.2129902
0.47291667 0.88235294 0.20208333
0.50196078 0.87843137 0.19117647
0.52708333 0.87303922 0.18198529
0.55294118 0.87230392 0.16568627
0.58026961 0.8745098 0.15539216
0.61078431 0.8745098 0.1495098
0.64264706 0.8754902 0.14264706
0.67647059 0.87769608 0.13921569
0.71764706 0.88051471 0.13272059
0.75490196 0.88235294 0.10784314
0.79068627 0.88627451 0.082352941
0.82254902 0.89117647 0.06495098
0.85637255 0.89411765 0.057230392
0.89117647 0.89656863 0.048039216
0.92340686 0.89938725 0.017769608
0.95465686 0.90294118 0.0078431373
0.9754902 0.90625 0.0074754902
0.99313725 0.90686275 0.0029411765
0.41519608 0.91421569 0.27794118
0.41819853 0.91176471 0.27310049
0.42892157 0.91421569 0.26862745
0.44558824 0.91783088 0.26862745
0.45171569 0.91495098 0.26715686
0.45900735 0.91145833 0.25949755
0.4879902 0.91727941 0.25257353
0.51862745 0.91905637 0.24601716
0.53921569 0.91176471 0.24215686
0.5622549 0.91121324 0.23088235
0.58713235 0.91237745 0.22242647
0.61470588 0.91568627 0.21323529
0.64166667 0.9129902 0.20808824
0.66862745 0.91207108 0.20471814
0.69803922 0.91421569 0.20453431
0.73229167 0.91813725 0.1971201
0.7622549 0.92205882 0.17892157
0.79705882 0.92506127 0.1622549
0.82855392 0.92843137 0.14375
0.86127451 0.93137255 0.1286152
0.89485294 0.93529412 0.11348039
0.92873775 0.9377451 0.058517157
0.95992647 0.93921569 0.020098039
0.98425245 0.94405637 0.011213235
0.98823529 0.94313725 0.011764706
0.45882353 0.94117647 0.31372549
0.46127451 0.94117647 0.30588235
0.47254902 0.94215686 0.30098039
0.48921569 0.94852941 0.29803922
0.49215686 0.94313725 0.29411765
0.49117647 0.93284314 0.28431373
0.53039216 0.95 0.29019608
0.5504902 0.94754902 0.28088235
0.56862745 0.94117647 0.27058824
0.58921569 0.94117647 0.26421569
0.61470588 0.94509804 0.2627451
0.64166667 0.95245098 0.2627451
0.66666667 0.94509804 0.25490196
0.69117647 0.94117647 0.2504902
0.71568627 0.94117647 0.25
0.74558824 0.94509804 0.24411765
0.77254902 0.94901961 0.23137255
0.80343137 0.95931373 0.22107843
0.83431373 0.96078431 0.20980392
0.86519608 0.96470588 0.18921569
0.9 0.9745098 0.1745098
0.93088235 0.97254902 0.13529412
0.96176471 0.97941176 0.11078431
0.98578431 0.96862745 0.015686275
0.98823529 0.96470588 0.015686275
0 0.015686275 0.034803922
0.0072916667 0.015134804 0.031801471
0.031862745 0.019607843 0.03627451
0.064889706 0.026348039 0.034803922
0.10220588 0.037009804 0.030147059
0.16127451 0.025857843 0.033517157
0.22757353 0.017279412 0.035906863
0.28970588 0.010294118 0.03627451
0.34901961 0.006372549 0.034803922
0.40441176 0.0039215686 0.034803922
0.45134804 0.0024509804 0.037622549
0.4973652 0.0037377451 0.03872549
0.54191176 0.0039215686 0.03872549
0.58382353 0.0012867647 0.034620098
0.62352941 0 0.027941176
0.6622549 0 0.024571078
0.70735294 0 0.024509804
0.74368873 0 0.024509804
0.77977941 0 0.025122549
0.81783088 0 0.034436275
0.85882353 0 0.031862745
0.89969363 0 0.026470588
0.93431373 0 0.020588235
0.96666667 0 0.016666667
0.98578431 0 0.010294118
0.0039215686 0.046017157 0.040257353
0.0048406863 0.046361826 0.038978248
0.021338848 0.050490196 0.034803922
0.054710478 0.055200674 0.032598039
0.098529412 0.062898284 0.033333333
0.16569393 0.053262868 0.034803922
0.22886029 0.03270527 0.039215686
0.29028033 0.017585784 0.041459865
0.34901961 0.0087622549 0.03627451
0.40441176 0.0042662377 0.032414216
0.451731 0.0035079657 0.035723039
0.50196078 0.0052619485 0.036205576
0.54782475 0.006372549 0.03627451
0.59264706 0.0047257966 0.032169118
0.63405331 0.0039215686 0.027190564
0.67254902 0.0026807598 0.025145527
0.71519608 0 0.024509804
0.75302543 0 0.025980392
0.78477328 0 0.024509804
0.82168352 0 0.03314951
0.86106005 0 0.029901961
0.89957874 0 0.026654412
0.93431373 0 0.020588235
0.966322 0 0.016666667
0.98431373 0 0.006372549
0.0029411765 0.081985294 0.041176471
0.0029411765 0.081985294 0.040027574
0.0088235294 0.085171569 0.037254902
0.045909926 0.091758578 0.037254902
0.096017157 0.096262255 0.037254902
0.16335784 0.092202819 0.035340074
0.23498775 0.078125 0.035631127
0.29630821 0.055882353 0.039215686
0.35392157 0.038235294 0.03627451
0.40908395 0.023820466 0.030637255
0.46078431 0.013020833 0.029074755
0.5122549 0.011764706 0.030269608
0.5588848 0.011764706 0.029166667
0.60525429 0.0078431373 0.026914828
0.64620098 0.0046262255 0.026960784
0.684375 0.003370098 0.025719975
0.72401961 0 0.023529412
0.75997243 0 0.024509804
0.79298407 0 0.026501225
0.82561275 0 0.034803922
0.86182598 0 0.031862745
0.8973652 0 0.030223652
0.93360907 0 0.023560049
0.96519608 0 0.014215686
0.98823529 0 0.0039215686
