site/assets/luts/sha256-32c48518530bfca63f0dc2dd38fc61241977de38b232181bd3ee58a058d7b5ec.cube
# LUTr-Schema-Version: 2
# LUTr-ID: sha256-32c48518530bfca63f0dc2dd38fc61241977de38b232181bd3ee58a058d7b5ec
# LUTr-Title: REDlogFilm to REDgamma
# LUTr-Collection: RED Conversion
# LUTr-Collection-ID: videovillage-red-conversion-luts
# LUTr-Source: https://github.com/videovillage/RED-Conversion-LUTs
# LUTr-Retrieved: 2026-07-27
# LUTr-Source-File: submissions/videovillage-red-conversion-luts/Masters/REDlogFilm_to_REDgamma.cube
# LUTr-Source-Format: CUBE
# LUTr-Source-SHA256: 32c48518530bfca63f0dc2dd38fc61241977de38b232181bd3ee58a058d7b5ec
# LUTr-License: MIT
# LUTr-License-URL: https://github.com/videovillage/RED-Conversion-LUTs/blob/master/LICENSE.md
# LUTr-License-Basis: repo-license-file
# LUTr-Transform-Class: camera-transform
# LUTr-Tags: technical, camera, red, redlogfilm, redgamma, cube
# LUTr-Input-Color-Space:
# LUTr-Input-Gamut: unspecified
# LUTr-Input-Transfer: unspecified
# LUTr-Output-Color-Space:
# LUTr-Output-Gamut: unspecified
# LUTr-Output-Transfer: unspecified
# LUTr-Color-Space-Confidence: unverified
# LUTr-Domain-Normalized: true
# LUTr-Shaper: none
# LUTr-Original-Grid: 1024
# LUTr-Conversion-Grid: 33x33x33
# LUTr-Conversion-Interpolation: linear
# LUTr-Conversion-Method: Source 1D CUBE sampled to browser-compatible 33x33x33 3D CUBE
# LUTr-Conversion-Tool: LUTr scripts/convert-all-to-cube.mjs 2.0.0
# LUTr-Conversion-Date: 2026-07-27
# LUTr-Conversion-Warning: A 1024-sample 1D CUBE was sampled to 33x33x33 for browser-compatible 3D CUBE hosting.
# LUTr-Note: Preserve this metadata and the upstream license notices when redistributing.
# LUTr-Upstream-Comment: Created by Tashi Trieu and Greg Cotten
TITLE "REDlogFilm to REDgamma"
LUT_3D_SIZE 33
DOMAIN_MIN 0 0 0
DOMAIN_MAX 1 1 1
0.071366445 0.071366445 0.071366445
0.071630184 0.071366445 0.071366445
0.071893922 0.071366445 0.071366445
0.07215766 0.071366445 0.071366445
0.075339975 0.071366445 0.071366445
0.088034068 0.071366445 0.071366445
0.10080049 0.071366445 0.071366445
0.11662029 0.071366445 0.071366445
0.13654917 0.071366445 0.071366445
0.16008502 0.071366445 0.071366445
0.189006 0.071366445 0.071366445
0.22519679 0.071366445 0.071366445
0.26735582 0.071366445 0.071366445
0.31839298 0.071366445 0.071366445
0.37938337 0.071366445 0.071366445
0.44796054 0.071366445 0.071366445
0.52206455 0.071366445 0.071366445
0.59803396 0.071366445 0.071366445
0.67254234 0.071366445 0.071366445
0.74273671 0.071366445 0.071366445
0.80508896 0.071366445 0.071366445
0.85925162 0.071366445 0.071366445
0.9019725 0.071366445 0.071366445
0.92704663 0.071366445 0.071366445
0.93976404 0.071366445 0.071366445
0.94814257 0.071366445 0.071366445
0.95548892 0.071366445 0.071366445
0.9617754 0.071366445 0.071366445
0.96796352 0.071366445 0.071366445
0.97372072 0.071366445 0.071366445
0.97920033 0.071366445 0.071366445
0.98415381 0.071366445 0.071366445
0.98654154 0.071366445 0.071366445
0.071366445 0.071630184 0.071366445
0.071630184 0.071630184 0.071366445
0.071893922 0.071630184 0.071366445
0.07215766 0.071630184 0.071366445
0.075339975 0.071630184 0.071366445
0.088034068 0.071630184 0.071366445
0.10080049 0.071630184 0.071366445
0.11662029 0.071630184 0.071366445
0.13654917 0.071630184 0.071366445
0.16008502 0.071630184 0.071366445
0.189006 0.071630184 0.071366445
0.22519679 0.071630184 0.071366445
0.26735582 0.071630184 0.071366445
0.31839298 0.071630184 0.071366445
0.37938337 0.071630184 0.071366445
0.44796054 0.071630184 0.071366445
0.52206455 0.071630184 0.071366445
0.59803396 0.071630184 0.071366445
0.67254234 0.071630184 0.071366445
0.74273671 0.071630184 0.071366445
0.80508896 0.071630184 0.071366445
0.85925162 0.071630184 0.071366445
0.9019725 0.071630184 0.071366445
0.92704663 0.071630184 0.071366445
0.93976404 0.071630184 0.071366445
0.94814257 0.071630184 0.071366445
0.95548892 0.071630184 0.071366445
0.9617754 0.071630184 0.071366445
0.96796352 0.071630184 0.071366445
0.97372072 0.071630184 0.071366445
0.97920033 0.071630184 0.071366445
0.98415381 0.071630184 0.071366445
0.98654154 0.071630184 0.071366445
0.071366445 0.071893922 0.071366445
0.071630184 0.071893922 0.071366445
0.071893922 0.071893922 0.071366445
0.07215766 0.071893922 0.071366445
0.075339975 0.071893922 0.071366445
0.088034068 0.071893922 0.071366445
0.10080049 0.071893922 0.071366445
0.11662029 0.071893922 0.071366445
0.13654917 0.071893922 0.071366445
0.16008502 0.071893922 0.071366445
0.189006 0.071893922 0.071366445
0.22519679 0.071893922 0.071366445
0.26735582 0.071893922 0.071366445
0.31839298 0.071893922 0.071366445
0.37938337 0.071893922 0.071366445
0.44796054 0.071893922 0.071366445
0.52206455 0.071893922 0.071366445
0.59803396 0.071893922 0.071366445
0.67254234 0.071893922 0.071366445
0.74273671 0.071893922 0.071366445
0.80508896 0.071893922 0.071366445
0.85925162 0.071893922 0.071366445
0.9019725 0.071893922 0.071366445
0.92704663 0.071893922 0.071366445
0.93976404 0.071893922 0.071366445
0.94814257 0.071893922 0.071366445
0.95548892 0.071893922 0.071366445
0.9617754 0.071893922 0.071366445
0.96796352 0.071893922 0.071366445
0.97372072 0.071893922 0.071366445
0.97920033 0.071893922 0.071366445
0.98415381 0.071893922 0.071366445
0.98654154 0.071893922 0.071366445
0.071366445 0.07215766 0.071366445
0.071630184 0.07215766 0.071366445
0.071893922 0.07215766 0.071366445
0.07215766 0.07215766 0.071366445
0.075339975 0.07215766 0.071366445
0.088034068 0.07215766 0.071366445
0.10080049 0.07215766 0.071366445
0.11662029 0.07215766 0.071366445
0.13654917 0.07215766 0.071366445
0.16008502 0.07215766 0.071366445
0.189006 0.07215766 0.071366445
0.22519679 0.07215766 0.071366445
0.26735582 0.07215766 0.071366445
0.31839298 0.07215766 0.071366445
0.37938337 0.07215766 0.071366445
0.44796054 0.07215766 0.071366445
0.52206455 0.07215766 0.071366445
0.59803396 0.07215766 0.071366445
0.67254234 0.07215766 0.071366445
0.74273671 0.07215766 0.071366445
0.80508896 0.07215766 0.071366445
0.85925162 0.07215766 0.071366445
0.9019725 0.07215766 0.071366445
0.92704663 0.07215766 0.071366445
0.93976404 0.07215766 0.071366445
0.94814257 0.07215766 0.071366445
0.95548892 0.07215766 0.071366445
0.9617754 0.07215766 0.071366445
0.96796352 0.07215766 0.071366445
0.97372072 0.07215766 0.071366445
0.97920033 0.07215766 0.071366445
0.98415381 0.07215766 0.071366445
0.98654154 0.07215766 0.071366445
0.071366445 0.075339975 0.071366445
0.071630184 0.075339975 0.071366445
0.071893922 0.075339975 0.071366445
0.07215766 0.075339975 0.071366445
0.075339975 0.075339975 0.071366445
0.088034068 0.075339975 0.071366445
0.10080049 0.075339975 0.071366445
0.11662029 0.075339975 0.071366445
0.13654917 0.075339975 0.071366445
0.16008502 0.075339975 0.071366445
0.189006 0.075339975 0.071366445
0.22519679 0.075339975 0.071366445
0.26735582 0.075339975 0.071366445
0.31839298 0.075339975 0.071366445
0.37938337 0.075339975 0.071366445
0.44796054 0.075339975 0.071366445
0.52206455 0.075339975 0.071366445
0.59803396 0.075339975 0.071366445
0.67254234 0.075339975 0.071366445
0.74273671 0.075339975 0.071366445
0.80508896 0.075339975 0.071366445
0.85925162 0.075339975 0.071366445
0.9019725 0.075339975 0.071366445
0.92704663 0.075339975 0.071366445
0.93976404 0.075339975 0.071366445
0.94814257 0.075339975 0.071366445
0.95548892 0.075339975 0.071366445
0.9617754 0.075339975 0.071366445
0.96796352 0.075339975 0.071366445
0.97372072 0.075339975 0.071366445
0.97920033 0.075339975 0.071366445
0.98415381 0.075339975 0.071366445
0.98654154 0.075339975 0.071366445
0.071366445 0.088034068 0.071366445
0.071630184 0.088034068 0.071366445
0.071893922 0.088034068 0.071366445
0.07215766 0.088034068 0.071366445
0.075339975 0.088034068 0.071366445
0.088034068 0.088034068 0.071366445
0.10080049 0.088034068 0.071366445
0.11662029 0.088034068 0.071366445
0.13654917 0.088034068 0.071366445
0.16008502 0.088034068 0.071366445
0.189006 0.088034068 0.071366445
0.22519679 0.088034068 0.071366445
0.26735582 0.088034068 0.071366445
0.31839298 0.088034068 0.071366445
0.37938337 0.088034068 0.071366445
0.44796054 0.088034068 0.071366445
0.52206455 0.088034068 0.071366445
0.59803396 0.088034068 0.071366445
0.67254234 0.088034068 0.071366445
0.74273671 0.088034068 0.071366445
0.80508896 0.088034068 0.071366445
0.85925162 0.088034068 0.071366445
0.9019725 0.088034068 0.071366445
0.92704663 0.088034068 0.071366445
0.93976404 0.088034068 0.071366445
0.94814257 0.088034068 0.071366445
0.95548892 0.088034068 0.071366445
0.9617754 0.088034068 0.071366445
0.96796352 0.088034068 0.071366445
0.97372072 0.088034068 0.071366445
0.97920033 0.088034068 0.071366445
0.98415381 0.088034068 0.071366445
0.98654154 0.088034068 0.071366445
0.071366445 0.10080049 0.071366445
0.071630184 0.10080049 0.071366445
0.071893922 0.10080049 0.071366445
0.07215766 0.10080049 0.071366445
0.075339975 0.10080049 0.071366445
0.088034068 0.10080049 0.071366445
0.10080049 0.10080049 0.071366445
0.11662029 0.10080049 0.071366445
0.13654917 0.10080049 0.071366445
0.16008502 0.10080049 0.071366445
0.189006 0.10080049 0.071366445
0.22519679 0.10080049 0.071366445
0.26735582 0.10080049 0.071366445
0.31839298 0.10080049 0.071366445
0.37938337 0.10080049 0.071366445
0.44796054 0.10080049 0.071366445
0.52206455 0.10080049 0.071366445
0.59803396 0.10080049 0.071366445
0.67254234 0.10080049 0.071366445
0.74273671 0.10080049 0.071366445
0.80508896 0.10080049 0.071366445
0.85925162 0.10080049 0.071366445
0.9019725 0.10080049 0.071366445
0.92704663 0.10080049 0.071366445
0.93976404 0.10080049 0.071366445
0.94814257 0.10080049 0.071366445
0.95548892 0.10080049 0.071366445
0.9617754 0.10080049 0.071366445
0.96796352 0.10080049 0.071366445
0.97372072 0.10080049 0.071366445
0.97920033 0.10080049 0.071366445
0.98415381 0.10080049 0.071366445
0.98654154 0.10080049 0.071366445
0.071366445 0.11662029 0.071366445
0.071630184 0.11662029 0.071366445
0.071893922 0.11662029 0.071366445
0.07215766 0.11662029 0.071366445
0.075339975 0.11662029 0.071366445
0.088034068 0.11662029 0.071366445
0.10080049 0.11662029 0.071366445
0.11662029 0.11662029 0.071366445
0.13654917 0.11662029 0.071366445
0.16008502 0.11662029 0.071366445
0.189006 0.11662029 0.071366445
0.22519679 0.11662029 0.071366445
0.26735582 0.11662029 0.071366445
0.31839298 0.11662029 0.071366445
0.37938337 0.11662029 0.071366445
0.44796054 0.11662029 0.071366445
0.52206455 0.11662029 0.071366445
0.59803396 0.11662029 0.071366445
0.67254234 0.11662029 0.071366445
0.74273671 0.11662029 0.071366445
0.80508896 0.11662029 0.071366445
0.85925162 0.11662029 0.071366445
0.9019725 0.11662029 0.071366445
0.92704663 0.11662029 0.071366445
0.93976404 0.11662029 0.071366445
0.94814257 0.11662029 0.071366445
0.95548892 0.11662029 0.071366445
0.9617754 0.11662029 0.071366445
0.96796352 0.11662029 0.071366445
0.97372072 0.11662029 0.071366445
0.97920033 0.11662029 0.071366445
0.98415381 0.11662029 0.071366445
0.98654154 0.11662029 0.071366445
0.071366445 0.13654917 0.071366445
0.071630184 0.13654917 0.071366445
0.071893922 0.13654917 0.071366445
0.07215766 0.13654917 0.071366445
0.075339975 0.13654917 0.071366445
0.088034068 0.13654917 0.071366445
0.10080049 0.13654917 0.071366445
0.11662029 0.13654917 0.071366445
0.13654917 0.13654917 0.071366445
0.16008502 0.13654917 0.071366445
0.189006 0.13654917 0.071366445
0.22519679 0.13654917 0.071366445
0.26735582 0.13654917 0.071366445
0.31839298 0.13654917 0.071366445
0.37938337 0.13654917 0.071366445
0.44796054 0.13654917 0.071366445
0.52206455 0.13654917 0.071366445
0.59803396 0.13654917 0.071366445
0.67254234 0.13654917 0.071366445
0.74273671 0.13654917 0.071366445
0.80508896 0.13654917 0.071366445
0.85925162 0.13654917 0.071366445
0.9019725 0.13654917 0.071366445
0.92704663 0.13654917 0.071366445
0.93976404 0.13654917 0.071366445
0.94814257 0.13654917 0.071366445
0.95548892 0.13654917 0.071366445
0.9617754 0.13654917 0.071366445
0.96796352 0.13654917 0.071366445
0.97372072 0.13654917 0.071366445
0.97920033 0.13654917 0.071366445
0.98415381 0.13654917 0.071366445
0.98654154 0.13654917 0.071366445
0.071366445 0.16008502 0.071366445
0.071630184 0.16008502 0.071366445
0.071893922 0.16008502 0.071366445
0.07215766 0.16008502 0.071366445
0.075339975 0.16008502 0.071366445
0.088034068 0.16008502 0.071366445
0.10080049 0.16008502 0.071366445
0.11662029 0.16008502 0.071366445
0.13654917 0.16008502 0.071366445
0.16008502 0.16008502 0.071366445
0.189006 0.16008502 0.071366445
0.22519679 0.16008502 0.071366445
0.26735582 0.16008502 0.071366445
0.31839298 0.16008502 0.071366445
0.37938337 0.16008502 0.071366445
0.44796054 0.16008502 0.071366445
0.52206455 0.16008502 0.071366445
0.59803396 0.16008502 0.071366445
0.67254234 0.16008502 0.071366445
0.74273671 0.16008502 0.071366445
0.80508896 0.16008502 0.071366445
0.85925162 0.16008502 0.071366445
0.9019725 0.16008502 0.071366445
0.92704663 0.16008502 0.071366445
0.93976404 0.16008502 0.071366445
0.94814257 0.16008502 0.071366445
0.95548892 0.16008502 0.071366445
0.9617754 0.16008502 0.071366445
0.96796352 0.16008502 0.071366445
0.97372072 0.16008502 0.071366445
0.97920033 0.16008502 0.071366445
0.98415381 0.16008502 0.071366445
0.98654154 0.16008502 0.071366445
0.071366445 0.189006 0.071366445
0.071630184 0.189006 0.071366445
0.071893922 0.189006 0.071366445
0.07215766 0.189006 0.071366445
0.075339975 0.189006 0.071366445
0.088034068 0.189006 0.071366445
0.10080049 0.189006 0.071366445
0.11662029 0.189006 0.071366445
0.13654917 0.189006 0.071366445
0.16008502 0.189006 0.071366445
0.189006 0.189006 0.071366445
0.22519679 0.189006 0.071366445
0.26735582 0.189006 0.071366445
0.31839298 0.189006 0.071366445
0.37938337 0.189006 0.071366445
0.44796054 0.189006 0.071366445
0.52206455 0.189006 0.071366445
0.59803396 0.189006 0.071366445
0.67254234 0.189006 0.071366445
0.74273671 0.189006 0.071366445
0.80508896 0.189006 0.071366445
0.85925162 0.189006 0.071366445
0.9019725 0.189006 0.071366445
0.92704663 0.189006 0.071366445
0.93976404 0.189006 0.071366445
0.94814257 0.189006 0.071366445
0.95548892 0.189006 0.071366445
0.9617754 0.189006 0.071366445
0.96796352 0.189006 0.071366445
0.97372072 0.189006 0.071366445
0.97920033 0.189006 0.071366445
0.98415381 0.189006 0.071366445
0.98654154 0.189006 0.071366445
0.071366445 0.22519679 0.071366445
0.071630184 0.22519679 0.071366445
0.071893922 0.22519679 0.071366445
0.07215766 0.22519679 0.071366445
0.075339975 0.22519679 0.071366445
0.088034068 0.22519679 0.071366445
0.10080049 0.22519679 0.071366445
0.11662029 0.22519679 0.071366445
0.13654917 0.22519679 0.071366445
0.16008502 0.22519679 0.071366445
0.189006 0.22519679 0.071366445
0.22519679 0.22519679 0.071366445
0.26735582 0.22519679 0.071366445
0.31839298 0.22519679 0.071366445
0.37938337 0.22519679 0.071366445
0.44796054 0.22519679 0.071366445
0.52206455 0.22519679 0.071366445
0.59803396 0.22519679 0.071366445
0.67254234 0.22519679 0.071366445
0.74273671 0.22519679 0.071366445
0.80508896 0.22519679 0.071366445
0.85925162 0.22519679 0.071366445
0.9019725 0.22519679 0.071366445
0.92704663 0.22519679 0.071366445
0.93976404 0.22519679 0.071366445
0.94814257 0.22519679 0.071366445
0.95548892 0.22519679 0.071366445
0.9617754 0.22519679 0.071366445
0.96796352 0.22519679 0.071366445
0.97372072 0.22519679 0.071366445
0.97920033 0.22519679 0.071366445
0.98415381 0.22519679 0.071366445
0.98654154 0.22519679 0.071366445
0.071366445 0.26735582 0.071366445
0.071630184 0.26735582 0.071366445
0.071893922 0.26735582 0.071366445
0.07215766 0.26735582 0.071366445
0.075339975 0.26735582 0.071366445
0.088034068 0.26735582 0.071366445
0.10080049 0.26735582 0.071366445
0.11662029 0.26735582 0.071366445
0.13654917 0.26735582 0.071366445
0.16008502 0.26735582 0.071366445
0.189006 0.26735582 0.071366445
0.22519679 0.26735582 0.071366445
0.26735582 0.26735582 0.071366445
0.31839298 0.26735582 0.071366445
0.37938337 0.26735582 0.071366445
0.44796054 0.26735582 0.071366445
0.52206455 0.26735582 0.071366445
0.59803396 0.26735582 0.071366445
0.67254234 0.26735582 0.071366445
0.74273671 0.26735582 0.071366445
0.80508896 0.26735582 0.071366445
0.85925162 0.26735582 0.071366445
0.9019725 0.26735582 0.071366445
0.92704663 0.26735582 0.071366445
0.93976404 0.26735582 0.071366445
0.94814257 0.26735582 0.071366445
0.95548892 0.26735582 0.071366445
0.9617754 0.26735582 0.071366445
0.96796352 0.26735582 0.071366445
0.97372072 0.26735582 0.071366445
0.97920033 0.26735582 0.071366445
0.98415381 0.26735582 0.071366445
0.98654154 0.26735582 0.071366445
0.071366445 0.31839298 0.071366445
0.071630184 0.31839298 0.071366445
0.071893922 0.31839298 0.071366445
0.07215766 0.31839298 0.071366445
0.075339975 0.31839298 0.071366445
0.088034068 0.31839298 0.071366445
0.10080049 0.31839298 0.071366445
0.11662029 0.31839298 0.071366445
0.13654917 0.31839298 0.071366445
0.16008502 0.31839298 0.071366445
0.189006 0.31839298 0.071366445
0.22519679 0.31839298 0.071366445
0.26735582 0.31839298 0.071366445
0.31839298 0.31839298 0.071366445
0.37938337 0.31839298 0.071366445
0.44796054 0.31839298 0.071366445
0.52206455 0.31839298 0.071366445
0.59803396 0.31839298 0.071366445
0.67254234 0.31839298 0.071366445
0.74273671 0.31839298 0.071366445
0.80508896 0.31839298 0.071366445
0.85925162 0.31839298 0.071366445
0.9019725 0.31839298 0.071366445
0.92704663 0.31839298 0.071366445
0.93976404 0.31839298 0.071366445
0.94814257 0.31839298 0.071366445
0.95548892 0.31839298 0.071366445
0.9617754 0.31839298 0.071366445
0.96796352 0.31839298 0.071366445
0.97372072 0.31839298 0.071366445
0.97920033 0.31839298 0.071366445
0.98415381 0.31839298 0.071366445
0.98654154 0.31839298 0.071366445
0.071366445 0.37938337 0.071366445
0.071630184 0.37938337 0.071366445
0.071893922 0.37938337 0.071366445
0.07215766 0.37938337 0.071366445
0.075339975 0.37938337 0.071366445
0.088034068 0.37938337 0.071366445
0.10080049 0.37938337 0.071366445
0.11662029 0.37938337 0.071366445
0.13654917 0.37938337 0.071366445
0.16008502 0.37938337 0.071366445
0.189006 0.37938337 0.071366445
0.22519679 0.37938337 0.071366445
0.26735582 0.37938337 0.071366445
0.31839298 0.37938337 0.071366445
0.37938337 0.37938337 0.071366445
0.44796054 0.37938337 0.071366445
0.52206455 0.37938337 0.071366445
0.59803396 0.37938337 0.071366445
0.67254234 0.37938337 0.071366445
0.74273671 0.37938337 0.071366445
0.80508896 0.37938337 0.071366445
0.85925162 0.37938337 0.071366445
0.9019725 0.37938337 0.071366445
0.92704663 0.37938337 0.071366445
0.93976404 0.37938337 0.071366445
0.94814257 0.37938337 0.071366445
0.95548892 0.37938337 0.071366445
0.9617754 0.37938337 0.071366445
0.96796352 0.37938337 0.071366445
0.97372072 0.37938337 0.071366445
0.97920033 0.37938337 0.071366445
0.98415381 0.37938337 0.071366445
0.98654154 0.37938337 0.071366445
0.071366445 0.44796054 0.071366445
0.071630184 0.44796054 0.071366445
0.071893922 0.44796054 0.071366445
0.07215766 0.44796054 0.071366445
0.075339975 0.44796054 0.071366445
0.088034068 0.44796054 0.071366445
0.10080049 0.44796054 0.071366445
0.11662029 0.44796054 0.071366445
0.13654917 0.44796054 0.071366445
0.16008502 0.44796054 0.071366445
0.189006 0.44796054 0.071366445
0.22519679 0.44796054 0.071366445
0.26735582 0.44796054 0.071366445
0.31839298 0.44796054 0.071366445
0.37938337 0.44796054 0.071366445
0.44796054 0.44796054 0.071366445
0.52206455 0.44796054 0.071366445
0.59803396 0.44796054 0.071366445
0.67254234 0.44796054 0.071366445
0.74273671 0.44796054 0.071366445
0.80508896 0.44796054 0.071366445
0.85925162 0.44796054 0.071366445
0.9019725 0.44796054 0.071366445
0.92704663 0.44796054 0.071366445
0.93976404 0.44796054 0.071366445
0.94814257 0.44796054 0.071366445
0.95548892 0.44796054 0.071366445
0.9617754 0.44796054 0.071366445
0.96796352 0.44796054 0.071366445
0.97372072 0.44796054 0.071366445
0.97920033 0.44796054 0.071366445
0.98415381 0.44796054 0.071366445
0.98654154 0.44796054 0.071366445
0.071366445 0.52206455 0.071366445
0.071630184 0.52206455 0.071366445
0.071893922 0.52206455 0.071366445
0.07215766 0.52206455 0.071366445
0.075339975 0.52206455 0.071366445
0.088034068 0.52206455 0.071366445
0.10080049 0.52206455 0.071366445
0.11662029 0.52206455 0.071366445
0.13654917 0.52206455 0.071366445
0.16008502 0.52206455 0.071366445
0.189006 0.52206455 0.071366445
0.22519679 0.52206455 0.071366445
0.26735582 0.52206455 0.071366445
0.31839298 0.52206455 0.071366445
0.37938337 0.52206455 0.071366445
0.44796054 0.52206455 0.071366445
0.52206455 0.52206455 0.071366445
0.59803396 0.52206455 0.071366445
0.67254234 0.52206455 0.071366445
0.74273671 0.52206455 0.071366445
0.80508896 0.52206455 0.071366445
0.85925162 0.52206455 0.071366445
0.9019725 0.52206455 0.071366445
0.92704663 0.52206455 0.071366445
0.93976404 0.52206455 0.071366445
0.94814257 0.52206455 0.071366445
0.95548892 0.52206455 0.071366445
0.9617754 0.52206455 0.071366445
0.96796352 0.52206455 0.071366445
0.97372072 0.52206455 0.071366445
0.97920033 0.52206455 0.071366445
0.98415381 0.52206455 0.071366445
0.98654154 0.52206455 0.071366445
0.071366445 0.59803396 0.071366445
0.071630184 0.59803396 0.071366445
0.071893922 0.59803396 0.071366445
0.07215766 0.59803396 0.071366445
0.075339975 0.59803396 0.071366445
0.088034068 0.59803396 0.071366445
0.10080049 0.59803396 0.071366445
0.11662029 0.59803396 0.071366445
0.13654917 0.59803396 0.071366445
0.16008502 0.59803396 0.071366445
0.189006 0.59803396 0.071366445
0.22519679 0.59803396 0.071366445
0.26735582 0.59803396 0.071366445
0.31839298 0.59803396 0.071366445
0.37938337 0.59803396 0.071366445
0.44796054 0.59803396 0.071366445
0.52206455 0.59803396 0.071366445
0.59803396 0.59803396 0.071366445
0.67254234 0.59803396 0.071366445
0.74273671 0.59803396 0.071366445
0.80508896 0.59803396 0.071366445
0.85925162 0.59803396 0.071366445
0.9019725 0.59803396 0.071366445
0.92704663 0.59803396 0.071366445
0.93976404 0.59803396 0.071366445
0.94814257 0.59803396 0.071366445
0.95548892 0.59803396 0.071366445
0.9617754 0.59803396 0.071366445
0.96796352 0.59803396 0.071366445
0.97372072 0.59803396 0.071366445
0.97920033 0.59803396 0.071366445
0.98415381 0.59803396 0.071366445
0.98654154 0.59803396 0.071366445
0.071366445 0.67254234 0.071366445
0.071630184 0.67254234 0.071366445
0.071893922 0.67254234 0.071366445
0.07215766 0.67254234 0.071366445
0.075339975 0.67254234 0.071366445
0.088034068 0.67254234 0.071366445
0.10080049 0.67254234 0.071366445
0.11662029 0.67254234 0.071366445
0.13654917 0.67254234 0.071366445
0.16008502 0.67254234 0.071366445
0.189006 0.67254234 0.071366445
0.22519679 0.67254234 0.071366445
0.26735582 0.67254234 0.071366445
0.31839298 0.67254234 0.071366445
0.37938337 0.67254234 0.071366445
0.44796054 0.67254234 0.071366445
0.52206455 0.67254234 0.071366445
0.59803396 0.67254234 0.071366445
0.67254234 0.67254234 0.071366445
0.74273671 0.67254234 0.071366445
0.80508896 0.67254234 0.071366445
0.85925162 0.67254234 0.071366445
0.9019725 0.67254234 0.071366445
0.92704663 0.67254234 0.071366445
0.93976404 0.67254234 0.071366445
0.94814257 0.67254234 0.071366445
0.95548892 0.67254234 0.071366445
0.9617754 0.67254234 0.071366445
0.96796352 0.67254234 0.071366445
0.97372072 0.67254234 0.071366445
0.97920033 0.67254234 0.071366445
0.98415381 0.67254234 0.071366445
0.98654154 0.67254234 0.071366445
0.071366445 0.74273671 0.071366445
0.071630184 0.74273671 0.071366445
0.071893922 0.74273671 0.071366445
0.07215766 0.74273671 0.071366445
0.075339975 0.74273671 0.071366445
0.088034068 0.74273671 0.071366445
0.10080049 0.74273671 0.071366445
0.11662029 0.74273671 0.071366445
0.13654917 0.74273671 0.071366445
0.16008502 0.74273671 0.071366445
0.189006 0.74273671 0.071366445
0.22519679 0.74273671 0.071366445
0.26735582 0.74273671 0.071366445
0.31839298 0.74273671 0.071366445
0.37938337 0.74273671 0.071366445
0.44796054 0.74273671 0.071366445
0.52206455 0.74273671 0.071366445
0.59803396 0.74273671 0.071366445
0.67254234 0.74273671 0.071366445
0.74273671 0.74273671 0.071366445
0.80508896 0.74273671 0.071366445
0.85925162 0.74273671 0.071366445
0.9019725 0.74273671 0.071366445
0.92704663 0.74273671 0.071366445
