site/assets/luts/sha256-7b6fa20ef1e7c17cd02196fe5585cfb4813320f892d6e69f2204d1c1101974eb.cube
# LUTr-Schema-Version: 2
# LUTr-ID: sha256-7b6fa20ef1e7c17cd02196fe5585cfb4813320f892d6e69f2204d1c1101974eb
# LUTr-Title: kodak portra 400 uc
# LUTr-Collection: Natron HaldCLUT
# LUTr-Collection-ID: natron-haldclut-presets
# LUTr-Source: https://github.com/NatronGitHub/clut
# LUTr-Retrieved: 2026-07-27
# LUTr-Source-File: submissions/natron-haldclut-presets/negative_old/kodak_portra_400_uc.png
# LUTr-Source-Format: HALD-PNG
# LUTr-Source-SHA256: 7b6fa20ef1e7c17cd02196fe5585cfb4813320f892d6e69f2204d1c1101974eb
# LUTr-License: CC-BY-SA-4.0
# LUTr-License-URL: https://github.com/NatronGitHub/clut#license
# LUTr-License-Basis: repo-license-file
# LUTr-Transform-Class: film-emulation
# LUTr-Tags: creative, film, film-emulation, hald-clut, natron, png, cube
# LUTr-Input-Color-Space: srgb
# LUTr-Input-Gamut: rec709
# LUTr-Input-Transfer: srgb
# LUTr-Output-Color-Space: srgb
# LUTr-Output-Gamut: rec709
# LUTr-Output-Transfer: srgb
# LUTr-Color-Space-Confidence: assumed-display-referred
# LUTr-Domain-Normalized: true
# LUTr-Shaper: none
# LUTr-Original-Grid: 64x64x64
# LUTr-Conversion-Grid: 25x25x25
# LUTr-Conversion-Interpolation: trilinear
# LUTr-Conversion-Method: HALD-PNG LUT image decoded at 16-bit and sampled to 25x25x25 3D CUBE
# LUTr-Conversion-Tool: LUTr scripts/convert-all-to-cube.mjs 2.0.0
# LUTr-Conversion-Date: 2026-07-27
# LUTr-Note: Preserve this metadata and the upstream license notices when redistributing.
TITLE "kodak portra 400 uc"
LUT_3D_SIZE 9
DOMAIN_MIN 0 0 0
DOMAIN_MAX 1 1 1
0.031372549 0.054901961 0.050980392
0.084803922 0.066666667 0.058823529
0.19019608 0.050980392 0.039215686
0.36372549 0.062745098 0.028921569
0.54901961 0.049019608 0.0039215686
0.74607843 0.016666667 0.0039215686
0.88529412 0.045098039 0
0.98431373 0.11519608 0
1 0.18823529 0
0.023529412 0.096568627 0.062254902
0.064705882 0.09564951 0.043566176
0.19509804 0.1192402 0.035784314
0.37696078 0.12990196 0.015686275
0.58357843 0.12598039 0
0.76421569 0.11960784 0.0039215686
0.89411765 0.13382353 0.0039215686
0.98088235 0.17947304 0.0039215686
1 0.23039216 0
0.0039215686 0.20882353 0.079411765
0.0088235294 0.20784314 0.066666667
0.13921569 0.23039216 0.032352941
0.38982843 0.25245098 0.0039215686
0.61666667 0.26568627 0
0.77487745 0.25784314 0.00036764706
0.89730392 0.25588235 0.0039215686
0.97352941 0.27990196 0.0078431373
0.99705882 0.30196078 0
0 0.34803922 0.08872549
0 0.36127451 0.1004902
0.018872549 0.37205882 0.091176471
0.29908088 0.40778186 0.028370098
0.58186275 0.44093137 0.0039215686
0.77199755 0.4216299 0
0.87953431 0.40379902 0.0039215686
0.97303922 0.40196078 0.0039215686
0.99607843 0.41764706 0.0039215686
0 0.50784314 0.12156863
0 0.51372549 0.14681373
0 0.52892157 0.14607843
0.12598039 0.54117647 0.10735294
0.46862745 0.55980392 0.032352941
0.69705882 0.57720588 0.0058823529
0.84901961 0.56372549 0
0.97622549 0.53504902 0
0.98823529 0.52941176 0
0 0.6372549 0.1877451
0 0.64883578 0.22107843
0 0.64901961 0.22794118
0.006127451 0.65294118 0.20435049
0.37598039 0.66397059 0.17401961
0.61464461 0.68284314 0.13682598
0.80257353 0.71029412 0.045588235
0.9254902 0.68921569 0.021262255
0.98823529 0.67401961 0.0078431373
0.011764706 0.75294118 0.33333333
0.0034313725 0.75588235 0.33590686
0.0049019608 0.75588235 0.33259804
0.097058824 0.75980392 0.33394608
0.37352941 0.76764706 0.31666667
0.55490196 0.7754902 0.29105392
0.7252451 0.79019608 0.28112745
0.8627451 0.79509804 0.24178922
0.98431373 0.81176471 0.18627451
0.1 0.85588235 0.45833333
0.19810049 0.85245098 0.47395833
0.26948529 0.85208333 0.47095588
0.3627451 0.84852941 0.47775735
0.47671569 0.85416667 0.48921569
0.58854167 0.85980392 0.48118873
0.71029412 0.86764706 0.47745098
0.82150735 0.87205882 0.47401961
0.93284314 0.88382353 0.44705882
0.5254902 0.9254902 0.64705882
0.54901961 0.93284314 0.6627451
0.56470588 0.92941176 0.6627451
0.59068627 0.92303922 0.66421569
0.64705882 0.92745098 0.68627451
0.69460784 0.93088235 0.68137255
0.76666667 0.9372549 0.68137255
0.83627451 0.94509804 0.6745098
0.90980392 0.95294118 0.6745098
0.024019608 0.04754902 0.096568627
0.081372549 0.054901961 0.096568627
0.19987745 0.054901961 0.10147059
0.36194853 0.028308824 0.086948529
0.56029412 0.0125 0.078676471
0.75784314 0.0037377451 0.043443627
0.88590686 0.024019608 0.020220588
0.96219363 0.092585784 0.0034313725
1 0.16519608 0
0.012683824 0.10435049 0.10827206
0.069125306 0.10741422 0.10516238
0.19901961 0.11101409 0.097426471
0.38133425 0.10743719 0.084964767
0.58967525 0.10891544 0.065716912
0.76797641 0.1031633 0.050344669
0.89315257 0.12794118 0.0073376225
0.97266391 0.18419884 0.0069240196
0.9995098 0.21470588 0.0034313725
0 0.22218137 0.12696078
0.025367647 0.22308517 0.1269761
0.17156863 0.24129902 0.11470588
0.40355392 0.25945159 0.086764706
0.63039216 0.25808824 0.020098039
0.77939645 0.25392157 0.025536152
0.89705882 0.25882353 0.012254902
0.97438725 0.27990196 0.00098039216
1 0.30490196 0
0 0.36734069 0.15784314
0.0026348039 0.37881434 0.16617647
0.041865809 0.3872549 0.15850184
0.33389246 0.41770833 0.11715686
0.59681373 0.43431373 0.037745098
0.77823989 0.41378676 0.0072916667
0.88898591 0.4004902 0.004810049
0.97696078 0.39852941 0.0026348039
0.99607843 0.41893382 0.0078431373
0.0034313725 0.52279412 0.19166667
0.0054227941 0.53284314 0.20189951
0.0075367647 0.52941176 0.19852941
0.18829657 0.54240196 0.18186275
0.49166667 0.56556373 0.13921569
0.72588848 0.58961397 0.025122549
0.86072304 0.56311275 0.0071078431
0.96372549 0.5370098 0.0039215686
0.99019608 0.53504902 0.0039215686
0 0.64724265 0.24136029
0.0039215686 0.65294118 0.26550245
0.0039215686 0.65275735 0.26813725
0.079963235 0.65147059 0.26236979
0.40606618 0.66593137 0.23817402
0.63272825 0.68431373 0.18694087
0.81507353 0.71276042 0.14019608
0.92892157 0.69985447 0.035891544
0.98792892 0.67616422 0.009620098
0.0078431373 0.75686275 0.35245098
0.010523897 0.75980392 0.35614277
0.021384804 0.75980392 0.35903799
0.18178615 0.75966605 0.357981
0.39871324 0.76329657 0.35465686
0.57976409 0.77156863 0.33578431
0.73777574 0.78651961 0.31816789
0.86966912 0.7977788 0.28607537
0.96764706 0.79901961 0.21973039
0.16323529 0.85245098 0.48094363
0.24565717 0.85582874 0.48480392
0.3 0.85212929 0.48872549
0.39460784 0.85212163 0.49901961
0.49604779 0.84852941 0.50833333
0.61109069 0.85653339 0.50833333
0.71066176 0.86764706 0.4970435
0.82892157 0.87200521 0.48866422
0.90539216 0.88333333 0.48872549
0.5377451 0.92941176 0.6627451
0.54803922 0.92898284 0.6622549
0.57757353 0.92855392 0.67610294
0.59724265 0.92420343 0.67303922
0.64705882 0.92573529 0.68823529
0.71066176 0.93676471 0.70183824
0.76764706 0.9377451 0.69056373
0.83676471 0.94552696 0.68921569
0.90245098 0.95343137 0.68627451
0.02745098 0.050980392 0.21470588
0.074019608 0.044117647 0.21176471
0.20686275 0.041176471 0.21470588
0.35735294 0.026960784 0.21115196
0.5745098 0.0049019608 0.19705882
0.74840686 0.011764706 0.20012255
0.88529412 0.026470588 0.19583333
0.97218137 0.14803922 0.18627451
0.99607843 0.20980392 0.17352941
0.0044117647 0.11531863 0.22610294
0.055713848 0.11842831 0.22329963
0.21053922 0.11997549 0.22254902
0.37745098 0.11073836 0.22205882
0.5995098 0.01372549 0.2004902
0.76372549 0.080453431 0.20686275
0.88985907 0.13039216 0.19132966
0.97352941 0.19810049 0.18235294
0.99607843 0.25061275 0.17365196
0 0.23112745 0.22647059
0.012071078 0.23823529 0.2348652
0.2125 0.26317402 0.25067402
0.41081495 0.26681985 0.24283088
0.62598039 0.25943627 0.21715686
0.7745098 0.24705882 0.19886642
0.89313725 0.26721814 0.18866422
0.97515319 0.29754902 0.17438725
1 0.33308824 0.16568627
0.00036764706 0.39558824 0.27585784
0.013786765 0.41109069 0.2814951
0.18498775 0.41911765 0.2877451
0.3932598 0.43480392 0.26793811
0.61776961 0.43835784 0.22175245
0.77843137 0.41263787 0.17426471
0.8870098 0.40689338 0.15955882
0.97388174 0.40963542 0.13962929
1 0.42879902 0.12879902
0.0098039216 0.55196078 0.32941176
0.014583333 0.55588235 0.3254902
0.070343137 0.55196078 0.31176471
0.29767157 0.55422794 0.31023284
0.5379902 0.57720588 0.2872549
0.73498775 0.58670343 0.24338235
0.87365196 0.55588235 0.15637255
0.97009804 0.5346201 0.077328431
0.99803922 0.5372549 0.064215686
0 0.66433824 0.36617647
0.01372549 0.66654412 0.3636489
0.072977941 0.66124387 0.35431985
0.26337316 0.6564951 0.35865502
0.45827206 0.67003676 0.34234069
0.66331189 0.69529718 0.32598039
0.81344975 0.70327819 0.28792892
0.93517157 0.69750306 0.20723039
0.99497549 0.67009804 0.074877451
0.0066176471 0.76372549 0.41642157
0.026776961 0.76397059 0.41348039
0.15863971 0.76280637 0.41905637
0.30358456 0.75980392 0.43137255
0.4564951 0.76372549 0.42745098
0.60401348 0.77533701 0.41666667
0.75171569 0.79044118 0.40808824
0.89007353 0.81179534 0.40036765
0.98308824 0.80367647 0.33553922
0.30980392 0.85245098 0.52855392
0.34136029 0.85588235 0.53517157
0.37855392 0.85245098 0.53183211
0.44180453 0.84852941 0.54117647
0.52261029 0.84852941 0.55079657
0.62164522 0.85606618 0.54790135
0.72444853 0.86507353 0.54978554
0.83160233 0.87248775 0.54080882
0.90294118 0.8807598 0.53823529
0.55980392 0.9254902 0.68235294
0.57696078 0.92941176 0.69019608
0.59142157 0.93161765 0.69215686
0.62720588 0.93125 0.70379902
0.66029412 0.92941176 0.70686275
0.70980392 0.93039216 0.71078431
0.7745098 0.9372549 0.70784314
0.84019608 0.94117647 0.69754902
0.90392157 0.95294118 0.70490196
0 0.057352941 0.35196078
0.02567402 0.066973039 0.36519608
0.21323529 0.074387255 0.38382353
0.38578431 0.033762255 0.38088235
0.56764706 0.013235294 0.37352941
0.72408088 0.010845588 0.35104167
0.86813725 0.0099264706 0.32928922
0.975 0.032046569 0.31127451
0.99852941 0.22303922 0.33284314
0.0017769608 0.13008578 0.37647059
0.0082720588 0.13012408 0.37254902
0.21283701 0.13400735 0.38636642
0.42243413 0.13389246 0.40233609
0.5861826 0.103125 0.37735907
0.74558824 0.052144608 0.35422028
0.88086703 0.02310049 0.32242647
0.98151808 0.10081955 0.3223269
1 0.2908701 0.35324755
0 0.25735294 0.37732843
0.0074908088 0.25765931 0.38628983
0.20579044 0.27254902 0.40637255
0.44313725 0.28607537 0.42300858
0.63235294 0.27095588 0.40018382
0.76882659 0.24502145 0.37234988
0.88262868 0.26963848 0.36283701
0.9627451 0.32627145 0.36132047
0.99607843 0.38933824 0.36470588
0.003370098 0.40533088 0.39117647
0.0061963848 0.41991422 0.40129442
0.20134804 0.43186275 0.42977941
0.45248928 0.44908088 0.44123775
0.63602941 0.44849877 0.42359069
0.76574755 0.43094363 0.39048713
0.87781863 0.42879902 0.37467831
0.96598499 0.43352482 0.35331648
0.99846814 0.45147059 0.3495098
0.0049019608 0.56151961 0.42622549
0.15042892 0.56862745 0.44240196
0.32248775 0.57254902 0.45821078
0.44672181 0.58042279 0.45294118
0.60012255 0.59375 0.44754902
0.74828431 0.58039216 0.41397059
0.86127451 0.57359069 0.37205882
0.96314338 0.55162377 0.34157475
0.99681373 0.56446078 0.33284314
0.25778186 0.675 0.48088235
0.31717218 0.67892157 0.49521293
0.37156863 0.67758885 0.49146752
0.42107843 0.67949602 0.48578431
0.51323529 0.68483456 0.4823223
0.67297794 0.69818474 0.47032782
0.81971507 0.70568321 0.43537071
0.92285539 0.6877451 0.38903952
0.99607843 0.66470588 0.30545343
0.34117647 0.76617647 0.53272059
0.36951593 0.77120098 0.53742341
0.38872549 0.76948529 0.53235294
0.43235294 0.77051164 0.52303922
0.52383578 0.77058824 0.52156863
0.63803615 0.77879902 0.52941176
0.76691176 0.78936887 0.51838235
0.89059436 0.80957414 0.50923713
0.96629902 0.79938725 0.46066176
0.45539216 0.85373775 0.6127451
0.46243873 0.85261183 0.60898438
0.47553615 0.85245098 0.60179228
0.50980392 0.85507813 0.60245098
0.57156863 0.85196078 0.60661765
0.65490196 0.85625766 0.61996783
0.74313725 0.86372549 0.61456801
0.84283088 0.87436428 0.61078431
0.94154412 0.89509804 0.62126225
0.60098039 0.92794118 0.71862745
0.61029412 0.92941176 0.72028186
0.61568627 0.93051471 0.71911765
0.63719363 0.92696078 0.72009804
0.675 0.9254902 0.7254902
0.7254902 0.93425245 0.740625
0.77843137 0.93615196 0.73431373
0.84460784 0.94313725 0.73382353
0.88137255 0.95294118 0.73578431
0 0.078431373 0.51568627
0.0039215686 0.084313725 0.51960784
0.18431373 0.088235294 0.53872549
0.42892157 0.06495098 0.56127451
0.61960784 0.047058824 0.56960784
0.74044118 0.01495098 0.53504902
0.85490196 0.018627451 0.49705882
0.94240196 0.065441176 0.46446078
0.99607843 0.12156863 0.44901961
0 0.14607843 0.51960784
0.0044117647 0.14779412 0.525
0.16844363 0.15618873 0.54178922
0.43406863 0.16626838 0.56896446
0.63112745 0.15196078 0.57144608
0.74754902 0.12432598 0.53578431
0.85373775 0.14215686 0.49552696
0.94803922 0.17717525 0.47598039
1 0.24901961 0.46813725
0 0.27990196 0.53137255
0.00049019608 0.27401961 0.54044118
0.16703431 0.27647059 0.55477941
0.4408701 0.30110294 0.57469363
0.63897059 0.30490196 0.57598039
0.75612745 0.30226716 0.54773284
0.85294118 0.3057598 0.51029412
0.95196078 0.31568627 0.49080882
0.99215686 0.35098039 0.48088235
0.0039215686 0.40122549 0.51764706
0.009129902 0.42083333 0.53939951
0.11047794 0.41819853 0.54515931
0.44313725 0.44093137 0.575
0.63921569 0.46752451 0.58492647
0.75539216 0.45689338 0.56053922
0.86372549 0.45208333 0.53345588
0.94901961 0.46109069 0.51519608
0.99460784 0.49362745 0.51372549
0.01372549 0.56470588 0.54313725
0.047181373 0.56654412 0.54681373
0.27401961 0.57401961 0.55833333
0.4622549 0.58296569 0.57769608
0.62794118 0.60245098 0.59754902
0.74436275 0.60061275 0.57573529
0.84926471 0.59411765 0.5502451
0.93357843 0.58431373 0.52696078
0.99117647 0.59607843 0.52156863
0.23823529 0.67892157 0.57205882
0.2903799 0.68284314 0.57867647
0.41072304 0.68897059 0.58511029
0.52110907 0.69460784 0.60196078
0.61029412 0.70073529 0.60821078
0.70487132 0.70729167 0.59607843
0.83474265 0.7036152 0.56966912
0.92582721 0.6893076 0.52769608
0.97794118 0.68553922 0.51176471
0.4127451 0.77107843 0.62156863
0.4375 0.7754902 0.62285539
0.50992647 0.77696078 0.63627451
0.54558824 0.77922794 0.63431373
0.59313725 0.77598039 0.62867647
0.66911765 0.78443627 0.62745098
0.79117647 0.79901961 0.62745098
0.89460784 0.79901961 0.60435049
0.97745098 0.79901961 0.56715686
0.55637255 0.85637255 0.69117647
0.55196078 0.85245098 0.68532475
0.57726716 0.85245098 0.68651961
0.59773284 0.85588235 0.68250613
0.62107843 0.85588235 0.67720588
0.68406863 0.85701593 0.68367034
0.76262255 0.86384804 0.68756127
0.85609681 0.87555147 0.69142157
0.94215686 0.89117647 0.68382353
0.65098039 0.92941176 0.76666667
0.64705882 0.92377451 0.75710784
0.65784314 0.92843137 0.76029412
0.67107843 0.92745098 0.75882353
0.69019608 0.9254902 0.75490196
0.73921569 0.93112745 0.76838235
0.78627451 0.93186275 0.76715686
0.85171569 0.94313725 0.77009804
0.89215686 0.95294118 0.76862745
0 0.1245098 0.64901961
0.0039215686 0.12843137 0.65637255
0.12291667 0.12745098 0.67365196
0.40245098 0.12542892 0.69215686
0.61813725 0.14362745 0.70514706
0.7627451 0.13823529 0.69123775
0.85 0.14963235 0.66911765
0.93431373 0.21715686 0.63039216
0.99460784 0.31715686 0.61519608
0 0.17009804 0.64901961
0.0069240196 0.17665441 0.65686275
0.15061275 0.18823529 0.6754902
0.40846354 0.19761029 0.69368873
0.6252451 0.2247549 0.70891544
0.76548713 0.21979167 0.69688266
0.86092218 0.23484988 0.67400429
0.93431373 0.28057598 0.6345818
0.99607843 0.35392157 0.62481618
0 0.27487745 0.66041667
0.0039215686 0.28573836 0.66421569
0.13875613 0.28455882 0.68002451
0.42261029 0.31078431 0.69460784
0.62898284 0.34761029 0.70906863
0.76556373 0.36727941 0.69607843
0.85949755 0.36207108 0.68072917
0.9317402 0.37856924 0.64183517
0.98823529 0.42352941 0.62990196
0.0039215686 0.40735294 0.64264706
0.015019914 0.41635263 0.65568321
0.15324755 0.41741728 0.66865809
0.42199755 0.43243719 0.68825827
0.62472426 0.46862745 0.70833333
0.75882353 0.49328278 0.70245098
0.85 0.49232537 0.68126532
0.92666207 0.49369638 0.65755208
0.96231618 0.49509804 0.64362745
0.0085784314 0.54901961 0.64754902
0.013909314 0.55147059 0.6513174
0.14705882 0.54460784 0.65349265
0.40909926 0.55612745 0.67153799
0.60441176 0.58909314 0.69558824
0.74632353 0.61007966 0.70245098
0.84142157 0.60931373 0.6872549
0.91608456 0.60358456 0.67034314
0.98284314 0.62352941 0.66985294
0.06372549 0.67199755 0.65686275
0.19784773 0.675 0.65931373
0.3352788 0.675 0.66761642
0.48045343 0.68529412 0.68341759
0.60811887 0.69607843 0.69610907
0.73171722 0.71756281 0.71419271
0.83117341 0.71905637 0.70399816
0.90668658 0.71176471 0.68536305
0.97984069 0.70392157 0.66470588
0.35980392 0.77267157 0.68627451
0.40453431 0.77709865 0.68828125
0.48480392 0.78318015 0.69500613
0.57647059 0.78627451 0.707644
0.65294118 0.78535539 0.72156863
0.71462929 0.79296875 0.71953125
0.80343137 0.79901961 0.72285539
0.89129902 0.79656863 0.70294118
0.95931373 0.79901961 0.68026961
0.53186275 0.85606618 0.73204657
0.55643382 0.85637255 0.73723192
0.58743873 0.85669424 0.74178922
0.64019608 0.85899969 0.74895067
0.67598039 0.85980392 0.74966299
0.71991422 0.86238511 0.75251991
0.7877451 0.86790748 0.76061581
0.86372549 0.87571232 0.75814951
0.95098039 0.89381127 0.75716912
0.67058824 0.93088235 0.80539216
0.6504902 0.91348039 0.78927696
0.68884804 0.93051471 0.80355392
0.70496324 0.93033088 0.80539216
0.73039216 0.93333333 0.80294118
0.75588235 0.9338848 0.80386029
0.80343137 0.93333333 0.80294118
0.85980392 0.92941176 0.80128676
0.91519608 0.95294118 0.81078431
0.0078431373 0.18627451 0.76372549
0.0079656863 0.17843137 0.77634804
0.14044118 0.1752451 0.7872549
0.40821078 0.18088235 0.79901961
0.61029412 0.21862745 0.80245098
0.76715686 0.28480392 0.80870098
0.86568627 0.30122549 0.79779412
0.93786765 0.31764706 0.78039216
0.98039216 0.37156863 0.74901961
0.0078431373 0.22708333 0.76470588
0.0088235294 0.22090993 0.77587316
0.16182598 0.22230392 0.78823529
0.41752451 0.23872549 0.79816176
0.60735294 0.26960784 0.80294118
0.76960784 0.33671875 0.81092218
0.86966912 0.34767157 0.80321691
0.93598346 0.35931373 0.77953431
0.98431373 0.41237745 0.76029412
0.0078431373 0.31348039 0.76470588
0.016176471 0.30818015 0.77634804
0.16960784 0.31231618 0.7872549
0.41568627 0.33676471 0.79163603
0.60980392 0.36666667 0.80294118
0.76568627 0.4245098 0.81372549
0.86102941 0.43958333 0.80122549
0.93039216 0.44304534 0.78391544
0.98431373 0.48602941 0.76862745
0.0039215686 0.42438725 0.76017157
0.0080882353 0.42291667 0.76855086
0.21311275 0.42585784 0.77659314
0.42075674 0.43615196 0.78702512
0.60735294 0.46985294 0.79620098
0.75291054 0.52601103 0.80686275
0.85392157 0.54362745 0.80615809
0.92254902 0.54287684 0.77990196
0.96409314 0.55490196 0.76409314
0.01372549 0.54901961 0.75196078
0.013541667 0.54074755 0.75637255
0.083088235 0.52745098 0.75465686
0.37745098 0.54221814 0.76568627
0.57941176 0.56838235 0.78210784
0.73308824 0.61881127 0.80012255
0.83664216 0.64509804 0.80404412
0.90637255 0.63805147 0.78731618
0.96078431 0.64068627 0.77205882
0.019117647 0.65477941 0.75196078
0.01004902 0.65261949 0.74803922
0.1828125 0.65196078 0.75052083
0.37090993 0.65196078 0.75637255
0.53468137 0.66531863 0.7627451
0.7122549 0.70853248 0.79227941
0.8182598 0.72613358 0.80542279
0.89901961 0.7308364 0.79332108
0.95588235 0.7254902 0.77941176
0.24313725 0.76446078 0.76078431
0.29963235 0.77472426 0.76473652
0.38572304 0.77175245 0.76243873
0.49715074 0.7739277 0.77058824
0.60980392 0.77843137 0.77732843
0.71651348 0.79001225 0.79393382
0.81060049 0.80686275 0.80980392
0.89231005 0.81544118 0.79978554
0.94583333 0.81176471 0.79509804
0.48737745 0.86029412 0.78284314
0.51335784 0.86029412 0.79057904
0.55637255 0.86372549 0.79068627
0.62008272 0.86380208 0.79799326
0.68670343 0.86507353 0.80588235
0.75618873 0.86996017 0.81715686
0.81372549 0.87561275 0.82279412
0.88086703 0.8872549 0.82640931
0.95943627 0.89509804 0.81813725
0.65 0.9372549 0.83627451
0.65085784 0.93333333 0.83627451
0.67647059 0.9372549 0.8372549
0.70441176 0.93431373 0.84019608
0.74313725 0.9372549 0.84460784
0.77254902 0.93431373 0.84509804
0.82083333 0.94436275 0.85196078
0.87254902 0.95294118 0.85723039
0.92254902 0.93529412 0.84607843
0.012254902 0.2495098 0.87990196
0.11776961 0.25643382 0.87984069
0.30453431 0.26433824 0.87941176
0.46685049 0.28253676 0.87990196
0.63382353 0.32916667 0.88161765
0.75931373 0.38137255 0.88333333
0.86176471 0.42696078 0.88370098
0.94215686 0.46176471 0.87941176
0.99215686 0.48088235 0.85637255
0.010845588 0.28425245 0.87898284
0.12591912 0.29988511 0.87941176
0.31139706 0.30594363 0.87640931
0.48039216 0.32612592 0.87941176
0.63186275 0.35389093 0.87941176
0.7627451 0.41176471 0.88333333
0.86056985 0.46992953 0.88333333
0.93823529 0.49172794 0.87591912
0.99264706 0.5033701 0.87254902
0.023651961 0.34852941 0.87598039
0.17454044 0.36372549 0.87561275
0.32588848 0.37647059 0.87227328
0.48302696 0.39122243 0.87584252
0.63253676 0.43241422 0.87941176
0.75393689 0.47199755 0.88053002
0.85772059 0.53639706 0.87941176
0.93394608 0.55294118 0.87668505
0.98137255 0.54129902 0.86421569
0.076470588 0.45196078 0.86421569
0.17530637 0.46350337 0.86390931
0.30396752 0.4553462 0.86783088
0.4763557 0.47764246 0.8707644
0.61780025 0.50588235 0.87156863
0.74705882 0.54921875 0.8754902
0.8473652 0.60214461 0.8754902
0.92401961 0.620481 0.8754902
0.96470588 0.61078431 0.86390931
0.017401961 0.55122549 0.85245098
0.091115196 0.55220588 0.85245098
0.28792892 0.5588848 0.85441176
0.4286152 0.56087623 0.85833333
0.59644608 0.58284314 0.86421569
0.72990196 0.6252451 0.87254902
0.84362745 0.68314951 0.87892157
0.91099877 0.69926471 0.8754902
0.96078431 0.68921569 0.86421569
0.023529412 0.65716912 0.84068627
0.01328125 0.65369945 0.8412837
0.033792892 0.64420956 0.84068627
0.31960784 0.64411765 0.84068627
0.54004289 0.66194853 0.84779412
0.69717371 0.69460784 0.86292126
0.82126225 0.73363971 0.87156863
0.90278033 0.76599265 0.8754902
0.95196078 0.76207108 0.86783088
0.022181373 0.76029412 0.8377451
0.10592831 0.76104473 0.84068627
0.2814951 0.76498162 0.84154412
0.41360294 0.76374081 0.84460784
0.52377451 0.75814951 0.84417892
0.64460784 0.76239277 0.8495098
0.80306373 0.79852941 0.86862745
0.89509804 0.82941176 0.87941176
0.93088235 0.82977941 0.8754902
0.41219363 0.86029412 0.85202206
0.42292433 0.85637255 0.85158548
0.47636336 0.86443015 0.8528799
0.56145833 0.86421569 0.85637255
0.62601103 0.86029412 0.86029412
0.71062347 0.85980392 0.86721814
0.80810355 0.8730239 0.87291667
0.89902727 0.89166667 0.88769148
0.96813725 0.8877451 0.8754902
0.5995098 0.9377451 0.875
0.62205882 0.94025735 0.87935049
0.64558824 0.94117647 0.87892157
0.6745098 0.94117647 0.88284314
0.7247549 0.94289216 0.88676471
0.7745098 0.94264706 0.8908701
0.82953431 0.94215686 0.89203431
0.88817402 0.95386029 0.90245098
0.93627451 0.94901961 0.89852941
0.43921569 0.42745098 0.95294118
0.47892157 0.4377451 0.95637255
0.51960784 0.44313725 0.94901961
0.60098039 0.45490196 0.94901961
0.69607843 0.48235294 0.94901961
0.79264706 0.52156863 0.94509804
0.87254902 0.57156863 0.94509804
0.93823529 0.61960784 0.9372549
0.98823529 0.63529412 0.9372549
0.44803922 0.45098039 0.95343137
0.47052696 0.45441176 0.95294118
0.53186275 0.46323529 0.95257353
0.60557598 0.47616422 0.94852941
0.6997549 0.4995098 0.94509804
0.79509804 0.54822304 0.94724265
0.86605392 0.57843137 0.94031863
0.93915441 0.63964461 0.94117647
0.99264706 0.65490196 0.94117647
0.45 0.49705882 0.95
0.47181373 0.50085784 0.94901961
0.52058824 0.5 0.94509804
0.60772059 0.5245098 0.94754902
0.69852941 0.54411765 0.94362745
0.78872549 0.58137255 0.94227941
0.86495098 0.62058824 0.93823529
0.93431373 0.67058824 0.94117647
0.98823529 0.68137255 0.93823529
0.43627451 0.55245098 0.94754902
0.45802696 0.55784314 0.94117647
0.52009804 0.56568627 0.94448529
0.59613971 0.57745098 0.94117647
0.67916667 0.58602941 0.93210784
0.78241422 0.63235294 0.93970588
0.86078431 0.66078431 0.93186275
0.92794118 0.69901961 0.92873775
0.97794118 0.72009804 0.93872549
0.44705882 0.64509804 0.94117647
0.48161765 0.6502451 0.94460784
0.51176471 0.64509804 0.94117647
0.56617647 0.64313725 0.93529412
0.67647059 0.65882353 0.94215686
0.75857843 0.67279412 0.92941176
0.85147059 0.71617647 0.9372549
0.91887255 0.7497549 0.9377451
0.94901961 0.7627451 0.93921569
0.27352941 0.70882353 0.93578431
0.3439951 0.71452206 0.93756127
0.40735294 0.70943627 0.93578431
0.51819853 0.7127451 0.93578431
0.63382353 0.71348039 0.93137255
0.72708333 0.72616422 0.92414216
0.83333333 0.76470588 0.94056373
0.90686275 0.78988971 0.9372549
0.97794118 0.81078431 0.94656863
0.32156863 0.80294118 0.93431373
0.34632353 0.80159314 0.93590686
0.38333333 0.79681373 0.93259804
0.44129902 0.77696078 0.91519608
0.55588235 0.77843137 0.91372549
0.69656863 0.78982843 0.92659314
0.80588235 0.80686275 0.93431373
0.90588235 0.84019608 0.9432598
0.96862745 0.85294118 0.94215686
0.46470588 0.87990196 0.93333333
0.48290441 0.87941176 0.92849265
0.52205882 0.88333333 0.93284314
0.55716912 0.87598039 0.92745098
0.61715686 0.87352941 0.925
0.68382353 0.87334559 0.92959559
0.77414216 0.87463235 0.93333333
0.87254902 0.88382353 0.92150735
0.95686275 0.90686275 0.93676471
0.59215686 0.96078431 0.94509804
0.58823529 0.94558824 0.92990196
0.61078431 0.94803922 0.93235294
0.63676471 0.9504902 0.94509804
0.69803922 0.93921569 0.90980392
0.74411765 0.9504902 0.93480392
0.81862745 0.95588235 0.92843137
0.89166667 0.95294118 0.92156863
0.98039216 0.97647059 0.96470588
