site/assets/luts/sha256-f73274886f3da011bee88a33d1dcdafe1c6106680248e521b0fb4ba82016de53.cube
# LUTr-Schema-Version: 2
# LUTr-ID: sha256-f73274886f3da011bee88a33d1dcdafe1c6106680248e521b0fb4ba82016de53
# LUTr-Title: polaroid px-680 cold +
# LUTr-Collection: Natron HaldCLUT
# LUTr-Collection-ID: natron-haldclut-presets
# LUTr-Source: https://github.com/NatronGitHub/clut
# LUTr-Retrieved: 2026-07-27
# LUTr-Source-File: submissions/natron-haldclut-presets/instant_consumer/polaroid_px-680_cold_+.png
# LUTr-Source-Format: HALD-PNG
# LUTr-Source-SHA256: f73274886f3da011bee88a33d1dcdafe1c6106680248e521b0fb4ba82016de53
# LUTr-License: CC-BY-SA-4.0
# LUTr-License-URL: https://github.com/NatronGitHub/clut#license
# LUTr-License-Basis: repo-license-file
# LUTr-Transform-Class: film-emulation
# LUTr-Tags: creative, film, film-emulation, hald-clut, natron, png, cool, cube
# LUTr-Input-Color-Space: srgb
# LUTr-Input-Gamut: rec709
# LUTr-Input-Transfer: srgb
# LUTr-Output-Color-Space: srgb
# LUTr-Output-Gamut: rec709
# LUTr-Output-Transfer: srgb
# LUTr-Color-Space-Confidence: assumed-display-referred
# LUTr-Domain-Normalized: true
# LUTr-Shaper: none
# LUTr-Original-Grid: 64x64x64
# LUTr-Conversion-Grid: 25x25x25
# LUTr-Conversion-Interpolation: trilinear
# LUTr-Conversion-Method: HALD-PNG LUT image decoded at 16-bit and sampled to 25x25x25 3D CUBE
# LUTr-Conversion-Tool: LUTr scripts/convert-all-to-cube.mjs 2.0.0
# LUTr-Conversion-Date: 2026-07-27
# LUTr-Note: Preserve this metadata and the upstream license notices when redistributing.
TITLE "polaroid px-680 cold +"
LUT_3D_SIZE 5
DOMAIN_MIN 0 0 0
DOMAIN_MAX 1 1 1
0.039215686 0.20784314 0.25490196
0.088235294 0.20784314 0.25784314
0.35686275 0.21960784 0.25882353
0.8127451 0.30980392 0.24607843
0.98039216 0.48627451 0.26666667
0.0078431373 0.22647059 0.25882353
0.078431373 0.2497549 0.25882353
0.43823529 0.28921569 0.2495098
0.81495098 0.39215686 0.23137255
0.96568627 0.5245098 0.27058824
0 0.45490196 0.25098039
0 0.4627451 0.25147059
0.46568627 0.53333333 0.23431373
0.80735294 0.59068627 0.2254902
0.91764706 0.61372549 0.25882353
0 0.67352941 0.27941176
0.02377451 0.67254902 0.2752451
0.47401961 0.69803922 0.29068627
0.77622549 0.72843137 0.3370098
0.95196078 0.76176471 0.40196078
0.61960784 0.83137255 0.4627451
0.63823529 0.82745098 0.46666667
0.73137255 0.83137255 0.50196078
0.84411765 0.83529412 0.54117647
0.93333333 0.85098039 0.60784314
0.031372549 0.21176471 0.27745098
0.088970588 0.20784314 0.26985294
0.39117647 0.2004902 0.28137255
0.8372549 0.33210784 0.31372549
0.97352941 0.53529412 0.37843137
0.0017156863 0.23112745 0.27058824
0.13235294 0.26292892 0.28112745
0.49313725 0.3 0.28921569
0.8341299 0.43915441 0.31568627
0.97156863 0.56862745 0.37352941
0.015686275 0.47843137 0.30490196
0.03002451 0.4872549 0.29313725
0.50980392 0.54632353 0.3
0.81151961 0.58002451 0.29754902
0.95588235 0.63921569 0.35343137
0.038970588 0.68823529 0.31789216
0.20435049 0.68529412 0.31881127
0.52401961 0.7 0.34803922
0.78946078 0.73400735 0.38903186
0.94534314 0.76348039 0.44019608
0.6372549 0.83137255 0.48235294
0.65318627 0.82745098 0.48455882
0.73333333 0.82794118 0.51176471
0.84289216 0.83235294 0.5497549
0.92941176 0.8372549 0.59117647
0.019607843 0.22352941 0.3745098
0.22107843 0.23431373 0.37990196
0.50196078 0.30098039 0.40882353
0.8245098 0.33529412 0.45196078
0.98235294 0.54901961 0.49803922
0.0039215686 0.29264706 0.39803922
0.25980392 0.31409314 0.4120098
0.57107843 0.42156863 0.42843137
0.83431373 0.46421569 0.46862745
0.97254902 0.61813725 0.51715686
0.0029411765 0.51078431 0.40588235
0.24460784 0.51985294 0.41495098
0.61078431 0.58039216 0.45196078
0.83627451 0.6375 0.48186275
0.95392157 0.69901961 0.53333333
0.36862745 0.68676471 0.42647059
0.45441176 0.68909314 0.43578431
0.61029412 0.71078431 0.45710784
0.82083333 0.74276961 0.49509804
0.95441176 0.76176471 0.52254902
0.65686275 0.82745098 0.52745098
0.68039216 0.82990196 0.52794118
0.73333333 0.82156863 0.53823529
0.85588235 0.83823529 0.60441176
0.93529412 0.84509804 0.64117647
0.34901961 0.30294118 0.5872549
0.51568627 0.34803922 0.59117647
0.75882353 0.52892157 0.60441176
0.86078431 0.64313725 0.61078431
0.95098039 0.64509804 0.6254902
0.35392157 0.41764706 0.59117647
0.51960784 0.44761029 0.59846814
0.75061275 0.5807598 0.60625
0.86881127 0.65612745 0.61917892
0.9372549 0.67181373 0.62941176
0.15245098 0.57990196 0.56176471
0.38492647 0.58615196 0.56911765
0.71764706 0.64338235 0.60318627
0.86960784 0.71372549 0.62941176
0.95637255 0.73480392 0.65245098
0.36862745 0.69926471 0.53602941
0.44313725 0.7 0.54019608
0.65 0.71605392 0.56862745
0.85759804 0.76985294 0.63192402
0.94901961 0.79387255 0.66862745
0.59901961 0.82843137 0.58921569
0.64166667 0.82818627 0.58921569
0.74803922 0.82892157 0.61421569
0.86078431 0.83137255 0.65686275
0.94901961 0.82843137 0.68823529
0.74901961 0.64705882 0.75686275
0.77843137 0.65392157 0.74901961
0.85686275 0.71176471 0.74705882
0.91470588 0.76078431 0.73333333
0.95294118 0.80392157 0.75686275
0.74019608 0.66176471 0.75294118
0.77083333 0.67034314 0.74803922
0.86323529 0.72598039 0.75
0.91764706 0.76960784 0.73333333
0.94509804 0.79313725 0.74117647
0.7 0.71372549 0.74901961
0.72401961 0.70784314 0.74215686
0.83823529 0.74509804 0.74901961
0.91862745 0.79068627 0.74313725
0.95686275 0.82352941 0.76862745
0.60098039 0.76666667 0.73627451
0.61495098 0.76102941 0.72156863
0.74607843 0.76568627 0.74313725
0.89509804 0.80808824 0.76151961
0.96078431 0.83921569 0.78823529
0.68627451 0.84313725 0.75294118
0.68921569 0.83529412 0.73333333
0.78039216 0.85294118 0.76666667
0.86764706 0.85392157 0.78039216
0.98431373 0.88627451 0.84313725
