site/assets/luts/sha256-1bd0d648c99034a0b5b76597b0bd83773f311dc4cb1b4f389565e4ec39f1e3bd.cube
# LUTr-Schema-Version: 2
# LUTr-ID: sha256-1bd0d648c99034a0b5b76597b0bd83773f311dc4cb1b4f389565e4ec39f1e3bd
# LUTr-Title: kodak portra 400 uc ++
# LUTr-Collection: Natron HaldCLUT
# LUTr-Collection-ID: natron-haldclut-presets
# LUTr-Source: https://github.com/NatronGitHub/clut
# LUTr-Retrieved: 2026-07-27
# LUTr-Source-File: submissions/natron-haldclut-presets/negative_old/kodak_portra_400_uc_++.png
# LUTr-Source-Format: HALD-PNG
# LUTr-Source-SHA256: 1bd0d648c99034a0b5b76597b0bd83773f311dc4cb1b4f389565e4ec39f1e3bd
# LUTr-License: CC-BY-SA-4.0
# LUTr-License-URL: https://github.com/NatronGitHub/clut#license
# LUTr-License-Basis: repo-license-file
# LUTr-Transform-Class: film-emulation
# LUTr-Tags: creative, film, film-emulation, hald-clut, natron, png, cube
# LUTr-Input-Color-Space: srgb
# LUTr-Input-Gamut: rec709
# LUTr-Input-Transfer: srgb
# LUTr-Output-Color-Space: srgb
# LUTr-Output-Gamut: rec709
# LUTr-Output-Transfer: srgb
# LUTr-Color-Space-Confidence: assumed-display-referred
# LUTr-Domain-Normalized: true
# LUTr-Shaper: none
# LUTr-Original-Grid: 64x64x64
# LUTr-Conversion-Grid: 25x25x25
# LUTr-Conversion-Interpolation: trilinear
# LUTr-Conversion-Method: HALD-PNG LUT image decoded at 16-bit and sampled to 25x25x25 3D CUBE
# LUTr-Conversion-Tool: LUTr scripts/convert-all-to-cube.mjs 2.0.0
# LUTr-Conversion-Date: 2026-07-27
# LUTr-Note: Preserve this metadata and the upstream license notices when redistributing.
TITLE "kodak portra 400 uc ++"
LUT_3D_SIZE 5
DOMAIN_MIN 0 0 0
DOMAIN_MAX 1 1 1
0.094117647 0.10980392 0.066666667
0.20588235 0.10196078 0.059803922
0.5627451 0.098039216 0.01372549
0.89607843 0.12745098 0
0.99215686 0.22352941 0.0078431373
0.02254902 0.2127451 0.070588235
0.17181373 0.22671569 0.048284314
0.62794118 0.28627451 0
0.88921569 0.29583333 0.0068627451
0.99215686 0.31470588 0.0039215686
0 0.51960784 0.060784314
0.017156863 0.5372549 0.083823529
0.47745098 0.57745098 0.0039215686
0.84901961 0.58431373 0.0058823529
0.98823529 0.5627451 0.0078431373
0.0078431373 0.75980392 0.30784314
0.020588235 0.75980392 0.3254902
0.38137255 0.76764706 0.31372549
0.73308824 0.79019608 0.26960784
0.97843137 0.80686275 0.13627451
0.57254902 0.92941176 0.65098039
0.58333333 0.9254902 0.65
0.67058824 0.93137255 0.6745098
0.77156863 0.93333333 0.65490196
0.92156863 0.95686275 0.66666667
0.099019608 0.10588235 0.2
0.21740196 0.10514706 0.18823529
0.55784314 0.0068627451 0.18431373
0.89019608 0.077696078 0.16764706
0.99901961 0.22745098 0.13529412
0.042156863 0.23921569 0.19607843
0.2254902 0.26060049 0.2247549
0.63419118 0.27303922 0.17647059
0.89313725 0.29632353 0.14191176
1 0.35294118 0.10490196
0.01372549 0.55980392 0.31372549
0.025980392 0.56617647 0.29019608
0.54019608 0.59436275 0.26862745
0.87463235 0.56421569 0.092034314
0.99607843 0.55294118 0.030882353
0.025490196 0.76666667 0.42352941
0.1622549 0.76764706 0.42647059
0.45085784 0.76911765 0.44595588
0.75232843 0.7903799 0.42745098
0.95686275 0.8 0.33848039
0.58039216 0.9254902 0.66568627
0.60735294 0.92696078 0.67034314
0.68039216 0.92941176 0.69019608
0.7754902 0.92328431 0.66593137
0.90392157 0.93921569 0.65980392
0.0019607843 0.11372549 0.5254902
0.20147059 0.12058824 0.53872549
0.61960784 0.048039216 0.56666667
0.85441176 0.02254902 0.49705882
0.99607843 0.19803922 0.4627451
0.0039215686 0.27205882 0.53039216
0.11838235 0.27794118 0.56421569
0.63504902 0.31764706 0.57990196
0.86237745 0.3127451 0.51458333
0.99313725 0.37843137 0.49509804
0.017647059 0.56470588 0.54019608
0.24534314 0.5877451 0.5627451
0.63480392 0.61470588 0.59852941
0.85367647 0.60073529 0.54681373
0.99411765 0.6127451 0.5254902
0.45 0.77843137 0.62303922
0.51519608 0.7754902 0.62769608
0.61519608 0.77843137 0.62647059
0.78676471 0.79411765 0.62254902
0.97401961 0.79607843 0.58039216
0.66862745 0.93137255 0.74117647
0.67009804 0.92009804 0.73137255
0.71470588 0.9254902 0.73529412
0.79754902 0.92352941 0.72941176
0.90392157 0.93921569 0.73333333
0.0039215686 0.20098039 0.75196078
0.2247549 0.18921569 0.77156863
0.60882353 0.22205882 0.77892157
0.87352941 0.32769608 0.78235294
0.98431373 0.40098039 0.72843137
0.0039215686 0.31151961 0.75196078
0.18333333 0.31997549 0.76372549
0.61801471 0.38137255 0.77585784
0.86887255 0.45980392 0.77941176
0.98039216 0.50098039 0.74509804
0.01372549 0.5627451 0.73578431
0.069362745 0.54117647 0.73039216
0.59117647 0.58014706 0.75833333
0.84522059 0.65870098 0.77120098
0.95441176 0.65588235 0.74803922
0.28259804 0.76372549 0.7370098
0.41550245 0.77058824 0.74019608
0.63223039 0.77414216 0.75698529
0.82904412 0.80588235 0.7786152
0.96936275 0.80367647 0.76053922
0.66666667 0.93333333 0.80490196
0.67696078 0.92279412 0.80514706
0.75784314 0.93186275 0.81666667
0.8372549 0.94044118 0.82132353
0.92058824 0.95294118 0.8245098
0.45882353 0.44313725 0.9254902
0.52352941 0.45098039 0.91764706
0.70980392 0.49411765 0.92156863
0.88137255 0.58333333 0.91470588
0.99607843 0.65490196 0.92156863
0.45980392 0.5127451 0.92156863
0.53946078 0.51666667 0.91789216
0.71421569 0.56568627 0.91862745
0.88039216 0.63235294 0.91397059
0.99117647 0.68823529 0.91764706
0.47254902 0.65882353 0.91568627
0.5127451 0.64901961 0.91078431
0.67058824 0.65784314 0.90392157
0.86372549 0.71666667 0.90931373
0.96078431 0.75686275 0.91372549
0.34803922 0.8 0.90294118
0.41960784 0.79509804 0.90588235
0.58921569 0.78872549 0.90735294
0.81470588 0.80294118 0.89681373
0.98333333 0.85294118 0.9245098
0.61176471 0.96862745 0.92941176
0.63039216 0.96372549 0.9254902
0.70588235 0.96666667 0.93137255
0.81372549 0.9627451 0.93137255
0.98431373 0.97647059 0.94509804
