site/assets/luts/sha256-54a78105210c75d542012d21786078b23e050bab163df23ebc6a6d9215be4773.cube
# LUTr-Schema-Version: 2
# LUTr-ID: sha256-54a78105210c75d542012d21786078b23e050bab163df23ebc6a6d9215be4773
# LUTr-Title: polaroid 690 cold +
# LUTr-Collection: Natron HaldCLUT
# LUTr-Collection-ID: natron-haldclut-presets
# LUTr-Source: https://github.com/NatronGitHub/clut
# LUTr-Retrieved: 2026-07-27
# LUTr-Source-File: submissions/natron-haldclut-presets/instant_pro/polaroid_690_cold_+.png
# LUTr-Source-Format: HALD-PNG
# LUTr-Source-SHA256: 54a78105210c75d542012d21786078b23e050bab163df23ebc6a6d9215be4773
# LUTr-License: CC-BY-SA-4.0
# LUTr-License-URL: https://github.com/NatronGitHub/clut#license
# LUTr-License-Basis: repo-license-file
# LUTr-Transform-Class: film-emulation
# LUTr-Tags: creative, film, film-emulation, hald-clut, natron, png, cool, cube
# LUTr-Input-Color-Space: srgb
# LUTr-Input-Gamut: rec709
# LUTr-Input-Transfer: srgb
# LUTr-Output-Color-Space: srgb
# LUTr-Output-Gamut: rec709
# LUTr-Output-Transfer: srgb
# LUTr-Color-Space-Confidence: assumed-display-referred
# LUTr-Domain-Normalized: true
# LUTr-Shaper: none
# LUTr-Original-Grid: 64x64x64
# LUTr-Conversion-Grid: 25x25x25
# LUTr-Conversion-Interpolation: trilinear
# LUTr-Conversion-Method: HALD-PNG LUT image decoded at 16-bit and sampled to 25x25x25 3D CUBE
# LUTr-Conversion-Tool: LUTr scripts/convert-all-to-cube.mjs 2.0.0
# LUTr-Conversion-Date: 2026-07-27
# LUTr-Note: Preserve this metadata and the upstream license notices when redistributing.
TITLE "polaroid 690 cold +"
LUT_3D_SIZE 25
DOMAIN_MIN 0 0 0
DOMAIN_MAX 1 1 1
0.0039215686 0.21176471 0.21176471
0.0039215686 0.21176471 0.21176471
0.0039215686 0.21176471 0.21176471
0.0039215686 0.20833333 0.21176471
0 0.20784314 0.21176471
0 0.20784314 0.20784314
0.038235294 0.20784314 0.20784314
0.09754902 0.20392157 0.20784314
0.15686275 0.20392157 0.20392157
0.21078431 0.2 0.20392157
0.2627451 0.19509804 0.20392157
0.31127451 0.18872549 0.20392157
0.3627451 0.18235294 0.2
0.41862745 0.17254902 0.1995098
0.47745098 0.15980392 0.19607843
0.53676471 0.13284314 0.19607843
0.59607843 0.10196078 0.19607843
0.66176471 0.071078431 0.19607843
0.72254902 0.044117647 0.19509804
0.77401961 0.024509804 0.18872549
0.82352941 0.011764706 0.18431373
0.86862745 0 0.18039216
0.90980392 0 0.17745098
0.95098039 0 0.175
0.98431373 0 0.17254902
0.006372549 0.21176471 0.21568627
0.006372549 0.21176471 0.21421569
0.006372549 0.21176471 0.21176471
0.006372549 0.21176471 0.21176471
0.0039215686 0.21176471 0.21176471
0.0074754902 0.21029412 0.20784314
0.047058824 0.20784314 0.20784314
0.10147059 0.20545343 0.20784314
0.15686275 0.20392157 0.20392157
0.21170343 0.2 0.20392157
0.26335784 0.19607843 0.20392157
0.31501225 0.1908701 0.20177696
0.36911765 0.18357843 0.2
0.42481618 0.17628676 0.1973652
0.48529412 0.1622549 0.19607843
0.54705882 0.13676471 0.19607843
0.60882353 0.10833333 0.19607843
0.67205882 0.08627451 0.19454657
0.72892157 0.057965686 0.19215686
0.77794118 0.026960784 0.18872549
0.8254902 0.011764706 0.18431373
0.87107843 0 0.18039216
0.90980392 0 0.17647059
0.95098039 0 0.17346814
0.98431373 0 0.17254902
0.0078431373 0.21568627 0.21568627
0.0078431373 0.21666667 0.21568627
0.0078431373 0.21666667 0.21397059
0.0078431373 0.21666667 0.21176471
0.0083333333 0.21666667 0.20931373
0.023406863 0.21568627 0.20784314
0.06372549 0.2127451 0.20784314
0.11458333 0.20845588 0.20784314
0.16666667 0.20784314 0.20392157
0.21813725 0.20490196 0.20392157
0.27058824 0.20171569 0.20392157
0.32855392 0.19754902 0.20036765
0.38627451 0.19362745 0.2
0.44411765 0.18872549 0.19693627
0.50588235 0.1754902 0.19607843
0.56764706 0.14301471 0.19828431
0.6254902 0.12352941 0.19607843
0.68382353 0.10441176 0.19154412
0.73529412 0.073284314 0.18823529
0.78321078 0.037867647 0.18737745
0.83039216 0.011764706 0.18235294
0.87610294 0 0.17904412
0.91397059 0 0.17647059
0.95490196 0 0.17254902
0.99313725 0 0.16862745
0.0078431373 0.22303922 0.21568627
0.0078431373 0.22303922 0.21354167
0.0078431373 0.22303922 0.21176471
0.0078431373 0.22303922 0.20876225
0.017156863 0.22303922 0.20784314
0.036764706 0.21954657 0.20784314
0.080514706 0.21911765 0.20784314
0.12843137 0.21648284 0.20784314
0.18333333 0.21862745 0.20392157
0.2408701 0.21911765 0.20392157
0.29767157 0.21776961 0.20036765
0.35294118 0.21170343 0.2
0.40882353 0.20539216 0.2
0.46470588 0.19901961 0.1995098
0.52647059 0.18578431 0.19607843
0.5846201 0.16078431 0.19607843
0.64215686 0.14411765 0.19215686
0.69785539 0.125 0.18823529
0.74460784 0.090196078 0.18480392
0.78970588 0.055882353 0.18431373
0.83872549 0.015196078 0.18039216
0.88339461 0 0.17647059
0.9185049 0 0.17647059
0.9536152 0.0021446078 0.17254902
0.97794118 0 0.17254902
0.0039215686 0.22941176 0.21176471
0.0039215686 0.22745098 0.21176471
0.0058823529 0.22745098 0.21078431
0.0075980392 0.22916667 0.20784314
0.015686275 0.22843137 0.20588235
0.047058824 0.2254902 0.20392157
0.092156863 0.22696078 0.20392157
0.14534314 0.23284314 0.20392157
0.20392157 0.2372549 0.20196078
0.26568627 0.2372549 0.2
0.325 0.23529412 0.2
0.37965686 0.22794118 0.2
0.43137255 0.21764706 0.2
0.4870098 0.21127451 0.19779412
0.54558824 0.1995098 0.19460784
0.60220588 0.18480392 0.19142157
0.65882353 0.16862745 0.18627451
0.71176471 0.15073529 0.18431373
0.75490196 0.1245098 0.18235294
0.8 0.091911765 0.18039216
0.84901961 0.055882353 0.17647059
0.88970588 0.034803922 0.1745098
0.92401961 0.024509804 0.17254902
0.95735294 0.011519608 0.17181373
0.98431373 0.0039215686 0.17058824
0.0039215686 0.23970588 0.20784314
0.0039215686 0.23596814 0.20784314
0.0039215686 0.23578431 0.20784314
0.0039215686 0.23529412 0.20435049
0.01372549 0.23553922 0.20392157
0.053921569 0.23584559 0.20343137
0.10539216 0.24313725 0.20085784
0.15833333 0.25165441 0.19981618
0.21617647 0.25588235 0.1995098
0.2846201 0.25588235 0.19607843
0.34803922 0.25588235 0.19607843
0.4028799 0.24852941 0.19564951
0.45833333 0.24485294 0.19387255
0.51421569 0.24460784 0.19166667
0.57303922 0.23431373 0.18786765
0.62990196 0.22273284 0.18645833
0.6872549 0.21029412 0.18382353
0.72990196 0.19724265 0.18039216
0.77058824 0.17683824 0.17904412
0.81770833 0.14901961 0.17604167
0.85955882 0.12696078 0.17254902
0.9 0.11231618 0.16862745
0.93382353 0.091789216 0.16862745
0.96715686 0.065870098 0.16685049
0.99607843 0.04754902 0.16470588
0.0039215686 0.25980392 0.20490196
0.0039215686 0.25404412 0.20490196
0.0039215686 0.24901961 0.20392157
0.0039215686 0.24522059 0.20134804
0.013235294 0.24362745 0.2
0.064215686 0.25343137 0.2
0.11568627 0.26372549 0.19779412
0.16752451 0.27009804 0.19607843
0.22352941 0.27647059 0.19313725
0.29705882 0.27647059 0.19313725
0.36862745 0.27647059 0.19215686
0.42953431 0.27806373 0.18958333
0.48921569 0.28088235 0.18676471
0.54852941 0.28578431 0.18137255
0.60392157 0.2754902 0.18137255
0.65968137 0.26740196 0.18039216
0.70784314 0.25882353 0.17745098
0.75232843 0.24448529 0.17708333
0.79411765 0.22745098 0.17254902
0.83529412 0.2064951 0.16997549
0.87303922 0.19362745 0.17107843
0.91029412 0.18566176 0.16556373
0.94485294 0.16764706 0.1625
0.97598039 0.14718137 0.16286765
0.99313725 0.14313725 0.16470588
0.0024509804 0.28676471 0.20245098
0.0024509804 0.28376225 0.20245098
0.0024509804 0.27892157 0.2
0.0015931373 0.275 0.2
0.011764706 0.27573529 0.2
0.065686275 0.28302696 0.19607843
0.12058824 0.28786765 0.19497549
0.17598039 0.29068627 0.19215686
0.22745098 0.29313725 0.18823529
0.30251225 0.30098039 0.18676471
0.37487745 0.31066176 0.18394608
0.44509804 0.31519608 0.18284314
0.51862745 0.31960784 0.17892157
0.58118873 0.32322304 0.175
0.63811275 0.31887255 0.175
0.69019608 0.32107843 0.17647059
0.73382353 0.31078431 0.17254902
0.7783701 0.29656863 0.16770833
0.8182598 0.28026961 0.16470588
0.85245098 0.26942402 0.16341912
0.88651961 0.2625 0.16323529
0.9223652 0.25539216 0.15900735
0.95539216 0.23970588 0.15686275
0.98033088 0.234375 0.1598652
0.99215686 0.23284314 0.16470588
0 0.31372549 0.19607843
0 0.31372549 0.19607843
0 0.30980392 0.19607843
0.0039215686 0.30980392 0.19607843
0.011764706 0.31176471 0.19607843
0.061764706 0.31764706 0.19215686
0.12352941 0.32156863 0.19215686
0.18137255 0.32696078 0.18823529
0.23921569 0.33333333 0.18431373
0.30343137 0.33970588 0.17794118
0.3754902 0.35 0.1754902
0.45098039 0.35637255 0.17254902
0.5254902 0.35882353 0.16862745
0.5995098 0.36519608 0.16470588
0.66078431 0.37254902 0.16862745
0.71715686 0.37647059 0.17254902
0.76078431 0.36862745 0.16862745
0.7995098 0.35196078 0.1622549
0.83431373 0.34411765 0.15686275
0.86519608 0.3372549 0.15686275
0.9 0.32941176 0.15490196
0.93529412 0.32107843 0.15245098
0.96372549 0.31372549 0.14901961
0.97794118 0.31764706 0.15294118
0.98823529 0.31764706 0.15686275
0 0.34068627 0.19362745
0 0.34313725 0.19215686
0.00036764706 0.34313725 0.19215686
0.0039215686 0.34460784 0.19215686
0.0066176471 0.34656863 0.18970588
0.052267157 0.35116422 0.18952206
0.12647059 0.35784314 0.18639706
0.19405637 0.36721814 0.18523284
0.25343137 0.3745098 0.17794118
0.30974265 0.38480392 0.17101716
0.37487745 0.39117647 0.16519608
0.44509804 0.39754902 0.1622549
0.51715686 0.40318627 0.15833333
0.58921569 0.41029412 0.15784314
0.65441176 0.41911765 0.15551471
0.72156863 0.4254902 0.16127451
0.77254902 0.42401961 0.15833333
0.79859069 0.4088848 0.14411765
0.8377451 0.40747549 0.14754902
0.8754902 0.40557598 0.1504902
0.91029412 0.40147059 0.14901961
0.94264706 0.39344363 0.14901961
0.96666667 0.38970588 0.14901961
0.9848652 0.3872549 0.14748775
0.99460784 0.3872549 0.14901961
0 0.38431373 0.18823529
0 0.38492647 0.18823529
0 0.38431373 0.1872549
0 0.38051471 0.18468137
0 0.37990196 0.18333333
0.042769608 0.38419118 0.18676471
0.1254902 0.39019608 0.17965686
0.19154412 0.40147059 0.17904412
0.25392157 0.41470588 0.17156863
0.3127451 0.42598039 0.16127451
0.3745098 0.43235294 0.15490196
0.44007353 0.43921569 0.15110294
0.51176471 0.44558824 0.14803922
0.58382353 0.45539216 0.14803922
0.64583333 0.46568627 0.14044118
0.70919118 0.47303922 0.13431373
0.76470588 0.47647059 0.13039216
0.79803922 0.46862745 0.12598039
0.84093137 0.47352941 0.13553922
0.88529412 0.47830882 0.14362745
0.92009804 0.47598039 0.14411765
0.94607843 0.46911765 0.14509804
0.96985294 0.4627451 0.14509804
0.9939951 0.45355392 0.14117647
1 0.45392157 0.14117647
0 0.42941176 0.18431373
0 0.43284314 0.18216912
0 0.43186275 0.18088235
0 0.42506127 0.18039216
0 0.42132353 0.17671569
0.036335784 0.42493873 0.17990196
0.11262255 0.42487745 0.17009804
0.17794118 0.43872549 0.16550245
0.24362745 0.45294118 0.16127451
0.3091299 0.46323529 0.15128676
0.3745098 0.47352941 0.14460784
0.43970588 0.47990196 0.13780637
0.50808824 0.49019608 0.1377451
0.57604167 0.5004902 0.1338848
0.6377451 0.51078431 0.12352941
0.69705882 0.52107843 0.10931373
0.75735294 0.53088235 0.099509804
0.79803922 0.53039216 0.10539216
0.84313725 0.53443627 0.11568627
0.88823529 0.54215686 0.12297794
0.92352941 0.54240196 0.14117647
0.94656863 0.53474265 0.14852941
0.97058824 0.53002451 0.15245098
0.99362745 0.52598039 0.15373775
0.99656863 0.52598039 0.15196078
0 0.48039216 0.17647059
0.0012254902 0.48039216 0.17647059
0.0039215686 0.47941176 0.1745098
0.0019607843 0.47647059 0.17279412
0.0029411765 0.47254902 0.17156863
0.028186275 0.47034314 0.17009804
0.091176471 0.47156863 0.1627451
0.16323529 0.47990196 0.15490196
0.23333333 0.49019608 0.14705882
0.3002451 0.5004902 0.14068627
0.36911765 0.51078431 0.13284314
0.43431373 0.52107843 0.12401961
0.49607843 0.53137255 0.11568627
0.55784314 0.54166667 0.10759804
0.61960784 0.55196078 0.099019608
0.68529412 0.5629902 0.086029412
0.74509804 0.57647059 0.07254902
0.79215686 0.58039216 0.07377451
0.8372549 0.58088235 0.078921569
0.88039216 0.58431373 0.089460784
0.91372549 0.58823529 0.11764706
0.94656863 0.59019608 0.14436275
0.97745098 0.59215686 0.16176471
0.99215686 0.59215686 0.16666667
0.99215686 0.59215686 0.17058824
0 0.52745098 0.16372549
0 0.53008578 0.16795343
0.0039215686 0.53186275 0.16862745
0.0039215686 0.52843137 0.16862745
0.0075980392 0.52401961 0.16446078
0.012622549 0.52009804 0.1598652
0.058333333 0.52303922 0.15343137
0.1377451 0.52922794 0.14705882
0.22254902 0.53529412 0.13676471
0.29264706 0.54166667 0.12647059
0.35931373 0.55196078 0.11997549
0.42745098 0.5622549 0.10545343
0.48970588 0.57205882 0.095098039
0.55147059 0.58235294 0.084803922
0.61323529 0.59264706 0.074509804
0.67322304 0.603125 0.064031863
0.72843137 0.61372549 0.046078431
0.78039216 0.62156863 0.041666667
0.82794118 0.62561275 0.036764706
0.87254902 0.62941176 0.044485294
0.90735294 0.63284314 0.084803922
0.93915441 0.63376225 0.11764706
0.97303922 0.63982843 0.14889706
0.99185049 0.64460784 0.18498775
0.99264706 0.64509804 0.20245098
0 0.5754902 0.14313725
0 0.57830882 0.1495098
0.00098039216 0.58333333 0.15955882
0.0039215686 0.57990196 0.16176471
0.0039215686 0.5754902 0.15588235
0.0040441176 0.57120098 0.14963235
0.033333333 0.57083333 0.14240196
0.1189951 0.57585784 0.13676471
0.20196078 0.58039216 0.12647059
0.27977941 0.58615196 0.11617647
0.35122549 0.59313725 0.10294118
0.41752451 0.60343137 0.089093137
0.48235294 0.60980392 0.073039216
0.54411765 0.62009804 0.06127451
0.60367647 0.63039216 0.050980392
0.66041667 0.64105392 0.035294118
0.71470588 0.65490196 0.014705882
0.77009804 0.6627451 0.0075980392
0.82058824 0.66372549 0.016421569
0.86568627 0.66752451 0.026838235
0.9004902 0.66764706 0.052941176
0.93443627 0.67071078 0.084191176
0.95980392 0.67156863 0.12965686
0.98284314 0.6754902 0.18088235
0.99313725 0.67941176 0.22352941
0 0.62156863 0.12254902
0 0.62457108 0.12892157
0.0039215686 0.6254902 0.13921569
0.0039215686 0.6254902 0.14607843
0.0039215686 0.62034314 0.14019608
0.0056985294 0.61501225 0.12990196
0.028676471 0.61482843 0.12254902
0.10833333 0.6221201 0.11862745
0.19068627 0.62696078 0.11078431
0.27843137 0.62849265 0.10441176
0.35490196 0.63039216 0.090686275
0.41666667 0.63921569 0.070098039
0.47696078 0.64828431 0.051960784
0.53480392 0.65735294 0.034313725
0.59362745 0.66764706 0.022181373
0.65140931 0.67647059 0.013296569
0.70833333 0.68676471 0.0093137255
0.75980392 0.69221814 0.0078431373
0.81127451 0.69558824 0.016666667
0.85588235 0.69852941 0.026960784
0.89534314 0.70245098 0.036519608
0.92647059 0.70245098 0.063051471
0.94889706 0.70428922 0.11666667
0.97156863 0.70637255 0.17058824
0.99215686 0.70637255 0.21421569
0 0.66666667 0.10196078
0 0.66666667 0.1122549
0.0039215686 0.66666667 0.12156863
0.0039215686 0.66666667 0.1254902
0.0039215686 0.6627451 0.11960784
0.0039215686 0.65882353 0.10931373
0.019607843 0.65882353 0.099019608
0.095588235 0.66421569 0.096568627
0.19215686 0.66666667 0.098039216
0.28872549 0.66421569 0.095588235
0.35882353 0.66764706 0.080392157
0.42058824 0.67401961 0.059803922
0.47647059 0.68431373 0.035294118
0.52794118 0.69460784 0.010294118
0.58627451 0.70098039 0.0039215686
0.64411765 0.70588235 0.0093137255
0.70196078 0.71372549 0.011764706
0.75343137 0.71764706 0.012745098
0.80490196 0.72254902 0.023529412
0.84901961 0.72892157 0.026960784
0.88627451 0.72941176 0.037254902
0.91911765 0.72941176 0.069117647
0.94313725 0.73235294 0.11764706
0.96911765 0.73333333 0.16421569
0.99215686 0.73333333 0.20392157
0.006372549 0.70539216 0.10686275
0.00091911765 0.70539216 0.10686275
0 0.70502451 0.11262255
0 0.70392157 0.11158088
0.00073529412 0.70392157 0.10931373
0.006372549 0.70128676 0.094607843
0.0085784314 0.7 0.075122549
0.10042892 0.70147059 0.079901961
0.20490196 0.70147059 0.085294118
0.29748775 0.69846814 0.082291667
0.36519608 0.70245098 0.066544118
0.42481618 0.70882353 0.051654412
0.48406863 0.71519608 0.033823529
0.53823529 0.72126225 0.017647059
0.59142157 0.72610294 0.015563725
0.64656863 0.73186275 0.0078431373
0.69803922 0.73823529 0.010294118
0.7495098 0.74368873 0.013112745
0.80036765 0.74669118 0.023529412
0.84264706 0.75 0.023529412
0.88235294 0.75392157 0.025735294
0.91488971 0.75637255 0.052757353
0.94215686 0.75747549 0.10637255
0.96911765 0.75876225 0.16121324
0.99215686 0.76029412 0.20147059
0.012745098 0.74411765 0.12352941
0.006372549 0.74411765 0.12071078
0 0.74117647 0.12254902
0.00085784314 0.74031863 0.11433824
0 0.74068627 0.1
0.0022058824 0.74105392 0.085906863
0.07377451 0.73651961 0.079411765
0.15735294 0.73627451 0.075612745
0.24117647 0.73333333 0.07745098
0.30906863 0.73272059 0.067156863
0.37254902 0.73627451 0.059558824
0.43431373 0.74007353 0.055882353
0.49313725 0.74411765 0.043627451
0.54460784 0.74803922 0.023529412
0.59509804 0.75196078 0.0041666667
0.64693627 0.75698529 0.011764706
0.69803922 0.7627451 0.019607843
0.74705882 0.76666667 0.020220588
0.79534314 0.77058824 0.015196078
0.83762255 0.77414216 0.014215686
0.87745098 0.77696078 0.028431373
0.91127451 0.77855392 0.052205882
0.93897059 0.78235294 0.10490196
0.96911765 0.78272059 0.15735294
0.99411765 0.78627451 0.19901961
0.030392157 0.775 0.12941176
0.020588235 0.775 0.1276348
0.0025735294 0.77879902 0.12892157
0.013296569 0.77542892 0.12156863
0.042892157 0.77156863 0.11078431
0.083394608 0.77156863 0.10392157
0.15759804 0.77107843 0.091421569
0.22794118 0.76715686 0.074509804
0.29215686 0.76715686 0.074019608
0.34362745 0.76341912 0.07745098
0.39656863 0.76458333 0.072671569
0.45833333 0.76758578 0.066605392
0.51421569 0.77132353 0.054166667
0.56525735 0.77506127 0.040686275
0.61066176 0.77928922 0.035906863
0.6567402 0.78302696 0.04932598
0.70147059 0.78676471 0.030392157
0.74705882 0.78939951 0.032843137
0.79313725 0.79215686 0.032598039
0.83425245 0.79810049 0.032659314
0.87107843 0.79901961 0.062745098
0.90735294 0.80294118 0.089215686
0.93823529 0.80551471 0.11703431
0.96636029 0.80686275 0.16360294
0.97745098 0.80686275 0.18137255
0.047058824 0.80588235 0.1254902
0.072794118 0.80588235 0.13897059
0.099509804 0.80784314 0.15098039
0.12598039 0.80245098 0.14558824
0.15294118 0.8 0.13529412
0.19607843 0.8002451 0.12892157
0.24411765 0.79852941 0.11715686
0.29681373 0.79803922 0.098529412
0.33921569 0.79803922 0.094117647
0.38480392 0.79411765 0.095343137
0.43088235 0.79411765 0.093137255
0.48946078 0.79779412 0.086764706
0.54117647 0.80098039 0.089215686
0.58627451 0.80220588 0.078431373
0.62745098 0.80539216 0.083333333
0.67058824 0.80784314 0.08995098
0.71176471 0.81176471 0.082352941
0.75098039 0.81372549 0.091421569
0.79607843 0.81617647 0.094117647
0.83382353 0.82132353 0.092401961
0.87254902 0.8245098 0.10196078
0.90343137 0.82745098 0.12867647
0.93823529 0.83088235 0.1495098
0.96029412 0.83333333 0.16764706
0.96666667 0.83333333 0.18627451
0.20343137 0.83676471 0.17058824
0.21770833 0.83676471 0.17696078
0.22438725 0.83284314 0.18247549
0.23088235 0.83284314 0.17598039
0.25343137 0.82892157 0.16102941
0.28480392 0.82892157 0.14993873
0.3254902 0.82892157 0.14301471
0.35373775 0.82892157 0.14295343
0.39460784 0.82892157 0.13529412
0.43155637 0.825 0.125
0.46948529 0.825 0.11409314
0.52009804 0.825 0.11213235
0.56568627 0.82892157 0.11862745
0.60686275 0.82941176 0.1245098
0.6442402 0.83284314 0.12058824
0.68118873 0.83284314 0.11991422
0.72205882 0.83676471 0.14019608
0.75931373 0.84050245 0.15833333
0.79914216 0.84166667 0.15882353
0.83731618 0.84803922 0.15245098
0.87254902 0.85245098 0.15269608
0.90343137 0.8528799 0.17683824
0.93431373 0.85637255 0.19607843
0.96127451 0.85998775 0.21685049
0.98088235 0.86421569 0.2377451
0.30686275 0.86764706 0.22843137
0.30686275 0.86764706 0.22941176
0.30661765 0.86372549 0.23431373
0.31323529 0.86372549 0.23382353
0.33627451 0.85980392 0.21568627
0.36372549 0.85980392 0.20147059
0.38504902 0.85759804 0.19117647
0.41421569 0.85735294 0.18578431
0.44607843 0.85980392 0.17647059
0.47794118 0.85526961 0.17487745
0.50808824 0.85269608 0.16397059
0.54411765 0.85551471 0.16580882
0.58970588 0.85980392 0.18039216
0.63137255 0.86372549 0.18958333
0.66936275 0.86593137 0.19215686
0.7004902 0.86372549 0.18958333
0.73235294 0.86764706 0.20196078
0.76960784 0.86948529 0.22193627
0.80612745 0.87254902 0.22818627
0.84411765 0.87892157 0.22745098
0.87647059 0.88333333 0.23333333
0.90343137 0.88333333 0.2252451
0.93431373 0.88406863 0.23504902
0.95796569 0.88872549 0.26727941
0.97745098 0.89215686 0.29607843
0.38823529 0.89852941 0.29509804
0.38823529 0.89852941 0.29601716
0.39031863 0.89852941 0.29901961
0.39558824 0.89607843 0.29901961
0.41102941 0.89607843 0.28676471
0.43088235 0.89430147 0.27254902
0.44754902 0.89068627 0.25833333
0.47058824 0.88823529 0.25098039
0.49901961 0.89215686 0.25343137
0.52506127 0.88915441 0.24515931
0.54264706 0.88039216 0.2254902
0.56960784 0.87696078 0.21813725
0.61544118 0.89191176 0.24411765
0.65949755 0.89852941 0.26127451
0.69117647 0.89852941 0.26519608
0.71868873 0.89460784 0.26127451
0.74656863 0.89313725 0.26372549
0.78137255 0.90098039 0.28823529
0.81617647 0.9067402 0.30477941
0.85079657 0.91158088 0.30980392
0.87843137 0.91421569 0.30857843
0.90686275 0.91421569 0.303125
0.92990196 0.91421569 0.30134804
0.95104167 0.91960784 0.33290441
0.97107843 0.92352941 0.36078431
0.4627451 0.92941176 0.35294118
0.47156863 0.93186275 0.35931373
0.46568627 0.9254902 0.35294118
0.46666667 0.9254902 0.35294118
0.48235294 0.92745098 0.34901961
0.49411765 0.925 0.33627451
0.49411765 0.91470588 0.31176471
0.51029412 0.91372549 0.31127451
0.54901961 0.9254902 0.32941176
0.56715686 0.91911765 0.31568627
0.57745098 0.90490196 0.28333333
0.59460784 0.90147059 0.27352941
0.63921569 0.91372549 0.29607843
0.68382353 0.92941176 0.3254902
0.70784314 0.9254902 0.32156863
0.73382353 0.92009804 0.32156863
0.76078431 0.91764706 0.31764706
0.79166667 0.92401961 0.34215686
0.82647059 0.93431373 0.3627451
0.85392157 0.9372549 0.37254902
0.88039216 0.94117647 0.38235294
0.90343137 0.94509804 0.39215686
0.92745098 0.94117647 0.38235294
0.94803922 0.94656863 0.4004902
0.96470588 0.95294118 0.42745098
0.0039215686 0.21176471 0.21813725
0.0039215686 0.21176471 0.21813725
0.0039215686 0.21176471 0.21568627
0.0039215686 0.20784314 0.21568627
0.0051470588 0.20784314 0.21421569
0.01372549 0.20784314 0.21176471
0.048161765 0.20784314 0.20845588
0.10392157 0.20392157 0.20784314
0.15931373 0.20392157 0.20637255
0.21170343 0.2 0.20392157
0.25980392 0.19607843 0.20392157
0.3091299 0.18872549 0.20392157
0.36029412 0.17990196 0.20392157
0.41470588 0.16960784 0.20214461
0.47647059 0.1495098 0.2
0.53823529 0.12254902 0.2
0.6 0.094117647 0.2
0.66176471 0.063235294 0.19908088
0.71960784 0.03872549 0.19607843
0.771875 0.024019608 0.19246324
0.81642157 0.0098039216 0.18946078
0.8622549 0 0.18645833
0.90343137 0 0.18284314
0.94460784 0 0.17892157
0.97794118 0 0.17647059
0.0039215686 0.21176471 0.21813725
0.0048406863 0.21176471 0.21603094
0.006372549 0.21176471 0.21568627
0.006372549 0.21176471 0.21439951
0.0072916667 0.21102941 0.21176471
0.017953431 0.20864737 0.21058517
0.051822917 0.20784314 0.20784314
0.10541513 0.20449602 0.20784314
0.15686275 0.20392157 0.20637255
0.20833333 0.2 0.20392157
0.25980392 0.19607843 0.20392157
0.31207874 0.18952972 0.20392157
0.36697304 0.1828125 0.20272672
0.42322304 0.17431832 0.20080423
0.48284314 0.15490196 0.2
0.54705882 0.12949602 0.19852941
0.61029412 0.10196078 0.19852941
0.67205882 0.074793199 0.19607843
0.72777267 0.042356005 0.19584865
0.77744332 0.020212929 0.19215686
0.8208027 0.0098039216 0.18777574
0.865625 0 0.18419884
0.90496324 0 0.18169424
0.94613971 0 0.17892157
0.98131127 0 0.17647059
0.0078431373 0.21568627 0.21960784
0.0078431373 0.21568627 0.21591605
0.0078431373 0.21568627 0.21568627
0.0078431373 0.21407782 0.21207108
0.011703431 0.21384804 0.21176471
0.031387868 0.21213235 0.20784314
0.06752451 0.21038603 0.20784314
0.11421569 0.20784314 0.20784314
0.16568627 0.20490196 0.20784314
0.21245404 0.20375306 0.20392157
0.26510417 0.20098039 0.20392157
0.32605699 0.19710478 0.20359988
0.38449755 0.18995098 0.20214461
0.44019608 0.18235294 0.2
0.50196078 0.16519608 0.19880515
0.56588542 0.14015012 0.19977022
0.6254902 0.11715686 0.19607843
0.68313419 0.090686275 0.19422488
0.73529412 0.051501225 0.19215686
0.78321078 0.020634191 0.19082414
0.82843137 0.0071691176 0.18553922
0.87071078 0 0.18284314
0.90879289 0 0.18039216
