site/assets/luts/sha256-cd0143760e87245efb546d40d63a9d471d0b42e8fd520544163762d9015c2672.cube
# LUTr-Schema-Version: 2
# LUTr-ID: sha256-cd0143760e87245efb546d40d63a9d471d0b42e8fd520544163762d9015c2672
# LUTr-Title: kodak elite chrome 400
# LUTr-Collection: Natron HaldCLUT
# LUTr-Collection-ID: natron-haldclut-presets
# LUTr-Source: https://github.com/NatronGitHub/clut
# LUTr-Retrieved: 2026-07-27
# LUTr-Source-File: submissions/natron-haldclut-presets/colorslide/kodak_elite_chrome_400.png
# LUTr-Source-Format: HALD-PNG
# LUTr-Source-SHA256: cd0143760e87245efb546d40d63a9d471d0b42e8fd520544163762d9015c2672
# LUTr-License: CC-BY-SA-4.0
# LUTr-License-URL: https://github.com/NatronGitHub/clut#license
# LUTr-License-Basis: repo-license-file
# LUTr-Transform-Class: film-emulation
# LUTr-Tags: creative, film, film-emulation, hald-clut, natron, png, cube
# LUTr-Input-Color-Space: srgb
# LUTr-Input-Gamut: rec709
# LUTr-Input-Transfer: srgb
# LUTr-Output-Color-Space: srgb
# LUTr-Output-Gamut: rec709
# LUTr-Output-Transfer: srgb
# LUTr-Color-Space-Confidence: assumed-display-referred
# LUTr-Domain-Normalized: true
# LUTr-Shaper: none
# LUTr-Original-Grid: 64x64x64
# LUTr-Conversion-Grid: 25x25x25
# LUTr-Conversion-Interpolation: trilinear
# LUTr-Conversion-Method: HALD-PNG LUT image decoded at 16-bit and sampled to 25x25x25 3D CUBE
# LUTr-Conversion-Tool: LUTr scripts/convert-all-to-cube.mjs 2.0.0
# LUTr-Conversion-Date: 2026-07-27
# LUTr-Note: Preserve this metadata and the upstream license notices when redistributing.
TITLE "kodak elite chrome 400"
LUT_3D_SIZE 25
DOMAIN_MIN 0 0 0
DOMAIN_MAX 1 1 1
0 0 0
0.024509804 0.0078431373 0.010294118
0.05 0.016666667 0.020588235
0.074019608 0.020588235 0.024509804
0.090196078 0.0098039216 0.01372549
0.10686275 0.0034313725 0.0034313725
0.14117647 0.0068627451 0.0068627451
0.18235294 0.011764706 0.013235294
0.21960784 0.015686275 0.019607843
0.25931373 0.014215686 0.019607843
0.31078431 0.016666667 0.014705882
0.35882353 0.019607843 0.011764706
0.40588235 0.023529412 0.0058823529
0.44901961 0.023529412 0
0.49313725 0.023529412 0
0.54068627 0.031372549 0
0.58823529 0.035294118 0
0.63333333 0.041666667 0
0.67058824 0.047058824 0
0.71176471 0.050980392 0
0.74901961 0.058823529 0
0.78627451 0.063235294 0
0.82745098 0.069607843 0
0.86715686 0.072058824 0
0.89803922 0.078431373 0
0.026960784 0.030882353 0.020588235
0.039644608 0.030882353 0.030882353
0.059926471 0.035171569 0.029901961
0.080392157 0.036764706 0.024019608
0.1004902 0.031617647 0.01372549
0.12401961 0.030882353 0.010294118
0.15490196 0.032720588 0.014215686
0.19264706 0.034803922 0.019607843
0.22990196 0.034803922 0.025980392
0.27052696 0.033272059 0.023529412
0.31715686 0.032352941 0.015686275
0.36862745 0.03627451 0.011764706
0.41421569 0.038970588 0.0058823529
0.45539216 0.03627451 0.0037377451
0.49656863 0.033823529 0
0.54221814 0.032291667 0
0.58823529 0.035294118 0
0.63333333 0.041666667 0
0.67352941 0.047058824 0
0.71176471 0.050980392 0
0.74901961 0.058823529 0
0.79001225 0.063235294 0
0.82745098 0.069607843 0
0.86862745 0.073590686 0
0.89803922 0.078431373 0
0.056862745 0.061764706 0.037254902
0.064215686 0.058946078 0.044730392
0.074264706 0.057843137 0.041176471
0.090196078 0.060784314 0.024142157
0.1127451 0.057352941 0.015686275
0.14068627 0.061764706 0.017156863
0.17156863 0.064705882 0.024264706
0.2057598 0.065686275 0.025612745
0.24411765 0.065686275 0.031372549
0.28419118 0.059313725 0.029534314
0.33039216 0.056862745 0.018627451
0.3754902 0.056862745 0.011764706
0.42205882 0.056862745 0.0058823529
0.46470588 0.055514706 0.0039215686
0.50686275 0.049754902 0.0039215686
0.54803922 0.040808824 0.0028186275
0.59215686 0.039215686 0
0.63394608 0.041666667 0
0.6745098 0.047058824 0
0.71188725 0.054411765 0
0.75294118 0.058823529 0
0.79019608 0.063235294 0
0.83137255 0.069607843 0
0.86862745 0.074509804 0
0.90686275 0.078431373 0
0.084803922 0.092647059 0.047058824
0.089215686 0.08872549 0.047242647
0.094117647 0.084803922 0.038235294
0.10091912 0.081372549 0.024080882
0.12303922 0.083088235 0.017401961
0.15741422 0.089215686 0.027022059
0.18835784 0.092647059 0.033823529
0.21715686 0.092647059 0.031372549
0.25441176 0.092647059 0.031372549
0.29558824 0.086580882 0.031372549
0.33811275 0.08125 0.022426471
0.38229167 0.07745098 0.011764706
0.42745098 0.07745098 0.0039215686
0.46905637 0.07310049 0.0039215686
0.51323529 0.066666667 0.0039215686
0.55490196 0.060294118 0.0039215686
0.59558824 0.05 0.0034313725
0.6372549 0.042953431 0
0.6745098 0.048039216 0
0.71568627 0.054840686 0
0.75465686 0.060784314 0
0.79405637 0.066666667 0
0.83137255 0.070588235 0
0.87254902 0.075796569 0
0.90588235 0.078431373 0
0.10588235 0.12352941 0.050980392
0.10710784 0.12230392 0.047794118
0.11029412 0.12058824 0.042156863
0.11519608 0.11764706 0.033823529
0.1372549 0.11470588 0.030392157
0.16813725 0.11789216 0.033333333
0.19901961 0.11960784 0.033333333
0.22598039 0.11960784 0.031372549
0.2627451 0.11764706 0.033333333
0.30588235 0.1125 0.028921569
0.34705882 0.10735294 0.02254902
0.38823529 0.1002451 0.012254902
0.43137255 0.097058824 0.0039215686
0.475 0.093627451 0.006127451
0.52107843 0.08872549 0.0078431373
0.56470588 0.082843137 0.0078431373
0.60588235 0.074509804 0.0058823529
0.64387255 0.065441176 0.0026960784
0.68039216 0.056862745 0
0.71960784 0.060294118 0
0.75784314 0.065686275 0
0.79779412 0.070833333 0
0.83578431 0.075980392 0
0.875 0.079166667 0
0.90196078 0.082352941 0
0.10980392 0.1627451 0.067156863
0.11243873 0.1627451 0.067156863
0.11911765 0.1627451 0.06372549
0.12984069 0.1627451 0.06372549
0.15367647 0.15882353 0.056127451
0.18235294 0.15484069 0.051470588
0.20943627 0.15061275 0.04375
0.23658088 0.14656863 0.034313725
0.27107843 0.14264706 0.031372549
0.3122549 0.13921569 0.029227941
0.35735294 0.13529412 0.024509804
0.39552696 0.13143382 0.020159314
0.43995098 0.12598039 0.010784314
0.48529412 0.12303922 0.011764706
0.53026961 0.1192402 0.011764706
0.575 0.11550245 0.011764706
0.61617647 0.11127451 0.011764706
0.65490196 0.10116422 0.0056985294
0.68970588 0.085906863 0.0039215686
0.7245098 0.07254902 0.00091911765
0.7629902 0.071078431 0
0.80153186 0.075 0
0.83933824 0.07879902 0
0.8745098 0.082352941 0
0.89362745 0.082843137 0
0.11372549 0.20392157 0.081372549
0.11911765 0.20392157 0.081372549
0.12941176 0.20392157 0.088235294
0.14620098 0.20392157 0.091176471
0.16960784 0.2 0.081862745
0.19644608 0.19558824 0.072058824
0.22352941 0.18921569 0.061764706
0.2504902 0.18431373 0.051470588
0.28431373 0.18333333 0.045098039
0.32647059 0.18333333 0.045098039
0.36764706 0.18039216 0.041911765
0.41176471 0.17683824 0.037745098
0.45539216 0.17352941 0.028431373
0.49938725 0.16335784 0.021323529
0.54387255 0.15465686 0.019362745
0.58529412 0.15 0.015686275
0.62647059 0.14607843 0.011764706
0.66519608 0.13578431 0.0078431373
0.7 0.11985294 0.0075980392
0.73480392 0.10257353 0.0039215686
0.76960784 0.087745098 0.0034313725
0.8057598 0.081372549 0
0.84240196 0.082352941 0
0.87303922 0.083455882 0
0.89215686 0.08627451 0
0.11911765 0.24509804 0.091666667
0.12849265 0.24509804 0.098039216
0.1439951 0.24509804 0.10588235
0.15882353 0.24656863 0.1127451
0.18455882 0.24387255 0.10294118
0.21207108 0.2408701 0.092647059
0.23982843 0.23541667 0.082352941
0.26917892 0.23241422 0.072058824
0.30490196 0.23088235 0.065686275
0.34123775 0.2278799 0.060845588
0.38223039 0.22659314 0.05747549
0.42665441 0.22334559 0.052941176
0.47083333 0.21838235 0.046568627
0.51341912 0.20900735 0.03627451
0.55588235 0.19546569 0.027818627
0.59650735 0.18572304 0.019056373
0.63676471 0.18088235 0.011764706
0.6754902 0.16905637 0.0093137255
0.71029412 0.15245098 0.0078431373
0.74509804 0.13609069 0.0078431373
0.77990196 0.11813725 0.0066176471
0.81470588 0.097855392 0.0039215686
0.85134804 0.088112745 0.00036764706
0.88731618 0.08627451 0
0.91127451 0.08627451 0
0.12941176 0.29019608 0.10588235
0.14362745 0.29019608 0.1122549
0.15882353 0.29411765 0.12254902
0.17598039 0.29411765 0.12941176
0.2 0.29215686 0.11960784
0.22843137 0.28627451 0.10931373
0.25294118 0.28333333 0.099019608
0.28431373 0.28235294 0.090196078
0.32156863 0.27843137 0.08627451
0.36029412 0.27598039 0.079901961
0.39607843 0.27058824 0.070588235
0.44117647 0.27058824 0.066666667
0.48431373 0.26470588 0.060784314
0.52745098 0.25441176 0.050490196
0.56862745 0.24411765 0.040196078
0.60980392 0.22843137 0.025980392
0.64705882 0.21568627 0.015686275
0.68578431 0.20294118 0.011764706
0.72058824 0.1872549 0.011764706
0.75539216 0.17303922 0.011764706
0.79019608 0.15294118 0.011764706
0.825 0.13186275 0.0078431373
0.85882353 0.10490196 0.0039215686
0.89607843 0.08872549 0
0.9254902 0.090196078 0
0.15392157 0.34558824 0.12254902
0.16421569 0.34803922 0.12947304
0.17879902 0.3495098 0.13921569
0.19607843 0.35196078 0.14577206
0.22058824 0.34485294 0.13627451
0.24509804 0.3377451 0.12598039
0.2689951 0.33382353 0.11568627
0.30098039 0.33382353 0.10778186
0.34215686 0.33627451 0.10294118
0.38033088 0.33627451 0.09810049
0.41666667 0.33590686 0.093014706
0.45784314 0.32892157 0.087254902
0.4997549 0.32254902 0.078186275
0.54166667 0.3122549 0.070772059
0.58284314 0.29803922 0.056862745
0.62346814 0.28382353 0.042647059
0.65882353 0.27205882 0.030882353
0.69460784 0.26176471 0.022058824
0.73088235 0.24693627 0.018137255
0.76568627 0.23118873 0.019607843
0.8004902 0.21176471 0.018382353
0.83529412 0.18333333 0.015196078
0.87009804 0.15098039 0.0088235294
0.90490196 0.11764706 0.0039215686
0.93823529 0.090196078 0
0.1745098 0.40098039 0.13823529
0.18480392 0.40490196 0.14460784
0.2 0.40588235 0.15490196
0.21409314 0.40882353 0.1622549
0.24019608 0.40147059 0.15294118
0.26973039 0.39276961 0.14166667
0.29509804 0.38921569 0.12843137
0.32647059 0.38958333 0.12352941
0.36372549 0.39411765 0.12254902
0.40147059 0.39767157 0.11715686
0.4372549 0.39803922 0.11397059
0.47843137 0.3932598 0.10441176
0.51960784 0.38431373 0.098039216
0.55980392 0.37401961 0.087745098
0.59730392 0.36078431 0.074509804
0.63394608 0.35012255 0.063235294
0.66764706 0.34019608 0.052941176
0.70490196 0.32990196 0.042647059
0.74117647 0.31960784 0.03627451
0.77598039 0.30539216 0.025857843
0.8127451 0.28529412 0.021568627
0.84607843 0.25637255 0.015686275
0.88039216 0.22181373 0.011764706
0.91519608 0.18529412 0.006372549
0.94607843 0.15098039 0
0.19166667 0.45637255 0.14852941
0.20753676 0.46011029 0.15851716
0.22794118 0.46029412 0.16519608
0.24803922 0.46029412 0.1716299
0.27107843 0.45441176 0.16960784
0.29803922 0.44846814 0.15582108
0.32598039 0.44460784 0.14509804
0.35606618 0.44589461 0.14019608
0.39068627 0.45196078 0.13676471
0.42205882 0.45588235 0.1341299
0.45784314 0.45625 0.13137255
0.49901961 0.45202206 0.12156863
0.53627451 0.44264706 0.11470588
0.57352941 0.43578431 0.10441176
0.60735294 0.4254902 0.090686275
0.64313725 0.41862745 0.080208333
0.67794118 0.40833333 0.070098039
0.7127451 0.39803922 0.059803922
0.74889706 0.3877451 0.052941176
0.78627451 0.37745098 0.038848039
0.8247549 0.36127451 0.025245098
0.85980392 0.33229167 0.018688725
0.89362745 0.29460784 0.011764706
0.92910539 0.25 0.006372549
0.95637255 0.21323529 0
0.21764706 0.50588235 0.1627451
0.23823529 0.50588235 0.17303922
0.25882353 0.50588235 0.17941176
0.27941176 0.50416667 0.1877451
0.30196078 0.50588235 0.18137255
0.32671569 0.50392157 0.17009804
0.35245098 0.5 0.15980392
0.38284314 0.50147059 0.15490196
0.41568627 0.50784314 0.15294118
0.44656863 0.50906863 0.1497549
0.47745098 0.50980392 0.14656863
0.5122549 0.50416667 0.1377451
0.54803922 0.49803922 0.12941176
0.58382353 0.49191176 0.11887255
0.61862745 0.48676471 0.10490196
0.65416667 0.48161765 0.08995098
0.68823529 0.4745098 0.076470588
0.7254902 0.46421569 0.069362745
0.76176471 0.45392157 0.059803922
0.8 0.44362745 0.046078431
0.8372549 0.42941176 0.02745098
0.87230392 0.40416667 0.019117647
0.90637255 0.36666667 0.011764706
0.94117647 0.32083333 0.006372549
0.97254902 0.28039216 0
0.26911765 0.55098039 0.19754902
0.27518382 0.54724265 0.20128676
0.28970588 0.54705882 0.21029412
0.31023284 0.54705882 0.21280637
0.33284314 0.54901961 0.20098039
0.35539216 0.55104167 0.18523284
0.37598039 0.55232843 0.17414216
0.40557598 0.55490196 0.16911765
0.44019608 0.55490196 0.16960784
0.47107843 0.55490196 0.16697304
0.49803922 0.55098039 0.16433824
0.53278186 0.54797794 0.15441176
0.56740196 0.54338235 0.14411765
0.59852941 0.53921569 0.13290441
0.63284314 0.53578431 0.11654412
0.66764706 0.53578431 0.10128676
0.70245098 0.53921569 0.083823529
0.73578431 0.52941176 0.079411765
0.77205882 0.51960784 0.074632353
0.81029412 0.50588235 0.056862745
0.85147059 0.49313725 0.032107843
0.88817402 0.47254902 0.016115196
0.91862745 0.43946078 0.012745098
0.9495098 0.40606618 0.0078431373
0.97647059 0.37303922 0.0039215686
0.32058824 0.59215686 0.2254902
0.32120098 0.59215686 0.22904412
0.32647059 0.58823529 0.23357843
0.34117647 0.58823529 0.23345588
0.36568627 0.59215686 0.22352941
0.38627451 0.59522059 0.2122549
0.40686275 0.59607843 0.2002451
0.42990196 0.59607843 0.19497549
0.46078431 0.59607843 0.18921569
0.49166667 0.59607843 0.18443627
0.52083333 0.59607843 0.17916667
0.55036765 0.59252451 0.17205882
0.58431373 0.5877451 0.16078431
0.61617647 0.58296569 0.14742647
0.64705882 0.58039216 0.13627451
0.68125 0.58039216 0.12205882
0.7127451 0.58039216 0.11078431
0.74607843 0.57977941 0.096078431
0.77941176 0.5754902 0.092156863
0.82058824 0.56470588 0.073651961
0.85882353 0.55147059 0.045588235
0.89460784 0.53860294 0.025980392
0.92254902 0.52058824 0.016421569
0.95343137 0.4932598 0.0096813725
0.98039216 0.46568627 0.0039215686
0.36813725 0.63333333 0.25392157
0.36966912 0.63333333 0.25392157
0.37267157 0.63333333 0.25355392
0.38155637 0.63333333 0.25
0.4004902 0.6372549 0.24411765
0.41715686 0.6372549 0.23970588
0.43664216 0.6372549 0.23786765
0.45925245 0.6372549 0.23578431
0.48676471 0.6372549 0.22401961
0.51464461 0.6372549 0.21127451
0.54252451 0.6372549 0.1995098
0.57009804 0.63903186 0.1877451
0.60098039 0.63137255 0.17745098
0.63186275 0.62518382 0.16862745
0.66127451 0.62156863 0.16127451
0.69215686 0.62156863 0.15196078
0.7245098 0.62156863 0.13382353
0.75692402 0.62303922 0.11384804
0.79080882 0.6254902 0.10306373
0.82696078 0.61813725 0.085110294
0.86348039 0.60539216 0.062990196
0.89705882 0.59509804 0.045098039
0.92977941 0.58296569 0.028063725
0.96127451 0.56721814 0.015134804
0.98578431 0.54901961 0.0039215686
0.41568627 0.67058824 0.27843137
0.41568627 0.6745098 0.27598039
0.41960784 0.6745098 0.2745098
0.42352941 0.67843137 0.27058824
0.43333333 0.68235294 0.26666667
0.44803922 0.67843137 0.27058824
0.46470588 0.6754902 0.2745098
0.48529412 0.67598039 0.2754902
0.50980392 0.67843137 0.2627451
0.53823529 0.67843137 0.24607843
0.56372549 0.67843137 0.23039216
0.59068627 0.67843137 0.22009804
0.61764706 0.6745098 0.20980392
0.64460784 0.67009804 0.2
0.6754902 0.66666667 0.19607843
0.70637255 0.66666667 0.18529412
0.7372549 0.66666667 0.15686275
0.76813725 0.66911765 0.12990196
0.80294118 0.67058824 0.11176471
0.8377451 0.66715686 0.095098039
0.86862745 0.65686275 0.076470588
0.90343137 0.6504902 0.061764706
0.9372549 0.6372549 0.044117647
0.96519608 0.62745098 0.028431373
0.98431373 0.62352941 0.015686275
0.4504902 0.71176471 0.30931373
0.4504902 0.71176471 0.30784314
0.45441176 0.71323529 0.30784314
0.45784314 0.71568627 0.30784314
0.4629902 0.71715686 0.30784314
0.475 0.71697304 0.30539216
0.49203431 0.71568627 0.30931373
0.51072304 0.71660539 0.31023284
0.53431373 0.71960784 0.29607843
0.56127451 0.71960784 0.28033088
0.5872549 0.71678922 0.26764706
0.61127451 0.71568627 0.25863971
0.63431373 0.71568627 0.25098039
0.66096814 0.71550245 0.24068627
0.68970588 0.71421569 0.23431373
0.72058824 0.71329657 0.21770833
0.75147059 0.71421569 0.1877451
0.7838848 0.7151348 0.15441176
0.81605392 0.71813725 0.12218137
0.84803922 0.71439951 0.1036152
0.87892157 0.70833333 0.08995098
0.91372549 0.70196078 0.075
0.94460784 0.6935049 0.058946078
0.96617647 0.68529412 0.044117647
0.97401961 0.68137255 0.033823529
0.48137255 0.74901961 0.35
0.48198529 0.74901961 0.34901961
0.48529412 0.75196078 0.34901961
0.48529412 0.75196078 0.34901961
0.49117647 0.75294118 0.34656863
0.50539216 0.75588235 0.34117647
0.51960784 0.75686275 0.34019608
0.53529412 0.76078431 0.33811275
0.55882353 0.76078431 0.32843137
0.58333333 0.76078431 0.31482843
0.60784314 0.75686275 0.30588235
0.63186275 0.75686275 0.29852941
0.65294118 0.75735294 0.29215686
0.67745098 0.76078431 0.28198529
0.70416667 0.76176471 0.2754902
0.73480392 0.75968137 0.25159314
0.76568627 0.75686275 0.22352941
0.79656863 0.75686275 0.19607843
0.82745098 0.76004902 0.16838235
0.85747549 0.76078431 0.13627451
0.88921569 0.75784314 0.1127451
0.92401961 0.75343137 0.095098039
0.95196078 0.74705882 0.073529412
0.97107843 0.73676471 0.048039216
0.98137255 0.73039216 0.035294118
0.5122549 0.78676471 0.39068627
0.51256127 0.78676471 0.38676471
0.51617647 0.79019608 0.38664216
0.51617647 0.79019608 0.38284314
0.52205882 0.79215686 0.38284314
0.53627451 0.79411765 0.37800245
0.54963235 0.79718137 0.37193627
0.56256127 0.79981618 0.3658701
0.57941176 0.80196078 0.35931373
0.60392157 0.80196078 0.35245098
0.62843137 0.79803922 0.34607843
0.65294118 0.80104167 0.33970588
0.6752451 0.80196078 0.33333333
0.69803922 0.80245098 0.32352941
0.72156863 0.80588235 0.31666667
0.74901961 0.80196078 0.29656863
0.77990196 0.79803922 0.27205882
0.81047794 0.79803922 0.24883578
0.8377451 0.79803922 0.22561275
0.86519608 0.80153186 0.19117647
0.89583333 0.80196078 0.15098039
0.93088235 0.80147059 0.1182598
0.95882353 0.79767157 0.074877451
0.9776348 0.78823529 0.040686275
0.9877451 0.78186275 0.031372549
0.54313725 0.8254902 0.41764706
0.54313725 0.8254902 0.41764706
0.54558824 0.82745098 0.41372549
0.54705882 0.83088235 0.41372549
0.55294118 0.83431373 0.41372549
0.56715686 0.83529412 0.40980392
0.58039216 0.83529412 0.40588235
0.59166667 0.8372549 0.39926471
0.60588235 0.83921569 0.39607843
0.62769608 0.83995098 0.39215686
0.65294118 0.83921569 0.3872549
0.67720588 0.83921569 0.38063725
0.69803922 0.83921569 0.3745098
0.72083333 0.84117647 0.36813725
0.74019608 0.84117647 0.35931373
0.76446078 0.84117647 0.34681373
0.79215686 0.83921569 0.32745098
0.82181373 0.83921569 0.30294118
0.85147059 0.83921569 0.27745098
0.87892157 0.83921569 0.24313725
0.90588235 0.83921569 0.19607843
0.93455882 0.84313725 0.13823529
0.9622549 0.84313725 0.077941176
0.98651961 0.83970588 0.033578431
0.99411765 0.8372549 0.025490196
0.57794118 0.86421569 0.45245098
0.57794118 0.86421569 0.44901961
0.57843137 0.86470588 0.44889706
0.58186275 0.86770833 0.44852941
0.5877451 0.87230392 0.44852941
0.59803922 0.87205882 0.44460784
0.61127451 0.87205882 0.44080882
0.62401961 0.87205882 0.4372549
0.63676471 0.87205882 0.43333333
0.65343137 0.87598039 0.42941176
0.67745098 0.87647059 0.4254902
0.69852941 0.87647059 0.42156863
0.72254902 0.87647059 0.41568627
0.74313725 0.87990196 0.40931373
0.76078431 0.87990196 0.40294118
0.78400735 0.87990196 0.39313725
0.80833333 0.87990196 0.37892157
0.83578431 0.87647059 0.35588235
0.86531863 0.87647059 0.32892157
0.89313725 0.88039216 0.29460784
0.91617647 0.88039216 0.24901961
0.94221814 0.8838848 0.18088235
0.96703431 0.88431373 0.11188725
0.99276961 0.88823529 0.040686275
1 0.88823529 0.021568627
0.61568627 0.90196078 0.49313725
0.61568627 0.90196078 0.49019608
0.61568627 0.90196078 0.48627451
0.61654412 0.90281863 0.48370098
0.6254902 0.90833333 0.48627451
0.63541667 0.90943627 0.48235294
0.64289216 0.90588235 0.47843137
0.6567402 0.90625 0.47696078
0.66764706 0.90588235 0.47058824
0.68431373 0.90931373 0.46703431
0.70196078 0.91470588 0.46593137
0.72512255 0.91764706 0.46017157
0.74607843 0.91764706 0.45490196
0.76372549 0.91764706 0.4504902
0.78431373 0.91764706 0.44411765
0.80245098 0.91764706 0.4377451
0.8254902 0.91764706 0.42647059
0.85245098 0.91764706 0.40919118
0.88014706 0.91764706 0.38406863
0.90392157 0.9185049 0.34865196
0.92647059 0.91960784 0.32401961
0.94914216 0.92169118 0.27316176
0.97426471 0.9254902 0.20490196
0.99007353 0.93051471 0.12438725
1 0.93333333 0.055882353
0.65147059 0.9377451 0.53382353
0.65294118 0.9377451 0.53229167
0.65294118 0.93811275 0.52745098
0.65686275 0.94136029 0.52401961
0.66666667 0.94705882 0.52745098
0.67647059 0.9504902 0.52352941
0.68223039 0.94595588 0.52022059
0.68823529 0.94166667 0.5151348
0.69852941 0.93921569 0.51029412
0.71219363 0.94166667 0.50484069
0.72794118 0.94987745 0.50245098
0.74852941 0.95471814 0.50030637
0.77034314 0.95612745 0.49607843
0.7877451 0.95490196 0.49215686
0.80490196 0.95343137 0.48823529
0.82156863 0.95343137 0.48039216
0.84460784 0.95490196 0.47254902
0.86819853 0.95882353 0.45980392
0.8939951 0.95882353 0.4372549
0.91783088 0.95882353 0.40980392
0.93872549 0.95808824 0.39387255
0.96078431 0.95882353 0.3627451
0.97990196 0.96127451 0.30894608
0.98817402 0.96911765 0.228125
1 0.97941176 0.14166667
0.67843137 0.96470588 0.56078431
0.67843137 0.96470588 0.56078431
0.68235294 0.96470588 0.55686275
0.68970588 0.97205882 0.55686275
0.7 0.97843137 0.55882353
0.70588235 0.98039216 0.55637255
0.70980392 0.97352941 0.55
0.71127451 0.96715686 0.54362745
0.71764706 0.96470588 0.5372549
0.73186275 0.96715686 0.53088235
0.75098039 0.97352941 0.52941176
0.77156863 0.9872549 0.53284314
0.79019608 0.99019608 0.53137255
0.80441176 0.98431373 0.5254902
0.81862745 0.98137255 0.52156863
0.83823529 0.98186275 0.51372549
0.85882353 0.98431373 0.50588235
0.88333333 0.99068627 0.49803922
0.90784314 0.99901961 0.49117647
0.92843137 0.99215686 0.46764706
0.94901961 0.98823529 0.44901961
0.97352941 0.99215686 0.42990196
0.9872549 0.99215686 0.39019608
0.99754902 0.99754902 0.34313725
1 0.99607843 0.32156863
0.0078431373 0.006372549 0.024509804
0.024509804 0.009375 0.024509804
0.046568627 0.013848039 0.029901961
0.069607843 0.016176471 0.03057598
0.087009804 0.011764706 0.023284314
0.11127451 0.010784314 0.018443627
0.14460784 0.014215686 0.016666667
0.18088235 0.011764706 0.016605392
0.21568627 0.011764706 0.019607843
0.25594363 0.011764706 0.019607843
0.30686275 0.015686275 0.014705882
0.35833333 0.019607843 0.011764706
0.40392157 0.023529412 0.0058823529
0.446875 0.023529412 0
0.49019608 0.023529412 0
0.53768382 0.028921569 0
0.58578431 0.035294118 0
0.62941176 0.041666667 0
0.66997549 0.047058824 0
0.70784314 0.050980392 0
0.74583333 0.056862745 0
0.78627451 0.062745098 0
0.825 0.066666667 0
0.86323529 0.072058824 0
0.89166667 0.074509804 0
0.027879902 0.030882353 0.037254902
0.03872549 0.030882353 0.04152114
0.057981005 0.033103554 0.040793505
0.079097733 0.035470282 0.034198836
0.099571078 0.032352941 0.026930147
0.12401961 0.031801471 0.025428922
0.1555913 0.034574142 0.024509804
0.19152114 0.034803922 0.024509804
0.22598039 0.032352941 0.025980392
0.2656633 0.02935049 0.023529412
0.31470588 0.030514706 0.015686275
0.36537224 0.035853248 0.011764706
0.4129902 0.03682598 0.0058823529
0.45539216 0.036083027 0.0037377451
0.49656863 0.032720588 0.0006127451
0.54091605 0.033072917 0.0015318627
0.58731618 0.035294118 0
0.63067555 0.041666667 0
0.67035846 0.047058824 0
0.70883119 0.050980392 0
0.74856005 0.058363971 0
0.78627451 0.063120404 0
0.82676164 0.067356005 0
0.86378676 0.072058824 0
0.89166667 0.075428922 0
0.053308824 0.061764706 0.052941176
0.060294118 0.058946078 0.05502451
0.073529412 0.057843137 0.051470588
0.090196078 0.057843137 0.035202206
0.11182598 0.058762255 0.029963235
0.14068627 0.061764706 0.032398897
0.17156863 0.061764706 0.032720588
0.20539216 0.065073529 0.034803922
0.24019608 0.061764706 0.034803922
0.27930453 0.05825674 0.030284926
0.32683824 0.053921569 0.019240196
0.37513787 0.056632966 0.012117034
0.42058824 0.056862745 0.0071078431
0.46190257 0.052941176 0.0039215686
0.50569853 0.049019608 0.0045343137
0.54803922 0.042876838 0.0039215686
0.58921569 0.039828431 0.0039215686
0.63333333 0.041896446 0.0013020833
0.67239583 0.047303922 0
0.71181066 0.054411765 0
0.75147059 0.059313725 0
0.79019608 0.063771446 0
0.82824755 0.069607843 0
0.86568627 0.073360907 0
0.89473039 0.078431373 0
