site/assets/luts/sha256-68cafdb21e43389372e10c261994a936f8abd0ef445c6b11af11f59b6e6384c2.cube
# LUTr-Schema-Version: 2
# LUTr-ID: sha256-68cafdb21e43389372e10c261994a936f8abd0ef445c6b11af11f59b6e6384c2
# LUTr-Title: fuji superia 800
# LUTr-Collection: Natron HaldCLUT
# LUTr-Collection-ID: natron-haldclut-presets
# LUTr-Source: https://github.com/NatronGitHub/clut
# LUTr-Retrieved: 2026-07-27
# LUTr-Source-File: submissions/natron-haldclut-presets/negative_old/fuji_superia_800.png
# LUTr-Source-Format: HALD-PNG
# LUTr-Source-SHA256: 68cafdb21e43389372e10c261994a936f8abd0ef445c6b11af11f59b6e6384c2
# LUTr-License: CC-BY-SA-4.0
# LUTr-License-URL: https://github.com/NatronGitHub/clut#license
# LUTr-License-Basis: repo-license-file
# LUTr-Transform-Class: film-emulation
# LUTr-Tags: creative, film, film-emulation, hald-clut, natron, png, cube
# LUTr-Input-Color-Space: srgb
# LUTr-Input-Gamut: rec709
# LUTr-Input-Transfer: srgb
# LUTr-Output-Color-Space: srgb
# LUTr-Output-Gamut: rec709
# LUTr-Output-Transfer: srgb
# LUTr-Color-Space-Confidence: assumed-display-referred
# LUTr-Domain-Normalized: true
# LUTr-Shaper: none
# LUTr-Original-Grid: 64x64x64
# LUTr-Conversion-Grid: 25x25x25
# LUTr-Conversion-Interpolation: trilinear
# LUTr-Conversion-Method: HALD-PNG LUT image decoded at 16-bit and sampled to 25x25x25 3D CUBE
# LUTr-Conversion-Tool: LUTr scripts/convert-all-to-cube.mjs 2.0.0
# LUTr-Conversion-Date: 2026-07-27
# LUTr-Note: Preserve this metadata and the upstream license notices when redistributing.
TITLE "fuji superia 800"
LUT_3D_SIZE 5
DOMAIN_MIN 0 0 0
DOMAIN_MAX 1 1 1
0.0039215686 0.070588235 0.074509804
0.12647059 0.078431373 0.066666667
0.4627451 0.07254902 0.050980392
0.79215686 0.053921569 0
1 0.21568627 0.0039215686
0 0.22843137 0.078431373
0.14803922 0.25392157 0.044852941
0.52941176 0.25343137 0.026470588
0.81568627 0.26004902 0.0039215686
0.98921569 0.32352941 0
0.0019607843 0.61960784 0.15882353
0.034803922 0.62794118 0.16421569
0.58627451 0.64313725 0.0019607843
0.85392157 0.58284314 0.0053921569
0.99215686 0.56078431 0.041176471
0.34215686 0.86960784 0.4372549
0.41004902 0.86176471 0.4370098
0.61176471 0.86862745 0.40196078
0.84607843 0.86078431 0.25392157
0.99705882 0.84313725 0.20098039
0.72156863 0.97254902 0.73333333
0.74411765 0.97254902 0.74117647
0.78627451 0.96862745 0.7372549
0.85588235 0.97352941 0.71372549
0.94117647 0.97254902 0.65882353
0.0078431373 0.070588235 0.2
0.14411765 0.081372549 0.19313725
0.48137255 0.021568627 0.19166667
0.78406863 0.075490196 0.19411765
0.99215686 0.24215686 0.18823529
0 0.22941176 0.2372549
0.17254902 0.23823529 0.23823529
0.52193627 0.23823529 0.22585784
0.80686275 0.26691176 0.20784314
0.98848039 0.34215686 0.20220588
0.040686275 0.61421569 0.3504902
0.23651961 0.61629902 0.34044118
0.58455882 0.61813725 0.27647059
0.84509804 0.57328431 0.22401961
0.98823529 0.57647059 0.23284314
0.44534314 0.8625 0.53823529
0.51023284 0.86041667 0.55
0.64571078 0.85784314 0.53333333
0.84901961 0.85784314 0.4192402
0.98529412 0.84215686 0.36764706
0.74117647 0.96568627 0.76078431
0.75955882 0.97254902 0.76813725
0.80147059 0.96911765 0.77156863
0.8629902 0.96862745 0.74313725
0.94411765 0.97254902 0.70490196
0 0.076470588 0.44509804
0.17107843 0.074509804 0.44705882
0.49803922 0.034313725 0.47647059
0.81176471 0.10882353 0.48578431
0.99607843 0.12745098 0.4372549
0.0024509804 0.21862745 0.48039216
0.2060049 0.23480392 0.48737745
0.53823529 0.26151961 0.50098039
0.81960784 0.30637255 0.50772059
0.99313725 0.28823529 0.44607843
0.083333333 0.5627451 0.55686275
0.35343137 0.57230392 0.56862745
0.58088235 0.56911765 0.55735294
0.82034314 0.5625 0.51372549
0.98921569 0.58823529 0.49607843
0.59313725 0.84607843 0.71176471
0.6377451 0.85036765 0.71642157
0.70612745 0.84901961 0.6995098
0.84791667 0.84607843 0.65490196
0.98578431 0.82696078 0.60245098
0.79019608 0.96470588 0.8254902
0.77156863 0.95 0.80686275
0.82941176 0.96960784 0.83039216
0.8754902 0.96617647 0.81666667
0.94313725 0.97254902 0.79019608
0.10196078 0.10686275 0.7254902
0.31078431 0.099264706 0.72941176
0.5627451 0.090686275 0.73088235
0.80784314 0.15857843 0.7372549
0.98823529 0.36372549 0.74901961
0.17745098 0.25294118 0.7372549
0.33204657 0.25349265 0.7372549
0.57818627 0.2682598 0.74068627
0.81666667 0.33137255 0.75196078
0.9875 0.49191176 0.76764706
0.01127451 0.46960784 0.74411765
0.26678922 0.47990196 0.74056373
0.57352941 0.5247549 0.75220588
0.81752451 0.58137255 0.76372549
0.9754902 0.6622549 0.77401961
0.54142157 0.81004902 0.81397059
0.59093137 0.81544118 0.81372549
0.69460784 0.81213235 0.80723039
0.83002451 0.82199755 0.80612745
0.96764706 0.80784314 0.77745098
0.82745098 0.96470588 0.89117647
0.8375 0.96470588 0.89509804
0.86176471 0.95833333 0.89411765
0.90294118 0.96470588 0.89509804
0.95294118 0.97254902 0.88039216
0.54901961 0.30196078 0.94509804
0.59215686 0.31078431 0.93823529
0.73529412 0.34313725 0.9372549
0.88529412 0.42647059 0.93039216
0.98823529 0.49803922 0.9254902
0.54509804 0.40098039 0.93823529
0.58504902 0.3997549 0.93137255
0.73137255 0.43529412 0.93529412
0.88431373 0.50269608 0.93333333
0.99607843 0.58039216 0.93235294
0.51372549 0.57647059 0.94117647
0.5754902 0.58333333 0.94019608
0.70392157 0.59803922 0.92941176
0.8627451 0.64754902 0.93284314
0.9745098 0.69803922 0.92156863
0.51078431 0.78529412 0.91372549
0.54583333 0.77647059 0.92941176
0.65490196 0.77647059 0.92205882
0.83333333 0.80612745 0.9372549
0.97352941 0.84607843 0.94607843
0.8 0.96078431 0.9372549
0.80392157 0.94901961 0.93235294
0.84901961 0.96666667 0.9627451
0.89509804 0.94901961 0.93333333
0.96862745 0.9372549 0.95686275
