site/assets/luts/sha256-7f9a659516fd1cf0fdbae2d17d76ceee1db1e2ef7c101b6eded814abe1113b98.cube
# LUTr-Schema-Version: 2
# LUTr-ID: sha256-7f9a659516fd1cf0fdbae2d17d76ceee1db1e2ef7c101b6eded814abe1113b98
# LUTr-Title: fuji fp-100c negative ++
# LUTr-Collection: Natron HaldCLUT
# LUTr-Collection-ID: natron-haldclut-presets
# LUTr-Source: https://github.com/NatronGitHub/clut
# LUTr-Retrieved: 2026-07-27
# LUTr-Source-File: submissions/natron-haldclut-presets/instant_pro/fuji_fp-100c_negative_++.png
# LUTr-Source-Format: HALD-PNG
# LUTr-Source-SHA256: 7f9a659516fd1cf0fdbae2d17d76ceee1db1e2ef7c101b6eded814abe1113b98
# LUTr-License: CC-BY-SA-4.0
# LUTr-License-URL: https://github.com/NatronGitHub/clut#license
# LUTr-License-Basis: repo-license-file
# LUTr-Transform-Class: film-emulation
# LUTr-Tags: creative, film, film-emulation, hald-clut, natron, png, cube
# LUTr-Input-Color-Space: srgb
# LUTr-Input-Gamut: rec709
# LUTr-Input-Transfer: srgb
# LUTr-Output-Color-Space: srgb
# LUTr-Output-Gamut: rec709
# LUTr-Output-Transfer: srgb
# LUTr-Color-Space-Confidence: assumed-display-referred
# LUTr-Domain-Normalized: true
# LUTr-Shaper: none
# LUTr-Original-Grid: 64x64x64
# LUTr-Conversion-Grid: 25x25x25
# LUTr-Conversion-Interpolation: trilinear
# LUTr-Conversion-Method: HALD-PNG LUT image decoded at 16-bit and sampled to 25x25x25 3D CUBE
# LUTr-Conversion-Tool: LUTr scripts/convert-all-to-cube.mjs 2.0.0
# LUTr-Conversion-Date: 2026-07-27
# LUTr-Note: Preserve this metadata and the upstream license notices when redistributing.
TITLE "fuji fp-100c negative ++"
LUT_3D_SIZE 25
DOMAIN_MIN 0 0 0
DOMAIN_MAX 1 1 1
0.26666667 0.14509804 0.16470588
0.27058824 0.14754902 0.16470588
0.2745098 0.14901961 0.16862745
0.28186275 0.14901961 0.16862745
0.28823529 0.14705882 0.16470588
0.29460784 0.14509804 0.16421569
0.30098039 0.14117647 0.16078431
0.31127451 0.1372549 0.15686275
0.3372549 0.14117647 0.15686275
0.36666667 0.14117647 0.16078431
0.39901961 0.14117647 0.15980392
0.42990196 0.14117647 0.15686275
0.46078431 0.1372549 0.15490196
0.50490196 0.14166667 0.15686275
0.56666667 0.15196078 0.16078431
0.6245098 0.15833333 0.16617647
0.68235294 0.16470588 0.17254902
0.73382353 0.17990196 0.17401961
0.78627451 0.21078431 0.16372549
0.84411765 0.24509804 0.15686275
0.88039216 0.27843137 0.1627451
0.91960784 0.31519608 0.16911765
0.96078431 0.35294118 0.17254902
1 0.38578431 0.17009804
1 0.38823529 0.17254902
0.26666667 0.14509804 0.16078431
0.27058824 0.14846814 0.16470588
0.2745098 0.15 0.16507353
0.278125 0.15294118 0.16648284
0.28627451 0.14901961 0.16470588
0.29460784 0.14724265 0.16452206
0.30098039 0.1439951 0.16078431
0.31219363 0.14117647 0.16078431
0.3372549 0.14362745 0.16078431
0.36421569 0.14454657 0.16078431
0.39718137 0.14509804 0.16078431
0.42990196 0.14509804 0.16078431
0.46519608 0.14754902 0.15808824
0.51470588 0.14803922 0.15716912
0.57120098 0.15833333 0.16078431
0.62996324 0.16470588 0.16525735
0.68480392 0.175 0.16862745
0.7377451 0.19656863 0.16764706
0.78982843 0.22291667 0.16127451
0.84460784 0.2504902 0.15557598
0.88235294 0.28480392 0.1627451
0.91960784 0.32205882 0.17126225
0.96078431 0.36323529 0.175
0.99117647 0.39546569 0.17892157
0.99607843 0.40490196 0.18039216
0.26666667 0.14509804 0.16078431
0.27058824 0.14901961 0.16470588
0.27377451 0.15294118 0.16470588
0.27708333 0.15379902 0.16470588
0.28431373 0.15294118 0.16470588
0.2932598 0.14901961 0.16458333
0.30098039 0.14681373 0.16078431
0.31666667 0.14546569 0.1622549
0.33823529 0.14901961 0.16568627
0.36629902 0.15 0.16568627
0.39509804 0.15294118 0.16470588
0.42941176 0.15392157 0.16470588
0.47352941 0.15588235 0.16127451
0.525 0.16176471 0.16078431
0.57867647 0.16470588 0.16078431
0.63296569 0.17438725 0.16188725
0.68627451 0.19019608 0.16470588
0.73872549 0.21654412 0.16470588
0.79289216 0.24240196 0.16176471
0.84068627 0.26752451 0.16176471
0.88627451 0.30147059 0.17156863
0.92352941 0.33627451 0.18051471
0.95710784 0.37377451 0.18504902
0.98235294 0.40637255 0.18529412
0.99607843 0.42647059 0.18823529
0.26666667 0.14852941 0.16078431
0.27058824 0.15116422 0.16470588
0.27058824 0.15379902 0.16470588
0.27408088 0.15686275 0.16470588
0.28063725 0.15465686 0.16470588
0.29068627 0.1528799 0.16121324
0.30098039 0.14987745 0.16078431
0.31795343 0.15245098 0.16470588
0.34460784 0.15637255 0.16862745
0.36942402 0.16029412 0.17224265
0.39767157 0.16029412 0.1685049
0.42941176 0.16029412 0.16470588
0.47990196 0.16617647 0.16470588
0.53186275 0.17205882 0.16078431
0.58333333 0.17585784 0.16078431
0.63480392 0.1841299 0.15704657
0.69019608 0.21078431 0.16078431
0.74166667 0.23529412 0.16470588
0.79215686 0.26078431 0.16813725
0.84068627 0.2877451 0.17156863
0.88627451 0.31862745 0.17843137
0.92996324 0.35343137 0.18780637
0.95490196 0.38823529 0.18823529
0.97726716 0.42322304 0.19166667
0.9995098 0.45 0.19215686
0.26862745 0.15686275 0.16666667
0.27058824 0.15882353 0.16470588
0.27058824 0.15686275 0.1622549
0.27058824 0.15857843 0.16078431
0.27941176 0.15882353 0.16078431
0.29068627 0.16102941 0.1627451
0.30294118 0.16470588 0.16470588
0.32328431 0.16862745 0.16470588
0.35098039 0.17254902 0.16470588
0.37794118 0.17647059 0.16666667
0.40490196 0.17696078 0.16470588
0.4375 0.18039216 0.1629902
0.48921569 0.18627451 0.1627451
0.54166667 0.19460784 0.16078431
0.59313725 0.20490196 0.16078431
0.64264706 0.21593137 0.15955882
0.69411765 0.23333333 0.16078431
0.74558824 0.25784314 0.16715686
0.79313725 0.28039216 0.16960784
0.84068627 0.30833333 0.17598039
0.88529412 0.34019608 0.18039216
0.92696078 0.37426471 0.18455882
0.95392157 0.40882353 0.18823529
0.9754902 0.44044118 0.18897059
0.99411765 0.46470588 0.19215686
0.27058824 0.17352941 0.17303922
0.27058824 0.17303922 0.17303922
0.27058824 0.16960784 0.1689951
0.27058824 0.16960784 0.16519608
0.28039216 0.17132353 0.16519608
0.29460784 0.1778799 0.16519608
0.30919118 0.18431373 0.16519608
0.32843137 0.18921569 0.16501225
0.35686275 0.19362745 0.16470588
0.38431373 0.19724265 0.1622549
0.41384804 0.19705882 0.16078431
0.44215686 0.20006127 0.16029412
0.49632353 0.20931373 0.16029412
0.55147059 0.22598039 0.16078431
0.60306373 0.24019608 0.16029412
0.64920343 0.25177696 0.16078431
0.69852941 0.26813725 0.16078431
0.7473652 0.28480392 0.16685049
0.79607843 0.30539216 0.16948529
0.8372549 0.33333333 0.17248775
0.88235294 0.36421569 0.17598039
0.92696078 0.39944853 0.17689951
0.95404412 0.4307598 0.18296569
0.97401961 0.45833333 0.18792892
0.98431373 0.47156863 0.19607843
0.27058824 0.19019608 0.18039216
0.27058824 0.19019608 0.17977941
0.27132353 0.19019608 0.17622549
0.27438725 0.19019608 0.17291667
0.28039216 0.19019608 0.17156863
0.29460784 0.1942402 0.17254902
0.31176471 0.20122549 0.17181373
0.33235294 0.21127451 0.16862745
0.35980392 0.22058824 0.16470588
0.39068627 0.22843137 0.1622549
0.41838235 0.22671569 0.16078431
0.45110294 0.22610294 0.15686275
0.50490196 0.24313725 0.15686275
0.56127451 0.26372549 0.15686275
0.60980392 0.27745098 0.15686275
0.65441176 0.28590686 0.15723039
0.70490196 0.29901961 0.16078431
0.75061275 0.31568627 0.16360294
0.79607843 0.33946078 0.16568627
0.8372549 0.36458333 0.16862745
0.88235294 0.39313725 0.16862745
0.92732843 0.42610294 0.16960784
0.95490196 0.45465686 0.17573529
0.97218137 0.4754902 0.18970588
0.9872549 0.49215686 0.19901961
0.27058824 0.20686275 0.18431373
0.27058824 0.20686275 0.18278186
0.2745098 0.21078431 0.18186275
0.27794118 0.20863971 0.18186275
0.28235294 0.20686275 0.18039216
0.29460784 0.21127451 0.18008578
0.31176471 0.22267157 0.17794118
0.33474265 0.23633578 0.17647059
0.36470588 0.25147059 0.16862745
0.39558824 0.26415441 0.16133578
0.42830882 0.2689951 0.16078431
0.46746324 0.27598039 0.15686275
0.51715686 0.28627451 0.15294118
0.56862745 0.30294118 0.15294118
0.61678922 0.31323529 0.15539216
0.6622549 0.32107843 0.15539216
0.70980392 0.33382353 0.15539216
0.75398284 0.35140931 0.15839461
0.79607843 0.37647059 0.16078431
0.8408701 0.40098039 0.16323529
0.88431373 0.42867647 0.16323529
0.92922794 0.45422794 0.16109069
0.95698529 0.48051471 0.17267157
0.9754902 0.50447304 0.19209559
0.99362745 0.52598039 0.20539216
0.26666667 0.22352941 0.18823529
0.27058824 0.22745098 0.18823529
0.2745098 0.23529412 0.19215686
0.27794118 0.23529412 0.19215686
0.28235294 0.23137255 0.18823529
0.29460784 0.23627451 0.18823529
0.31176471 0.25294118 0.18823529
0.33627451 0.26813725 0.18676471
0.36470588 0.28235294 0.18039216
0.39803922 0.29901961 0.16617647
0.43431373 0.31078431 0.16078431
0.47990196 0.32107843 0.15686275
0.52941176 0.32941176 0.15294118
0.57843137 0.34166667 0.1495098
0.62352941 0.35490196 0.15294118
0.67009804 0.36617647 0.15294118
0.71764706 0.37647059 0.15294118
0.75882353 0.39313725 0.15539216
0.8 0.41764706 0.15686275
0.84509804 0.44215686 0.16078431
0.88823529 0.46666667 0.16078431
0.93088235 0.49117647 0.16176471
0.95490196 0.51176471 0.18235294
0.9754902 0.53627451 0.19901961
0.99607843 0.55686275 0.21568627
0.26666667 0.25686275 0.19705882
0.26966912 0.25778186 0.19852941
0.2745098 0.26262255 0.20245098
0.27794118 0.2627451 0.20245098
0.28431373 0.26740196 0.20245098
0.29460784 0.27696078 0.20245098
0.31176471 0.28835784 0.20245098
0.32898284 0.30386029 0.20189951
0.36078431 0.31960784 0.19068627
0.39803922 0.33627451 0.17647059
0.43529412 0.35294118 0.16164216
0.48596814 0.37205882 0.15686275
0.5377451 0.38921569 0.15294118
0.58872549 0.40373775 0.14509804
0.63382353 0.41727941 0.14656863
0.67892157 0.42794118 0.14656863
0.72401961 0.43431373 0.14656863
0.76519608 0.44852941 0.1504902
0.81029412 0.4685049 0.15330882
0.84901961 0.48363971 0.15686275
0.89019608 0.50147059 0.15759804
0.92665441 0.52205882 0.16813725
0.95208333 0.54264706 0.19264706
0.9754902 0.56415441 0.21323529
0.99215686 0.57745098 0.22990196
0.26666667 0.29411765 0.2127451
0.2685049 0.29411765 0.2127451
0.27132353 0.29411765 0.2127451
0.27794118 0.29767157 0.21372549
0.28823529 0.30784314 0.21666667
0.29852941 0.31813725 0.21764706
0.31176471 0.32843137 0.21691176
0.32843137 0.34203431 0.20943627
0.35196078 0.35686275 0.20490196
0.38921569 0.37352941 0.19105392
0.43333333 0.39411765 0.17647059
0.49117647 0.42205882 0.16237745
0.54754902 0.44803922 0.15343137
0.5995098 0.46556373 0.14448529
0.64730392 0.47941176 0.1372549
0.68921569 0.48578431 0.13835784
0.73039216 0.49215686 0.14411765
0.77340686 0.49754902 0.14509804
0.81568627 0.51470588 0.14901961
0.85428922 0.52598039 0.15281863
0.89411765 0.53676471 0.15441176
0.92303922 0.55686275 0.17365196
0.95 0.57671569 0.20122549
0.9745098 0.59203431 0.22352941
0.99215686 0.60294118 0.24019608
0.25980392 0.33872549 0.22696078
0.26323529 0.33743873 0.22696078
0.26409314 0.33970588 0.22696078
0.27101716 0.34607843 0.23039216
0.28431373 0.35269608 0.23259804
0.29509804 0.36231618 0.234375
0.30882353 0.36703431 0.23443627
0.32714461 0.38008578 0.225
0.34509804 0.39411765 0.21519608
0.37530637 0.41096814 0.20618873
0.43333333 0.43615196 0.1932598
0.49166667 0.46323529 0.17990196
0.54901961 0.49411765 0.1622549
0.60680147 0.52009804 0.14025735
0.65833333 0.5372549 0.12696078
0.6995098 0.54393382 0.12990196
0.74068627 0.54656863 0.13382353
0.78186275 0.55030637 0.14577206
0.81960784 0.56323529 0.15257353
0.86029412 0.57352941 0.15637255
0.89607843 0.58186275 0.16397059
0.92689951 0.5877451 0.184375
0.95355392 0.60441176 0.20931373
0.9754902 0.61960784 0.23382353
0.99215686 0.62990196 0.2504902
0.24901961 0.38431373 0.23921569
0.25147059 0.38553922 0.23921569
0.25784314 0.39019608 0.24313725
0.26642157 0.39387255 0.24509804
0.2745098 0.40098039 0.24803922
0.28897059 0.40808824 0.25098039
0.30784314 0.41323529 0.25294118
0.3245098 0.42107843 0.2495098
0.34509804 0.43529412 0.2372549
0.3745098 0.45196078 0.22769608
0.42941176 0.47696078 0.21568627
0.48921569 0.50269608 0.19901961
0.54803922 0.53137255 0.17941176
0.60833333 0.56004902 0.15343137
0.66372549 0.58431373 0.12794118
0.70980392 0.59411765 0.11960784
0.75098039 0.59803922 0.1254902
0.78823529 0.60196078 0.14607843
0.82696078 0.61127451 0.15784314
0.8629902 0.61960784 0.16617647
0.89705882 0.6254902 0.18039216
0.93088235 0.62745098 0.19730392
0.95686275 0.63431373 0.22156863
0.97745098 0.64656863 0.24411765
0.99607843 0.66078431 0.26470588
0.23529412 0.43431373 0.25196078
0.24295343 0.43823529 0.25588235
0.25147059 0.44215686 0.25980392
0.25833333 0.44515931 0.25980392
0.26838235 0.44754902 0.26323529
0.2872549 0.45392157 0.26715686
0.30490196 0.46029412 0.26764706
0.32401961 0.46648284 0.26764706
0.3495098 0.48039216 0.26029412
0.38676471 0.49491422 0.25606618
0.42879902 0.51458333 0.24754902
0.48290441 0.53823529 0.2372549
0.53872549 0.56617647 0.21593137
0.59368873 0.59068627 0.19264706
0.65196078 0.61507353 0.15882353
0.71372549 0.63921569 0.1185049
0.75735294 0.64558824 0.12598039
0.79852941 0.65165441 0.14607843
0.83443627 0.65686275 0.16188725
0.86868873 0.66078431 0.17254902
0.90416667 0.66470588 0.18063725
0.934375 0.66819853 0.20637255
0.95919118 0.67205882 0.2372549
0.98333333 0.67959559 0.26452206
0.99607843 0.68333333 0.27941176
0.23921569 0.48921569 0.27647059
0.23590686 0.49889706 0.28002451
0.24191176 0.50392157 0.28112745
0.25441176 0.50392157 0.28333333
0.27352941 0.50098039 0.28382353
0.2939951 0.50539216 0.28737745
0.31078431 0.51176471 0.28823529
0.32708333 0.51482843 0.29117647
0.35588235 0.5254902 0.2872549
0.39705882 0.53970588 0.28333333
0.43455882 0.55710784 0.27843137
0.48382353 0.57904412 0.26813725
0.52598039 0.59852941 0.25735294
0.57316176 0.62156863 0.24105392
0.62916667 0.64215686 0.2127451
0.69313725 0.66372549 0.18296569
0.75392157 0.68333333 0.15882353
0.80698529 0.69767157 0.14546569
0.83823529 0.69803922 0.17230392
0.87254902 0.69901961 0.19215686
0.90931373 0.69901961 0.20294118
0.94117647 0.6995098 0.22696078
0.9627451 0.70294118 0.26078431
0.98333333 0.70686275 0.2872549
0.99607843 0.71078431 0.3
0.24068627 0.54607843 0.30098039
0.23768382 0.55490196 0.30189951
0.24044118 0.56029412 0.30490196
0.26176471 0.55667892 0.30490196
0.28112745 0.55710784 0.30955882
0.30441176 0.56047794 0.31452206
0.32610294 0.5627451 0.31666667
0.35 0.56029412 0.31813725
0.37696078 0.56666667 0.31813725
0.40637255 0.58088235 0.31421569
0.44252451 0.59607843 0.30821078
0.4877451 0.61666667 0.29901961
0.52818627 0.6372549 0.29142157
0.56666667 0.65392157 0.28382353
0.61262255 0.67303922 0.27169118
0.67794118 0.68970588 0.24454657
0.73970588 0.70882353 0.21666667
0.79362745 0.72156863 0.2
0.83321078 0.72598039 0.20784314
0.86893382 0.72598039 0.22352941
0.91127451 0.72916667 0.23651961
0.94803922 0.73382353 0.25490196
0.97205882 0.73382353 0.28235294
0.98578431 0.7377451 0.30784314
0.99607843 0.74166667 0.32598039
0.24313725 0.6 0.32156863
0.2495098 0.60392157 0.3254902
0.25588235 0.60784314 0.3254902
0.26617647 0.60441176 0.3254902
0.29215686 0.60784314 0.33137255
0.31911765 0.60833333 0.3377451
0.34607843 0.61176471 0.34509804
0.37303922 0.60784314 0.34901961
0.40392157 0.61176471 0.34901961
0.42843137 0.6245098 0.34509804
0.45392157 0.64019608 0.3372549
0.48823529 0.65784314 0.33333333
0.52941176 0.6745098 0.3254902
0.5745098 0.69068627 0.32156863
0.61568627 0.70098039 0.31470588
0.67156863 0.71666667 0.29509804
0.7254902 0.72941176 0.27843137
0.77696078 0.74215686 0.26029412
0.82745098 0.75294118 0.24411765
0.87205882 0.75637255 0.25441176
0.91372549 0.75882353 0.26862745
0.95490196 0.76470588 0.27892157
0.97941176 0.76470588 0.3
0.98970588 0.76862745 0.32843137
1 0.76862745 0.35294118
0.26078431 0.64901961 0.34852941
0.27444853 0.64901961 0.35189951
0.2877451 0.64901961 0.35490196
0.30147059 0.64901961 0.35618873
0.31642157 0.65294118 0.35833333
0.33970588 0.65539216 0.36439951
0.36666667 0.65539216 0.3692402
0.39754902 0.65594363 0.37745098
0.42843137 0.65931373 0.38382353
0.45539216 0.66868873 0.38290441
0.47806373 0.68235294 0.37352941
0.5026348 0.696875 0.36715686
0.54215686 0.70735294 0.36593137
0.58431373 0.72156863 0.3622549
0.62205882 0.73186275 0.35588235
0.67401961 0.74607843 0.3411152
0.7254902 0.75637255 0.32598039
0.7745098 0.76421569 0.31421569
0.8245098 0.77352941 0.30392157
0.87254902 0.77745098 0.30226716
0.91617647 0.78259804 0.3122549
0.95863971 0.78952206 0.32224265
0.97941176 0.79166667 0.3314951
0.98970588 0.79221814 0.35686275
0.99362745 0.79313725 0.37745098
0.31960784 0.69019608 0.3872549
0.32536765 0.69019608 0.38786765
0.33627451 0.69411765 0.39117647
0.35208333 0.69411765 0.39215686
0.36372549 0.69460784 0.39362745
0.37806373 0.69803922 0.39607843
0.40196078 0.69803922 0.40294118
0.42892157 0.70196078 0.40894608
0.45882353 0.70588235 0.41568627
0.48872549 0.71433824 0.42316176
0.51176471 0.72230392 0.41642157
0.53970588 0.72806373 0.41311275
0.57058824 0.73823529 0.4127451
0.60441176 0.74901961 0.40747549
0.63897059 0.7627451 0.39803922
0.67745098 0.77205882 0.38982843
0.72254902 0.77843137 0.38529412
0.77058824 0.78872549 0.37990196
0.82058824 0.79411765 0.36960784
0.8685049 0.79803922 0.3627451
0.91715686 0.80784314 0.3627451
0.9627451 0.81507353 0.36568627
0.98431373 0.81764706 0.37156863
0.98823529 0.81470588 0.38688725
0.99215686 0.81372549 0.40588235
0.38137255 0.73137255 0.4254902
0.38529412 0.73137255 0.4254902
0.39031863 0.73529412 0.42683824
0.40098039 0.73915441 0.42984069
0.41519608 0.73921569 0.43161765
0.43382353 0.73921569 0.4372549
0.45821078 0.73921569 0.44411765
0.4841299 0.74313725 0.45030637
0.50735294 0.74705882 0.45686275
0.53186275 0.75 0.46078431
0.55294118 0.75539216 0.46078431
0.57738971 0.76231618 0.46078431
0.60441176 0.76911765 0.46053922
0.63572304 0.77941176 0.45637255
0.66629902 0.78713235 0.4495098
0.69883578 0.79264706 0.44442402
0.74019608 0.80245098 0.44068627
0.78137255 0.80931373 0.43431373
0.81960784 0.81470588 0.43137255
0.8651348 0.81862745 0.42493873
0.9120098 0.8245098 0.42058824
0.95496324 0.834375 0.41709559
0.98247549 0.83823529 0.41703431
0.98823529 0.83823529 0.42175245
0.98823529 0.8377451 0.43382353
0.44705882 0.77254902 0.46666667
0.45098039 0.77254902 0.46862745
0.45343137 0.775 0.46666667
0.46029412 0.77843137 0.46838235
0.47647059 0.78137255 0.47352941
0.49901961 0.78014706 0.48063725
0.52303922 0.77843137 0.48921569
0.54338235 0.77965686 0.49411765
0.56078431 0.77843137 0.49803922
0.57941176 0.78161765 0.50122549
0.60392157 0.78676471 0.50588235
0.6245098 0.79362745 0.50588235
0.64411765 0.80098039 0.50882353
0.66985294 0.80808824 0.50759804
0.69705882 0.81176471 0.50245098
0.72598039 0.81568627 0.49607843
0.7627451 0.82352941 0.49215686
0.7995098 0.82745098 0.48578431
0.83088235 0.83235294 0.48431373
0.86495098 0.83872549 0.48627451
0.90784314 0.84509804 0.48431373
0.93823529 0.84901961 0.47794118
0.96176471 0.85245098 0.47156863
0.98259804 0.85490196 0.46985294
0.98823529 0.85490196 0.47254902
0.52205882 0.80882353 0.50784314
0.5245098 0.80931373 0.50784314
0.53088235 0.80882353 0.50784314
0.54460784 0.80882353 0.50735294
0.55490196 0.80882353 0.50980392
0.56954657 0.81280637 0.52009804
0.58627451 0.81323529 0.53088235
0.60275735 0.81323529 0.53480392
0.61911765 0.81323529 0.53921569
0.63547794 0.81354167 0.54558824
0.65931373 0.81801471 0.55085784
0.67990196 0.82408088 0.5466299
0.7004902 0.82843137 0.54264706
0.71715686 0.83235294 0.54356618
0.73382353 0.83529412 0.54656863
0.75520833 0.8377451 0.54313725
0.78578431 0.84411765 0.53970588
0.81666667 0.84785539 0.53547794
0.85098039 0.85196078 0.53529412
0.88235294 0.8588848 0.53529412
0.90882353 0.86323529 0.53529412
0.92696078 0.86372549 0.53094363
0.94754902 0.86715686 0.52745098
0.97156863 0.86911765 0.52401961
0.98823529 0.87156863 0.52401961
0.61764706 0.83627451 0.54901961
0.61862745 0.83627451 0.54901961
0.62279412 0.83627451 0.54803922
0.63088235 0.83627451 0.54509804
0.64019608 0.83627451 0.5495098
0.65147059 0.83762255 0.55698529
0.66568627 0.84093137 0.56470588
0.67990196 0.84080882 0.5689951
0.69117647 0.84019608 0.57352941
0.70208333 0.84117647 0.57806373
0.71985294 0.84436275 0.58137255
0.73823529 0.84509804 0.57745098
0.75882353 0.84901961 0.57352941
0.77892157 0.85294118 0.57745098
0.78921569 0.85661765 0.57745098
0.8004902 0.85833333 0.58137255
0.81960784 0.86078431 0.58137255
0.8504902 0.86715686 0.57683824
0.87843137 0.87034314 0.57352941
0.9067402 0.87610294 0.57352941
0.93137255 0.88039216 0.57107843
0.9439951 0.88051471 0.56960784
0.95857843 0.88431373 0.56862745
0.97843137 0.88639706 0.56862745
0.99215686 0.88921569 0.56862745
0.71519608 0.86323529 0.58627451
0.71519608 0.86323529 0.58627451
0.71911765 0.86323529 0.58627451
0.72254902 0.86323529 0.58627451
0.72892157 0.86323529 0.58823529
0.7372549 0.86568627 0.59264706
0.74803922 0.86715686 0.59595588
0.7622549 0.86960784 0.60104167
0.76715686 0.86715686 0.60294118
0.77261029 0.86568627 0.60294118
0.79301471 0.86776961 0.60723039
0.80949755 0.86960784 0.60471814
0.82058824 0.87156863 0.60441176
0.84460784 0.87745098 0.60851716
0.85490196 0.87892157 0.6122549
0.86072304 0.88137255 0.60833333
0.87009804 0.88137255 0.60833333
0.88921569 0.88529412 0.60833333
0.91041667 0.88982843 0.60833333
0.93627451 0.89313725 0.60980392
0.95857843 0.89705882 0.60710784
0.97205882 0.90098039 0.60569853
0.98125 0.90098039 0.60330882
0.98878676 0.8995098 0.59607843
0.99215686 0.89803922 0.58970588
0.78431373 0.88235294 0.61568627
0.78823529 0.88627451 0.61568627
0.79313725 0.88627451 0.61666667
0.80343137 0.89019608 0.61960784
0.80588235 0.89019608 0.62156863
0.80441176 0.88627451 0.62009804
0.82156863 0.89019608 0.62647059
0.84019608 0.89656863 0.63382353
0.83137255 0.89019608 0.62745098
0.8377451 0.88627451 0.62745098
0.85784314 0.89019608 0.63137255
0.86666667 0.89019608 0.63137255
0.87647059 0.89215686 0.63137255
0.89901961 0.89803922 0.63578431
0.90588235 0.89803922 0.63529412
0.90735294 0.89803922 0.63137255
0.91372549 0.89803922 0.63137255
0.92647059 0.9004902 0.63137255
0.94313725 0.90294118 0.63235294
0.96372549 0.90980392 0.63529412
0.98431373 0.91568627 0.64117647
0.98431373 0.91323529 0.62696078
0.98823529 0.90686275 0.61666667
0.98970588 0.90441176 0.60637255
0.99215686 0.90196078 0.59607843
0.26666667 0.14509804 0.16470588
0.27058824 0.14754902 0.16470588
0.2745098 0.14901961 0.16862745
0.27971814 0.14901961 0.16862745
0.28823529 0.14583333 0.16593137
0.29460784 0.14460784 0.16421569
0.30098039 0.14117647 0.16078431
0.30790441 0.1372549 0.15686275
0.33333333 0.1372549 0.15686275
0.36421569 0.14117647 0.16078431
0.39656863 0.14117647 0.16078431
0.42990196 0.14117647 0.16323529
0.46519608 0.14044118 0.16323529
0.51078431 0.14166667 0.16372549
0.56666667 0.15085784 0.16715686
0.6245098 0.15833333 0.17107843
0.68235294 0.16470588 0.17254902
0.7377451 0.17745098 0.17401961
0.78921569 0.21078431 0.17169118
0.84068627 0.24509804 0.17352941
0.88235294 0.28161765 0.17941176
0.92205882 0.31942402 0.18529412
0.96470588 0.35686275 0.18823529
0.99209559 0.3872549 0.19313725
0.99754902 0.39460784 0.19558824
0.26666667 0.14509804 0.16170343
0.27058824 0.14754902 0.16470588
0.2745098 0.14901961 0.16793811
0.27831648 0.14993873 0.16862745
0.28627451 0.14901961 0.16715686
0.29460784 0.14509804 0.16463695
0.30098039 0.1439951 0.16078431
0.31161918 0.14117647 0.15931373
0.33333333 0.14362745 0.16078431
0.36421569 0.14454657 0.16289063
0.39523591 0.14685968 0.16323529
0.42971048 0.14754902 0.16323529
0.4661152 0.14754902 0.16323529
0.51482077 0.14784773 0.16452972
0.57120098 0.15441176 0.16715686
0.6280867 0.16374847 0.17107843
0.68627451 0.175 0.1716299
0.7377451 0.19411765 0.17128523
0.78982843 0.22071078 0.17094056
0.84179688 0.25129442 0.17333793
0.88507966 0.2879902 0.17622549
0.92352941 0.32499234 0.1821538
0.96176471 0.36346507 0.18491115
0.98838082 0.39454657 0.19313725
0.99607843 0.40582108 0.19705882
0.26666667 0.14509804 0.16078431
0.27058824 0.14833027 0.16470588
0.27377451 0.1515625 0.16516544
0.27708333 0.15294118 0.16812194
0.28431373 0.15294118 0.165625
0.2932598 0.14901961 0.16470588
0.30098039 0.14681373 0.16078431
0.31666667 0.14546569 0.1622549
0.33823529 0.14901961 0.16568627
0.36568627 0.15 0.16793811
0.39509804 0.15294118 0.16470588
0.42694547 0.15392157 0.16470588
0.47071078 0.15465686 0.16415441
0.525 0.15802696 0.16715686
0.57647059 0.16332721 0.16715686
