site/assets/luts/sha256-7b6fa20ef1e7c17cd02196fe5585cfb4813320f892d6e69f2204d1c1101974eb.cube
# LUTr-Schema-Version: 2
# LUTr-ID: sha256-7b6fa20ef1e7c17cd02196fe5585cfb4813320f892d6e69f2204d1c1101974eb
# LUTr-Title: kodak portra 400 uc
# LUTr-Collection: Natron HaldCLUT
# LUTr-Collection-ID: natron-haldclut-presets
# LUTr-Source: https://github.com/NatronGitHub/clut
# LUTr-Retrieved: 2026-07-27
# LUTr-Source-File: submissions/natron-haldclut-presets/negative_old/kodak_portra_400_uc.png
# LUTr-Source-Format: HALD-PNG
# LUTr-Source-SHA256: 7b6fa20ef1e7c17cd02196fe5585cfb4813320f892d6e69f2204d1c1101974eb
# LUTr-License: CC-BY-SA-4.0
# LUTr-License-URL: https://github.com/NatronGitHub/clut#license
# LUTr-License-Basis: repo-license-file
# LUTr-Transform-Class: film-emulation
# LUTr-Tags: creative, film, film-emulation, hald-clut, natron, png, cube
# LUTr-Input-Color-Space: srgb
# LUTr-Input-Gamut: rec709
# LUTr-Input-Transfer: srgb
# LUTr-Output-Color-Space: srgb
# LUTr-Output-Gamut: rec709
# LUTr-Output-Transfer: srgb
# LUTr-Color-Space-Confidence: assumed-display-referred
# LUTr-Domain-Normalized: true
# LUTr-Shaper: none
# LUTr-Original-Grid: 64x64x64
# LUTr-Conversion-Grid: 25x25x25
# LUTr-Conversion-Interpolation: trilinear
# LUTr-Conversion-Method: HALD-PNG LUT image decoded at 16-bit and sampled to 25x25x25 3D CUBE
# LUTr-Conversion-Tool: LUTr scripts/convert-all-to-cube.mjs 2.0.0
# LUTr-Conversion-Date: 2026-07-27
# LUTr-Note: Preserve this metadata and the upstream license notices when redistributing.
TITLE "kodak portra 400 uc"
LUT_3D_SIZE 25
DOMAIN_MIN 0 0 0
DOMAIN_MAX 1 1 1
0.031372549 0.054901961 0.050980392
0.045588235 0.06127451 0.054901961
0.055882353 0.067647059 0.058823529
0.084803922 0.066666667 0.058823529
0.11960784 0.058823529 0.052941176
0.1504902 0.054411765 0.043137255
0.19019608 0.050980392 0.039215686
0.24656863 0.056372549 0.039215686
0.30196078 0.058823529 0.035294118
0.36372549 0.062745098 0.028921569
0.4254902 0.062745098 0.010784314
0.49117647 0.059313725 0
0.54901961 0.049019608 0.0039215686
0.61470588 0.042647059 0.0039215686
0.67941176 0.029411765 0.0039215686
0.74607843 0.016666667 0.0039215686
0.81568627 0 0
0.84901961 0.020588235 0
0.88529412 0.045098039 0
0.92009804 0.065686275 0
0.96078431 0.090196078 0
0.98431373 0.11519608 0
0.98823529 0.14215686 0
0.99362745 0.16764706 0
1 0.18823529 0
0.031372549 0.054901961 0.050980392
0.041666667 0.06372549 0.054901961
0.052328431 0.071568627 0.054901961
0.08057598 0.069301471 0.056188725
0.11568627 0.065196078 0.052941176
0.1504902 0.067953431 0.049203431
0.19362745 0.071568627 0.042647059
0.24748775 0.075490196 0.035294118
0.30196078 0.079411765 0.032843137
0.36372549 0.076409314 0.023468137
0.42647059 0.071568627 0.0098039216
0.49362745 0.067953431 0
0.55539216 0.062990196 0.0026960784
0.62107843 0.058026961 0.0039215686
0.68615196 0.047916667 0.0039215686
0.75245098 0.035784314 0.0039215686
0.81323529 0.029411765 0.0024509804
0.85202206 0.043627451 0
0.88811275 0.064215686 0
0.92383578 0.084803922 0
0.9620098 0.10147059 0
0.98480392 0.12352941 0
0.98823529 0.14987745 0
0.99362745 0.17401961 0
1 0.19460784 0
0.02745098 0.065686275 0.051960784
0.034926471 0.070465686 0.050367647
0.043137255 0.076470588 0.047794118
0.071568627 0.075857843 0.05
0.10980392 0.082352941 0.050980392
0.15098039 0.089583333 0.049632353
0.19509804 0.095343137 0.043137255
0.2504902 0.097058824 0.033823529
0.30588235 0.1 0.026470588
0.36470588 0.1 0.017156863
0.43529412 0.10196078 0.0071078431
0.50477941 0.10147059 0.0013480392
0.56960784 0.095098039 0.0019607843
0.63272059 0.08872549 0.0039215686
0.69705882 0.079411765 0.0039215686
0.75882353 0.077328431 0.0039215686
0.81176471 0.075490196 0.0039215686
0.85502451 0.084803922 0.0039215686
0.89093137 0.099019608 0.0039215686
0.92757353 0.11703431 0.0039215686
0.9627451 0.13431373 0.0039215686
0.98345588 0.14901961 0.0035539216
0.98823529 0.17328431 0
0.99362745 0.19767157 0
1 0.2127451 0
0.023529412 0.096568627 0.062254902
0.027757353 0.092647059 0.051960784
0.032843137 0.088357843 0.042279412
0.064705882 0.09564951 0.043566176
0.10245098 0.10637255 0.047058824
0.14797794 0.1127451 0.042708333
0.19509804 0.1192402 0.035784314
0.2504902 0.12745098 0.035661765
0.30588235 0.12745098 0.020098039
0.37696078 0.12990196 0.015686275
0.44901961 0.13541667 0.010784314
0.51807598 0.13535539 0.0039215686
0.58357843 0.12598039 0
0.64901961 0.12352941 0.00049019608
0.70821078 0.12316176 0.0039215686
0.76421569 0.11960784 0.0039215686
0.81519608 0.11960784 0.0039215686
0.85686275 0.12598039 0.0039215686
0.89411765 0.13382353 0.0039215686
0.93094363 0.15091912 0.0039215686
0.96078431 0.16691176 0.0039215686
0.98088235 0.17947304 0.0039215686
0.98823529 0.19705882 0.0035539216
0.99362745 0.22009804 0
1 0.23039216 0
0.01372549 0.13333333 0.074509804
0.017647059 0.13088235 0.066176471
0.02254902 0.12696078 0.057843137
0.039705882 0.12892157 0.052941176
0.082352941 0.14019608 0.053921569
0.13014706 0.14558824 0.042647059
0.18872549 0.15588235 0.028431373
0.24460784 0.1622549 0.020098039
0.30784314 0.16862745 0.01372549
0.3870098 0.16862745 0.011764706
0.46372549 0.17254902 0.0068627451
0.53406863 0.17254902 0.0022058824
0.6 0.16862745 0
0.66176471 0.16862745 0
0.72205882 0.16519608 0.0039215686
0.77254902 0.16470588 0.0039215686
0.81764706 0.16470588 0.0039215686
0.85759804 0.16789216 0.0039215686
0.89705882 0.17352941 0.0039215686
0.93186275 0.18578431 0.0039215686
0.95980392 0.2 0.0058823529
0.97696078 0.2122549 0.0078431373
0.9872549 0.2245098 0.0039215686
0.99607843 0.24068627 0
1 0.24705882 0
0.0039215686 0.17401961 0.085784314
0.0098039216 0.171875 0.080208333
0.011397059 0.16666667 0.070955882
0.015196078 0.1627451 0.063664216
0.052941176 0.17205882 0.056862745
0.10392157 0.18241422 0.046997549
0.17254902 0.19313725 0.029411765
0.23400735 0.1995098 0.0098039216
0.30588235 0.20539216 0.0073529412
0.39479167 0.20802696 0.0073529412
0.47892157 0.20980392 0.0025735294
0.55091912 0.21329657 0
0.61666667 0.21421569 0
0.67794118 0.21372549 0
0.73235294 0.21029412 0.0025735294
0.77843137 0.20980392 0.0039215686
0.81960784 0.20980392 0.0039215686
0.86078431 0.20980392 0.0039215686
0.89803922 0.21470588 0.0039215686
0.93186275 0.2245098 0.0039215686
0.96078431 0.23480392 0.0058823529
0.97653186 0.24509804 0.0078431373
0.99019608 0.25539216 0.0049019608
0.99607843 0.26176471 0.00030637255
1 0.26813725 0
0.0039215686 0.20882353 0.079411765
0.006372549 0.20882353 0.076960784
0.0078431373 0.20784314 0.070588235
0.0088235294 0.20784314 0.066666667
0.015196078 0.20490196 0.056862745
0.070098039 0.21752451 0.046568627
0.13921569 0.23039216 0.032352941
0.21433824 0.23970588 0.011397059
0.30294118 0.24607843 0.0039215686
0.38982843 0.25245098 0.0039215686
0.4747549 0.25784314 0.0022058824
0.5504902 0.26164216 0
0.61666667 0.26568627 0
0.67794118 0.26470588 0
0.73014706 0.26102941 0
0.77487745 0.25784314 0.00036764706
0.81960784 0.25784314 0.0039215686
0.86078431 0.25392157 0.0039215686
0.89730392 0.25588235 0.0039215686
0.93186275 0.2622549 0.0039215686
0.95735294 0.26960784 0.0078431373
0.97352941 0.27990196 0.0078431373
0.9872549 0.28946078 0.0049019608
0.99607843 0.29803922 0.0035539216
0.99705882 0.30196078 0
0 0.24509804 0.073039216
0.0024509804 0.24754902 0.071507353
0.0024509804 0.25330882 0.074264706
0 0.25226716 0.072242647
0.0019607843 0.25196078 0.066911765
0.030392157 0.26127451 0.059803922
0.091421569 0.27267157 0.045588235
0.18676471 0.2872549 0.031372549
0.28186275 0.3 0.013235294
0.37205882 0.30631127 0.0053921569
0.45551471 0.31139706 0.0018382353
0.53302696 0.31685049 0.0034313725
0.60171569 0.32058824 0.0039215686
0.66421569 0.32469363 0.0012867647
0.72414216 0.31568627 0
0.7745098 0.31176471 0
0.81813725 0.30931373 0.0024509804
0.85686275 0.30539216 0.0039215686
0.89203431 0.30539216 0.0039215686
0.92647059 0.30539216 0.0039215686
0.95686275 0.31053922 0.0039215686
0.97303922 0.32009804 0.0039215686
0.98517157 0.32928922 0.0039215686
0.99307598 0.33676471 0.0039215686
0.99607843 0.34313725 0.0039215686
0 0.29019608 0.074509804
0 0.29656863 0.084803922
0 0.30588235 0.090196078
0 0.30980392 0.090196078
0.0039215686 0.30980392 0.082352941
0 0.30980392 0.070098039
0.049019608 0.31666667 0.06372549
0.15196078 0.33088235 0.048039216
0.25098039 0.34509804 0.02745098
0.34509804 0.35931373 0.0068627451
0.43137255 0.36568627 0
0.50980392 0.37598039 0.0039215686
0.59019608 0.38235294 0.0039215686
0.65392157 0.38039216 0.0034313725
0.71568627 0.37352941 0
0.7745098 0.36470588 0
0.81568627 0.36078431 0
0.8504902 0.35833333 0.0024509804
0.88627451 0.35686275 0.0039215686
0.92009804 0.35343137 0.0039215686
0.95490196 0.35294118 0.0039215686
0.97303922 0.36078431 0.0039215686
0.98333333 0.36764706 0.0039215686
0.99215686 0.37647059 0.0039215686
0.99607843 0.38039216 0.0039215686
0 0.34803922 0.08872549
0 0.35588235 0.10631127
0 0.36127451 0.11237745
0 0.36127451 0.1004902
0 0.36495098 0.10392157
0 0.36519608 0.091176471
0.018872549 0.37205882 0.091176471
0.09564951 0.38235294 0.078002451
0.1995098 0.39656863 0.054411765
0.29908088 0.40778186 0.028370098
0.39963235 0.4192402 0.0088235294
0.49626225 0.43351716 0.0078431373
0.58186275 0.44093137 0.0039215686
0.64577206 0.43921569 0
0.70833333 0.43137255 0
0.77199755 0.4216299 0
0.81323529 0.41617647 0
0.84564951 0.4088848 0
0.87953431 0.40379902 0.0039215686
0.9158701 0.40067402 0.0039215686
0.95098039 0.39803922 0.0039215686
0.97303922 0.40196078 0.0039215686
0.9872549 0.40882353 0.0039215686
0.99215686 0.41519608 0.0039215686
0.99607843 0.41764706 0.0039215686
0 0.40490196 0.10294118
0 0.40882353 0.11041667
0 0.41372549 0.11372549
0 0.41666667 0.10723039
0 0.41666667 0.10686275
0 0.42071078 0.10821078
0.006127451 0.4252451 0.11176471
0.04129902 0.43382353 0.10526961
0.13823529 0.44411765 0.080392157
0.24240196 0.45441176 0.053431373
0.35588235 0.46372549 0.026470588
0.46176471 0.47745098 0.015808824
0.57254902 0.49656863 0.0024509804
0.63578431 0.49362745 0
0.68946078 0.48431373 0
0.74987745 0.47401961 0
0.80196078 0.46764706 0
0.83737745 0.45796569 0
0.87279412 0.45171569 0.00098039216
0.90821078 0.44718137 0.0039215686
0.94460784 0.44313725 0.0039215686
0.97352941 0.4432598 0.0039215686
0.9872549 0.45 0.0039215686
0.99215686 0.45392157 0.0039215686
0.99215686 0.45392157 0.0039215686
0 0.45637255 0.10931373
0 0.4627451 0.1158701
0 0.46433824 0.11715686
0 0.46813725 0.11973039
0 0.47034314 0.12426471
0 0.47598039 0.12843137
0.00036764706 0.47990196 0.12843137
0.0067401961 0.48382353 0.11960784
0.066176471 0.48823529 0.10098039
0.18137255 0.49981618 0.076164216
0.30870098 0.50784314 0.043137255
0.42107843 0.515625 0.019178922
0.51887255 0.53014706 0.01127451
0.59748775 0.53180147 0.0039215686
0.65870098 0.52879902 0.00012254902
0.72352941 0.52696078 0.0014705882
0.77745098 0.52303922 0.0039215686
0.82224265 0.51617647 0
0.86237745 0.5060049 0.00012254902
0.9004902 0.49607843 0.00006127451
0.94117647 0.48970588 0
0.97395833 0.48780637 0.00049019608
0.98823529 0.49117647 0.0039215686
0.99215686 0.49215686 0.0039215686
0.99215686 0.49215686 0.0039215686
0 0.50784314 0.12156863
0 0.51176471 0.13186275
0 0.51372549 0.14166667
0 0.51372549 0.14681373
0 0.51666667 0.15098039
0 0.52377451 0.15490196
0 0.52892157 0.14607843
0 0.53210784 0.13308824
0.0019607843 0.53333333 0.12156863
0.12598039 0.54117647 0.10735294
0.25735294 0.54754902 0.085784314
0.37573529 0.55073529 0.062254902
0.46862745 0.55980392 0.032352941
0.56004902 0.56691176 0.00024509804
0.62745098 0.57156863 0.0034313725
0.69705882 0.57720588 0.0058823529
0.75686275 0.57843137 0.0058823529
0.80710784 0.57328431 0.0014705882
0.84901961 0.56372549 0
0.89019608 0.55343137 0
0.93137255 0.54313725 0
0.97622549 0.53504902 0
0.98823529 0.53186275 0
0.98823529 0.52941176 0
0.98823529 0.52941176 0
0 0.56323529 0.16715686
0 0.56323529 0.16685049
0 0.55931373 0.16740196
0 0.55931373 0.17310049
0 0.5627451 0.17916667
0 0.56666667 0.1778799
0 0.57058824 0.17095588
0 0.5745098 0.1622549
0.0078431373 0.5745098 0.15490196
0.082536765 0.58057598 0.14558824
0.20894608 0.58578431 0.13161765
0.33425245 0.58927696 0.10974265
0.43210784 0.59362745 0.07745098
0.52401961 0.59803922 0.048590686
0.5995098 0.60833333 0.034926471
0.66893382 0.61519608 0.029227941
0.73627451 0.6254902 0.016666667
0.79197304 0.62990196 0.0053921569
0.83872549 0.62156863 0
0.87990196 0.60735294 0.00042892157
0.92107843 0.59656863 0.0039215686
0.96127451 0.58627451 0.0049019608
0.98321078 0.57892157 0.0053921569
0.98431373 0.575 0.0041053922
0.98431373 0.575 0.0044117647
0 0.60392157 0.18137255
0 0.60392157 0.18259804
0 0.60392157 0.1879902
0 0.6064951 0.19754902
0 0.60686275 0.2
0 0.60784314 0.20183824
0 0.61176471 0.19730392
0.0033088235 0.61568627 0.19313725
0.0049019608 0.61568627 0.18627451
0.039460784 0.61666667 0.17536765
0.15955882 0.62058824 0.16470588
0.30245098 0.62352941 0.15355392
0.40490196 0.62598039 0.13088235
0.49019608 0.6314951 0.10735294
0.57083333 0.63921569 0.096323529
0.64068627 0.6495098 0.076715686
0.70784314 0.6627451 0.050980392
0.77352941 0.67585784 0.020710784
0.82843137 0.67647059 0.0031862745
0.86960784 0.6622549 0.0013480392
0.91078431 0.64803922 0.0039215686
0.94448529 0.6377451 0.012132353
0.97156863 0.62745098 0.01495098
0.98431373 0.62536765 0.0078431373
0.98431373 0.62352941 0.0078431373
0 0.6372549 0.1877451
0 0.64117647 0.2004902
0 0.64509804 0.21323529
0 0.64883578 0.22107843
0 0.64901961 0.2254902
0 0.64883578 0.22794118
0 0.64901961 0.22794118
0.0039215686 0.65202206 0.22493873
0.0039215686 0.65294118 0.21617647
0.006127451 0.65294118 0.20435049
0.13480392 0.6557598 0.19987745
0.27303922 0.66060049 0.18939951
0.37598039 0.66397059 0.17401961
0.45980392 0.66764706 0.16519608
0.54215686 0.67438725 0.15845588
0.61464461 0.68284314 0.13682598
0.67941176 0.69313725 0.11078431
0.74515931 0.70343137 0.079901961
0.80257353 0.71029412 0.045588235
0.85716912 0.71207108 0.0077205882
0.89705882 0.70343137 0.0068627451
0.9254902 0.68921569 0.021262255
0.95637255 0.68186275 0.025
0.98094363 0.67401961 0.011213235
0.98823529 0.67401961 0.0078431373
0.0039215686 0.67843137 0.24313725
0 0.68088235 0.24313725
0 0.68333333 0.25196078
0 0.68627451 0.2622549
0 0.68627451 0.26470588
0.0039215686 0.68627451 0.26666667
0.00098039216 0.68627451 0.26568627
0 0.69019608 0.2627451
0 0.69019608 0.25882353
0.028921569 0.69019608 0.24852941
0.14607843 0.69019608 0.24215686
0.27647059 0.69411765 0.23186275
0.3627451 0.69803922 0.22352941
0.43529412 0.70196078 0.21568627
0.51862745 0.70588235 0.20980392
0.59068627 0.71127451 0.19166667
0.65490196 0.72156863 0.16862745
0.71666667 0.72794118 0.15441176
0.77843137 0.73823529 0.14019608
0.84019608 0.74852941 0.11911765
0.87647059 0.74509804 0.084313725
0.90784314 0.74068627 0.062254902
0.94215686 0.73333333 0.047058824
0.97303922 0.7254902 0.019117647
0.99215686 0.72156863 0.0039215686
0.0078431373 0.71715686 0.29068627
0.0048406863 0.71715686 0.29068627
0.00036764706 0.71997549 0.29313725
0.0039215686 0.72322304 0.29969363
0.0071078431 0.72352941 0.30269608
0.0076593137 0.72352941 0.30147059
0.0039215686 0.72352941 0.30110294
0.0015318627 0.72408088 0.30091912
0 0.725 0.3
0.041176471 0.725 0.29362745
0.16862745 0.72745098 0.28615196
0.28235294 0.72873775 0.27696078
0.36593137 0.73137255 0.26911765
0.43039216 0.73314951 0.2627451
0.49656863 0.73676471 0.25392157
0.56954657 0.74215686 0.24068627
0.63039216 0.75 0.22401961
0.68970588 0.75882353 0.21862745
0.75147059 0.76666667 0.21323529
0.81127451 0.77334559 0.21078431
0.8495098 0.77156863 0.1877451
0.88302696 0.76942402 0.15490196
0.92058824 0.76813725 0.11372549
0.95729167 0.76813725 0.074448529
0.98970588 0.77058824 0.037254902
0.011764706 0.75294118 0.33333333
0.0078431373 0.75294118 0.33333333
0.00073529412 0.75588235 0.33235294
0.0034313725 0.75588235 0.33590686
0.0078431373 0.75588235 0.33627451
0.011397059 0.75588235 0.33627451
0.0049019608 0.75588235 0.33259804
0.0042892157 0.75686275 0.33235294
0.010784314 0.75588235 0.33235294
0.097058824 0.75980392 0.33394608
0.20073529 0.76372549 0.33235294
0.30318627 0.76470588 0.32303922
0.37352941 0.76764706 0.31666667
0.43529412 0.76764706 0.31041667
0.49705882 0.77156863 0.30098039
0.55490196 0.7754902 0.29105392
0.61078431 0.77941176 0.28823529
0.66519608 0.78480392 0.28468137
0.7252451 0.79019608 0.28112745
0.77634804 0.7939951 0.27303922
0.82156863 0.79264706 0.2622549
0.8627451 0.79509804 0.24178922
0.90392157 0.79901961 0.22156863
0.94607843 0.80441176 0.20330882
0.98431373 0.81176471 0.18627451
0.011764706 0.78676471 0.3745098
0.009129902 0.78676471 0.37077206
0.006372549 0.78676471 0.36973039
0.010294118 0.78676471 0.37015931
0.0058823529 0.78848039 0.36715686
0.0049019608 0.79068627 0.36715686
0.0066176471 0.79068627 0.36421569
0.018014706 0.79068627 0.36452206
0.10833333 0.79019608 0.3745098
0.19981618 0.78939951 0.38057598
0.28443627 0.79460784 0.37794118
0.34454657 0.79503676 0.37745098
0.39289216 0.79852941 0.37352941
0.45294118 0.79852941 0.36911765
0.51176471 0.80159314 0.3627451
0.56372549 0.8026348 0.35765931
0.60784314 0.80637255 0.35392157
0.65539216 0.81029412 0.35128676
0.70735294 0.81433824 0.34852941
0.75882353 0.81770833 0.34172794
0.80441176 0.81862745 0.33578431
0.84564951 0.8221201 0.3245098
0.88982843 0.82634804 0.30686275
0.93363971 0.83400735 0.29283088
0.96960784 0.83823529 0.28284314
0.011764706 0.82352941 0.40784314
0.017401961 0.82156863 0.40784314
0.039215686 0.82156863 0.40980392
0.056127451 0.81813725 0.41004902
0.050980392 0.81862745 0.40588235
0.032843137 0.81764706 0.3997549
0.099509804 0.82107843 0.40833333
0.16740196 0.82156863 0.41446078
0.24117647 0.82156863 0.42156863
0.28946078 0.81838235 0.42671569
0.34019608 0.82156863 0.42990196
0.39166667 0.82328431 0.43333333
0.43529412 0.8254902 0.43137255
0.48039216 0.82745098 0.42916667
0.525 0.82941176 0.42745098
0.57205882 0.83137255 0.42352941
0.61764706 0.83333333 0.41960784
0.65882353 0.8372549 0.41642157
0.70294118 0.83970588 0.41176471
0.75098039 0.84313725 0.40808824
0.79019608 0.84607843 0.40490196
0.83137255 0.84901961 0.3995098
0.8745098 0.85245098 0.38578431
0.91691176 0.85637255 0.375
0.95098039 0.85882353 0.36470588
0.1 0.85588235 0.45833333
0.13265931 0.85245098 0.46439951
0.17634804 0.85245098 0.47095588
0.19810049 0.85245098 0.47395833
0.22622549 0.85245098 0.47352941
0.25245098 0.85588235 0.47310049
0.26948529 0.85208333 0.47095588
0.29883578 0.85067402 0.47009804
0.32598039 0.84852941 0.47352941
0.3627451 0.84852941 0.47775735
0.4 0.85196078 0.48284314
0.44025735 0.85245098 0.48964461
0.47671569 0.85416667 0.48921569
0.51323529 0.85594363 0.48921569
0.54754902 0.85637255 0.48529412
0.58854167 0.85980392 0.48118873
0.63186275 0.86029412 0.47745098
0.66960784 0.86403186 0.47745098
0.71029412 0.86764706 0.47745098
0.74761029 0.86807598 0.47401961
0.78431373 0.87156863 0.47401961
0.82150735 0.87205882 0.47401961
0.85919118 0.8754902 0.46764706
0.8995098 0.87959559 0.45735294
0.93284314 0.88382353 0.44705882
0.3127451 0.88333333 0.53333333
0.32377451 0.88333333 0.53431373
0.34240196 0.88333333 0.53848039
0.34656863 0.88296569 0.53921569
0.36519608 0.88333333 0.54068627
0.36948529 0.88039216 0.53823529
0.37328431 0.87941176 0.53921569
0.39375 0.87647059 0.53884804
0.41470588 0.8754902 0.54215686
0.44840686 0.87647059 0.54607843
0.48137255 0.87941176 0.55392157
0.5067402 0.87941176 0.55784314
0.53333333 0.87990196 0.55784314
0.56127451 0.88039216 0.55355392
0.58921569 0.88333333 0.54779412
0.61617647 0.88431373 0.54276961
0.64901961 0.8872549 0.54313725
0.68627451 0.88823529 0.54607843
0.72745098 0.89142157 0.54607843
0.76127451 0.89215686 0.54227941
0.78921569 0.89558824 0.54607843
0.82009804 0.89644608 0.54656863
0.85171569 0.8997549 0.54607843
0.88921569 0.90502451 0.53970588
0.91960784 0.90784314 0.53333333
0.45735294 0.90882353 0.5995098
0.46127451 0.90882353 0.60098039
0.45723039 0.90882353 0.60490196
0.45735294 0.90882353 0.60490196
0.47598039 0.91029412 0.60637255
0.47990196 0.90882353 0.60667892
0.48321078 0.90637255 0.60882353
0.49368873 0.90490196 0.61029412
0.51127451 0.90490196 0.61029412
0.53039216 0.90245098 0.6127451
0.55012255 0.90490196 0.62156863
0.57401961 0.90618873 0.628125
0.59705882 0.90637255 0.62794118
0.61832108 0.90490196 0.62009804
0.63529412 0.90490196 0.60943627
0.65735294 0.91029412 0.61623775
0.68431373 0.9127451 0.61813725
0.7122549 0.91574755 0.62058824
0.74914216 0.91666667 0.62107843
0.77665441 0.91666667 0.61421569
0.80269608 0.92132353 0.61813725
0.82990196 0.9245098 0.62028186
0.85625 0.92561275 0.61703431
0.88284314 0.92990196 0.61813725
0.9122549 0.93382353 0.61421569
0.5254902 0.9254902 0.64705882
0.53970588 0.92941176 0.65735294
0.55882353 0.93333333 0.66862745
0.54901961 0.93284314 0.6627451
0.56862745 0.9372549 0.67254902
0.56078431 0.93284314 0.66666667
0.56470588 0.92941176 0.6627451
0.5754902 0.92941176 0.66666667
0.58823529 0.9254902 0.66666667
0.59068627 0.92303922 0.66421569
0.60980392 0.9254902 0.6754902
0.62696078 0.9254902 0.68235294
0.64705882 0.92745098 0.68627451
0.65490196 0.92156863 0.66960784
0.66764706 0.92156863 0.66176471
0.69460784 0.93088235 0.68137255
0.71764706 0.9372549 0.68235294
0.74068627 0.9372549 0.68088235
0.76666667 0.9372549 0.68137255
0.7872549 0.9372549 0.6745098
0.80980392 0.94117647 0.67843137
0.83627451 0.94509804 0.6745098
0.86078431 0.94509804 0.67058824
0.88676471 0.94901961 0.67205882
0.90980392 0.95294118 0.6745098
0.031372549 0.054901961 0.050980392
0.044669118 0.059742647 0.057352941
0.060784314 0.062745098 0.065196078
0.084803922 0.06060049 0.065379902
0.11960784 0.055637255 0.059313725
0.1504902 0.050980392 0.04932598
0.18786765 0.04877451 0.044730392
0.24411765 0.051531863 0.048590686
0.2995098 0.05245098 0.049509804
0.35980392 0.05 0.042218137
0.42365196 0.051838235 0.027083333
0.4908701 0.05 0.021752451
0.55294118 0.045343137 0.016666667
0.61734069 0.040196078 0.014215686
0.68039216 0.02879902 0.010661765
0.74754902 0.014215686 0.009375
0.80539216 0.006372549 0.006372549
0.84748775 0.021507353 0.003002451
0.88529412 0.040563725 0.0018382353
0.92009804 0.057169118 0
0.95637255 0.078676471 0
0.97873775 0.10882353 0
0.98762255 0.13970588 0
0.99362745 0.16427696 0
0.99754902 0.18186275 0
0.031372549 0.054901961 0.050980392
0.043543199 0.059742647 0.056433824
0.05870098 0.064598652 0.062331495
0.082284007 0.06373315 0.065196078
0.11568627 0.06127451 0.060539216
0.15068168 0.064100797 0.053132659
0.19270833 0.069117647 0.048268995
0.2469133 0.070994179 0.044324449
0.30196078 0.072120098 0.042218137
0.36202512 0.069462316 0.035294118
0.42830882 0.065977328 0.022840074
0.49362745 0.06372549 0.016490502
0.55857843 0.061029412 0.011979167
0.6213848 0.053730086 0.010294118
0.68676471 0.040027574 0.010294118
0.75245098 0.02845435 0.009375
0.80931373 0.026409314 0.0072916667
0.84957108 0.043627451 0.0039215686
0.88613664 0.062086397 0.0039215686
0.9236443 0.078622855 0.0034390319
0.95759804 0.096629902 0
0.97873775 0.12224265 0
0.98823529 0.15098039 0
0.99362745 0.17401961 0
1 0.18976716 0
0.02745098 0.061764706 0.051960784
0.036764706 0.066544118 0.052742034
0.049877451 0.071844363 0.057077206
0.072058824 0.072610294 0.06083027
0.11035539 0.07879902 0.059742647
0.15098039 0.086810662 0.051960784
0.19571078 0.092432598 0.047150735
0.2504902 0.094240196 0.039583333
0.30588235 0.094240196 0.028921569
0.36692708 0.094469975 0.024080882
0.43529412 0.096047794 0.019148284
0.50424326 0.097564338 0.0093137255
0.57022059 0.091911765 0.0057598039
0.63529412 0.084849877 0.0058363971
0.69705882 0.073498775 0.0095894608
0.75845588 0.068137255 0.010294118
0.80992647 0.070955882 0.010294118
0.85294118 0.081020221 0.0049785539
0.89093137 0.094914216 0.0039215686
0.92757353 0.11227022 0.0039215686
0.95759804 0.13051471 0.00067401961
0.97866115 0.14901961 0.00032169118
0.98762255 0.17254902 0
0.99362745 0.19682904 0
1 0.20588235 0
0.020098039 0.096384804 0.06439951
0.026470588 0.095274203 0.059865196
0.037423407 0.095098039 0.059436275
0.061925551 0.096384804 0.056533395
0.10563725 0.10465686 0.051807598
0.15098039 0.10931373 0.04185049
0.19901961 0.11577819 0.038235294
