site/assets/luts/sha256-1b347b4c5afec78ad7f79103bf04b319e182b7133ffe2a8864c732a7003b7eea.cube
# LUTr-Schema-Version: 2
# LUTr-ID: sha256-1b347b4c5afec78ad7f79103bf04b319e182b7133ffe2a8864c732a7003b7eea
# LUTr-Title: Velvia Vivid v2
# LUTr-Collection: FilmSim
# LUTr-Collection-ID: sguyader-filmsim
# LUTr-Source: https://github.com/sguyader/FilmSim
# LUTr-Retrieved: 2026-07-27
# LUTr-Source-File: submissions/sguyader-filmsim/Velvia_Vivid_v2.tif
# LUTr-Source-Format: HALD-TIF
# LUTr-Source-SHA256: 1b347b4c5afec78ad7f79103bf04b319e182b7133ffe2a8864c732a7003b7eea
# LUTr-License: CC0-1.0
# LUTr-License-URL: https://github.com/sguyader/FilmSim/blob/master/LICENSE
# LUTr-License-Basis: repo-license-file
# LUTr-Transform-Class: film-emulation
# LUTr-Tags: creative, film, film-emulation, hald-clut, rawtherapee, tif, cube
# LUTr-Input-Color-Space: srgb
# LUTr-Input-Gamut: rec709
# LUTr-Input-Transfer: srgb
# LUTr-Output-Color-Space: srgb
# LUTr-Output-Gamut: rec709
# LUTr-Output-Transfer: srgb
# LUTr-Color-Space-Confidence: assumed-display-referred
# LUTr-Domain-Normalized: true
# LUTr-Shaper: none
# LUTr-Original-Grid: 144x144x144
# LUTr-Conversion-Grid: 25x25x25
# LUTr-Conversion-Interpolation: trilinear
# LUTr-Conversion-Method: HALD-TIF LUT image decoded at 16-bit and sampled to 25x25x25 3D CUBE
# LUTr-Conversion-Tool: LUTr scripts/convert-all-to-cube.mjs 2.0.0
# LUTr-Conversion-Date: 2026-07-27
# LUTr-Note: Preserve this metadata and the upstream license notices when redistributing.
TITLE "Velvia Vivid v2"
LUT_3D_SIZE 9
DOMAIN_MIN 0 0 0
DOMAIN_MAX 1 1 1
0 0 0
0.011188678 0.000015259022 0
0.11516365 0.019539178 0
0.27534524 0.048357748 0
0.50779736 0.033249409 0
0.70361067 0.12652399 0
0.86128786 0.18467613 0
0.99599069 0.21546502 0
0.99606317 0.22667277 0
0.0000019073777 0.038124666 0.000053406577
0.053215362 0.050239614 0.0000016689555
0.15377089 0.073733501 0
0.31167887 0.081397822 0
0.52925727 0.11479839 0
0.70988093 0.18855097 0
0.86122539 0.2314312 0
0.99259985 0.2535718 0
0.99601358 0.26132982 0
0.010616464 0.1933814 0.000072480354
0.083005741 0.20024462 0.000016212711
0.2166619 0.21978237 0.0000066758221
0.37381313 0.24322929 0
0.55653658 0.25984588 0
0.72546159 0.25204089 0
0.86900702 0.26887922 0
0.98914368 0.30127747 0
0.99597925 0.31557183 0
0 0.40191501 0.00018120089
0.12237473 0.4019007 0.00014615282
0.24580663 0.41123112 0.000073434043
0.41339885 0.41370069 0
0.55062276 0.41903468 0.025587472
0.70196245 0.41517915 0
0.85480993 0.39319162 0
0.98881299 0.36049368 0
0.99596971 0.34246014 0
0.066163119 0.55867094 0.00024414435
0.15547513 0.55871386 0.00015163653
0.25660906 0.56258297 0.00015259022
0.40235943 0.56261349 0.000072480354
0.5466392 0.54699397 0.000022888533
0.66798943 0.54310864 0.039477951
0.80056268 0.52747196 0
0.9362974 0.51160353 0
0.99589532 0.46501106 0
0.012350271 0.67735561 0.00033569848
0.13006862 0.67491417 0.00021052682
0.24834535 0.67495661 0.00021171893
0.35077416 0.67737755 0.00014877546
0.51386759 0.67228485 0.000030518044
0.64664397 0.65095536 0.0000035763333
0.76520323 0.64371281 0
0.89345603 0.63204943 0
0.99583619 0.62028496 0
0 0.77843137 0.00036621653
0.018326562 0.77843948 0.00038290608
0.20374514 0.77550927 0.00026607919
0.31849823 0.77847763 0.00022888533
0.44447623 0.77944038 0.0001201648
0.61634337 0.77347028 0.000067235065
0.7516022 0.75994411 0
0.87955148 0.76289197 0
0.99573892 0.76390478 0
0 0.89562257 0.00034332799
0 0.89562257 0.00034332799
0.16462768 0.89567931 0.00034523537
0.30932493 0.89569362 0.00022387846
0.41364729 0.89959945 0.00019169146
0.57021034 0.90353294 0.00010657473
0.74861763 0.90355917 0.000038624399
0.89510734 0.89969935 0
0.99572557 0.9113489 0.059056229
0 0.99623102 0.0004882887
0 0.99623102 0.0004882887
0.17726787 0.99625391 0.00041199359
0.3286183 0.99628634 0.0002994583
0.44292363 0.99629969 0.00022888533
0.55321965 0.99628634 0.00018310826
0.77888914 0.99632639 0.00013351644
0.9424506 0.99632639 0.082934691
0.99584955 0.9962005 0.48038453
0 0 0.035126268
0.030752174 7.1526665e-7 0.027266442
0.15006437 0.000011444266 0.05705396
0.2720047 0.000010967422 0.015207046
0.51028363 0.000030518044 0.011756123
0.7021582 0.028047274 0.0031226158
0.86126402 0.13435616 0
0.9960174 0.17634279 0
0.99603265 0.19196612 0
0 0.06150411 0.061531052
0.050996098 0.050251953 0.050196043
0.1889331 0.038990735 0.0049242533
0.34830085 0.026498901 0
0.52902421 0.089381628 0.0032169118
0.70744721 0.1576442 0
0.8612465 0.20396371 0
0.99254001 0.22673807 0
0.99593752 0.23492957 0
0 0.19729963 0.018127718
0.037779312 0.20022203 0.013004144
0.21108866 0.21318916 0.054363961
0.37160862 0.23150815 0.079633676
0.55804556 0.22329337 0.027346551
0.72172307 0.23756551 0
0.86355466 0.2774598 0
0.98525645 0.29993753 0
0.99592966 0.30386435 0
0 0.39411908 0.025587472
0.098958482 0.3958592 0.0052699059
0.22434255 0.40694494 0.000073672465
0.40429199 0.40601176 0.09381044
0.54358859 0.41121872 0.13625103
0.69955868 0.40734138 0.07338466
0.85729649 0.37185283 0
0.98648063 0.34894006 0
0.9959411 0.3385481 0
0.012200542 0.55475509 0.00024223697
0.13246452 0.55478156 0.00019061856
0.25171473 0.55478752 0.000076295109
0.38502995 0.55871922 0.000099541276
0.54081836 0.54311198 0.068969348
0.66290103 0.53657874 0.14297429
0.79865244 0.52308714 0.067372396
0.93632982 0.50406939 0
0.99591058 0.45326162 0
0 0.67344739 0.00031090257
0.1032038 0.67344966 0.00030339227
0.23512901 0.67107742 0.00019002251
0.33907263 0.67348936 0.00015425917
0.50212863 0.66957923 0.000071526665
0.64280525 0.64714814 0.00079484007
0.76135504 0.63981597 0.11908933
0.8913332 0.62810146 0.015348758
0.99577707 0.6164168 0
0 0.77551308 0.00032043946
0 0.77551308 0.00032043946
0.18924692 0.77455141 0.00027215896
0.31461683 0.77462288 0.00020879826
0.43487974 0.77845521 0.00014734493
0.60860144 0.77165172 0.000041843099
0.75164702 0.75604067 0.0000076295109
0.8795764 0.75994054 0.10930067
0.99577325 0.76009384 0.021822309
0 0.89175441 0.00040436408
0 0.89175441 0.00040436408
0.14900697 0.89442515 0.00034118219
0.3052739 0.89570149 0.00031352522
0.40779033 0.89961841 0.00022435531
0.56240529 0.90352334 0.00010219372
0.74460582 0.90352811 0.000050187877
0.89510567 0.8996376 0
0.99576324 0.91131361 0.1517319
0 0.99623102 0.0004882887
0 0.99623102 0.0004882887
0.16460288 0.99628443 0.00040436408
0.3208114 0.99627108 0.00028992142
0.44098573 0.99632258 0.00021362631
0.54935912 0.99632639 0.00015831235
0.77109941 0.99632639 0.00014114595
0.94599045 0.99630374 0.21197881
0.9959411 0.99624628 0.4961471
0.025448234 0.0000076295109 0.069283589
0.088458934 0 0.13029679
0.19665732 0 0.20106336
0.31259203 0.0000057221332 0.19894045
0.46886206 0 0.22585069
0.65574693 0.000012397955 0.21059644
0.82325093 0.17287423 0.22792592
0.99612182 0.071123732 0.15784171
0.99612421 0.026455329 0.085420005
0.000069619287 0.03073167 0.22165827
0.046153475 0.05680159 0.25633589
0.2167767 0.03466671 0.22128586
0.32427722 0.067829273 0.20655458
0.48681764 0.068627928 0.20954237
0.66849489 0.13798936 0.21154488
0.8462067 0.19070404 0.20438339
0.99614793 0.13289195 0.13322163
0.99609703 0.14304761 0.066483558
9.5368887e-7 0.21509308 0.21984054
0.087887555 0.21287301 0.21660074
0.20350195 0.2025864 0.20313001
0.37145931 0.21766005 0.20427479
0.55127508 0.23003166 0.19331655
0.71776365 0.24057839 0.17176676
0.85992146 0.25691782 0.1459535
0.9851941 0.26474045 0.10299995
0.99597066 0.26475929 0.023028725
0 0.39553483 0.21990539
0 0.39405667 0.20765991
0.22376879 0.38836178 0.20418634
0.39152987 0.3941068 0.22926472
0.53973139 0.39557035 0.24697895
0.71328214 0.3691301 0.18635224
0.85879075 0.3416433 0.14621386
0.98132367 0.33573538 0.098732786
0.99593204 0.34961566 0
0 0.55084115 0.19848745
0.00041223201 0.54911021 0.19312629
0.23540379 0.54304379 0.17590791
0.35185421 0.54944352 0.0017154479
0.52965019 0.53255798 0.21701572
0.65367957 0.52524677 0.253609
0.79674554 0.50864805 0.2019975
0.94178802 0.48243496 0.10202778
0.99589532 0.42983902 0
0 0.66950103 0.13055333
0 0.66711389 0.12247857
0.21324161 0.66319166 0.088944004
0.32947197 0.66322617 0.00012386034
0.47618257 0.66196283 0.00006342031
0.63511876 0.63977789 0.17118125
0.75450546 0.63197516 0.23972615
0.88751723 0.62025105 0.19027184
0.9958629 0.60464446 0.10523766
0 0.77162203 0.00036621653
0 0.77162203 0.00036621653
0.16377747 0.77066262 0.00025606546
0.30531872 0.76772478 0.00021934844
0.41371214 0.77163396 0.00012541009
0.59179994 0.76774672 0.000069023232
0.74683828 0.75212148 0.10994244
0.87574245 0.75599286 0.23789352
0.99586862 0.7560111 0.20199512
0 0.89125849 0.00038910506
0 0.88868496 0.00042915999
0.11047711 0.89176263 0.00038767453
0.2896334 0.89181163 0.00024223697
0.40389582 0.8956693 0.0002059968
0.54558597 0.90191811 0.00012523127
0.73292444 0.90289302 0.000020861944
0.89173611 0.89963676 0.080736081
0.99579042 0.91135462 0.2714332
0 0.99623102 0.0004882887
0 0.99623102 0.0004882887
0.12628176 0.99627584 0.0004367895
0.30520523 0.99627108 0.00030327306
0.43700313 0.99628443 0.00023651484
0.53766117 0.99633402 0.00024414435
0.76025978 0.99633116 0.000060082399
0.94157559 0.99631352 0.26235361
0.99592584 0.99623102 0.53116655
0.069499123 0 0.2592546
0.03982557 0 0.41851706
0.21993067 0 0.42225767
0.37223239 0 0.37972672
0.52776951 0 0.3993801
0.6578572 0.10204876 0.41177305
0.80711309 0.14662871 0.41618315
0.95565704 0.11786355 0.36818399
0.99616617 0.16359388 0.32236782
0.00014138437 0.029703832 0.44143301
0.00013923857 0.035082876 0.44499909
0.23812252 0 0.45120332
0.39096717 0.0067934834 0.39511103
0.52650194 0.11156944 0.39701102
0.65927945 0.17808074 0.41177338
0.81213235 0.18155649 0.3997003
0.96200641 0.15070451 0.34533801
0.99615234 0.23414731 0.32838488
0.000048161288 0.20064946 0.35604639
0.000070036526 0.18569657 0.35144156
0.25034547 0.23970421 0.45188973
0.42255176 0.23857248 0.42587942
0.52347815 0.25783026 0.39536579
0.66917964 0.26587731 0.3953789
0.82954469 0.23614171 0.34957382
0.94684788 0.29206155 0.34048183
0.99608511 0.28864824 0.29833772
0.082070649 0.41263113 0.41907163
0.16507085 0.40874464 0.41515054
0.27430869 0.39902265 0.40227705
0.37725196 0.37728102 0.37668243
0.54265028 0.38120792 0.36807908
0.69224433 0.3805297 0.34872641
0.84623245 0.36132517 0.30401116
0.97488329 0.34091292 0.25668643
0.99605745 0.3267474 0.21157206
0 0.5527285 0.38062486
0 0.55080968 0.37281987
0.11587105 0.54300302 0.35325208
0.3559025 0.5266407 0.33652807
0.51554513 0.51800278 0.35058938
0.65053645 0.50788522 0.36221747
0.81339575 0.47928278 0.29621195
0.96096706 0.42831896 0.24632043
0.99602693 0.40440986 0.20378042
0 0.67430262 0.29967551
0 0.66857324 0.30434364
0.086769415 0.6581414 0.30056357
0.32745345 0.64755042 0.28090184
0.44166714 0.65102057 0.1460708
0.6238863 0.62837901 0.31110493
0.74686236 0.62092447 0.35400716
0.88921694 0.60589675 0.31036886
0.99595636 0.58358344 0.23325752
0 0.77060016 0.24257458
0 0.76764855 0.24050358
0.0073440003 0.76375327 0.23101074
0.29235958 0.75987759 0.2070989
0.40398523 0.76302977 0.024268282
0.56561761 0.75994268 0.00012350271
0.74003657 0.74582237 0.2768225
0.87165339 0.74835834 0.36061146
0.99591201 0.74856899 0.32996061
0 0.88779684 0.16326367
0 0.88779025 0.1615242
0 0.88749106 0.14892448
0.27315726 0.8870532 0.11028971
0.408052 0.8917916 0.00021553368
0.52188686 0.899576 0.00013140044
0.71476334 0.89963837 0.000042737182
0.89132256 0.89616844 0.2739834
0.9958753 0.90786984 0.3933485
0 0.996252 0.054669261
0 0.99623102 0.043201629
0.012138075 0.99627012 0.015722515
0.28657731 0.99627823 0.00025988022
0.42919814 0.99626917 0.00022888533
0.52985428 0.99631304 0.00023460746
0.74372091 0.99633783 0.000076295109
0.93002761 0.99626631 0.33544623
0.99590105 0.99623484 0.58444915
0.00025177386 0 0.64061952
0.00023651484 0 0.63868162
0.23173114 0 0.6385729
0.40160029 0 0.58595598
0.56765087 0 0.57200351
0.74658389 0.051215953 0.60564298
0.82783246 0.13962196 0.57384222
0.93471237 0.20116922 0.56601816
0.99624628 0.17972076 0.53274586
0.00029755093 0 0.63481346
0.00027466239 0 0.64255741
0.25032926 0 0.65548872
0.42020402 0 0.62081617
0.57823062 0.016423476 0.58152037
0.74134051 0.16389572 0.60174787
0.8219935 0.20163486 0.56656415
0.9327256 0.23607757 0.55844861
0.99623102 0.20483043 0.51934272
0.00014496071 0.17279889 0.55618944
0.00014853704 0.1927317 0.60118591
0.25934234 0.24005112 0.65893511
0.45573405 0.22506151 0.67338397
0.59001011 0.23508526 0.59355688
0.71348635 0.28460222 0.57620165
0.8051709 0.30178292 0.5544337
0.92686089 0.2974608 0.53764496
0.99622148 0.24711986 0.48256847
0.11527714 0.41549554 0.56973278
0.17248846 0.40980166 0.56651896
0.23442316 0.37740973 0.54595159
0.4224887 0.40927641 0.62280449
0.58051518 0.39455634 0.58266241
0.66700928 0.39553113 0.53574283
0.7913622 0.39083028 0.52365744
0.93658017 0.34478404 0.47226267
0.99615377 0.34137198 0.43129625
0.14060426 0.5585832 0.5665713
0.20167039 0.55468261 0.56266165
0.2988241 0.54344911 0.55089933
0.40269083 0.52613107 0.53069257
0.49998093 0.50049973 0.49997902
0.6552472 0.49320163 0.48292611
0.79001488 0.48417639 0.45636206
0.92783007 0.46653458 0.41639487
0.99607843 0.43171206 0.36105516
0 0.66702716 0.50469596
0 0.66325914 0.49833855
0 0.65774062 0.48460102
0.24452821 0.64526589 0.45767875
0.4548476 0.62725786 0.43646143
0.61221425 0.61554954 0.4473702
0.74648637 0.6060297 0.46274033
0.90701402 0.57666395 0.39728664
0.99599451 0.51939517 0.34346437
0 0.7744564 0.41829557
0 0.77153811 0.41149004
0 0.76761988 0.39625868
0.18945697 0.75590596 0.3967987
0.41923209 0.74741264 0.3792649
0.53446202 0.75208143 0.25668917
0.7322652 0.73838216 0.41648308
0.86804928 0.74147903 0.4772221
0.9959411 0.73644045 0.44272908
0 0.88778515 0.35982586
0 0.88778038 0.3595798
0 0.88386645 0.35559148
0.17017457 0.88387372 0.34968206
0.40696622 0.8821994 0.33493744
0.51570904 0.89175274 0.21302906
0.69217093 0.89570912 0.038709277
0.88797148 0.89565487 0.42160213
0.99591249 0.90737774 0.51604391
0 0.99619287 0.33054093
0 0.99618524 0.32860304
0 0.99618524 0.32666514
0.20477703 0.99621576 0.32141127
0.42251469 0.99623865 0.30301366
0.54868486 0.99625868 0.19108206
0.72036889 0.99626726 0.19641413
0.91477359 0.99626631 0.43016327
0.99591058 0.99621576 0.65037003
0.00032997635 0 0.82858396
0.00030899519 0 0.83250553
0.25243286 0 0.84412098
0.44419919 0 0.83376631
0.5901751 0 0.76067941
0.74150859 0 0.74473182
0.90068475 0.051607443 0.75640688
0.96737168 0.1435266 0.70955096
0.99630922 0.19386397 0.69008927
0.00035286488 0 0.83641947
0.00036049439 0 0.84427024
0.27003688 0 0.85745236
0.463105 0 0.85943973
0.59863825 0 0.77799673
0.74297155 0.015972858 0.74475841
0.89582344 0.15730061 0.75256578
0.96166597 0.19901305 0.70303145
0.99626798 0.23633316 0.68225376
0.00025415808 0.1943327 0.82579728
0.00026393339 0.20376022 0.84126111
0.27549377 0.23842377 0.8629375
0.47022995 0.24063227 0.87145836
0.61412246 0.15411064 0.81883869
0.74073807 0.22135399 0.74222583
0.87762396 0.27951882 0.73637608
0.94264408 0.29161415 0.68649171
0.99625582 0.31152867 0.66663996
0.00012517166 0.3447056 0.68276756
0.0001384339 0.34089096 0.69321593
0.1626213 0.36077871 0.75875498
0.43026156 0.4041796 0.82444319
0.60666652 0.3749249 0.82968106
0.72353013 0.3672173 0.72707353
0.83611423 0.3974313 0.69672748
0.91155075 0.39483652 0.66018954
0.9962129 0.38675302 0.63991522
0.19779316 0.55854982 0.70887026
0.23974832 0.5548991 0.70687943
0.31597977 0.54684591 0.69935674
0.37530244 0.51292928 0.6807306
0.53266718 0.52052005 0.73093051
0.6841758 0.50001514 0.68713176
0.76694347 0.49610776 0.63725323
0.88237809 0.48732846 0.62153227
0.99615949 0.43779564 0.57123007
0.13963793 0.66699354 0.67742499
0.19610305 0.66307561 0.67350882
0.29031809 0.65526162 0.66384357
0.39604741 0.64208802 0.64849582
0.50075175 0.62330589 0.62723616
0.59942329 0.59763199 0.59792659
0.75137438 0.59004522 0.57887961
0.88460055 0.5787305 0.55264282
0.99604744 0.56758221 0.52367628
0 0.76755789 0.6149753
0 0.76662643 0.61118141
0 0.76269455 0.60142672
0.11422975 0.75512727 0.58331021
0.35269942 0.74418226 0.55828684
0.55729936 0.73248503 0.54145799
0.72464737 0.72905509 0.55956931
0.86843427 0.72951697 0.58625782
0.99601358 0.70471838 0.5267071
0 0.88775559 0.54370995
0 0.88775678 0.54228484
0 0.88775893 0.53165675
0 0.88417073 0.51604251
0.32500799 0.87995525 0.51739457
0.54663476 0.87998523 0.50845523
0.66731488 0.89172115 0.39806115
0.88753693 0.89175453 0.56545965
0.99596637 0.90344759 0.63859269
0 0.99615854 0.48680667
0 0.99621004 0.48289464
0 0.99615711 0.48588445
0 0.99615091 0.50191167
0.3444791 0.99617762 0.49930953
0.55829471 0.99622792 0.48894913
0.71311942 0.9962501 0.47274214
0.89527614 0.99625582 0.54982071
0.9959144 0.99620432 0.7255436
0.00047302968 0 0.99612421
0.00047302968 0 0.99612421
0.29044404 0 0.99591821
0.48078794 0 0.99589437
0.62640955 0 0.99580186
0.74942826 0 0.9142195
0.88027676 0 0.88042458
0.99649042 0 0.87552453
0.99641794 0.10734722 0.83059052
0.00047302968 0 0.99612421
0.026705315 0 0.99606413
0.30218585 0 0.99597543
0.48636463 0 0.99583333
0.63321126 0 0.99576562
0.74943232 0 0.91894813
0.8771067 0 0.87750248
0.99646253 0.098447871 0.87164516
0.99633831 0.17035506 0.82570573
0.00029373617 0.19611276 0.99618524
0.00032616159 0.20480325 0.99622911
0.29840615 0.22797503 0.99604958
0.48091824 0.22988193 0.99596757
0.63983558 0.18396944 0.99584096
0.74942123 0.12499845 0.92938947
0.86627232 0.18916419 0.86895981
0.99633831 0.24043259 0.85765836
0.996355 0.26680781 0.81020066
0.00021648737 0.3421459 0.93772841
0.00027078803 0.35242827 0.95713091
0.16644589 0.36170021 0.99432579
0.43479701 0.39450198 0.99608296
0.60448281 0.38351382 0.99592966
0.74167704 0.29856661 0.949722
0.84700792 0.33251578 0.85090887
0.97096584 0.37107158 0.83155751
0.99628729 0.37316653 0.78323892
0.00012397955 0.51750591 0.84301518
0.0083674277 0.50498827 0.83197671
0.17004177 0.48809081 0.82470912
0.31390049 0.48090929 0.86317259
0.53407626 0.51118772 0.92231727
0.70396949 0.47572266 0.92630941
0.81607347 0.46386187 0.81961309
0.92582804 0.49005303 0.78932178
0.9961986 0.48392081 0.75364309
0.22597896 0.66271839 0.80929704
0.26065712 0.65915881 0.80683527
0.32768213 0.65378138 0.8013633
0.41268931 0.64263114 0.789993
0.47715796 0.6108165 0.77541795
0.62653562 0.61381561 0.81852094
0.77716011 0.59585098 0.7791681
0.86680442 0.59665136 0.73672537
0.98162528 0.59232519 0.72498283
0.11252384 0.76657797 0.77860971
0.17783556 0.76365456 0.77566293
0.27500834 0.75955906 0.7709566
0.38521758 0.75196865 0.76075535
0.49767252 0.74135433 0.74810502
0.60899364 0.7312463 0.73498727
0.71825694 0.71755527 0.71750591
0.87201913 0.70896086 0.70057245
0.99606699 0.70052071 0.67759213
0 0.88769932 0.74498932
0 0.88769646 0.74110637
0 0.88772793 0.73723201
0.0010493558 0.88379009 0.72555672
0.30446493 0.88039287 0.7099794
0.49328967 0.87994249 0.69043349
0.70424165 0.88004966 0.68661438
0.88757922 0.88859561 0.71938993
0.99600738 0.89609178 0.75147774
0 0.99616236 0.69869917
0 0.99616236 0.69869917
0 0.99615091 0.69089418
0 0.99607462 0.68307774
0.095006485 0.99612993 0.66931983
0.49149834 0.99617571 0.67294289
0.75570783 0.99619383 0.72080568
0.88227426 0.99620432 0.70985113
0.99597162 0.99618524 0.81729992
0.24988365 0 0.99593156
0.31832465 0 0.99591583
0.44136006 0 0.99586862
0.57837749 0 0.99580925
0.69084363 0 0.99575132
0.76929646 0 0.99578136
0.87344167 0 0.99563592
0.98873574 0 0.98877866
0.99654955 0 0.97311933
0.27633826 0 0.99597019
0.33831564 0 0.99594301
0.45039274 0 0.99586302
0.58071155 0 0.99576508
0.69861703 0 0.99575728
0.76899367 0 0.99578851
0.86957733 0 0.9956054
0.98228204 0 0.98490936
0.99645705 0 0.96875453
0.25953498 0.17137121 0.99606031
0.32745021 0.1800502 0.99603647
0.4383917 0.19471132 0.99601573
0.56194269 0.19178659 0.99585276
0.68328326 0.16153201 0.99579876
0.7644106 0 0.99571829
0.86245577 0.056173824 0.99568754
0.97361894 0.12880415 0.97672951
0.99641413 0.17486982 0.95762951
0.00025535019 0.3458536 0.99625677
0.033180862 0.3484946 0.99621788
0.30921854 0.35533172 0.99611175
0.47827687 0.37538478 0.99606627
0.61662447 0.36693346 0.9959566
0.74705632 0.31308673 0.99588701
0.84893211 0.25870134 0.99574553
0.95405497 0.28950227 0.95769394
0.99633569 0.32414764 0.93936518
0.00020027466 0.45668631 0.98583772
0.00021195735 0.45299744 0.99456719
0.00019073777 0.46278325 0.9962768
0.28926623 0.4706321 0.99616426
0.53046654 0.49576848 0.99605697
0.68996493 0.47892371 0.99592381
0.82786584 0.39743839 0.99583214
0.9267102 0.42183566 0.93232433
0.99626345 0.45995842 0.91668574
0.051865177 0.64866841 0.96067273
0.11890623 0.64303706 0.95675882
0.20630764 0.62467229 0.94412331
0.29765795 0.59098746 0.91985822
0.41248701 0.5717062 0.94184465
0.61929026 0.5979721 0.9947638
0.78545779 0.56166618 0.9959777
0.90167968 0.55712018 0.9065643
0.99622864 0.59619836 0.8916557
0.22612821 0.75874247 0.90611934
0.2616449 0.75580206 0.90352883
0.33111505 0.7519466 0.89881456
0.42008433 0.74795434 0.89172651
0.5120768 0.7399722 0.88385548
0.58129524 0.7122521 0.87463957
0.73627666 0.7245979 0.92584878
0.89169283 0.71407007 0.89542241
0.99613565 0.7324712 0.87186904
0.13277423 0.88377179 0.89581116
0.19049673 0.88328559 0.89586758
0.28453462 0.87986828 0.89576562
0.39694572 0.87990804 0.89182292
0.5153464 0.87946529 0.88803097
0.63621237 0.87991296 0.88758592
0.76022951 0.88037755 0.88426342
0.88734324 0.8873616 0.88733823
0.99609989 0.87171716 0.86073377
0 0.99608225 0.89987221
0 0.99608225 0.89648089
0 0.99608225 0.89648089
0.014214494 0.99611491 0.89010953
0.31315328 0.99611563 0.88068494
0.51947099 0.99614114 0.87280461
0.73620584 0.99616236 0.87523413
0.89930595 0.99615568 0.8876936
0.99603838 0.99614328 0.90328832
0.47307546 0 0.99581903
0.50389487 0 0.9958381
0.56978714 0 0.99584192
0.65764858 0 0.99574273
0.71332113 0 0.99577325
0.80268368 0 0.99567788
0.84903105 0 0.99565881
0.93451209 0 0.99560349
0.99645991 0 0.99559014
0.4848249 0 0.99592584
0.51218433 0 0.99584955
0.57367437 0 0.99578088
0.62395857 0 0.99580758
0.71528954 0 0.99581903
0.80654421 0 0.9956321
0.84607843 0 0.9955787
0.9306251 0.011626898 0.99567216
0.99645991 0 0.99559014
0.48080415 0.18049897 0.99594491
0.50761616 0.18837024 0.99593919
0.53157187 0.22838941 0.99593347
0.6121457 0.23621014 0.99587387
0.69859236 0.23232624 0.99583047
0.77915713 0.21075713 0.99580186
0.84509422 0.022364004 0.99562161
0.938509 0.087802319 0.99562924
0.99646754 0.14150454 0.9956054
0.39916457 0.33828489 0.99600404
0.43242566 0.34072776 0.99603242
0.49792048 0.34966239 0.99601024
0.55886525 0.37888414 0.99598735
0.67113851 0.36514553 0.99588769
0.77269565 0.3407547 0.99584359
0.84408474 0.24758812 0.99580043
0.92441205 0.25138237 0.99576038
0.99638361 0.23527314 0.99571221
0.00021362631 0.4510338 0.9962768
0.00021362631 0.45301747 0.99634546
0.26878004 0.45108339 0.9961738
0.44454013 0.46278706 0.99610609
0.60175479 0.47648203 0.99602502
0.71603151 0.4647755 0.99589818
0.83129816 0.41400778 0.99588197
0.91876383 0.3517443 0.99579232
0.99636835 0.37887388 0.99574273
0.00011825742 0.57314984 0.99636645
0.00015640497 0.57051289 0.99640769
0.00013923857 0.56139086 0.99636645
0.13609021 0.54972224 0.99627346
0.39198138 0.55363546 0.99616236
0.61822571 0.57564302 0.99599999
0.76625086 0.56052062 0.99595064
0.89783727 0.48337744 0.9958412
0.99629206 0.51461051 0.99582856
0.22175555 0.74408331 0.9963035
0.24774119 0.74057088 0.99631018
0.29887083 0.73628977 0.99625296
0.32285945 0.71884108 0.99624199
0.40242237 0.68402953 0.99617189
0.50512036 0.65817597 0.99615568
0.71616789 0.69335088 0.99605077
0.87528754 0.65867142 0.99596876
0.99622339 0.66699474 0.99584955
0.25348669 0.87205501 0.99634928
0.28463679 0.87207098 0.99631018
0.35060273 0.86898985 0.99624771
0.4402316 0.868163 0.99624771
0.54321641 0.86817731 0.99618048
0.64435464 0.86815537 0.99611801
0.71776675 0.84608797 0.9960708
0.87605645 0.86433704 0.99607033
0.99611086 0.86482605 0.9959926
0.51557183 0.99610895 0.99624628
0.53068399 0.99614137 0.99627298
0.58493553 0.99612802 0.99625391
0.64842069 0.99467079 0.99622911
0.72069123 0.99611658 0.9962005
0.8090238 0.9961471 0.996149
0.89065385 0.99613947 0.99610895
0.94963378 0.99613184 0.99610704
0.99615473 0.99615473 0.99615473
