site/assets/luts/sha256-5d135d93336bbf8536e9c655c9b60d88d11499a5e42904d049cbd022ac784bbf.cube
# LUTr-Schema-Version: 2
# LUTr-ID: sha256-5d135d93336bbf8536e9c655c9b60d88d11499a5e42904d049cbd022ac784bbf
# LUTr-Title: polaroid 690 cold --
# LUTr-Collection: Natron HaldCLUT
# LUTr-Collection-ID: natron-haldclut-presets
# LUTr-Source: https://github.com/NatronGitHub/clut
# LUTr-Retrieved: 2026-07-27
# LUTr-Source-File: submissions/natron-haldclut-presets/instant_pro/polaroid_690_cold_--.png
# LUTr-Source-Format: HALD-PNG
# LUTr-Source-SHA256: 5d135d93336bbf8536e9c655c9b60d88d11499a5e42904d049cbd022ac784bbf
# LUTr-License: CC-BY-SA-4.0
# LUTr-License-URL: https://github.com/NatronGitHub/clut#license
# LUTr-License-Basis: repo-license-file
# LUTr-Transform-Class: film-emulation
# LUTr-Tags: creative, film, film-emulation, hald-clut, natron, png, cool, cube
# LUTr-Input-Color-Space: srgb
# LUTr-Input-Gamut: rec709
# LUTr-Input-Transfer: srgb
# LUTr-Output-Color-Space: srgb
# LUTr-Output-Gamut: rec709
# LUTr-Output-Transfer: srgb
# LUTr-Color-Space-Confidence: assumed-display-referred
# LUTr-Domain-Normalized: true
# LUTr-Shaper: none
# LUTr-Original-Grid: 64x64x64
# LUTr-Conversion-Grid: 25x25x25
# LUTr-Conversion-Interpolation: trilinear
# LUTr-Conversion-Method: HALD-PNG LUT image decoded at 16-bit and sampled to 25x25x25 3D CUBE
# LUTr-Conversion-Tool: LUTr scripts/convert-all-to-cube.mjs 2.0.0
# LUTr-Conversion-Date: 2026-07-27
# LUTr-Note: Preserve this metadata and the upstream license notices when redistributing.
TITLE "polaroid 690 cold --"
LUT_3D_SIZE 9
DOMAIN_MIN 0 0 0
DOMAIN_MAX 1 1 1
0 0.0078431373 0.0039215686
0.069607843 0.019607843 0.015686275
0.22156863 0.011764706 0.023529412
0.4004902 0.0014705882 0.0093137255
0.54509804 0 0.01372549
0.66617647 0 0.0014705882
0.78431373 0 0.0019607843
0.90343137 0 0.00049019608
0.99607843 0 0
0 0.12352941 0.011764706
0.037745098 0.13088235 0.011703431
0.24276961 0.12708333 0.0091911765
0.41568627 0.075980392 0.015502451
0.57401961 0.01372549 0.01372549
0.69558824 0 0.0058823529
0.80159314 0 0.024509804
0.9 0.003002451 0.030882353
0.98823529 0 0.0073529412
0 0.27058824 0.011764706
0.0025735294 0.27058824 0.0078431373
0.22818627 0.28039216 0.012745098
0.44901961 0.2622549 0.0039215686
0.61078431 0.21323529 0.0044117647
0.72892157 0.15306373 0.0089460784
0.83259804 0.065931373 0.013970588
0.93811275 0.027328431 0.0074754902
0.99607843 0 0.00098039216
0 0.39656863 0.0014705882
0 0.39803922 0
0.16029412 0.40588235 0.011151961
0.42401961 0.41764706 0.003002451
0.59754902 0.41078431 0.011764706
0.75189951 0.41623775 0.010784314
0.86176471 0.39693627 0.020098039
0.95802696 0.37696078 0.012928922
0.99215686 0.35539216 0.011764706
0 0.51764706 0.019607843
0 0.51372549 0.017892157
0.12107843 0.51519608 0.013235294
0.36372549 0.53186275 0.0085784314
0.55294118 0.55196078 0.0039215686
0.7125 0.56936275 0
0.84509804 0.58823529 0.0049019608
0.94607843 0.60392157 0.093137255
0.99607843 0.59411765 0.10392157
0 0.6372549 0.044607843
0.0039215686 0.6372549 0.043321078
0.11678922 0.63039216 0.011764706
0.33866422 0.6348652 0.011764706
0.51029412 0.66127451 0.0039215686
0.66525735 0.67892157 0.0063112745
0.81813725 0.69068627 0.0078431373
0.93921569 0.70637255 0.0021446078
0.99607843 0.71421569 0.13823529
0 0.75196078 0.091176471
0.063235294 0.74938725 0.086151961
0.22941176 0.74411765 0.05122549
0.37647059 0.74019608 0.012990196
0.52303922 0.74803922 0.012254902
0.6622549 0.7627451 0.0056372549
0.8 0.7747549 0.0039215686
0.91911765 0.78333333 0.0040441176
0.9872549 0.79117647 0.069607843
0.30441176 0.84460784 0.18627451
0.3348652 0.84460784 0.20496324
0.38872549 0.84852941 0.17254902
0.4877451 0.84068627 0.12696078
0.58357843 0.8370098 0.090931373
0.69705882 0.84479167 0.072058824
0.81605392 0.85637255 0.011887255
0.91911765 0.86470588 0.015196078
0.99264706 0.87598039 0.0039215686
0.45882353 0.94117647 0.31372549
0.48921569 0.94852941 0.29803922
0.53039216 0.95 0.29019608
0.58921569 0.94117647 0.26421569
0.66666667 0.94509804 0.25490196
0.74558824 0.94509804 0.24411765
0.83431373 0.96078431 0.20980392
0.93088235 0.97254902 0.13529412
0.98823529 0.96470588 0.015686275
0 0.026960784 0.11470588
0.038664216 0.038664216 0.11427696
0.22058824 0.024387255 0.11078431
0.40196078 0.0073529412 0.10765931
0.52598039 0 0.10833333
0.65165441 0 0.096384804
0.7689951 0 0.076470588
0.89258578 0 0.080392157
0.99901961 0 0.03872549
0 0.11960784 0.12009804
0.0086473652 0.1384038 0.12303922
0.23138787 0.12806373 0.12374387
0.41176471 0.060110294 0.11443781
0.55729167 0.00024509804 0.10392157
0.67647059 0.0080039828 0.10373775
0.7872549 0.0037990196 0.084083946
0.8951057 0 0.080882353
0.99258578 0 0.040686275
0 0.27696078 0.11776961
0.0039828431 0.2745098 0.12254902
0.23072917 0.28529412 0.10977328
0.44117647 0.26991422 0.12981005
0.60245098 0.23474265 0.14534314
0.71752451 0.17150735 0.12464767
0.82169118 0.079074755 0.11323529
0.9291973 0.021354167 0.091498162
0.99166667 0.011887255 0.060171569
0 0.40588235 0.14607843
0.009765625 0.4095818 0.14454657
0.18357843 0.41323529 0.13267463
0.41606158 0.42108609 0.10238971
0.59181985 0.41945466 0.10557598
0.74705882 0.42542892 0.15441942
0.85326287 0.39554228 0.17112439
0.94525888 0.37195159 0.14460784
0.99215686 0.35686275 0.12254902
0.0039215686 0.52156863 0.16544118
0.00042892157 0.52349877 0.15851716
0.178125 0.52132353 0.14209559
0.37303922 0.53382353 0.11666667
0.55294118 0.55490196 0.091176471
0.71053922 0.57401961 0.10113358
0.84283088 0.59068627 0.12310049
0.95045956 0.60566789 0.20637255
0.99215686 0.57254902 0.20196078
0.0039215686 0.64117647 0.17794118
0.00026807598 0.64117647 0.16824449
0.17071078 0.6368413 0.1467065
0.35331648 0.64039522 0.12794118
0.51421569 0.66127451 0.087009804
0.66862745 0.68192402 0.059007353
0.81519608 0.69122243 0.084068627
0.93069853 0.70508578 0.13658088
0.99215686 0.71666667 0.23020833
0.033823529 0.75588235 0.19117647
0.10228248 0.75196078 0.18463542
0.24984681 0.74803922 0.16761642
0.38137255 0.74411765 0.14509804
0.52058824 0.75147059 0.12254902
0.6591299 0.76283701 0.10387561
0.80098039 0.77539828 0.072977941
0.91960784 0.78247549 0.087147672
0.99215686 0.79117647 0.17303922
0.30790441 0.84852941 0.23970588
0.33921569 0.84852941 0.23540901
0.40306373 0.84203431 0.2254902
0.48768382 0.83676471 0.19270833
0.58529412 0.83875613 0.1723652
0.69861366 0.84479167 0.16296722
0.81214767 0.85647978 0.12964154
0.91910999 0.8651348 0.097273284
0.99166667 0.87598039 0.12990196
0.47156863 0.95343137 0.33676471
0.48137255 0.95245098 0.33235294
0.52745098 0.94509804 0.32107843
0.5877451 0.95030637 0.31029412
0.65318627 0.9372549 0.28357843
0.74589461 0.95716912 0.27598039
0.83039216 0.96078431 0.24803922
0.92696078 0.97297794 0.20238971
0.98088235 0.96029412 0.1254902
0 0.042156863 0.29901961
0.0039215686 0.070098039 0.31139706
0.17867647 0.037254902 0.30490196
0.39301471 0.0067401961 0.28002451
0.52598039 0.023529412 0.25441176
0.63786765 0.0096813725 0.24362745
0.74117647 0 0.22254902
0.86139706 0 0.20637255
0.97647059 0 0.1872549
0 0.13835784 0.3
0.010416667 0.15010723 0.31262255
0.21574755 0.15542279 0.32331495
0.39620098 0.14162071 0.29287684
0.53688725 0.089154412 0.27647059
0.64937194 0.012913603 0.25124081
0.75456495 0.0039215686 0.23287377
0.86649816 0 0.21378676
0.99117647 0.0034313725 0.18382353
0 0.27818627 0.30857843
0.017800245 0.28137255 0.31666667
0.24295343 0.29626225 0.32745098
0.42120098 0.28578431 0.32107843
0.56776961 0.25392157 0.31372549
0.68431373 0.1872549 0.28186275
0.79528186 0.11354167 0.25551471
0.89730392 0.030177696 0.23419118
0.98823529 0.029411765 0.21470588
0 0.41727941 0.3377451
0.056418505 0.42299326 0.3377451
0.2560049 0.42941176 0.3317402
0.42627145 0.43273591 0.31807598
0.58927696 0.43069853 0.32910539
0.7254902 0.41919424 0.33448223
0.82990196 0.38088235 0.30686275
0.92268689 0.34140625 0.28039216
0.99215686 0.32745098 0.25980392
0.0093137255 0.5372549 0.34166667
0.061397059 0.54785539 0.33621324
0.23786765 0.54301471 0.3245098
0.39289216 0.54607843 0.3158701
0.55686275 0.56446078 0.30245098
0.70949755 0.58351716 0.31354167
0.84117647 0.59264706 0.33517157
0.94025735 0.59754902 0.34767157
0.99460784 0.57058824 0.32598039
0.0078431373 0.65588235 0.32414216
0.03627451 0.66202512 0.32317708
0.21547181 0.65842525 0.31081495
0.36352635 0.65196078 0.29954044
0.51813725 0.66666667 0.28431373
0.66862745 0.68653493 0.27938113
0.8143076 0.70125613 0.28982843
0.92749694 0.70436581 0.32383578
0.99607843 0.71666667 0.37977941
0.050245098 0.7620098 0.31446078
0.1268076 0.75634191 0.31106005
0.26727941 0.75196078 0.30496324
0.39215686 0.75134804 0.29083946
0.52071078 0.75306373 0.27830882
0.66115196 0.76311275 0.27098652
0.79901961 0.7747549 0.27101716
0.92313113 0.78627451 0.28768382
0.9872549 0.79117647 0.31862745
0.31715686 0.84852941 0.33431373
0.33143382 0.84497549 0.33071385
0.39139093 0.84117647 0.32251838
0.47844669 0.83860294 0.30281863
0.57941176 0.84068627 0.28872549
0.69264706 0.84791667 0.28284314
0.80821078 0.86029412 0.28134191
0.91911765 0.86803002 0.26536458
0.98394608 0.87598039 0.28480392
0.42647059 0.93627451 0.39705882
0.45539216 0.94509804 0.39840686
0.50808824 0.9497549 0.39313725
0.56960784 0.94558824 0.375
0.64901961 0.94656863 0.35392157
0.73382353 0.94901961 0.34497549
0.82745098 0.95857843 0.32941176
0.92254902 0.96838235 0.30147059
0.9872549 0.97254902 0.27941176
0 0.076960784 0.46078431
0.0039215686 0.080698529 0.47077206
0.11617647 0.07254902 0.49007353
0.40539216 0.034803922 0.50153186
0.54877451 0.033823529 0.45245098
0.63970588 0.057414216 0.40140931
0.73909314 0.0045343137 0.38480392
0.84313725 0.0078431373 0.36862745
0.94117647 0 0.35588235
0 0.1596201 0.46078431
0.0078431373 0.16697304 0.4749617
0.16996017 0.17317708 0.49509804
0.41078431 0.17513021 0.50441176
0.54574142 0.1611826 0.45499387
0.64607843 0.11531097 0.4176394
0.74397978 0.039276961 0.39162071
0.84507506 0.014705882 0.36846661
0.96207108 0 0.34068627
0 0.27487745 0.45392157
0.018443627 0.28449755 0.46708027
0.24607843 0.30186887 0.48970588
0.4316636 0.31205576 0.51323529
0.54724265 0.28676471 0.47285539
0.65326287 0.23895527 0.43154105
0.75906863 0.15101103 0.39852941
0.85980392 0.027144608 0.36734069
0.96911765 0.010661765 0.34705882
0.003370098 0.42156863 0.48976716
0.10373775 0.42530637 0.49068627
0.29166667 0.44080882 0.50153186
0.42941176 0.44475337 0.50002298
0.56393995 0.43550858 0.48161765
0.67892157 0.39211857 0.45545343
0.78786765 0.35453431 0.42604167
0.90055147 0.29369638 0.39393382
0.97775735 0.25386029 0.37310049
0.013480392 0.55808824 0.49534314
0.12745098 0.56387868 0.49666054
0.27873775 0.56654412 0.49264706
0.40683211 0.56369485 0.48526348
0.55428922 0.57928922 0.47487745
0.70101103 0.59074755 0.48431373
0.82696078 0.5971201 0.4939951
0.925 0.55793505 0.45588235
0.98970588 0.5377451 0.43088235
0.017218137 0.68284314 0.48137255
0.067287071 0.68768382 0.47745098
0.24529718 0.67953431 0.47352941
0.38310355 0.67107843 0.46142004
0.51887255 0.675 0.44727328
0.66770833 0.68976716 0.45126379
0.81176471 0.69852941 0.46606924
0.93252911 0.7127451 0.49185049
0.98970588 0.70147059 0.49117647
0.05 0.77512255 0.45747549
0.1560049 0.77120098 0.45845588
0.27956495 0.76571691 0.44666054
0.39915748 0.76049326 0.43803615
0.51580882 0.75882353 0.41985294
0.65626532 0.76666667 0.41519608
0.8 0.77959559 0.42950368
0.91919424 0.78370098 0.44224877
0.98909314 0.79411765 0.46556373
0.27401961 0.85618873 0.46813725
0.30071232 0.85278033 0.45768229
0.36286765 0.84522059 0.44937194
0.46049326 0.84460784 0.43156403
0.55661765 0.84396446 0.42117034
0.67751225 0.84852941 0.41011029
0.80177696 0.85749081 0.40637255
0.914928 0.86421569 0.41960784
0.98872549 0.87205882 0.42322304
0.41176471 0.95539216 0.50392157
0.40514706 0.9310049 0.48805147
0.47683824 0.95183824 0.49497549
0.53609069 0.93719363 0.47371324
0.62696078 0.95220588 0.45955882
0.71568627 0.94656863 0.44417892
0.81678922 0.95379902 0.43443627
0.91519608 0.97530637 0.41764706
0.99607843 0.98039216 0.39803922
0 0.10196078 0.60980392
0.0019607843 0.10759804 0.61740196
0.041666667 0.11960784 0.63431373
0.37671569 0.10931373 0.66985294
0.58333333 0.10196078 0.67058824
0.67696078 0.10980392 0.6122549
0.76568627 0.084313725 0.55980392
0.85637255 0.01495098 0.53308824
0.93529412 0.0039215686 0.52352941
0 0.18480392 0.60784314
0.0039215686 0.18480392 0.61544118
0.13927696 0.19172794 0.63241422
0.40490196 0.2015625 0.66020221
0.5879902 0.20036765 0.67352941
0.68219975 0.18979779 0.60661765
0.75784314 0.17328431 0.55931373
0.86004902 0.057628676 0.53458946
0.95686275 0.0078431373 0.52156863
0.0039215686 0.28284314 0.59264706
0.029718137 0.29393382 0.60373775
0.23468137 0.30588235 0.62647059
0.43112745 0.32101716 0.66127451
0.58406863 0.32401961 0.6627451
0.67573529 0.30906863 0.60955882
0.76495098 0.27058824 0.56727941
0.86464461 0.17708333 0.53872549
0.96666667 0.018137255 0.51617647
0.0039215686 0.40441176 0.59852941
0.082598039 0.41372549 0.60784314
0.26727941 0.42273284 0.62009804
0.43137255 0.44632353 0.64387255
0.57561275 0.45906863 0.65232843
0.68434436 0.42794118 0.61421569
0.77941176 0.37671569 0.57077206
0.87221201 0.28097426 0.52166054
0.97941176 0.14632353 0.48137255
0.048039216 0.55686275 0.62156863
0.14828431 0.56066176 0.62328431
0.28088235 0.56838235 0.62352941
0.42732843 0.58517157 0.64166667
0.55882353 0.59607843 0.64754902
0.69117647 0.59730392 0.64117647
0.79191176 0.50931373 0.57941176
0.89595588 0.46311275 0.54240196
0.98823529 0.41764706 0.50686275
0.093382353 0.7004902 0.63186275
0.19175858 0.69852941 0.63440564
0.29166667 0.69007353 0.62910539
0.41372549 0.69534314 0.62671569
0.53382353 0.69901961 0.61973039
0.66908701 0.69387255 0.61544118
0.80545343 0.70324755 0.63112745
0.92107843 0.70790441 0.64454657
0.99093137 0.68627451 0.60441176
0.10784314 0.78676471 0.60980392
0.20128676 0.78498775 0.61495098
0.30306373 0.78125 0.61568627
0.41213235 0.77843137 0.60508578
0.51985294 0.77009804 0.57965686
0.64969363 0.76666667 0.56617647
0.79117647 0.78014706 0.58137255
0.91121324 0.79068627 0.59901961
0.99166667 0.79411765 0.63872549
0.2245098 0.86421569 0.61421569
0.27941176 0.86179534 0.60588235
0.35588235 0.86029412 0.59705882
0.44745711 0.85637255 0.59200368
0.54387255 0.84840686 0.55661765
0.65735294 0.84460784 0.53863358
0.78455882 0.8591299 0.54754902
0.90542279 0.87205882 0.56400123
0.97818627 0.87598039 0.5754902
0.38235294 0.95098039 0.63529412
0.40735294 0.94901961 0.62941176
0.4495098 0.95 0.62009804
0.51715686 0.95735294 0.61568627
0.59607843 0.94705882 0.58823529
0.69926471 0.96004902 0.56323529
0.80098039 0.95931373 0.55882353
0.90171569 0.9625 0.55490196
0.98627451 0.96666667 0.55098039
0 0.13235294 0.74313725
0.0039215686 0.14626225 0.75067402
0.061397059 0.14546569 0.76605392
0.37310049 0.15441176 0.78964461
0.58284314 0.15122549 0.80833333
0.73529412 0.1588848 0.80588235
0.8127451 0.15772059 0.75196078
0.88106618 0.15441176 0.70214461
0.95441176 0.13088235 0.68186275
0.0039215686 0.21207108 0.73676471
0.0039215686 0.21176471 0.75441176
0.14007353 0.20935968 0.76568627
0.40275735 0.21894148 0.78480392
0.59117647 0.22745098 0.81029412
0.73148744 0.22537531 0.80337776
0.81260723 0.22107843 0.75588235
0.88642004 0.19787837 0.70637255
0.96029412 0.15324755 0.68547794
0.0039215686 0.3004902 0.73137255
0.030882353 0.30796569 0.7393076
0.2435049 0.3145527 0.75784314
0.42156863 0.32438725 0.77977941
0.59411765 0.34705882 0.80765931
0.72352941 0.34509804 0.79656863
0.80772059 0.32441789 0.75431985
0.88137255 0.28676471 0.707981
0.96887255 0.225 0.68578431
0.0048406863 0.40042892 0.71023284
0.048537071 0.40435049 0.7178462
0.24019608 0.41813725 0.73970588
0.4144761 0.43333333 0.75882353
0.58382353 0.46470588 0.79215686
0.71715686 0.48970588 0.7935432
0.79659926 0.44644608 0.74411765
0.8736443 0.39578738 0.70134038
0.97401961 0.3221201 0.67303922
0.0051470588 0.53259804 0.71617647
0.054381127 0.53351716 0.71887255
0.2338848 0.54227941 0.72401961
0.38602941 0.5495098 0.73529412
0.54595588 0.5875 0.76789216
0.69684436 0.6129902 0.78826593
0.78333333 0.5747549 0.74356618
0.87711397 0.48431373 0.67677696
0.97181373 0.4129902 0.63627451
0.057169118 0.68676471 0.74405637
0.13095129 0.68431373 0.74705882
0.2877451 0.68754596 0.75098039
0.41917892 0.69460784 0.75700827
0.54607843 0.69610907 0.75833333
0.68004749 0.70880055 0.76701134
0.8 0.70350797 0.7698989
0.89705882 0.63473499 0.71268382
0.98823529 0.57555147 0.66709559
0.27095588 0.79019608 0.76605392
0.32438725 0.79131434 0.76715686
0.38921569 0.79102328 0.76960784
0.47405025 0.79019608 0.75885417
0.56789216 0.78627451 0.74883578
0.67193627 0.78120404 0.73319547
0.78979779 0.78627451 0.74754902
0.90347733 0.79546569 0.77058824
0.96960784 0.79215686 0.7689951
0.35324755 0.86942402 0.76813725
0.36307445 0.87172947 0.75229013
0.4123315 0.86942402 0.75405944
0.47205882 0.86764706 0.74686734
0.56593137 0.86421569 0.73088235
0.65454197 0.85568321 0.70839461
0.77254902 0.85992647 0.7004902
0.88789062 0.86862745 0.72104013
0.98333333 0.87990196 0.74754902
0.40833333 0.96715686 0.7745098
0.43382353 0.95686275 0.76930147
0.46862745 0.95502451 0.7627451
0.52156863 0.94957108 0.75545343
0.59240196 0.95563725 0.73602941
0.67647059 0.94993873 0.71568627
0.77941176 0.94987745 0.7
0.88805147 0.96862745 0.70196078
0.9877451 0.98382353 0.70686275
0.0039215686 0.18235294 0.8627451
0.01127451 0.18872549 0.8692402
0.22377451 0.1872549 0.88039216
0.41764706 0.18051471 0.89215686
0.59509804 0.20196078 0.90588235
0.74644608 0.24068627 0.91605392
0.84289216 0.2377451 0.88995098
0.92352941 0.23186275 0.87009804
0.98235294 0.24607843 0.84411765
0.011764706 0.23517157 0.8627451
0.03169424 0.2384038 0.87438725
0.23612132 0.23995098 0.87745098
0.43209252 0.24920343 0.88529412
0.59901961 0.26844363 0.9004902
0.74394914 0.29129902 0.91979167
0.84534314 0.29093137 0.9
0.92755821 0.27124694 0.87892157
0.98578431 0.27990196 0.8432598
0.012009804 0.31862745 0.85955882
0.09028799 0.32352941 0.85955882
0.28878676 0.33039216 0.86642157
0.44120711 0.33884804 0.88137255
0.59693627 0.35796569 0.89865196
0.72815564 0.38079044 0.91053922
0.84552696 0.39564951 0.91102941
0.91571691 0.37444853 0.87098652
0.98504902 0.35686275 0.83995098
0.013602941 0.41911765 0.84068627
0.082000613 0.42009804 0.84644608
0.27285539 0.4239277 0.85833333
0.43137255 0.44071691 0.87444853
0.57990196 0.46715686 0.88946078
0.72291667 0.51193321 0.90170037
0.82628676 0.52941176 0.89957108
0.89785539 0.49460784 0.8622549
0.97009804 0.45232843 0.83345588
0.0083333333 0.5372549 0.83088235
0.029166667 0.53511029 0.82647059
0.19154412 0.52990196 0.82879902
0.37285539 0.54411765 0.8504902
0.53382353 0.575 0.86568627
0.6995098 0.61881127 0.89123775
0.81139706 0.63627451 0.8877451
0.88602941 0.59607843 0.85490196
0.9627451 0.54019608 0.81568627
0.0078431373 0.66470588 0.83578431
0.010906863 0.6680913 0.83431373
0.1578125 0.66773897 0.83397672
0.34411765 0.66750919 0.83869485
0.49068627 0.67156863 0.84436275
0.66813725 0.71101409 0.87794118
0.81060049 0.73354779 0.89617034
0.88511029 0.6884038 0.85796569
0.95845588 0.62144608 0.79754902
0.20735294 0.78235294 0.85392157
0.25741422 0.78235294 0.85392157
0.34117647 0.78235294 0.85784314
0.4567402 0.77867647 0.86176471
0.57659314 0.78370098 0.86519608
0.69764093 0.79485294 0.88085172
0.80392157 0.80214461 0.88768382
0.89757966 0.79178922 0.87769608
0.96960784 0.72622549 0.82426471
0.45698529 0.8754902 0.87647059
0.46740196 0.8725337 0.88051471
0.51461397 0.87205882 0.88210784
0.57124694 0.87420343 0.88002451
0.628125 0.87205882 0.87873775
0.6993413 0.871875 0.85819547
0.77282475 0.86320466 0.84151348
0.88518689 0.87329963 0.85488664
0.98382353 0.89166667 0.88137255
0.50980392 0.94901961 0.87745098
0.51666667 0.95980392 0.88431373
0.54705882 0.95465686 0.87426471
0.58333333 0.94742647 0.87352941
0.63333333 0.96764706 0.87107843
0.69227941 0.94632353 0.85551471
0.77328431 0.96446078 0.83431373
0.87512255 0.95784314 0.83443627
0.96568627 0.96176471 0.84705882
0.19558824 0.23676471 0.96568627
0.24601716 0.24852941 0.95735294
0.36776961 0.24154412 0.96568627
0.50539216 0.26617647 0.95753676
0.62058824 0.25661765 0.97303922
0.75079657 0.30508578 0.97303922
0.85392157 0.34375 0.98345588
0.94307598 0.35582108 0.97346814
0.9877451 0.34803922 0.96519608
0.21568627 0.29019608 0.95392157
0.2647595 0.28284314 0.95784314
0.37320772 0.29373468 0.95392157
0.49773284 0.29589461 0.95376072
0.62058824 0.31351103 0.96544118
0.74703585 0.33611366 0.97696078
0.85392157 0.38507966 0.98088235
0.94345129 0.40049786 0.97310049
0.99172794 0.38970588 0.95784314
0.2439951 0.36580882 0.95085784
0.29656863 0.35899203 0.95477941
0.39117647 0.36240809 0.95787377
0.50012255 0.37714461 0.9537837
0.62365196 0.39148284 0.96960784
0.73632047 0.42647059 0.97322304
0.84641544 0.47352941 0.97898284
0.93051471 0.47991728 0.96176471
0.99644608 0.46176471 0.95968137
0.20784314 0.45165441 0.94344363
0.27307751 0.45193781 0.9437117
0.36125919 0.4564951 0.95
0.4778799 0.47451746 0.95
0.59632353 0.49779412 0.95661765
0.71972273 0.53157169 0.96911765
0.83247549 0.58716299 0.97089461
0.91954657 0.58694853 0.96568627
0.97254902 0.56176471 0.96127451
0.0375 0.54362745 0.93112745
0.11525735 0.55104167 0.92892157
0.25484069 0.55232843 0.93780637
0.40759804 0.57401961 0.94019608
0.56335784 0.59693627 0.94779412
0.69917279 0.63318015 0.95818015
0.81979167 0.67205882 0.96145833
0.91519608 0.675 0.96348039
0.97328431 0.64460784 0.94656863
0.018811275 0.66127451 0.92303922
0.015686275 0.66078431 0.92285539
0.065870098 0.6498315 0.91911765
0.31560968 0.65215227 0.91911765
0.49607843 0.67598039 0.92803309
0.65765931 0.70679381 0.94307598
0.81199449 0.74117647 0.95770527
0.91089154 0.74197304 0.95392157
0.96109069 0.71764706 0.9372549
0.098161765 0.77156863 0.92696078
0.12751225 0.77156863 0.92647059
0.26868873 0.76764706 0.92647059
0.40133272 0.76741728 0.92651654
0.51384804 0.76335784 0.92910539
0.63223039 0.7682598 0.93431373
0.79656863 0.79901961 0.94693627
0.90343137 0.80981924 0.9535386
0.97683824 0.77303922 0.9192402
0.41176471 0.86813725 0.93872549
0.42978707 0.86464461 0.93872549
0.47843137 0.86453738 0.93871017
0.553125 0.86813725 0.94172794
0.63063725 0.86813725 0.94172794
0.72303922 0.86862745 0.94258578
0.81824449 0.8807598 0.94955576
0.90998009 0.89209559 0.95348499
0.98474265 0.89307598 0.95042892
0.60392157 0.96029412 0.95343137
0.615625 0.9651348 0.95343137
0.63284314 0.96372549 0.9495098
0.64215686 0.93137255 0.94981618
0.71102941 0.9627451 0.95
0.75294118 0.96060049 0.94215686
0.82254902 0.95539216 0.9377451
0.88131127 0.96372549 0.93039216
0.98039216 0.96421569 0.93431373
0.40784314 0.32156863 0.99215686
0.4627451 0.34166667 0.99607843
0.49411765 0.33529412 0.99117647
0.58529412 0.3504902 0.99215686
0.67647059 0.3627451 0.99607843
0.76127451 0.38970588 0.99607843
0.85686275 0.43627451 1
0.93823529 0.4995098 0.99607843
0.99607843 0.5254902 0.99607843
0.45539216 0.3754902 1
0.46966912 0.37598039 1
0.5127451 0.37598039 0.99313725
0.57794118 0.37726716 0.99215686
0.675 0.40122549 0.99803922
0.75686275 0.40392157 0.99215686
0.85 0.46372549 0.99607843
0.93431373 0.49754902 0.99607843
0.98872549 0.54460784 0.99607843
0.45098039 0.44019608 0.99607843
0.46605392 0.44019608 0.99607843
0.5120098 0.44411765 0.99607843
0.58529412 0.4495098 0.99718137
0.65098039 0.43872549 0.99019608
0.76017157 0.5004902 0.99963235
0.84607843 0.53235294 0.99607843
0.93039216 0.5754902 0.99607843
0.9754902 0.5872549 0.99215686
0.42107843 0.52745098 0.99607843
0.43627451 0.52107843 0.99215686
0.49154412 0.52794118 0.9939951
0.56813725 0.54221814 0.99607843
0.6504902 0.5622549 0.99607843
0.73921569 0.57892157 0.99307598
0.83823529 0.6122549 0.99607843
0.92647059 0.64264706 0.99607843
0.99362745 0.65882353 0.99754902
0.37254902 0.61960784 0.99803922
0.39656863 0.61789216 0.99632353
0.45490196 0.625 0.99656863
0.53088235 0.63259804 0.99411765
0.63039216 0.64901961 0.99607843
0.72205882 0.66029412 0.99215686
0.83186275 0.68627451 0.99362745
0.92303922 0.71617647 0.99240196
0.98431373 0.68431373 0.98431373
0.27254902 0.69852941 0.99607843
0.315625 0.70196078 0.99577206
0.38002451 0.70036765 0.9932598
0.48290441 0.70398284 0.99460784
0.59583333 0.71470588 0.99338235
0.71029412 0.72689951 0.98731618
0.82855392 0.74803922 0.99215686
0.91862745 0.75980392 0.98088235
0.98823529 0.76764706 0.99460784
0.33431373 0.7872549 0.99215686
0.35551471 0.78370098 0.98860294
0.40882353 0.78308824 0.99215686
0.45845588 0.7754902 0.9814951
0.57401961 0.775 0.9877451
0.66973039 0.77990196 0.98431373
0.80612745 0.80196078 0.98406863
0.91519608 0.82696078 0.98480392
0.97941176 0.83039216 0.99215686
0.48823529 0.87990196 0.98823529
0.4995098 0.87598039 0.98866422
0.54166667 0.87561275 0.99166667
0.58645833 0.87579657 0.99166667
0.6247549 0.86813725 0.97426471
0.71470588 0.86813725 0.97598039
0.78468137 0.86078431 0.97352941
0.91170343 0.90343137 0.98780637
0.96470588 0.91470588 0.99215686
0.60784314 0.96470588 0.98823529
0.61715686 0.96960784 0.99264706
0.64705882 0.97352941 0.99313725
0.67941176 0.975 0.99460784
0.72352941 0.96078431 0.96862745
0.77941176 0.97009804 0.98578431
0.83823529 0.96176471 0.97745098
0.91470588 0.98039216 0.99215686
0.98823529 0.98823529 0.98823529
