site/assets/luts/sha256-e3f15986d4da5f1569bebd466532c5429c4a24f1a82eadb6ead91cfecef80a22.cube
# LUTr-Schema-Version: 2
# LUTr-ID: sha256-e3f15986d4da5f1569bebd466532c5429c4a24f1a82eadb6ead91cfecef80a22
# LUTr-Title: polaroid 669 cold -
# LUTr-Collection: Natron HaldCLUT
# LUTr-Collection-ID: natron-haldclut-presets
# LUTr-Source: https://github.com/NatronGitHub/clut
# LUTr-Retrieved: 2026-07-27
# LUTr-Source-File: submissions/natron-haldclut-presets/instant_pro/polaroid_669_cold_-.png
# LUTr-Source-Format: HALD-PNG
# LUTr-Source-SHA256: e3f15986d4da5f1569bebd466532c5429c4a24f1a82eadb6ead91cfecef80a22
# LUTr-License: CC-BY-SA-4.0
# LUTr-License-URL: https://github.com/NatronGitHub/clut#license
# LUTr-License-Basis: repo-license-file
# LUTr-Transform-Class: film-emulation
# LUTr-Tags: creative, film, film-emulation, hald-clut, natron, png, cool, cube
# LUTr-Input-Color-Space: srgb
# LUTr-Input-Gamut: rec709
# LUTr-Input-Transfer: srgb
# LUTr-Output-Color-Space: srgb
# LUTr-Output-Gamut: rec709
# LUTr-Output-Transfer: srgb
# LUTr-Color-Space-Confidence: assumed-display-referred
# LUTr-Domain-Normalized: true
# LUTr-Shaper: none
# LUTr-Original-Grid: 64x64x64
# LUTr-Conversion-Grid: 25x25x25
# LUTr-Conversion-Interpolation: trilinear
# LUTr-Conversion-Method: HALD-PNG LUT image decoded at 16-bit and sampled to 25x25x25 3D CUBE
# LUTr-Conversion-Tool: LUTr scripts/convert-all-to-cube.mjs 2.0.0
# LUTr-Conversion-Date: 2026-07-27
# LUTr-Note: Preserve this metadata and the upstream license notices when redistributing.
TITLE "polaroid 669 cold -"
LUT_3D_SIZE 25
DOMAIN_MIN 0 0 0
DOMAIN_MAX 1 1 1
0 0.10196078 0.12156863
0 0.1122549 0.13823529
0 0.12254902 0.15392157
0 0.1254902 0.16029412
0 0.13137255 0.16666667
0.0039215686 0.1377451 0.16862745
0.0039215686 0.14117647 0.16862745
0.012745098 0.14264706 0.17009804
0.074509804 0.14901961 0.17254902
0.14019608 0.15294118 0.17647059
0.20196078 0.15392157 0.17843137
0.25980392 0.16421569 0.19901961
0.31568627 0.16862745 0.21764706
0.36715686 0.16862745 0.23186275
0.42254902 0.17254902 0.24215686
0.47401961 0.17254902 0.25637255
0.52941176 0.17254902 0.26666667
0.58088235 0.16862745 0.27303922
0.63137255 0.16470588 0.27941176
0.67647059 0.16764706 0.28921569
0.71764706 0.18431373 0.30980392
0.75882353 0.20441176 0.32647059
0.8 0.21862745 0.34705882
0.84509804 0.23431373 0.3622549
0.87843137 0.24705882 0.37254902
0 0.12254902 0.13970588
0 0.12647059 0.14307598
0 0.13284314 0.15392157
0 0.13578431 0.16078431
0 0.14166667 0.16544118
0.0039215686 0.14754902 0.16862745
0.0039215686 0.15147059 0.17046569
0.025490196 0.15447304 0.17555147
0.087254902 0.15931373 0.18284314
0.15202206 0.16268382 0.18529412
0.21519608 0.16605392 0.19166667
0.27009804 0.17107843 0.20931373
0.3252451 0.17696078 0.22598039
0.37775735 0.175 0.23431373
0.43284314 0.17892157 0.24607843
0.48731618 0.17892157 0.25784314
0.53970588 0.17892157 0.26911765
0.58964461 0.17647059 0.27696078
0.63811275 0.175 0.28578431
0.68284314 0.17843137 0.29607843
0.72156863 0.19264706 0.3129902
0.76127451 0.20704657 0.33020833
0.80392157 0.22218137 0.34705882
0.84509804 0.23676471 0.3622549
0.88088235 0.24705882 0.37254902
0 0.14705882 0.15490196
0 0.14705882 0.15784314
0 0.14705882 0.15784314
0 0.14963235 0.15686275
0 0.15245098 0.1622549
0.0013480392 0.15796569 0.16519608
0.0039215686 0.1625 0.17328431
0.039093137 0.16605392 0.18186275
0.1 0.16960784 0.18823529
0.16531863 0.17352941 0.19276961
0.22647059 0.17745098 0.20196078
0.2817402 0.18480392 0.21960784
0.3372549 0.18921569 0.2377451
0.39166667 0.18529412 0.23933824
0.44705882 0.18529412 0.24607843
0.49852941 0.18823529 0.26029412
0.54901961 0.18921569 0.27156863
0.59473039 0.18921569 0.28480392
0.64313725 0.18823529 0.29436275
0.68566176 0.18872549 0.30502451
0.72647059 0.20294118 0.31960784
0.76764706 0.21360294 0.33382353
0.80882353 0.22745098 0.34803922
0.84938725 0.2377451 0.3622549
0.89117647 0.25098039 0.37647059
0 0.16764706 0.16813725
0 0.16764706 0.16813725
0 0.16764706 0.16801471
0 0.16421569 0.16421569
0 0.16421569 0.15882353
0.00006127451 0.16862745 0.16862745
0.0029411765 0.175 0.1754902
0.04754902 0.17959559 0.18529412
0.11323529 0.18333333 0.19215686
0.17873775 0.18382353 0.19607843
0.23970588 0.18860294 0.2067402
0.29503676 0.19509804 0.22990196
0.3504902 0.20122549 0.24828431
0.40545343 0.19558824 0.24656863
0.45735294 0.19215686 0.24607843
0.50882353 0.19558824 0.26158088
0.55637255 0.1995098 0.2745098
0.60177696 0.20294118 0.28872549
0.64791667 0.20294118 0.29852941
0.69166667 0.2033701 0.30925245
0.73284314 0.21323529 0.32352941
0.7745098 0.22352941 0.33425245
0.81519608 0.23382353 0.34803922
0.8495098 0.24803922 0.36832108
0.88284314 0.2622549 0.37990196
0 0.18823529 0.17843137
0 0.18823529 0.17843137
0 0.18823529 0.17843137
0 0.18823529 0.17671569
0.00098039216 0.18823529 0.17647059
0.0017156863 0.18995098 0.18235294
0.0044117647 0.18970588 0.18039216
0.06372549 0.19485294 0.19362745
0.12941176 0.2 0.20392157
0.19509804 0.20196078 0.21029412
0.25637255 0.20637255 0.22107843
0.31127451 0.21151961 0.24387255
0.36666667 0.21568627 0.26078431
0.42205882 0.21348039 0.25686275
0.47352941 0.21176471 0.25882353
0.51838235 0.21446078 0.27083333
0.56666667 0.21960784 0.28431373
0.61176471 0.22279412 0.29656863
0.65686275 0.22352941 0.30882353
0.69803922 0.22745098 0.31911765
0.74019608 0.23235294 0.32941176
0.78235294 0.2375 0.33970588
0.82058824 0.24705882 0.35343137
0.84681373 0.26495098 0.36887255
0.87254902 0.28235294 0.38431373
0 0.20490196 0.18823529
0 0.20882353 0.18903186
0 0.21017157 0.19313725
0.00042892157 0.2127451 0.19699755
0.0039215686 0.2129902 0.19705882
0.0049019608 0.21323529 0.19754902
0.025490196 0.21703431 0.20404412
0.084313725 0.2223652 0.21029412
0.15 0.22843137 0.22058824
0.21568627 0.22892157 0.23039216
0.28137255 0.23247549 0.24080882
0.33621324 0.23584559 0.25447304
0.39117647 0.23848039 0.26911765
0.44264706 0.23676471 0.27199755
0.49105392 0.23933824 0.27843137
0.53235294 0.24019608 0.28872549
0.57745098 0.24019608 0.29852941
0.62469363 0.24019608 0.30490196
0.66752451 0.24411765 0.31519608
0.70790441 0.25147059 0.32892157
0.74558824 0.25808824 0.33970588
0.78627451 0.26470588 0.35392157
0.8245098 0.27806373 0.36727941
0.85441176 0.29332108 0.38284314
0.87156863 0.30392157 0.39313725
0 0.22843137 0.20098039
0 0.23235294 0.20588235
0.0031862745 0.23627451 0.21004902
0.0039215686 0.2372549 0.21372549
0.00098039216 0.2372549 0.21372549
0.0014705882 0.2372549 0.21384804
0.037990196 0.24313725 0.22303922
0.098039216 0.24840686 0.22401961
0.16764706 0.25196078 0.23431373
0.23627451 0.25477941 0.24754902
0.30196078 0.25686275 0.25808824
0.35980392 0.25980392 0.26813725
0.41470588 0.26078431 0.27598039
0.46666667 0.26115196 0.28578431
0.50784314 0.26446078 0.29607843
0.54938725 0.26470588 0.3060049
0.59117647 0.26470588 0.3127451
0.63811275 0.26372549 0.31666667
0.67745098 0.26862745 0.3254902
0.71470588 0.27634804 0.33958333
0.75196078 0.28529412 0.35196078
0.79276961 0.29301471 0.36470588
0.82818627 0.30980392 0.38137255
0.86262255 0.32732843 0.39767157
0.88823529 0.33823529 0.40980392
0.0039215686 0.26323529 0.22647059
0.0039215686 0.26323529 0.22647059
0.0039215686 0.26323529 0.23039216
0.0039215686 0.26323529 0.23039216
0.0026960784 0.26323529 0.23039216
0 0.26323529 0.2286152
0.044852941 0.26911765 0.24007353
0.11127451 0.27199755 0.2348652
0.18333333 0.275 0.24852941
0.25447304 0.2783701 0.2627451
0.31862745 0.28137255 0.27303922
0.37696078 0.28284314 0.27959559
0.43357843 0.28529412 0.2877451
0.48186275 0.28676471 0.29626225
0.52303922 0.29068627 0.3067402
0.56421569 0.29215686 0.31666667
0.60539216 0.29460784 0.32303922
0.64656863 0.29552696 0.33088235
0.68382353 0.30061275 0.34178922
0.7213848 0.30637255 0.35392157
0.7622549 0.3122549 0.36421569
0.79932598 0.32303922 0.37647059
0.83235294 0.34362745 0.39558824
0.86415441 0.36121324 0.41317402
0.89411765 0.3745098 0.42647059
0.0039215686 0.29411765 0.25098039
0.0039215686 0.29019608 0.25098039
0.0039215686 0.29019608 0.25098039
0.0073529412 0.29019608 0.25098039
0.0078431373 0.29019608 0.25098039
0.012745098 0.29068627 0.25098039
0.068627451 0.29705882 0.25686275
0.13039216 0.2995098 0.25637255
0.2 0.30196078 0.26666667
0.26960784 0.30588235 0.27696078
0.33529412 0.30588235 0.28627451
0.38970588 0.30980392 0.29362745
0.44117647 0.31176471 0.3
0.48872549 0.31421569 0.30637255
0.5372549 0.32058824 0.32647059
0.57843137 0.32303922 0.32941176
0.61960784 0.3254902 0.3372549
0.65686275 0.32941176 0.34754902
0.69313725 0.33431373 0.35784314
0.73137255 0.34068627 0.36813725
0.76862745 0.34705882 0.37843137
0.80147059 0.36127451 0.39313725
0.82941176 0.37843137 0.40980392
0.86323529 0.39901961 0.42892157
0.89019608 0.41176471 0.44313725
0.0039215686 0.325 0.2754902
0.0039215686 0.32107843 0.27248775
0.0039215686 0.32046569 0.27156863
0.0039215686 0.31862745 0.27156863
0.0098039216 0.31862745 0.27034314
0.033455882 0.3223652 0.27806373
0.08995098 0.32438725 0.27732843
0.15098039 0.32892157 0.28033088
0.21666667 0.33039216 0.2872549
0.28327206 0.33284314 0.29601716
0.34497549 0.33431373 0.29938725
0.39607843 0.33676471 0.30392157
0.44509804 0.33946078 0.30833333
0.49264706 0.34246324 0.31666667
0.54080882 0.34791667 0.32696078
0.58927696 0.35300245 0.33817402
0.62990196 0.35637255 0.34754902
0.66715686 0.36366422 0.36121324
0.70343137 0.37156863 0.37267157
0.7403799 0.38186275 0.38480392
0.77377451 0.38823529 0.39779412
0.8036152 0.40245098 0.41109069
0.83235294 0.41960784 0.42855392
0.86323529 0.43627451 0.44613971
0.89019608 0.45294118 0.45980392
0.0039215686 0.35196078 0.28823529
0.006372549 0.34914216 0.28786765
0.0049019608 0.34803922 0.28823529
0.0039215686 0.34718137 0.28823529
0.0058823529 0.34705882 0.28823529
0.044485294 0.34840686 0.29215686
0.10955882 0.35196078 0.29828431
0.17120098 0.35698529 0.30502451
0.23137255 0.35882353 0.30686275
0.29019608 0.35980392 0.30931373
0.3502451 0.36372549 0.31176471
0.39889706 0.36372549 0.31470588
0.44558824 0.36715686 0.31862745
0.49264706 0.36801471 0.32291667
0.54093137 0.37377451 0.33235294
0.58737745 0.37879902 0.34117647
0.63039216 0.3872549 0.35294118
0.66862745 0.39754902 0.36997549
0.71151961 0.40955882 0.38651961
0.75330882 0.42303922 0.4004902
0.78284314 0.43333333 0.41519608
0.80894608 0.44411765 0.43026961
0.83651961 0.45784314 0.44705882
0.86421569 0.47708333 0.46372549
0.89019608 0.49019608 0.47647059
0.0039215686 0.37892157 0.30147059
0.006372549 0.37892157 0.30147059
0.01127451 0.3754902 0.30490196
0.01127451 0.375 0.30490196
0.017647059 0.375 0.30490196
0.064276961 0.3754902 0.30588235
0.12303922 0.37806373 0.3122549
0.18333333 0.38069853 0.31470588
0.23872549 0.38333333 0.31715686
0.29803922 0.38707108 0.31960784
0.35355392 0.39080882 0.325
0.40189951 0.39460784 0.325
0.44705882 0.39460784 0.32892157
0.49215686 0.39509804 0.32892157
0.53762255 0.39889706 0.33235294
0.57892157 0.40422794 0.34264706
0.62009804 0.41421569 0.35294118
0.66341912 0.42714461 0.37352941
0.71029412 0.44276961 0.39019608
0.75882353 0.46029412 0.41078431
0.78651961 0.47279412 0.42892157
0.81317402 0.48480392 0.4466299
0.84019608 0.49901961 0.46384804
0.86930147 0.51715686 0.48069853
0.89411765 0.53137255 0.49705882
0 0.40588235 0.31568627
0.012745098 0.40588235 0.31691176
0.031862745 0.40588235 0.31960784
0.048284314 0.40588235 0.31960784
0.067647059 0.40490196 0.31960784
0.10171569 0.40196078 0.31960784
0.14656863 0.40392157 0.32303922
0.19632353 0.40588235 0.32352941
0.25294118 0.40784314 0.32745098
0.30441176 0.41495098 0.33137255
0.35392157 0.42009804 0.33529412
0.40196078 0.42156863 0.33529412
0.44901961 0.42352941 0.33529412
0.49215686 0.4254902 0.3375
0.53333333 0.4254902 0.33921569
0.57254902 0.43014706 0.34117647
0.61176471 0.43921569 0.34901961
0.65416667 0.45073529 0.36838235
0.69852941 0.46813725 0.38823529
0.74289216 0.48553922 0.40882353
0.78039216 0.50392157 0.43333333
0.80931373 0.52230392 0.45784314
0.83823529 0.53921569 0.47696078
0.86838235 0.55588235 0.49509804
0.89215686 0.57254902 0.51176471
0.039705882 0.43676471 0.33088235
0.059497549 0.43676471 0.33431373
0.079289216 0.43676471 0.33431373
0.095588235 0.43676471 0.33382353
0.11593137 0.43504902 0.33382353
0.14859069 0.43284314 0.33431373
0.18370098 0.43284314 0.33431373
0.22156863 0.43284314 0.33431373
0.2627451 0.43627451 0.3377451
0.31047794 0.44283088 0.34166667
0.35784314 0.44816176 0.34558824
0.40196078 0.45153186 0.34558824
0.44705882 0.45245098 0.34558824
0.48823529 0.45245098 0.34558824
0.52892157 0.45637255 0.34558824
0.56648284 0.45784314 0.34558824
0.60735294 0.46372549 0.34509804
0.64460784 0.47824755 0.36568627
0.68578431 0.49656863 0.38627451
0.73039216 0.51421569 0.40686275
0.77009804 0.53088235 0.43137255
0.80147059 0.55539216 0.46029412
0.83235294 0.57904412 0.4872549
0.8627451 0.60098039 0.50980392
0.88627451 0.61421569 0.52647059
0.098039216 0.47058824 0.34803922
0.1122549 0.46764706 0.35098039
0.12647059 0.46764706 0.34803922
0.1432598 0.46764706 0.34803922
0.16176471 0.46764706 0.34803922
0.19068627 0.46764706 0.35110294
0.21960784 0.46764706 0.35220588
0.24558824 0.46666667 0.35098039
0.27647059 0.46764706 0.35098039
0.31531863 0.47009804 0.35196078
0.36078431 0.47573529 0.35588235
0.40196078 0.47941176 0.35588235
0.44558824 0.47990196 0.35588235
0.48394608 0.48333333 0.35588235
0.52181373 0.4872549 0.35588235
0.5627451 0.49227941 0.35588235
0.60098039 0.49803922 0.35882353
0.63823529 0.51115196 0.36862745
0.67843137 0.52745098 0.38627451
0.72058824 0.54509804 0.40686275
0.76176471 0.56029412 0.42794118
0.79754902 0.58247549 0.45637255
0.82622549 0.60980392 0.4872549
0.85637255 0.63639706 0.51813725
0.88235294 0.65882353 0.54411765
0.13921569 0.50784314 0.36372549
0.15104167 0.50784314 0.36709559
0.16764706 0.50686275 0.36764706
0.18400735 0.50392157 0.36372549
0.19656863 0.50196078 0.36372549
0.21746324 0.49981618 0.36372549
0.24019608 0.49852941 0.36556373
0.26862745 0.5 0.36617647
0.29313725 0.50245098 0.36617647
0.32738971 0.50245098 0.36617647
0.36519608 0.50637255 0.36617647
0.40214461 0.50980392 0.36617647
0.44240196 0.51102941 0.36691176
0.48039216 0.51617647 0.37009804
0.51862745 0.52316176 0.37120098
0.55882353 0.53045343 0.37248775
0.59852941 0.53921569 0.3754902
0.63480392 0.5495098 0.38039216
0.67414216 0.56262255 0.39129902
0.71176471 0.57616422 0.40704657
0.75294118 0.59068627 0.42598039
0.79185049 0.60802696 0.44852941
0.81948529 0.63566176 0.48125
0.84852941 0.6622549 0.5127451
0.87303922 0.68137255 0.5372549
0.18431373 0.54509804 0.38039216
0.19068627 0.54509804 0.38431373
0.20588235 0.54901961 0.38431373
0.21911765 0.54509804 0.38431373
0.22941176 0.54313725 0.38039216
0.24411765 0.53676471 0.38039216
0.26470588 0.53333333 0.38039216
0.28921569 0.53333333 0.38039216
0.31372549 0.5372549 0.38039216
0.34068627 0.5372549 0.38039216
0.3754902 0.54117647 0.38039216
0.40980392 0.54460784 0.38039216
0.44313725 0.54901961 0.38235294
0.48039216 0.55343137 0.38431373
0.51862745 0.56372549 0.38823529
0.55882353 0.57009804 0.38823529
0.59607843 0.58039216 0.39215686
0.63333333 0.59068627 0.39215686
0.67058824 0.60098039 0.40098039
0.70833333 0.61127451 0.41127451
0.74705882 0.62156863 0.4254902
0.78578431 0.63627451 0.44460784
0.8127451 0.66078431 0.4754902
0.83970588 0.68676471 0.50637255
0.8627451 0.70980392 0.53333333
0.21519608 0.58627451 0.39460784
0.22303922 0.58627451 0.39797794
0.2372549 0.58627451 0.40098039
0.24754902 0.58627451 0.40098039
0.25784314 0.58431373 0.39852941
0.27205882 0.57824755 0.39705882
0.28811275 0.57696078 0.39705882
0.30643382 0.5745098 0.39705882
0.33039216 0.5745098 0.39705882
0.35245098 0.57205882 0.39460784
0.38578431 0.5754902 0.39522059
0.41666667 0.58204657 0.39705882
0.4502451 0.59019608 0.3997549
0.48645833 0.59460784 0.40275735
0.52401961 0.60379902 0.40490196
0.55882353 0.61127451 0.40490196
0.59607843 0.61764706 0.40637255
0.63333333 0.62794118 0.40637255
0.66997549 0.63823529 0.40735294
0.70569853 0.64981618 0.41519608
0.74313725 0.65882353 0.42867647
0.7754902 0.66930147 0.44252451
0.80637255 0.68884804 0.46911765
0.83333333 0.71464461 0.50392157
0.85784314 0.73431373 0.53235294
0.24215686 0.62745098 0.40882353
0.25147059 0.62745098 0.41164216
0.25784314 0.62745098 0.4127451
0.26813725 0.62745098 0.4127451
0.27843137 0.62745098 0.4127451
0.29313725 0.6245098 0.41286765
0.30980392 0.6245098 0.41372549
0.33039216 0.62414216 0.41372549
0.34705882 0.61960784 0.41372549
0.36764706 0.61029412 0.40980392
0.39607843 0.61666667 0.4127451
0.42696078 0.62316176 0.41360294
0.45784314 0.63186275 0.41666667
0.49301471 0.63921569 0.41801471
0.52647059 0.64607843 0.42058824
0.55882353 0.65134804 0.41948529
0.59607843 0.65882353 0.42058824
0.63088235 0.6685049 0.42058824
0.66666667 0.6754902 0.42058824
0.70392157 0.68970588 0.42058824
0.73823529 0.7 0.43039216
0.76617647 0.70637255 0.44460784
0.79705882 0.71887255 0.46004902
0.82585784 0.73823529 0.48872549
0.84117647 0.75 0.50294118
0.26911765 0.67254902 0.42303922
0.27567402 0.66862745 0.42303922
0.28137255 0.6682598 0.42303922
0.28872549 0.66862745 0.42647059
0.30073529 0.67230392 0.42696078
0.31672794 0.67205882 0.43039216
0.33137255 0.67242647 0.43345588
0.35098039 0.6723652 0.43431373
0.36764706 0.66813725 0.43039216
0.38449755 0.66176471 0.42824755
0.40637255 0.66164216 0.42696078
0.4372549 0.66856618 0.42696078
0.46813725 0.6745098 0.43088235
0.49901961 0.68039216 0.434375
0.52990196 0.6872549 0.43468137
0.56127451 0.69362745 0.43302696
0.59607843 0.7 0.43088235
0.63088235 0.71029412 0.4346201
0.66568627 0.72022059 0.43909314
0.7004902 0.7338848 0.44509804
0.73137255 0.74289216 0.4497549
0.76182598 0.74754902 0.45747549
0.78970588 0.75134804 0.45870098
0.81783088 0.76127451 0.46930147
0.82058824 0.76764706 0.47598039
0.3 0.7254902 0.44901961
0.30245098 0.72230392 0.44901961
0.30686275 0.71960784 0.44901961
0.31519608 0.72132353 0.44901961
0.3254902 0.72156863 0.45098039
0.3377451 0.71960784 0.44730392
0.35147059 0.72303922 0.4504902
0.36887255 0.72205882 0.45098039
0.38431373 0.71568627 0.44901961
0.40245098 0.7125 0.44705882
0.42107843 0.71176471 0.44313725
0.44754902 0.71544118 0.44313725
0.4745098 0.71764706 0.44607843
0.50539216 0.72205882 0.45122549
0.53627451 0.72843137 0.45098039
0.56715686 0.73676471 0.4497549
0.59803922 0.74509804 0.45098039
0.63014706 0.75539216 0.45931373
0.6627451 0.76764706 0.46715686
0.7 0.77965686 0.47426471
0.73039216 0.79019608 0.48137255
0.75833333 0.79460784 0.48431373
0.78921569 0.79803922 0.48578431
0.81715686 0.80196078 0.49215686
0.81764706 0.80196078 0.49215686
0.33088235 0.78284314 0.47990196
0.33088235 0.77941176 0.47745098
0.33480392 0.77928922 0.47585784
0.34166667 0.77892157 0.4754902
0.35245098 0.775 0.47598039
0.3627451 0.77156863 0.47248775
0.37267157 0.77414216 0.46813725
0.38676471 0.77322304 0.46783088
0.40490196 0.76715686 0.46813725
0.42156863 0.76341912 0.46832108
0.43872549 0.76323529 0.4682598
0.46323529 0.76323529 0.4721201
0.48946078 0.76519608 0.47671569
0.52015931 0.77107843 0.48137255
0.55147059 0.77794118 0.48860294
0.58578431 0.78431373 0.49411765
0.6127451 0.79068627 0.49656863
0.63939951 0.80098039 0.49656863
0.66617647 0.81482843 0.49693627
0.70006127 0.82849265 0.50251225
0.73137255 0.8375 0.50735294
0.75882353 0.84209559 0.52015931
0.79227941 0.84558824 0.53382353
0.81911765 0.8495098 0.54773284
0.82794118 0.85294118 0.54803922
0.3745098 0.84117647 0.51960784
0.3745098 0.83823529 0.51666667
0.37377451 0.83651961 0.5125
0.37879902 0.83431373 0.5122549
0.39313725 0.83137255 0.51666667
0.40686275 0.82941176 0.51654412
0.41372549 0.82720588 0.5120098
0.42009804 0.82254902 0.5067402
0.43137255 0.82156863 0.50490196
0.44509804 0.81973039 0.50477941
0.47279412 0.81470588 0.51053922
0.49411765 0.81470588 0.52009804
0.51862745 0.82009804 0.52647059
0.54754902 0.82561275 0.53284314
0.57843137 0.83259804 0.54019608
0.60526961 0.83578431 0.54411765
0.63039216 0.84215686 0.54803922
0.6567402 0.85245098 0.54558824
0.68333333 0.8627451 0.54313725
0.71078431 0.87401961 0.53933824
0.73970588 0.88235294 0.55098039
0.76776961 0.88676471 0.5685049
0.79607843 0.89240196 0.58602941
0.8254902 0.89742647 0.60551471
0.83823529 0.89803922 0.60980392
0.43627451 0.89754902 0.57990196
0.43535539 0.89417892 0.57653186
0.42990196 0.88480392 0.56715686
0.4377451 0.88560049 0.56893382
0.45 0.89117647 0.57598039
0.45882353 0.8872549 0.57567402
0.46556373 0.8872549 0.57058824
0.47156863 0.87941176 0.56421569
0.48186275 0.87794118 0.56176471
0.49515931 0.87941176 0.56323529
0.51151961 0.87156863 0.56568627
0.53039216 0.87107843 0.57156863
0.55612745 0.87941176 0.58333333
0.58186275 0.88363971 0.58952206
0.60490196 0.88578431 0.59460784
0.6278799 0.88970588 0.5995098
0.65 0.89362745 0.5995098
0.67696078 0.90300245 0.60042892
0.70392157 0.91029412 0.60343137
0.73265931 0.92058824 0.61519608
0.76053922 0.92622549 0.62671569
0.78823529 0.93137255 0.64215686
0.81127451 0.93492647 0.65428922
0.8372549 0.93921569 0.66966912
0.85784314 0.94313725 0.67843137
0.49803922 0.95294118 0.63921569
0.48382353 0.93872549 0.625
0.47843137 0.92843137 0.61470588
0.48578431 0.93284314 0.61911765
0.5 0.93921569 0.6254902
0.51029412 0.94509804 0.63137255
0.51862745 0.94705882 0.62941176
0.51764706 0.93186275 0.61568627
0.5254902 0.9254902 0.61568627
0.54362745 0.93333333 0.62352941
0.55392157 0.9245098 0.61960784
0.56764706 0.92156863 0.61960784
0.58627451 0.92745098 0.62745098
0.60490196 0.9254902 0.63137255
0.62254902 0.92843137 0.63529412
0.64607843 0.93333333 0.64313725
0.67058824 0.9372549 0.64705882
0.69509804 0.94117647 0.65343137
0.72058824 0.94607843 0.66372549
0.75147059 0.95980392 0.68137255
0.78431373 0.97058824 0.7
0.80098039 0.96470588 0.69852941
0.8245098 0.96764706 0.70882353
0.85 0.97254902 0.7245098
0.87843137 0.98431373 0.75294118
0 0.11617647 0.14607843
0 0.11917892 0.14852941
0 0.12254902 0.1557598
0 0.1254902 0.16029412
0 0.13137255 0.16544118
0.0039215686 0.1377451 0.17254902
0.0039215686 0.14117647 0.17144608
0.012745098 0.14264706 0.17009804
0.078431373 0.14901961 0.18137255
0.14356618 0.15631127 0.19166667
0.20772059 0.16139706 0.19803922
0.26243873 0.16452206 0.20833333
0.31568627 0.16862745 0.22009804
0.36979167 0.16862745 0.23186275
0.42254902 0.17156863 0.2439951
0.47702206 0.17254902 0.25729167
0.52941176 0.175 0.27156863
0.58333333 0.17346814 0.27941176
0.63235294 0.17107843 0.29031863
0.67892157 0.1745098 0.30245098
0.71764706 0.1875 0.31617647
0.75882353 0.20441176 0.33284314
0.8 0.21862745 0.3504902
0.84117647 0.23284314 0.36525735
0.8745098 0.24313725 0.37647059
0 0.12738971 0.1533701
0 0.13226869 0.15729167
0 0.13578431 0.16176471
0 0.13578431 0.16231618
0 0.14120711 0.16666667
0.0039215686 0.14785539 0.17419577
0.0039215686 0.15147059 0.1761489
0.022464767 0.15504749 0.18102788
0.08872549 0.15931373 0.18921569
0.15386029 0.16476716 0.19803922
0.2160386 0.16997549 0.20519301
0.27058824 0.1745098 0.21617647
0.3252451 0.175 0.22766544
0.37909773 0.175 0.23431373
0.43284314 0.17869179 0.24722733
0.48580729 0.17926624 0.26308977
0.53970588 0.17984069 0.27604167
0.5872549 0.17892157 0.2848269
0.63627451 0.17892157 0.29362745
0.68284314 0.18217678 0.30392157
0.72083333 0.19264706 0.31936275
0.76127451 0.20704657 0.33565411
0.8 0.22046569 0.35159314
0.84209559 0.23339461 0.3658318
0.87542892 0.24460784 0.37647059
0 0.14705882 0.16703431
0 0.14928002 0.16852022
0 0.15098039 0.17043505
0 0.15258885 0.16997549
0 0.15422794 0.17113971
0.0039215686 0.16047794 0.17826287
0.0068627451 0.16485907 0.18483456
0.03203125 0.16776961 0.192356
0.098406863 0.17242647 0.19914216
0.16715686 0.17621017 0.20551471
0.22956495 0.18026961 0.21470588
0.28466605 0.18515625 0.22647059
0.33707108 0.18921569 0.23854167
0.39178922 0.18806679 0.24313725
0.44705882 0.1877451 0.25306373
0.49852941 0.18921569 0.26689645
0.54718137 0.18921569 0.28088235
0.59404105 0.18921569 0.28826593
0.64093137 0.18759191 0.2955576
0.68529412 0.19056373 0.30525429
0.72585784 0.20294118 0.32310049
0.76698836 0.21323529 0.33858762
0.8051777 0.22601103 0.35214461
0.84649203 0.2377451 0.36747855
0.8817402 0.24803922 0.37928922
0 0.16764706 0.18088235
0 0.16783854 0.18216912
