site/assets/luts/sha256-801c8de4836711991e0a853437871336dd9a07fd66826ba30872c3784c767967.cube
# LUTr-Schema-Version: 2
# LUTr-ID: sha256-801c8de4836711991e0a853437871336dd9a07fd66826ba30872c3784c767967
# LUTr-Title: fuji fp-100c cool
# LUTr-Collection: Natron HaldCLUT
# LUTr-Collection-ID: natron-haldclut-presets
# LUTr-Source: https://github.com/NatronGitHub/clut
# LUTr-Retrieved: 2026-07-27
# LUTr-Source-File: submissions/natron-haldclut-presets/instant_pro/fuji_fp-100c_cool.png
# LUTr-Source-Format: HALD-PNG
# LUTr-Source-SHA256: 801c8de4836711991e0a853437871336dd9a07fd66826ba30872c3784c767967
# LUTr-License: CC-BY-SA-4.0
# LUTr-License-URL: https://github.com/NatronGitHub/clut#license
# LUTr-License-Basis: repo-license-file
# LUTr-Transform-Class: film-emulation
# LUTr-Tags: creative, film, film-emulation, hald-clut, natron, png, cool, cube
# LUTr-Input-Color-Space: srgb
# LUTr-Input-Gamut: rec709
# LUTr-Input-Transfer: srgb
# LUTr-Output-Color-Space: srgb
# LUTr-Output-Gamut: rec709
# LUTr-Output-Transfer: srgb
# LUTr-Color-Space-Confidence: assumed-display-referred
# LUTr-Domain-Normalized: true
# LUTr-Shaper: none
# LUTr-Original-Grid: 64x64x64
# LUTr-Conversion-Grid: 25x25x25
# LUTr-Conversion-Interpolation: trilinear
# LUTr-Conversion-Method: HALD-PNG LUT image decoded at 16-bit and sampled to 25x25x25 3D CUBE
# LUTr-Conversion-Tool: LUTr scripts/convert-all-to-cube.mjs 2.0.0
# LUTr-Conversion-Date: 2026-07-27
# LUTr-Note: Preserve this metadata and the upstream license notices when redistributing.
TITLE "fuji fp-100c cool"
LUT_3D_SIZE 9
DOMAIN_MIN 0 0 0
DOMAIN_MAX 1 1 1
0.011764706 0.054901961 0.074509804
0.054411765 0.059313725 0.078921569
0.16862745 0.048039216 0.082352941
0.3245098 0.031372549 0.094117647
0.49215686 0.0039215686 0.094117647
0.6504902 0 0.090196078
0.78039216 0.0039215686 0.11862745
0.8877451 0.010784314 0.11470588
0.97254902 0.17254902 0.16862745
0.0083333333 0.10490196 0.08627451
0.080882353 0.094056373 0.07935049
0.20343137 0.090563725 0.093995098
0.34901961 0.086090686 0.090686275
0.51470588 0.065931373 0.09754902
0.66813725 0.049816176 0.09932598
0.78811275 0.077083333 0.12218137
0.8877451 0.14460784 0.14466912
0.98039216 0.23382353 0.16078431
0 0.19607843 0.098039216
0.076102941 0.20343137 0.10196078
0.21887255 0.21470588 0.075490196
0.39019608 0.23223039 0.065808824
0.55784314 0.23431373 0.095098039
0.69656863 0.23333333 0.10588235
0.80686275 0.24926471 0.11740196
0.8942402 0.28590686 0.14522059
0.96568627 0.32254902 0.16568627
0.0039215686 0.34411765 0.12401961
0.026470588 0.34577206 0.12205882
0.21470588 0.35845588 0.10183824
0.3911152 0.38088235 0.043688725
0.56421569 0.39534314 0.038970588
0.70294118 0.4028799 0.10386029
0.81470588 0.40833333 0.14276961
0.89901961 0.428125 0.1713848
0.94264706 0.44509804 0.19313725
0 0.49019608 0.13921569
0 0.48823529 0.14877451
0.19313725 0.48235294 0.16029412
0.34877451 0.49460784 0.10098039
0.50980392 0.51568627 0.014705882
0.67058824 0.5254902 0.01372549
0.79411765 0.5377451 0.067156863
0.90539216 0.56715686 0.19044118
0.94313725 0.57647059 0.23137255
0 0.60441176 0.18186275
0.0042279412 0.59607843 0.17463235
0.16360294 0.58627451 0.16764706
0.334375 0.59117647 0.15343137
0.48088235 0.61421569 0.11470588
0.62647059 0.63578431 0.01997549
0.76029412 0.64362745 0.0039215686
0.87205882 0.65588235 0.090870098
0.96323529 0.68284314 0.22156863
0 0.70882353 0.22058824
0.05245098 0.70490196 0.21629902
0.21666667 0.69877451 0.21372549
0.35196078 0.69313725 0.20919118
0.47058824 0.70686275 0.18529412
0.60196078 0.72205882 0.11960784
0.7252451 0.7379902 0.027941176
0.84767157 0.75196078 0.016176471
0.94803922 0.76764706 0.1
0.18137255 0.81323529 0.29558824
0.23425245 0.81721814 0.29650735
0.31372549 0.80980392 0.29963235
0.4153799 0.80539216 0.30833333
0.52328431 0.80955882 0.29926471
0.61439951 0.82107843 0.26666667
0.72892157 0.83382353 0.21813725
0.84166667 0.84859069 0.12009804
0.9377451 0.86029412 0.045098039
0.45490196 0.93333333 0.49411765
0.46617647 0.93284314 0.49019608
0.50098039 0.92941176 0.49411765
0.55637255 0.92009804 0.48872549
0.6372549 0.92745098 0.50392157
0.7127451 0.93578431 0.49901961
0.79509804 0.94509804 0.4872549
0.87598039 0.94901961 0.4504902
0.94901961 0.96078431 0.43921569
0.023529412 0.058823529 0.12107843
0.069607843 0.062745098 0.12457108
0.1754902 0.048039216 0.12843137
0.33020833 0.020894608 0.13431373
0.4997549 0.0039215686 0.14754902
0.65294118 0.00018382353 0.15324755
0.77647059 0.011764706 0.16372549
0.8877451 0.091605392 0.1754902
0.97303922 0.18382353 0.19117647
0.0078431373 0.092708333 0.13186275
0.087745098 0.10870864 0.13921569
0.20219056 0.10876225 0.14352022
0.36266085 0.093933824 0.15173866
0.52303922 0.073590686 0.15906863
0.66464461 0.068137255 0.16276808
0.79215686 0.10081189 0.1685049
0.89166667 0.16323529 0.17978707
0.97647059 0.23731618 0.19466912
0.0044117647 0.21176471 0.17009804
0.076960784 0.22576593 0.16285233
0.24080882 0.23517157 0.15119485
0.4032935 0.24215686 0.15347733
0.55955882 0.2473652 0.16482843
0.69479167 0.24865196 0.17794118
0.80398284 0.26271446 0.18550858
0.89558824 0.29754902 0.19761029
0.97585784 0.33713235 0.21323529
0.0053921569 0.36862745 0.18939951
0.026386336 0.37254902 0.18298866
0.2287837 0.37219669 0.17847733
0.40392157 0.38872549 0.14993107
0.57196691 0.40490196 0.14191176
0.71011795 0.41441483 0.18364737
0.81766238 0.42455576 0.20625
0.89932598 0.43360141 0.22107843
0.94871324 0.45294118 0.23235294
0 0.50539216 0.20465686
0.017156863 0.50147059 0.20661765
0.19583333 0.49730392 0.19656863
0.36452206 0.50606618 0.17058824
0.53002451 0.52426471 0.13088235
0.67794118 0.53397672 0.072242647
0.80098039 0.55122549 0.16691176
0.89558824 0.57061887 0.2370098
0.98161765 0.59166667 0.2872549
0 0.6096201 0.21991422
0.0017386642 0.60988817 0.22009804
0.2069087 0.60058211 0.2213848
0.3578508 0.60422794 0.20968903
0.48838848 0.62132353 0.17794118
0.63412224 0.63321844 0.090747549
0.76715686 0.64754902 0.037178309
0.87485447 0.66366422 0.15310202
0.95980392 0.68921569 0.27352941
0.0083333333 0.70980392 0.25551471
0.048682598 0.71242341 0.25196078
0.22723652 0.70579044 0.25891544
0.35980392 0.7057598 0.25232843
0.47928922 0.7127451 0.23823529
0.60196078 0.728125 0.19407169
0.73311887 0.74411765 0.11228554
0.84889706 0.75196078 0.040778186
0.95477941 0.7745098 0.19546569
0.18823529 0.81764706 0.35006127
0.24645374 0.82156863 0.338894
0.3194087 0.8176011 0.33045343
0.41715686 0.81092984 0.33088235
0.52129289 0.81130515 0.32359069
0.6223269 0.82677696 0.30821078
0.73026961 0.83688725 0.26323529
0.84515165 0.84944853 0.18676471
0.94166667 0.86029412 0.082352941
0.45098039 0.93284314 0.50539216
0.44797794 0.92205882 0.4911152
0.50870098 0.93762255 0.51004902
0.55655637 0.92156863 0.50410539
0.63186275 0.92205882 0.51029412
0.71029412 0.93480392 0.51341912
0.79767157 0.95110294 0.51164216
0.87984069 0.9528799 0.47689951
0.96764706 0.97205882 0.47598039
0.0088235294 0.054901961 0.22058824
0.091176471 0.048529412 0.24166667
0.23921569 0.020343137 0.26004902
0.32463235 0.056617647 0.24718137
0.4872549 0.031372549 0.25441176
0.64938725 0.0028186275 0.26372549
0.7754902 0.025245098 0.25906863
0.87732843 0.11470588 0.26813725
0.96470588 0.2127451 0.28235294
0.026960784 0.10098039 0.23492647
0.091651348 0.10147059 0.24661458
0.24301471 0.090808824 0.27218137
0.34871324 0.12495404 0.26139706
0.52598039 0.083210784 0.26127451
0.67205882 0.047365196 0.260769
0.78688725 0.12622549 0.26755515
0.8877451 0.17647059 0.27156863
0.97254902 0.24473039 0.27892157
0.013970588 0.2245098 0.27965686
0.093995098 0.23023897 0.28002451
0.26237745 0.25238971 0.29552696
0.4223652 0.26130515 0.28933824
0.57107843 0.2622549 0.29031863
0.69617034 0.26259191 0.28921569
0.79601716 0.2745098 0.28198529
0.88946078 0.30615809 0.2895527
0.96936275 0.34117647 0.29411765
0.0039215686 0.41593137 0.32303922
0.078921569 0.40998775 0.3185815
0.25196078 0.40333946 0.30928309
0.43189338 0.41519608 0.29362745
0.58363971 0.42873775 0.29264706
0.70520833 0.42843137 0.3105239
0.8049326 0.43088235 0.30833333
0.89545037 0.44011949 0.31041667
0.96409314 0.46372549 0.325
0.0039215686 0.53970588 0.32352941
0.0056985294 0.53946078 0.31041667
0.23088235 0.525 0.31715686
0.39754902 0.52892157 0.29754902
0.55416667 0.54828431 0.26593137
0.68547794 0.55661765 0.26617647
0.80490196 0.56862745 0.31421569
0.89515931 0.57647059 0.35189951
0.95833333 0.58823529 0.37303922
0.0018382353 0.63872549 0.32941176
0.034742647 0.63690257 0.32512255
0.22352941 0.62732843 0.32181373
0.37598039 0.62193627 0.31035539
0.49908088 0.63063725 0.29172794
0.64408701 0.64803922 0.25678615
0.77356005 0.65612745 0.23541667
0.8745098 0.67512255 0.30196078
0.95919118 0.70245098 0.38602941
0.011764706 0.73137255 0.33848039
0.095863971 0.72852328 0.3421875
0.24705882 0.72377451 0.33602941
0.37769608 0.7169424 0.33982843
0.49019608 0.72058824 0.32745098
0.61712623 0.73912377 0.30147059
0.73921569 0.74466912 0.24540441
0.85539216 0.75615809 0.19739583
0.95196078 0.78137255 0.3127451
0.21078431 0.83186275 0.39656863
0.25379902 0.82806373 0.4004902
0.32337623 0.825 0.3955576
0.4208027 0.82054228 0.38788297
0.52696078 0.82150735 0.39411765
0.6245864 0.83284314 0.37057292
0.73284314 0.84068627 0.33921569
0.84477635 0.8533701 0.30349265
0.93002451 0.85686275 0.22843137
0.44705882 0.93627451 0.53627451
0.45588235 0.9307598 0.53370098
0.49901961 0.93333333 0.53823529
0.55735294 0.92941176 0.54203431
0.63627451 0.93382353 0.55392157
0.71348039 0.9379902 0.55661765
0.79485294 0.94681373 0.54460784
0.87598039 0.95428922 0.5245098
0.95196078 0.96078431 0.49901961
0.0039215686 0.039215686 0.36519608
0.097242647 0.025490196 0.37824755
0.30257353 0.006004902 0.42634804
0.47150735 0.0039215686 0.44460784
0.51838235 0.026715686 0.39387255
0.61666667 0.11666667 0.39356618
0.75196078 0.096568627 0.38480392
0.87352941 0.042830882 0.36519608
0.96617647 0.14117647 0.36568627
0.0014705882 0.10490196 0.38216912
0.10566023 0.098529412 0.39172794
0.28583027 0.051102941 0.42660846
0.48076746 0.028125 0.45723805
0.53716299 0.13587623 0.42622549
0.63970588 0.17794118 0.40655637
0.76346507 0.1622549 0.38872549
0.87745098 0.14656863 0.37428768
0.94528186 0.20735294 0.37598039
0.014705882 0.22365196 0.40392157
0.10111826 0.22794118 0.40882353
0.28394608 0.24001225 0.43728554
0.50078125 0.24915748 0.4799326
0.54705882 0.30435049 0.43848039
0.67696078 0.2916973 0.41870404
0.78498775 0.28655025 0.40508578
0.88123468 0.29710478 0.39283088
0.95882353 0.33713235 0.39644608
0.020588235 0.40533088 0.44901961
0.13710172 0.40784314 0.45116422
0.28431373 0.43886336 0.47216605
0.46603094 0.44717371 0.47666973
0.59019608 0.45634191 0.46764706
0.69908088 0.45 0.45518536
0.79757966 0.44215686 0.43693321
0.88370864 0.44674479 0.42401961
0.95833333 0.46470588 0.42310049
0.011519608 0.56715686 0.48284314
0.11292892 0.5752451 0.49019608
0.29901961 0.57107843 0.47892157
0.43572304 0.5671875 0.46914828
0.57794118 0.58186275 0.44705882
0.69488358 0.5872549 0.45588235
0.80294118 0.59142157 0.46911765
0.8861826 0.58814338 0.46534926
0.95882353 0.59730392 0.47083333
0.15870098 0.66960784 0.47984069
0.19992341 0.66972273 0.47807904
0.28094363 0.66458333 0.46251532
0.4098652 0.6522212 0.44997702
0.53039216 0.65514706 0.4377451
0.65657935 0.67295496 0.42199755
0.78144914 0.67745098 0.42075674
0.8745098 0.68878676 0.45343137
0.94362745 0.7127451 0.51421569
0.090808824 0.74987745 0.4557598
0.17136949 0.75062806 0.45931373
0.27668505 0.74656863 0.45477941
0.39226409 0.73872549 0.44915748
0.50802696 0.73216912 0.44166667
0.61764706 0.74411765 0.42107843
0.74240196 0.75551471 0.39212623
0.85637255 0.7654565 0.36262255
0.92696078 0.78627451 0.43370098
0.21519608 0.84313725 0.49509804
0.24166667 0.83921569 0.48333333
0.32401961 0.83716299 0.48137255
0.41753983 0.83203891 0.47529871
0.52346814 0.82745098 0.47313113
0.62316942 0.83284314 0.46190257
0.72855392 0.84460784 0.43743873
0.84162837 0.85729167 0.39926471
0.93658088 0.86599265 0.35735294
0.43529412 0.94362745 0.59558824
0.42775735 0.92971814 0.58039216
0.4872549 0.94264706 0.59215686
0.54509804 0.93480392 0.59215686
0.61102941 0.92205882 0.58455882
0.68823529 0.92303922 0.58529412
0.7754902 0.93370098 0.58039216
0.87334559 0.95422794 0.58167892
0.96176471 0.96960784 0.57156863
0.0078431373 0.017647059 0.50588235
0.13504902 0.010294118 0.51936275
0.30931373 0.0078431373 0.55735294
0.53602941 0 0.6127451
0.67254902 0.0078431373 0.61764706
0.69558824 0.051715686 0.55539216
0.73235294 0.22598039 0.53823529
0.83504902 0.25294118 0.52745098
0.94509804 0.25490196 0.5254902
0.042647059 0.092401961 0.51764706
0.13673407 0.0828125 0.53241422
0.31102941 0.034742647 0.56317402
0.5356924 0.0038296569 0.61651348
0.68897059 0.012377451 0.63112745
0.70196078 0.14705882 0.56715686
0.73627451 0.2723652 0.54050245
0.83915441 0.28967525 0.53851103
0.94117647 0.29313725 0.52769608
0.038235294 0.21617647 0.52941176
0.12702206 0.22230392 0.53682598
0.30882353 0.22745098 0.56421569
0.51721814 0.21115196 0.61323529
0.67034314 0.24093137 0.63235294
0.69166667 0.32542892 0.58039216
0.74632353 0.37169118 0.56078431
0.84632353 0.36783088 0.53872549
0.94460784 0.35098039 0.51960784
0.038480392 0.36102941 0.5245098
0.14093137 0.37117034 0.52827819
0.28229167 0.39528186 0.54571078
0.47545956 0.42696078 0.59656863
0.63553922 0.45392157 0.63235294
0.67129289 0.48676471 0.58995098
0.76421569 0.48333333 0.57383578
0.86544118 0.45652574 0.54387255
0.94460784 0.44142157 0.52352941
0.14411765 0.52843137 0.57156863
0.20490196 0.54914216 0.58443627
0.32034314 0.57181373 0.60294118
0.46752451 0.59436275 0.61985294
0.60441176 0.61176471 0.62990196
0.69754902 0.61495098 0.61323529
0.78676471 0.60588235 0.59730392
0.87193627 0.58909314 0.57340686
0.94705882 0.5872549 0.56470588
0.15759804 0.68872549 0.6247549
0.23170956 0.6893076 0.62426471
0.33897059 0.69442402 0.62506127
0.4495098 0.69264706 0.6122549
0.56911765 0.69191176 0.60735294
0.67622549 0.70217525 0.58921569
0.78223039 0.70686275 0.58890931
0.86813725 0.70637255 0.60778186
0.92696078 0.70955882 0.6120098
0.25245098 0.775 0.61519608
0.27279412 0.77457108 0.61390931
0.33431373 0.775 0.60772059
0.42794118 0.77254902 0.59613971
0.54019608 0.7627451 0.58651961
0.63308824 0.7622549 0.56495098
0.74901961 0.77463235 0.54926471
0.8526348 0.78259804 0.54546569
0.92647059 0.7995098 0.58872549
0.29705882 0.85833333 0.61789216
0.28921569 0.85612745 0.60266544
0.33982843 0.85245098 0.59485294
0.43005515 0.84852941 0.58921569
0.52659314 0.84178922 0.57990196
0.6245098 0.84142157 0.56951593
0.72677696 0.84895833 0.5504902
0.84090074 0.86029412 0.52947304
0.92401961 0.86617647 0.49828431
0.41372549 0.94117647 0.6627451
0.42941176 0.94387255 0.66593137
0.45196078 0.93872549 0.65588235
0.5245098 0.94117647 0.65882353
0.6 0.93333333 0.65490196
0.68186275 0.92965686 0.65980392
0.7754902 0.93578431 0.65294118
0.87156863 0.9625 0.66151961
0.95686275 0.96862745 0.64705882
0.12009804 0.0039215686 0.64509804
0.19724265 0.0024509804 0.65655637
0.33713235 0.0039215686 0.67941176
0.51911765 0 0.71911765
0.72794118 0 0.76715686
0.81764706 0.0039215686 0.74705882
0.81495098 0.13357843 0.68014706
0.84871324 0.31470588 0.67254902
0.88235294 0.38333333 0.66862745
0.12107843 0.076470588 0.64509804
0.20637255 0.064705882 0.65686275
0.34313725 0.01997549 0.68333333
0.51666667 0.00066636029 0.71655178
0.70202206 0.0031862745 0.75318627
0.81715686 0.0058210784 0.75667892
0.81848958 0.21470588 0.69264706
0.8432598 0.34883578 0.67036612
0.89724265 0.42696078 0.67647059
0.11727941 0.21813725 0.64571078
0.21021752 0.21605392 0.65686275
0.33480392 0.20995711 0.67300858
0.50588235 0.19912684 0.70836397
0.68988971 0.18676471 0.75177696
0.80477941 0.25553002 0.75882353
0.80428922 0.36127451 0.69675245
0.83523284 0.43333333 0.67904412
0.90441176 0.46556373 0.67365196
0.038786765 0.34411765 0.62640931
0.15790441 0.3483992 0.6335095
0.29852941 0.36606924 0.65232843
0.46862745 0.39754902 0.69256281
0.65021446 0.43115809 0.74166667
0.76721814 0.46903339 0.74928002
0.78950674 0.50320159 0.71147365
0.82499234 0.53461244 0.6903799
0.89558824 0.53033088 0.68278186
0.13235294 0.48480392 0.63504902
0.19494485 0.50067402 0.64206495
0.30526961 0.5129902 0.65723039
0.4299326 0.54068627 0.67328431
0.59068627 0.5807598 0.71764706
0.73949142 0.62156863 0.75413603
0.77175245 0.63137255 0.72328431
0.83756127 0.61421569 0.68848039
0.9252451 0.58848039 0.6627451
0.24908088 0.64601716 0.68823529
0.29094669 0.65116422 0.69068627
0.36144301 0.65931373 0.69368873
0.46617647 0.67894455 0.70524663
0.58584559 0.70713848 0.73382353
0.69705882 0.731947 0.74859069
0.77843137 0.72685355 0.73025429
0.85851716 0.70931373 0.70813419
0.92941176 0.70447304 0.69607843
0.27941176 0.78578431 0.73958333
0.31482843 0.79136029 0.74635417
0.38244485 0.78443627 0.73382353
0.47702206 0.78656556 0.72843137
0.57598039 0.79448529 0.72892157
0.66372549 0.79558824 0.7167739
0.76090686 0.80254289 0.70343137
0.85151654 0.80366115 0.70807292
0.91654412 0.80404412 0.71176471
0.34785539 0.87175245 0.74705882
0.36387102 0.86783088 0.74201134
0.41605392 0.86550245 0.73632047
0.47959559 0.86550245 0.72811734
0.56421569 0.86568627 0.71969975
0.63988971 0.86176471 0.69774816
0.73284314 0.86158088 0.68125
0.83676471 0.87195159 0.67195159
0.92598039 0.87726716 0.66323529
0.46323529 0.95441176 0.78235294
0.471875 0.94871324 0.78088235
0.49129902 0.94509804 0.76764706
0.52401961 0.94901961 0.75490196
0.59632353 0.95416667 0.74705882
0.675 0.9372549 0.7377451
0.77156863 0.9432598 0.73321078
0.85245098 0.93008578 0.7004902
0.94460784 0.96715686 0.73088235
0.24803922 0 0.78039216
0.30735294 0 0.78419118
0.40294118 0.0039215686 0.79215686
0.52696078 0.0028186275 0.80931373
0.70098039 0.0039215686 0.84411765
0.86127451 0 0.875
0.92843137 0.019607843 0.86102941
0.93284314 0.23578431 0.81911765
0.93921569 0.40980392 0.78431373
0.24669118 0.061151961 0.77647059
0.30349265 0.059436275 0.78039216
0.39828431 0.022916667 0.79181985
0.53088235 0.0079656863 0.81064645
0.69436275 0.00049019608 0.84019608
0.84981618 0.010309436 0.87388174
0.92389706 0.061488971 0.8588848
0.91311275 0.30710784 0.8
0.9317402 0.42696078 0.78431373
0.2370098 0.2125 0.76568627
0.2854473 0.21078431 0.77545956
0.38651961 0.19957108 0.78468137
0.51617647 0.19120711 0.80539216
0.67463235 0.17745098 0.83419118
0.82674632 0.19718137 0.86534926
0.90122549 0.29460784 0.85079657
0.90995711 0.40603554 0.81528799
0.90980392 0.46691176 0.79338235
0.14938725 0.34203431 0.7439951
0.20490196 0.34276961 0.75044424
0.34607843 0.35646446 0.76731005
0.48543199 0.35980392 0.79509804
0.63719363 0.39362745 0.82205882
0.7899663 0.42843137 0.85215993
0.88550858 0.4817402 0.85686275
0.88676471 0.52931985 0.80874694
0.9 0.56973039 0.79509804
0.010294118 0.45098039 0.70637255
0.11348039 0.46127451 0.71660539
0.26164216 0.47267157 0.73970588
0.42009804 0.49754902 0.76078431
0.58161765 0.53872549 0.79705882
0.74534314 0.58946078 0.83939951
0.84362745 0.62389706 0.84816176
0.8627451 0.63995098 0.81911765
0.90098039 0.64852941 0.79754902
0.16127451 0.59705882 0.74276961
0.20393689 0.60525429 0.74571078
0.2895527 0.60628064 0.7439951
0.39859069 0.61868873 0.74963235
0.52659314 0.64761029 0.77696078
0.68056066 0.69517463 0.81482843
0.79215686 0.73382353 0.83676471
0.84612439 0.73872549 0.82210478
0.90159314 0.73088235 0.80686275
0.31176471 0.74093137 0.7879902
0.32159926 0.74286152 0.78875613
0.3713848 0.74705882 0.79172794
0.45980392 0.75943627 0.79901961
0.56654412 0.78039216 0.81458333
0.67674632 0.80514706 0.82913603
0.77120098 0.81599265 0.82610294
0.85597426 0.82732843 0.83520221
0.91372549 0.82647059 0.83137255
0.38235294 0.87071078 0.84117647
0.40185355 0.87495404 0.85176164
0.44276961 0.87990196 0.84742647
0.51207108 0.87389706 0.8365962
0.59528186 0.88345588 0.84074755
0.66907169 0.88377757 0.82737439
0.75686275 0.88431373 0.81632966
0.84390319 0.88779105 0.81127451
0.89607843 0.89080882 0.81482843
0.45392157 0.93823529 0.86176471
0.49105392 0.95588235 0.87463235
0.51764706 0.95294118 0.86642157
0.5627451 0.95612745 0.86568627
0.6245098 0.95539216 0.85833333
0.68345588 0.95392157 0.84105392
0.76372549 0.94411765 0.82647059
0.85539216 0.96164216 0.82683824
0.92352941 0.96176471 0.8127451
0.38627451 0 0.89215686
0.41672794 0.0039215686 0.89215686
0.48835784 0.00098039216 0.89558824
0.59509804 0.0060661765 0.90735294
0.71470588 0.006372549 0.9247549
0.84295343 0.011948529 0.93609069
0.94068627 0.015563725 0.94607843
0.99313725 0.12352941 0.94705882
0.98872549 0.36421569 0.90784314
0.38327206 0.097058824 0.89166667
0.42070313 0.1015242 0.89166667
0.48579963 0.054518995 0.89640012
0.58586091 0.017807904 0.90980392
0.70729167 0.012346814 0.92083333
0.83540135 0.01182598 0.93970588
0.95539216 0.012959559 0.95392157
0.99258578 0.23492647 0.94172794
0.9848652 0.40643382 0.9
0.36568627 0.24215686 0.88431373
0.39546569 0.23578431 0.8852788
0.4747549 0.22699142 0.89203431
0.56977635 0.22218137 0.90404412
0.69460784 0.21458333 0.91691176
0.81996017 0.21037071 0.93431373
0.94800858 0.26470588 0.95364583
0.98207721 0.36911765 0.93817402
0.97843137 0.47598039 0.90392157
0.30441176 0.36715686 0.86617647
0.3473652 0.36982996 0.86991422
0.42633272 0.37009804 0.87735907
0.53284314 0.37156863 0.88921569
0.6622549 0.38783701 0.90793505
0.79313725 0.41072304 0.92519914
0.91951593 0.45490196 0.94584865
0.96764706 0.51078431 0.93625153
0.97352941 0.54430147 0.92352941
0.10784314 0.45514706 0.83970588
0.17178309 0.46446078 0.84166667
0.2973652 0.47279412 0.85116422
0.43949142 0.48480392 0.86568627
0.59448529 0.51470588 0.88786765
0.74117647 0.55177696 0.9104473
0.87800245 0.60422794 0.9346201
0.94825368 0.63946078 0.93458946
0.94387255 0.67254902 0.9
0.01439951 0.58106618 0.8254902
0.047709865 0.58017004 0.82258732
0.19348958 0.58538603 0.82285539
0.33033088 0.584375 0.82744332
0.49295343 0.60652574 0.85867034
0.67629442 0.66194853 0.8877451
0.83020833 0.71505821 0.92152267
0.89754902 0.74215686 0.91893382
0.92628676 0.75343137 0.90343137
0.18676471 0.70980392 0.84558824
0.23981311 0.71115196 0.8495098
0.29473039 0.71323529 0.84941789
0.39446998 0.71986826 0.85188419
0.49117647 0.72990196 0.86121324
0.60445772 0.74742647 0.86617647
0.76724877 0.80269608 0.91050858
0.87538297 0.83688725 0.92222733
0.92242647 0.83737745 0.91482843
0.37058824 0.84810049 0.89166667
0.40104167 0.83724724 0.87990196
0.4397212 0.84373468 0.88794424
0.4911152 0.84883578 0.89328278
0.5754902 0.85465686 0.89362745
0.66327359 0.87224265 0.90896906
0.76421569 0.89091605 0.91594669
0.86770067 0.91427696 0.92647059
0.89895833 0.90735294 0.91519608
0.50637255 0.95686275 0.94166667
0.51378676 0.95251225 0.93345588
0.54803922 0.95637255 0.9377451
0.58578431 0.95686275 0.93823529
0.64460784 0.95759804 0.9375
0.70520833 0.95410539 0.93039216
0.78247549 0.96360294 0.92953431
0.84901961 0.96770833 0.91519608
0.92156863 0.96862745 0.91470588
0.56078431 0.20392157 0.98823529
0.56764706 0.17941176 0.9877451
0.61372549 0.1872549 0.98823529
0.68578431 0.15833333 0.99215686
0.77058824 0.10588235 0.99607843
0.86715686 0.050490196 0.99607843
0.97254902 0.0068627451 1
1 0 1
1 0.35294118 0.99215686
0.55294118 0.25735294 0.98823529
0.57689951 0.26170343 0.99258578
0.61029412 0.23811275 0.98823529
0.6776348 0.21096814 0.9877451
0.76642157 0.19509804 0.99215686
0.86078431 0.13535539 0.99215686
0.96519608 0.12647059 0.99656863
1 0.17009804 0.99607843
1 0.39068627 0.99607843
0.54509804 0.36078431 0.98431373
0.55735294 0.35392157 0.98431373
0.58823529 0.33529412 0.97818627
0.65343137 0.31936275 0.98088235
0.75490196 0.325 0.98970588
0.84791667 0.31764706 0.98823529
0.94803922 0.31642157 0.9872549
0.99607843 0.34509804 0.99227941
1 0.47156863 0.98823529
0.47990196 0.45294118 0.96470588
0.50189951 0.45422794 0.96844363
0.5567402 0.45122549 0.97254902
0.62990196 0.45441176 0.98039216
0.7004902 0.42622549 0.96642157
0.8254902 0.46170343 0.98915441
0.92708333 0.47352941 0.99362745
1 0.49705882 0.9903799
0.99754902 0.56813725 0.98823529
0.40196078 0.54705882 0.96666667
0.43014706 0.55098039 0.96862745
0.45441176 0.53578431 0.95196078
0.56960784 0.55490196 0.96985294
0.67352941 0.56470588 0.97745098
0.78357843 0.57720588 0.98039216
0.89166667 0.6004902 0.98431373
0.96715686 0.62843137 0.98602941
0.99607843 0.67058824 0.99411765
0.31127451 0.65833333 0.95833333
0.32677696 0.65196078 0.9596201
0.36446078 0.6439951 0.95367647
0.45778186 0.64724265 0.94871324
0.59215686 0.66127451 0.9625
0.72843137 0.68039216 0.97647059
0.84705882 0.70343137 0.98284314
0.93498775 0.72647059 0.98253676
0.96470588 0.75980392 0.97254902
0.33529412 0.76764706 0.95588235
0.33884804 0.76139706 0.95318627
0.3745098 0.75808824 0.95318627
0.43762255 0.75232843 0.95196078
0.51960784 0.75196078 0.95588235
0.61948529 0.74705882 0.93247549
0.78308824 0.78431373 0.96764706
0.90980392 0.82169118 0.98431373
0.95196078 0.84509804 0.96862745
0.44852941 0.86813725 0.96470588
0.43639706 0.86078431 0.95343137
0.46617647 0.85980392 0.95588235
0.48890931 0.85196078 0.93854167
0.58186275 0.85686275 0.95343137
0.64362745 0.86991422 0.96648284
0.72536765 0.85723039 0.9495098
0.85588235 0.89215686 0.96905637
0.94509804 0.92254902 0.98039216
0.55294118 0.94117647 0.97254902
0.54558824 0.94509804 0.96519608
0.55392157 0.94117647 0.95980392
0.62352941 0.9504902 0.97254902
0.67647059 0.95490196 0.9745098
0.71666667 0.95931373 0.96862745
0.79313725 0.95490196 0.96666667
0.87156863 0.96813725 0.97598039
0.95294118 0.98823529 0.98823529
