site/assets/luts/sha256-2cdb5234f7ef4c28c53185aa020260a145e3b302a03965e92add6e0f797f78d5.cube
# LUTr-Schema-Version: 2
# LUTr-ID: sha256-2cdb5234f7ef4c28c53185aa020260a145e3b302a03965e92add6e0f797f78d5
# LUTr-Title: kodak portra 400 +
# LUTr-Collection: Natron HaldCLUT
# LUTr-Collection-ID: natron-haldclut-presets
# LUTr-Source: https://github.com/NatronGitHub/clut
# LUTr-Retrieved: 2026-07-27
# LUTr-Source-File: submissions/natron-haldclut-presets/negative_new/kodak_portra_400_+.png
# LUTr-Source-Format: HALD-PNG
# LUTr-Source-SHA256: 2cdb5234f7ef4c28c53185aa020260a145e3b302a03965e92add6e0f797f78d5
# LUTr-License: CC-BY-SA-4.0
# LUTr-License-URL: https://github.com/NatronGitHub/clut#license
# LUTr-License-Basis: repo-license-file
# LUTr-Transform-Class: film-emulation
# LUTr-Tags: creative, film, film-emulation, hald-clut, natron, png, cube
# LUTr-Input-Color-Space: srgb
# LUTr-Input-Gamut: rec709
# LUTr-Input-Transfer: srgb
# LUTr-Output-Color-Space: srgb
# LUTr-Output-Gamut: rec709
# LUTr-Output-Transfer: srgb
# LUTr-Color-Space-Confidence: assumed-display-referred
# LUTr-Domain-Normalized: true
# LUTr-Shaper: none
# LUTr-Original-Grid: 64x64x64
# LUTr-Conversion-Grid: 25x25x25
# LUTr-Conversion-Interpolation: trilinear
# LUTr-Conversion-Method: HALD-PNG LUT image decoded at 16-bit and sampled to 25x25x25 3D CUBE
# LUTr-Conversion-Tool: LUTr scripts/convert-all-to-cube.mjs 2.0.0
# LUTr-Conversion-Date: 2026-07-27
# LUTr-Note: Preserve this metadata and the upstream license notices when redistributing.
TITLE "kodak portra 400 +"
LUT_3D_SIZE 9
DOMAIN_MIN 0 0 0
DOMAIN_MAX 1 1 1
0.062745098 0.054901961 0.043137255
0.13578431 0.070098039 0.050980392
0.26960784 0.026470588 0.059803922
0.44215686 0.026470588 0.021078431
0.6254902 0.017647059 0.0078431373
0.79558824 0.020588235 0.0039215686
0.92156863 0.05 0
0.99215686 0.13872549 0
1 0.21568627 0
0.044117647 0.11666667 0.050980392
0.12015931 0.11617647 0.050490196
0.2622549 0.11960784 0.03627451
0.45245098 0.10882353 0.0098039216
0.64068627 0.092892157 0.0039215686
0.79068627 0.08627451 0.0039215686
0.9127451 0.14914216 0.0039215686
0.97352941 0.22647059 0
0.99607843 0.25392157 0
0.011764706 0.22254902 0.076470588
0.090686275 0.21666667 0.085784314
0.22916667 0.24215686 0.037009804
0.43051471 0.26458333 0.011764706
0.62843137 0.28039216 0.0039215686
0.7754902 0.28186275 0.0078431373
0.89117647 0.31764706 0.0068627451
0.96776961 0.33382353 0.0078431373
0.99215686 0.36470588 0.011764706
0.0039215686 0.35882353 0.10196078
0.037561275 0.34166667 0.11207108
0.1807598 0.36568627 0.10183824
0.37205882 0.39803922 0.01317402
0.57426471 0.43137255 0.0051470588
0.74852941 0.44509804 0.0014705882
0.86715686 0.45183824 0.014583333
0.96323529 0.45704657 0.015196078
0.99215686 0.47009804 0.0078431373
0 0.49019608 0.15098039
0 0.47892157 0.16446078
0.12107843 0.47401961 0.16470588
0.30882353 0.49583333 0.13872549
0.50490196 0.53333333 0.01372549
0.69362745 0.55882353 0.0078431373
0.83333333 0.56862745 0.014215686
0.94460784 0.5747549 0.011519608
0.99803922 0.58039216 0.0039215686
0.0014705882 0.60980392 0.22009804
0.0078431373 0.59675245 0.22254902
0.094117647 0.58125 0.22696078
0.29515931 0.58333333 0.23333333
0.45980392 0.61029412 0.1622549
0.63817402 0.64362745 0.066666667
0.79460784 0.67107843 0.0099264706
0.91158088 0.68069853 0.0073529412
0.98823529 0.68676471 0.0039215686
0.0049019608 0.7127451 0.30784314
0.031372549 0.70882353 0.29767157
0.20882353 0.69485294 0.32058824
0.3372549 0.68590686 0.31482843
0.45980392 0.69901961 0.30980392
0.5995098 0.725 0.28321078
0.75122549 0.75269608 0.20882353
0.89019608 0.77585784 0.090686275
0.98431373 0.78333333 0.03627451
0.29362745 0.81715686 0.44558824
0.31323529 0.81329657 0.44607843
0.36875 0.80931373 0.45036765
0.43431373 0.79381127 0.45165441
0.52156863 0.79803922 0.45833333
0.60716912 0.81323529 0.44117647
0.71813725 0.83382353 0.41176471
0.8533701 0.8533701 0.37591912
0.97107843 0.8754902 0.32647059
0.52156863 0.9254902 0.62745098
0.53284314 0.92156863 0.62745098
0.55980392 0.91764706 0.63529412
0.60980392 0.92254902 0.65833333
0.64901961 0.91176471 0.65490196
0.70098039 0.91519608 0.65098039
0.77058824 0.92941176 0.63921569
0.85245098 0.94117647 0.61862745
0.94509804 0.96862745 0.62352941
0.051470588 0.058823529 0.10098039
0.13578431 0.036703431 0.11268382
0.28088235 0.01997549 0.12303922
0.45735294 0.0056985294 0.10980392
0.64289216 0.010294118 0.10563725
0.80686275 0.0093137255 0.068933824
0.92401961 0.031372549 0.06127451
0.99215686 0.15784314 0.00042892157
1 0.22745098 0
0.02935049 0.13572304 0.12352941
0.13535539 0.12004442 0.12047335
0.27745098 0.11268382 0.13137255
0.46219363 0.088587623 0.10130974
0.64877451 0.065012255 0.083854167
0.79965533 0.0848269 0.054901961
0.9127451 0.14253983 0.04375
0.98448223 0.2265242 0.0068627451
1 0.25784314 0.0038602941
0.0039215686 0.25306373 0.13823529
0.11306679 0.24252451 0.14096201
0.24632353 0.24561887 0.13146446
0.44664522 0.27334559 0.085738358
0.63578431 0.28039216 0.035171569
0.78757659 0.28529412 0.0073529412
0.89702819 0.30983456 0.011642157
0.97041973 0.3428462 0.013005515
0.99215686 0.37352941 0.0039215686
0.0039215686 0.39362745 0.17107843
0.034872855 0.38057598 0.17333027
0.20943627 0.37336091 0.16977635
0.4013557 0.41084559 0.12168352
0.59852941 0.43578431 0.050183824
0.75618107 0.44037224 0.01439185
0.87161458 0.45294118 0.015686275
0.96952359 0.46905637 0.0082720588
0.99607843 0.47775735 0.0039215686
0 0.50931373 0.18946078
0.013235294 0.5051777 0.2120098
0.15379902 0.48995098 0.21372549
0.3247549 0.50373775 0.19592525
0.53088235 0.54387255 0.10514706
0.70891544 0.57224265 0.014246324
0.84117647 0.58014706 0.019730392
0.94460784 0.58213848 0.0098039216
0.99240196 0.58627451 0.0039215686
0.0039215686 0.62371324 0.26813725
0.0073529412 0.6158701 0.26470588
0.15124081 0.5979473 0.27205882
0.31372549 0.59460784 0.26305913
0.46911765 0.61795343 0.23186275
0.64417892 0.65116422 0.16433058
0.80275735 0.67899816 0.059313725
0.91764706 0.68302696 0.011910233
0.98302696 0.68823529 0.0021446078
0.011397059 0.72009804 0.33051471
0.088235294 0.71392463 0.34019608
0.23345588 0.70251225 0.34705882
0.34568015 0.68811275 0.34852941
0.47898284 0.70618873 0.34252451
0.59900429 0.72463235 0.31167279
0.74730392 0.75196078 0.2528799
0.88676471 0.7754902 0.18350184
0.98762255 0.78333333 0.068259804
0.29319853 0.81764706 0.46470588
0.3236443 0.81420803 0.46164982
0.37438725 0.80909926 0.46482843
0.44258578 0.79411765 0.46922488
0.52328431 0.79803922 0.47720588
0.61448376 0.81470588 0.46388634
0.72596507 0.83382353 0.44025735
0.84590227 0.85294118 0.39772518
0.97248775 0.87555147 0.35551471
0.51421569 0.92156863 0.62745098
0.53333333 0.92199755 0.63529412
0.56397059 0.92561275 0.6442402
0.59068627 0.90588235 0.63743873
0.65465686 0.90955882 0.67009804
0.70098039 0.91550245 0.65833333
0.76666667 0.9254902 0.63823529
0.84852941 0.9495098 0.63927696
0.91029412 0.95735294 0.62401961
0.029411765 0.050980392 0.24215686
0.16262255 0.032843137 0.26568627
0.31397059 0.028431373 0.28259804
0.48321078 0.0049019608 0.28039216
0.68284314 0.0078431373 0.28578431
0.8254902 0.0018382353 0.25894608
0.93063725 0.02254902 0.24509804
0.98872549 0.15379902 0.24276961
0.99607843 0.2245098 0.23627451
0.037254902 0.14754902 0.24313725
0.13921569 0.136106 0.25795037
0.29911152 0.12267157 0.27558211
0.48676471 0.070572917 0.28394608
0.67616422 0.015379902 0.27254902
0.82354473 0.019791667 0.25021446
0.92365196 0.14408701 0.25168505
0.98941483 0.229519 0.23089767
1 0.28676471 0.22022059
0.0080882353 0.28431373 0.26568627
0.050245098 0.29292279 0.27601103
0.28921569 0.28131127 0.27886029
0.47628676 0.2814951 0.26945466
0.65098039 0.27107843 0.24889706
0.79776348 0.28066789 0.23235294
0.90196078 0.31390931 0.22647059
0.99151348 0.3495098 0.20842525
0.99607843 0.38137255 0.18014706
0.0078431373 0.4495098 0.30061275
0.087101716 0.44696691 0.30294118
0.26973039 0.4245098 0.30343137
0.44313725 0.43719363 0.2772212
0.61985294 0.45257353 0.23676471
0.76421569 0.4504902 0.17535233
0.87938113 0.45968137 0.17720588
0.97156863 0.47660846 0.15556066
0.99215686 0.48578431 0.14007353
0.031862745 0.56470588 0.32794118
0.052389706 0.55704657 0.31617647
0.24362745 0.53235294 0.32647059
0.37273284 0.52377451 0.31862745
0.55539216 0.55637255 0.27965686
0.71397059 0.57598039 0.22720588
0.84509804 0.5875 0.1620098
0.94068627 0.58235294 0.071078431
0.99313725 0.58627451 0.066176471
0.013848039 0.65441176 0.35428922
0.054457721 0.64698223 0.34644608
0.24080882 0.63014706 0.35030637
0.36078431 0.60943627 0.3584712
0.49454657 0.6317402 0.34215686
0.65654105 0.66286765 0.30268076
0.79852941 0.67938113 0.25242034
0.91796875 0.68805147 0.18762255
0.99178922 0.68284314 0.076470588
0.11960784 0.73921569 0.41102941
0.18912377 0.73532475 0.4127451
0.28921569 0.72352941 0.4098652
0.39166667 0.70254289 0.41642157
0.48982843 0.70980392 0.40992647
0.60931373 0.72892157 0.3870098
0.75232843 0.75680147 0.36691176
0.8872549 0.77576593 0.32414216
0.99142157 0.77941176 0.26102941
0.33529412 0.82794118 0.50588235
0.34882047 0.82568934 0.50502451
0.39518995 0.81841299 0.50196078
0.46213235 0.80677083 0.51015625
0.54001225 0.80140931 0.52083333
0.63578431 0.81861213 0.5229473
0.72928922 0.83753064 0.50159314
0.84810049 0.85637255 0.46703431
0.95147059 0.87107843 0.44546569
0.5127451 0.91372549 0.63431373
0.54019608 0.92892157 0.65343137
0.56053922 0.92230392 0.65
0.60686275 0.91911765 0.66323529
0.65784314 0.91617647 0.68431373
0.71421569 0.92696078 0.69252451
0.77132353 0.9247549 0.65784314
0.85245098 0.94987745 0.66568627
0.92647059 0.95784314 0.64705882
0.0093137255 0.058823529 0.41862745
0.14754902 0.043627451 0.44313725
0.34460784 0.01372549 0.47083333
0.54754902 0.0078431373 0.49558824
0.72720588 0.0078431373 0.50343137
0.83186275 0.0039215686 0.48872549
0.93235294 0.012867647 0.45147059
0.99626225 0.032843137 0.43106618
1 0.18921569 0.41764706
0.0014705882 0.14362745 0.41470588
0.131947 0.13921569 0.43039216
0.33382353 0.12486213 0.46769301
0.54509804 0.077879902 0.49833027
0.70931373 0.045281863 0.49632353
0.83117341 0.028730086 0.4838848
0.92843137 0.09609375 0.45050551
0.99607843 0.21047794 0.43821232
1 0.2908701 0.43088235
0.019607843 0.29313725 0.41127451
0.070588235 0.28921569 0.42071078
0.29865196 0.29525123 0.4622549
0.53045343 0.30507047 0.48872549
0.67144608 0.29240196 0.47696078
0.80968137 0.28457414 0.46764706
0.90900735 0.32748162 0.44880515
0.98480392 0.36332721 0.43730086
0.99607843 0.38921569 0.42892157
0.0069240196 0.49166667 0.46568627
0.012676164 0.47175245 0.45380668
0.25965074 0.46265319 0.45890012
0.47647059 0.46078431 0.47107843
0.64341299 0.47199755 0.45876225
0.77393536 0.47261029 0.43488817
0.87892157 0.47689951 0.42624081
0.96341912 0.49227175 0.41623775
0.99607843 0.50484069 0.41470588
0.0093137255 0.6252451 0.48676471
0.073161765 0.62254902 0.48872549
0.29203431 0.59368873 0.48118873
0.4296875 0.55998775 0.46838235
0.59509804 0.58284314 0.44877451
0.73109681 0.59411765 0.42696078
0.84656863 0.59142157 0.39993873
0.94568015 0.59411765 0.37279412
0.9870098 0.59926471 0.37058824
0.23811275 0.69803922 0.50931373
0.2995098 0.69418658 0.51176471
0.36507353 0.68088235 0.49811581
0.43578431 0.65392157 0.4848652
0.53900123 0.65346201 0.46862745
0.66568627 0.675 0.45539216
0.79803922 0.68566176 0.42035846
0.91771599 0.68676471 0.38284314
0.99123775 0.68039216 0.33137255
0.29509804 0.76617647 0.52634804
0.32308517 0.7622549 0.5191636
0.3736826 0.75367647 0.51164216
0.43984375 0.73350184 0.50245098
0.5276348 0.72175245 0.50116422
0.6334712 0.7401348 0.49803922
0.75542279 0.75891544 0.46776961
0.89375 0.77843137 0.44693627
0.98431373 0.77941176 0.41617647
0.37469363 0.84313725 0.56979167
0.3877068 0.84313725 0.56950061
0.43426777 0.83561581 0.56885723
0.48928462 0.82352941 0.56457567
0.56078431 0.81078431 0.57647059
0.6307598 0.81323529 0.56667433
0.73291973 0.83382353 0.55793505
0.84536612 0.85610447 0.53823529
0.96813725 0.87598039 0.51911765
0.52401961 0.92794118 0.66519608
0.54129902 0.93627451 0.67726716
0.55232843 0.92009804 0.66666667
0.60637255 0.92696078 0.68872549
0.65563725 0.91568627 0.69607843
0.70882353 0.91519608 0.7004902
0.77659314 0.92941176 0.69656863
0.85245098 0.94509804 0.68823529
0.93333333 0.9622549 0.67843137
0.0058823529 0.10196078 0.5745098
0.18137255 0.069117647 0.59166667
0.36911765 0.0083333333 0.62647059
0.59877451 0.0098039216 0.66715686
0.75784314 0.0078431373 0.67843137
0.85073529 0.0078431373 0.66397059
0.93823529 0.0068627451 0.65
0.99828431 0.12941176 0.63088235
1 0.23137255 0.59803922
0.0034313725 0.16102941 0.5745098
0.13651961 0.15392157 0.59166667
0.36519608 0.13792892 0.62291667
0.58235294 0.12794118 0.65882353
0.74914216 0.091421569 0.67855392
0.84598652 0.11734069 0.6620098
0.9286152 0.17279412 0.64411765
0.99215686 0.24806985 0.625
0.99607843 0.30098039 0.6
0.015686275 0.29705882 0.5627451
0.094117647 0.29362745 0.56740196
0.33333333 0.3 0.60392157
0.55067402 0.31715686 0.63995098
0.72230392 0.32818627 0.66764706
0.82107843 0.334375 0.65355392
0.91666667 0.35710784 0.63909314
0.98088235 0.38578431 0.61727941
0.99215686 0.40637255 0.60588235
0.0039215686 0.45735294 0.56323529
0.025398284 0.44476103 0.55661765
0.26727941 0.44883578 0.56243873
0.48088235 0.46960784 0.59776348
0.67352941 0.49436275 0.64031863
0.78428309 0.5004902 0.63210784
0.88284314 0.50588235 0.62156863
0.96323529 0.51783088 0.6122549
0.99215686 0.5254902 0.60588235
0.015686275 0.61470588 0.60196078
0.019607843 0.62120098 0.61139706
0.28382353 0.62181373 0.61102941
0.47598039 0.61164216 0.60992647
0.63333333 0.61029412 0.62058824
0.74889706 0.60821078 0.60588235
0.8502451 0.61470588 0.60343137
0.9435049 0.61666667 0.58578431
0.99019608 0.6254902 0.58235294
0.10931373 0.74926471 0.64166667
0.22028186 0.7372549 0.63560049
0.38167892 0.72990196 0.63376225
0.49708946 0.71421569 0.62622549
0.58786765 0.69571078 0.60551471
0.6926777 0.68844975 0.59656863
0.81599265 0.70122549 0.57261029
0.92441789 0.69191176 0.54696691
0.99142157 0.69509804 0.5377451
0.3754902 0.80392157 0.64607843
0.40220588 0.80018382 0.65079657
0.47022059 0.78823529 0.64203431
0.52683824 0.77346814 0.62922794
0.57818627 0.75147059 0.61151961
0.65275735 0.74583333 0.59797794
0.76519608 0.76715686 0.59607843
0.89460784 0.78155637 0.56654412
0.98333333 0.78333333 0.54509804
0.4875 0.86593137 0.66911765
0.49613971 0.86571691 0.66936275
0.5 0.85833333 0.65735294
0.53832721 0.84803922 0.6495098
0.58333333 0.82806373 0.63835784
0.65098039 0.8135723 0.64068627
0.73676471 0.83719363 0.63584559
0.84923407 0.85686275 0.62328431
0.95833333 0.87769608 0.61495098
0.55294118 0.94117647 0.71372549
0.55490196 0.94117647 0.71568627
0.57892157 0.94607843 0.72058824
0.59803922 0.92843137 0.71004902
0.65294118 0.92254902 0.71666667
0.71348039 0.91470588 0.72916667
0.77941176 0.92990196 0.73676471
0.85637255 0.94779412 0.73210784
0.91960784 0.92352941 0.68039216
0.17598039 0.12794118 0.71568627
0.25147059 0.096078431 0.71911765
0.41335784 0.091789216 0.73284314
0.59656863 0.034252451 0.75833333
0.75808824 0.047794118 0.78284314
0.875 0.10790441 0.79356618
0.94816176 0.1557598 0.78137255
0.99264706 0.26470588 0.76666667
1 0.30882353 0.74166667
0.12745098 0.1877451 0.70441176
0.24215686 0.19199602 0.71390931
0.4122549 0.18520221 0.73284314
0.5866345 0.18039216 0.75588235
0.74926471 0.19966299 0.77720588
0.87292433 0.24547335 0.79363511
0.93314951 0.27481618 0.77352941
0.98545496 0.31584712 0.7591299
0.99607843 0.33872549 0.76127451
0.063848039 0.30845588 0.68884804
0.19376532 0.31276042 0.70079657
0.36593137 0.32441789 0.71495098
0.55784314 0.33835784 0.74324449
0.72689951 0.375 0.77107843
0.84699755 0.41029412 0.78273591
0.92478554 0.41372549 0.76960784
0.98904718 0.43249081 0.75467218
0.99460784 0.4495098 0.75379902
0.0093137255 0.44270833 0.67015931
0.09754902 0.44117647 0.66686581
0.30565257 0.45209865 0.67941176
0.49908088 0.46828278 0.70729167
0.68452819 0.51323529 0.75143995
0.81127451 0.54607843 0.766322
0.89571078 0.54676777 0.75859375
0.9653799 0.5463848 0.75166973
0.99123775 0.55545343 0.74221814
0.0071078431 0.57892157 0.67818627
0.055637255 0.57303922 0.66960784
0.27408088 0.57818627 0.67279412
0.4416973 0.58210784 0.67671569
0.62683824 0.6182598 0.72034314
0.7752451 0.64264706 0.74782475
0.86875 0.64583333 0.7346201
0.94803922 0.64264706 0.73333333
0.98946078 0.64656863 0.72867647
0.1161152 0.71568627 0.71476716
0.23750766 0.71825214 0.71905637
0.35196078 0.71421569 0.71029412
0.48578431 0.72843137 0.72058824
0.61568627 0.72282475 0.72282475
0.7341682 0.72205882 0.72990196
0.83394608 0.72522978 0.72029718
0.92303922 0.71813725 0.70461091
0.99307598 0.71721814 0.70392157
0.35147059 0.83872549 0.7567402
0.37794118 0.83564645 0.7495098
0.44852941 0.83207721 0.7495098
0.53442096 0.82375919 0.74221814
0.62573529 0.80692402 0.73161765
0.69509804 0.7805913 0.71360294
0.79264706 0.78872549 0.7127451
0.89852941 0.79448529 0.69981618
0.9814951 0.78835784 0.69068627
0.47873775 0.9004902 0.7591299
0.48970588 0.90032935 0.75392157
0.53114277 0.89264706 0.75392157
0.57205882 0.88265931 0.74754902
0.62018995 0.86724877 0.73097426
0.68823529 0.8448989 0.72647059
0.75992647 0.8442402 0.72120098
0.86413143 0.86437653 0.71599265
0.97714461 0.88333333 0.70343137
0.575 0.95833333 0.7872549
0.58265931 0.96078431 0.7872549
0.61115196 0.95833333 0.7872549
0.64258578 0.95533088 0.78333333
0.6754902 0.93676471 0.77230392
0.72843137 0.93186275 0.77794118
0.78872549 0.9314951 0.78051471
0.86550245 0.9377451 0.77401961
0.94852941 0.96960784 0.77794118
0.31470588 0.18039216 0.81470588
0.36237745 0.17218137 0.81078431
0.48063725 0.1629902 0.82156863
0.61041667 0.15245098 0.84117647
0.7504902 0.18823529 0.85882353
0.8754902 0.27107843 0.87401961
0.95882353 0.31078431 0.87745098
1 0.33982843 0.86911765
1 0.38333333 0.84509804
0.29558824 0.23639706 0.81078431
0.35609681 0.22863051 0.81427696
0.46213235 0.2317402 0.81862745
0.60284926 0.23921569 0.83394608
0.74528186 0.2870098 0.85490196
0.86772365 0.34437806 0.87794118
0.93961397 0.3796875 0.86936275
0.98823529 0.39771752 0.85424326
0.99215686 0.41372549 0.84901961
0.23235294 0.33823529 0.79215686
0.31810662 0.34215686 0.79923407
0.43584559 0.34779412 0.81078431
0.5791973 0.36896446 0.82610294
0.72401961 0.40882353 0.84595588
0.84528186 0.46335784 0.86470588
0.93529412 0.48529412 0.86789216
0.98458946 0.48566176 0.85
0.98823529 0.49313725 0.84681373
0.15355392 0.45392157 0.77340686
0.24272365 0.46176471 0.77696078
0.38440564 0.46243873 0.78970588
0.53065257 0.48602941 0.80317096
0.68363971 0.5254902 0.82971814
0.81588542 0.57238051 0.85182292
0.90992647 0.5989277 0.85686275
0.97045037 0.58970588 0.8470435
0.99607843 0.59656863 0.83921569
0.0093137255 0.56470588 0.74705882
0.056801471 0.55980392 0.740625
0.28308824 0.56348039 0.75073529
0.46127451 0.57800245 0.77273284
0.62843137 0.60931373 0.8
0.78333333 0.65906863 0.8401348
0.88431373 0.68676471 0.84522059
0.95238971 0.67947304 0.84068627
0.98627451 0.67990196 0.83431373
0.074019608 0.68039216 0.76813725
0.2009038 0.68345588 0.76968444
0.30968137 0.67941176 0.7700674
0.43846507 0.67719056 0.76637561
0.56213235 0.68026961 0.76525735
0.73062194 0.72685355 0.81372549
0.86822917 0.76106005 0.84105392
0.94105392 0.75686275 0.83321078
0.98578431 0.75294118 0.83039216
0.30661765 0.81544118 0.81544118
0.33235294 0.80686275 0.81004902
0.41102941 0.80294118 0.80704657
0.50909926 0.81087623 0.81289828
0.61188725 0.80992647 0.80870098
0.72218137 0.81746324 0.81930147
0.81691176 0.81053922 0.81372549
0.91519608 0.81936275 0.81344975
0.98137255 0.81470588 0.80833333
0.45196078 0.92303922 0.84166667
0.46715686 0.92293199 0.84198836
0.51323529 0.91657475 0.83795956
0.58053002 0.90712316 0.83382353
0.65998775 0.90784314 0.83737745
0.73333333 0.89299939 0.82950368
0.78765319 0.86115196 0.80799632
0.87941176 0.8756587 0.80735294
0.96813725 0.88382353 0.80735294
0.54411765 0.98137255 0.84117647
0.55196078 0.97389706 0.84595588
0.58112745 0.96838235 0.84901961
0.63921569 0.96470588 0.84901961
0.69558824 0.96078431 0.84901961
0.75196078 0.95539216 0.8439951
0.80294118 0.94926471 0.8372549
0.87156863 0.94509804 0.8372549
0.94901961 0.96862745 0.84117647
0.44509804 0.27156863 0.90735294
0.47591912 0.26084559 0.90643382
0.54276961 0.27303922 0.90686275
0.64136029 0.27794118 0.91501225
0.74509804 0.33578431 0.92254902
0.84834559 0.38872549 0.93167892
0.94669118 0.43382353 0.94215686
0.99607843 0.45821078 0.93780637
1 0.47990196 0.92254902
0.4372549 0.32647059 0.89908088
0.46721814 0.32217371 0.8995098
0.53921569 0.3216299 0.90735294
0.63560049 0.3403799 0.90965839
0.73946078 0.36985294 0.92104779
0.83952206 0.41866575 0.93039216
0.93578431 0.47942708 0.94215686
0.99215686 0.50594363 0.94086244
0.99607843 0.50588235 0.92254902
0.40294118 0.39987745 0.89252451
0.45294118 0.41061581 0.89241728
0.52178309 0.41660539 0.90015319
0.61864277 0.43020833 0.90589767
0.72034314 0.45759804 0.91691176
0.82794118 0.50243566 0.92651654
0.92797181 0.55147059 0.93909314
0.99183517 0.56801471 0.93823529
0.99607843 0.57193627 0.92683824
0.34283088 0.49675245 0.88008578
0.38523284 0.49901961 0.87990196
0.46567096 0.51167279 0.88382353
0.57462469 0.52843137 0.89258578
0.69935662 0.55768995 0.90588235
0.81280637 0.59055607 0.91862745
0.91190257 0.63324142 0.92743566
0.98498775 0.64352022 0.93190104
0.99607843 0.64754902 0.92040441
0.24044118 0.59093137 0.85098039
0.29335172 0.59509804 0.85441176
0.38259804 0.59485294 0.86262255
0.52058824 0.603125 0.87533701
0.65588235 0.62916667 0.89044118
0.78063725 0.66608456 0.90848652
0.89515931 0.70821078 0.92689951
0.9676777 0.72227328 0.92647059
0.99215686 0.71642157 0.91911765
0.10079657 0.67677696 0.84215686
0.18504902 0.67910539 0.84068627
0.29969363 0.6754902 0.84197304
0.41029412 0.66747089 0.83878676
0.58284314 0.68970588 0.8611826
0.72689951 0.72113971 0.89117647
0.86519608 0.76862745 0.91813725
0.95795037 0.79166667 0.92604167
0.99068627 0.78382353 0.91734069
0.26115196 0.78419118 0.86605392
0.30490196 0.78656556 0.86793811
0.37634804 0.78039216 0.86862745
0.47242647 0.78031556 0.86519608
0.56323529 0.77512255 0.86470588
0.67090993 0.77267157 0.86413909
0.81372549 0.80750613 0.89157475
0.92945772 0.84906556 0.91475184
0.97634804 0.8495098 0.91519608
0.41666667 0.89515931 0.89901961
0.42849265 0.8986443 0.89558824
0.48206189 0.8998315 0.89816176
0.55886183 0.89607843 0.8995098
0.6379902 0.89534314 0.8995098
0.71846661 0.89558824 0.8995098
0.81046262 0.89178922 0.89693627
0.90784314 0.90435049 0.90746783
0.96721814 0.90343137 0.89993873
0.50539216 0.98039216 0.91470588
0.51666667 0.98088235 0.91470588
0.57647059 0.9942402 0.91813725
0.61648284 0.97696078 0.91519608
0.69387255 0.97671569 0.92083333
0.75980392 0.96354167 0.91734069
0.8254902 0.94901961 0.91384804
0.8877451 0.95686275 0.90735294
0.96568627 0.97303922 0.90686275
0.55686275 0.42352941 0.98039216
0.56862745 0.41617647 0.97303922
0.60490196 0.4372549 0.97254902
0.67156863 0.42058824 0.97107843
0.75490196 0.46078431 0.98627451
0.83578431 0.48382353 0.98039216
0.92058824 0.51764706 0.99117647
0.99607843 0.53431373 0.98088235
1 0.56862745 0.99215686
0.54509804 0.45392157 0.97254902
0.56121324 0.45 0.96862745
0.61421569 0.46642157 0.9807598
0.67579657 0.46991422 0.98039216
0.75098039 0.49362745 0.98480392
0.83578431 0.50294118 0.97303922
0.91666667 0.54166667 0.98480392
0.99607843 0.58682598 0.99515931
0.99607843 0.57990196 0.98431373
0.53333333 0.51078431 0.96862745
0.56556373 0.52389706 0.97647059
0.60367647 0.52352941 0.97352941
0.66041667 0.52598039 0.97254902
0.74166667 0.54901961 0.98039216
0.82892157 0.55747549 0.97009804
0.91568627 0.57965686 0.97254902
0.97389706 0.62254902 0.9877451
0.99215686 0.62941176 0.98039216
0.51127451 0.58921569 0.96862745
0.52205882 0.58351716 0.96047794
0.58345588 0.59313725 0.96862745
0.6411152 0.59313725 0.96470588
0.73014706 0.61862745 0.97647059
0.8122549 0.6377451 0.97794118
0.90208333 0.65588235 0.97254902
0.97303922 0.68118873 0.97794118
0.99607843 0.69509804 0.98823529
0.48039216 0.65882353 0.95882353
0.50710784 0.66078431 0.9622549
0.54264706 0.65882353 0.95882353
0.62426471 0.67107843 0.97303922
0.70196078 0.6754902 0.96470588
0.79779412 0.69485294 0.97230392
0.89117647 0.72156863 0.97598039
0.97867647 0.74166667 0.96495098
0.99607843 0.75686275 0.98823529
0.41666667 0.72843137 0.95294118
0.41930147 0.72205882 0.94234069
0.48664216 0.72879902 0.95
0.54993873 0.72285539 0.94718137
0.6495098 0.72720588 0.94583333
0.76519608 0.75196078 0.97101716
0.86127451 0.77438725 0.96470588
0.96764706 0.80343137 0.95735294
0.99362745 0.81862745 0.98431373
0.4127451 0.80784314 0.95882353
0.42193627 0.80330882 0.95085784
0.46911765 0.80612745 0.95808824
0.52316176 0.80294118 0.95294118
0.59264706 0.79019608 0.93039216
0.70490196 0.79852941 0.9557598
0.83259804 0.8247549 0.97156863
0.94473039 0.86115196 0.98125
0.98333333 0.86764706 0.9627451
0.41715686 0.8877451 0.94558824
0.45980392 0.89558824 0.96078431
0.46703431 0.8877451 0.94252451
0.54509804 0.89166667 0.94969363
0.62009804 0.88431373 0.95735294
0.69117647 0.88431373 0.96305147
0.78468137 0.88431373 0.96470588
0.91127451 0.91470588 0.95251225
0.99264706 0.93431373 0.98088235
0.49019608 0.98039216 0.94901961
0.50147059 0.98088235 0.95980392
0.54313725 0.98039216 0.96568627
0.60490196 0.98431373 0.94264706
0.64509804 0.95490196 0.97647059
0.73382353 0.97892157 0.98039216
0.81470588 0.96862745 0.97254902
0.8995098 0.97696078 0.98039216
0.98431373 0.98431373 0.98431373
