site/assets/luts/sha256-b6aebc38c460f5cca4231196cc7e4b5eab9369f0c3af1d152cbe1e90bad5fc40.cube
# LUTr-Schema-Version: 2
# LUTr-ID: sha256-b6aebc38c460f5cca4231196cc7e4b5eab9369f0c3af1d152cbe1e90bad5fc40
# LUTr-Title: polaroid 669 +
# LUTr-Collection: Natron HaldCLUT
# LUTr-Collection-ID: natron-haldclut-presets
# LUTr-Source: https://github.com/NatronGitHub/clut
# LUTr-Retrieved: 2026-07-27
# LUTr-Source-File: submissions/natron-haldclut-presets/instant_pro/polaroid_669_+.png
# LUTr-Source-Format: HALD-PNG
# LUTr-Source-SHA256: b6aebc38c460f5cca4231196cc7e4b5eab9369f0c3af1d152cbe1e90bad5fc40
# LUTr-License: CC-BY-SA-4.0
# LUTr-License-URL: https://github.com/NatronGitHub/clut#license
# LUTr-License-Basis: repo-license-file
# LUTr-Transform-Class: film-emulation
# LUTr-Tags: creative, film, film-emulation, hald-clut, natron, png, cube
# LUTr-Input-Color-Space: srgb
# LUTr-Input-Gamut: rec709
# LUTr-Input-Transfer: srgb
# LUTr-Output-Color-Space: srgb
# LUTr-Output-Gamut: rec709
# LUTr-Output-Transfer: srgb
# LUTr-Color-Space-Confidence: assumed-display-referred
# LUTr-Domain-Normalized: true
# LUTr-Shaper: none
# LUTr-Original-Grid: 64x64x64
# LUTr-Conversion-Grid: 25x25x25
# LUTr-Conversion-Interpolation: trilinear
# LUTr-Conversion-Method: HALD-PNG LUT image decoded at 16-bit and sampled to 25x25x25 3D CUBE
# LUTr-Conversion-Tool: LUTr scripts/convert-all-to-cube.mjs 2.0.0
# LUTr-Conversion-Date: 2026-07-27
# LUTr-Note: Preserve this metadata and the upstream license notices when redistributing.
TITLE "polaroid 669 +"
LUT_3D_SIZE 25
DOMAIN_MIN 0 0 0
DOMAIN_MAX 1 1 1
0 0.18823529 0.17647059
0 0.19215686 0.18039216
0 0.19215686 0.18039216
0 0.19215686 0.18039216
0.0078431373 0.19411765 0.18039216
0.049509804 0.20833333 0.19705882
0.083333333 0.20490196 0.19705882
0.11176471 0.19607843 0.18578431
0.15294118 0.2 0.19215686
0.19019608 0.20392157 0.19852941
0.22745098 0.20784314 0.20098039
0.26127451 0.20784314 0.20392157
0.31568627 0.21176471 0.21372549
0.37107843 0.21568627 0.22009804
0.41862745 0.21568627 0.22647059
0.46617647 0.21568627 0.23284314
0.51372549 0.21960784 0.24313725
0.5627451 0.21960784 0.25343137
0.60784314 0.22058824 0.25980392
0.65294118 0.22696078 0.27009804
0.69803922 0.22941176 0.27647059
0.73921569 0.23137255 0.28284314
0.78039216 0.23823529 0.28921569
0.82303922 0.25245098 0.2995098
0.8627451 0.2627451 0.30588235
0 0.19852941 0.18284314
0 0.19852941 0.18376225
0 0.19889706 0.18431373
0 0.20245098 0.18302696
0.016176471 0.20245098 0.18553922
0.056862745 0.21256127 0.2004902
0.089705882 0.21127451 0.19705882
0.12205882 0.20637255 0.19460784
0.15931373 0.20637255 0.19852941
0.2004902 0.21029412 0.2033701
0.2377451 0.21421569 0.2067402
0.27745098 0.21421569 0.21372549
0.3252451 0.21495098 0.21813725
0.37303922 0.21568627 0.22224265
0.41678922 0.21568627 0.22647059
0.46317402 0.21568627 0.22984069
0.51372549 0.21960784 0.24313725
0.5627451 0.21960784 0.25343137
0.60784314 0.22058824 0.2627451
0.65294118 0.22696078 0.27009804
0.69803922 0.23063725 0.27843137
0.74313725 0.23167892 0.28284314
0.78284314 0.24068627 0.29203431
0.8254902 0.2533701 0.2995098
0.86911765 0.26666667 0.30588235
0 0.20882353 0.18921569
0 0.20882353 0.18921569
0 0.20882353 0.19215686
0.0044117647 0.2122549 0.19215686
0.026470588 0.2127451 0.19313725
0.064705882 0.21715686 0.20061275
0.096813725 0.21740196 0.20171569
0.13235294 0.21666667 0.20098039
0.16960784 0.21666667 0.20490196
0.21078431 0.2185049 0.20845588
0.25196078 0.22058824 0.21446078
0.29313725 0.22058824 0.22046569
0.33676471 0.22058824 0.22843137
0.38333333 0.22058824 0.22879902
0.4254902 0.22058824 0.23137255
0.47058824 0.22156863 0.23345588
0.51764706 0.2245098 0.24313725
0.56727941 0.2245098 0.25343137
0.6120098 0.2254902 0.2627451
0.65772059 0.23186275 0.27009804
0.70441176 0.23676471 0.28039216
0.74791667 0.24166667 0.28676471
0.78529412 0.25196078 0.29485294
0.8247549 0.26519608 0.30343137
0.84411765 0.27156863 0.30980392
0 0.21911765 0.19558824
0 0.21911765 0.19589461
0.00098039216 0.21911765 0.19607843
0.010355392 0.22254902 0.19908088
0.036764706 0.22303922 0.1997549
0.072058824 0.22395833 0.20441176
0.10894608 0.22352941 0.20735294
0.14509804 0.22352941 0.20784314
0.17990196 0.22352941 0.21127451
0.22107843 0.22696078 0.21176471
0.2622549 0.22708333 0.22046569
0.30343137 0.22745098 0.23039216
0.34852941 0.22916667 0.23504902
0.39754902 0.23131127 0.23872549
0.44509804 0.23480392 0.23872549
0.4872549 0.23480392 0.24264706
0.52892157 0.23480392 0.24656863
0.57432598 0.23480392 0.25343137
0.62009804 0.23578431 0.25980392
0.66464461 0.24215686 0.27009804
0.70980392 0.24852941 0.28235294
0.75098039 0.25490196 0.29019608
0.78909314 0.26519608 0.29705882
0.8213848 0.27745098 0.30716912
0.8372549 0.28137255 0.31372549
0 0.22941176 0.20196078
0 0.22941176 0.20196078
0.00049019608 0.22941176 0.20245098
0.010784314 0.23284314 0.20392157
0.044117647 0.23333333 0.20686275
0.081862745 0.23357843 0.20980392
0.11960784 0.23529412 0.21127451
0.15539216 0.23333333 0.21176471
0.19019608 0.23333333 0.21176471
0.22671569 0.23455882 0.21495098
0.27352941 0.2372549 0.2245098
0.32132353 0.24093137 0.23308824
0.36764706 0.24411765 0.23921569
0.41397059 0.24730392 0.24142157
0.46029412 0.24901961 0.24460784
0.50392157 0.24901961 0.25171569
0.54705882 0.24901961 0.25490196
0.58823529 0.24705882 0.25686275
0.62941176 0.25098039 0.26176471
0.67058824 0.25661765 0.27205882
0.71372549 0.26372549 0.28039216
0.75514706 0.26911765 0.29019608
0.79607843 0.27941176 0.29705882
0.83529412 0.29558824 0.31127451
0.87254902 0.30588235 0.31960784
0 0.23970588 0.20833333
0 0.23970588 0.20802696
0 0.23970588 0.20796569
0.014215686 0.24313725 0.20833333
0.051470588 0.24387255 0.2120098
0.092156863 0.24761029 0.21568627
0.12990196 0.24889706 0.21568627
0.16568627 0.24803922 0.21617647
0.2004902 0.24803922 0.21617647
0.23823529 0.24803922 0.22254902
0.29080882 0.25196078 0.22892157
0.33927696 0.25582108 0.23572304
0.38480392 0.25931373 0.24142157
0.42689951 0.259375 0.24362745
0.47401961 0.26323529 0.25
0.51636029 0.26501225 0.25667892
0.56127451 0.26764706 0.2627451
0.60030637 0.26795343 0.26568627
0.63970588 0.27291667 0.27205882
0.67745098 0.27898284 0.28235294
0.72205882 0.28357843 0.28872549
0.76323529 0.28823529 0.29509804
0.80098039 0.29852941 0.30539216
0.84117647 0.31636029 0.3213848
0.8745098 0.33088235 0.33382353
0.0098039216 0.25392157 0.21470588
0.0079656863 0.25392157 0.21470588
0.0075980392 0.25367647 0.21470588
0.023897059 0.25637255 0.21470588
0.061764706 0.25931373 0.21862745
0.10245098 0.26176471 0.21862745
0.14019608 0.26470588 0.21936275
0.17708333 0.26470588 0.22071078
0.21470588 0.26470588 0.22647059
0.25772059 0.26862745 0.23394608
0.30490196 0.27254902 0.24215686
0.35379902 0.27598039 0.24607843
0.39901961 0.27647059 0.25
0.44056373 0.27683824 0.25
0.4875 0.28039216 0.25686275
0.5314951 0.28541667 0.26323529
0.5745098 0.28823529 0.26960784
0.61384804 0.29215686 0.27598039
0.65220588 0.29681373 0.28235294
0.69117647 0.30343137 0.29264706
0.73235294 0.30931373 0.3004902
0.77046569 0.31911765 0.30931373
0.80490196 0.32941176 0.31960784
0.84117647 0.3439951 0.33492647
0.87352941 0.35784314 0.34705882
0.030392157 0.27352941 0.225
0.030392157 0.27444853 0.225
0.032843137 0.27745098 0.225
0.048713235 0.27745098 0.225
0.083333333 0.27745098 0.225
0.11813725 0.27745098 0.225
0.15257353 0.27745098 0.225
0.1877451 0.28045343 0.22408088
0.23039216 0.28529412 0.23529412
0.27401961 0.28921569 0.24705882
0.32009804 0.29313725 0.25343137
0.36764706 0.29656863 0.25765931
0.41127451 0.2997549 0.26029412
0.45588235 0.30508578 0.26207108
0.49889706 0.30821078 0.26605392
0.54460784 0.31029412 0.27297794
0.58970588 0.3127451 0.27843137
0.62843137 0.31366422 0.28143382
0.66752451 0.32095588 0.29154412
0.70539216 0.32941176 0.30294118
0.74264706 0.33578431 0.31323529
0.778125 0.35 0.325
0.81213235 0.36360294 0.33529412
0.84509804 0.3745098 0.34859069
0.8745098 0.38480392 0.35980392
0.050980392 0.29803922 0.23529412
0.053431373 0.29803922 0.23529412
0.059803922 0.29803922 0.23529412
0.073529412 0.29803922 0.23529412
0.10588235 0.29803922 0.23529412
0.13872549 0.29803922 0.23529412
0.16960784 0.29803922 0.23235294
0.2004902 0.30196078 0.23284314
0.23921569 0.30588235 0.23921569
0.28284314 0.30980392 0.25196078
0.32647059 0.31470588 0.25980392
0.3745098 0.31764706 0.26617647
0.42156863 0.32352941 0.27058824
0.46862745 0.32941176 0.27401961
0.50588235 0.33235294 0.27352941
0.55098039 0.33333333 0.27843137
0.59607843 0.3372549 0.28235294
0.6372549 0.33970588 0.28872549
0.67843137 0.35392157 0.30294118
0.71568627 0.36421569 0.31715686
0.75098039 0.3745098 0.32745098
0.78235294 0.38480392 0.3377451
0.81666667 0.39509804 0.35196078
0.85147059 0.40539216 0.3622549
0.87843137 0.41568627 0.37254902
0.071568627 0.31862745 0.24803922
0.077022059 0.31862745 0.24650735
0.084313725 0.3192402 0.24558824
0.098039216 0.32107843 0.24558824
0.12843137 0.32107843 0.24558824
0.15686275 0.32254902 0.24558824
0.18664216 0.32254902 0.24497549
0.21378676 0.32555147 0.24558824
0.2495098 0.33039216 0.2495098
0.29068627 0.33376225 0.25735294
0.33333333 0.33713235 0.2627451
0.3745098 0.33823529 0.2627451
0.41838235 0.34215686 0.26666667
0.46599265 0.34785539 0.26844363
0.50588235 0.35 0.27352941
0.55098039 0.35692402 0.27990196
0.59607843 0.36421569 0.28872549
0.64270833 0.37303922 0.30147059
0.68627451 0.38933824 0.31997549
0.72383578 0.40275735 0.33351716
0.75735294 0.41176471 0.34166667
0.78841912 0.42205882 0.34803922
0.82242647 0.43235294 0.3622549
0.85147059 0.44264706 0.37647059
0.87843137 0.44901961 0.38529412
0.096078431 0.34411765 0.25980392
0.10061275 0.34313725 0.25980392
0.10808824 0.34313725 0.25490196
0.11875 0.34313725 0.25196078
0.14705882 0.34313725 0.25196078
0.17585784 0.34411765 0.25196078
0.1997549 0.34705882 0.25490196
0.22598039 0.34914216 0.25588235
0.26078431 0.35196078 0.25980392
0.30098039 0.35735294 0.26617647
0.33823529 0.35906863 0.26666667
0.37855392 0.36237745 0.26666667
0.41960784 0.3627451 0.26372549
0.46078431 0.36323529 0.26580882
0.50588235 0.37352941 0.2745098
0.55245098 0.38382353 0.28590686
0.6 0.39117647 0.29901961
0.64571078 0.40539216 0.3127451
0.69411765 0.4245098 0.33529412
0.73186275 0.43872549 0.34865196
0.76372549 0.44901961 0.35392157
0.79497549 0.45833333 0.35833333
0.82843137 0.46936275 0.37156863
0.85931373 0.4810049 0.38884804
0.88333333 0.49019608 0.40098039
0.12058824 0.37107843 0.27009804
0.1245098 0.36764706 0.26764706
0.13198529 0.36764706 0.26519608
0.13970588 0.36764706 0.2622549
0.16764706 0.36764706 0.2622549
0.19221814 0.36764706 0.2622549
0.21580882 0.37107843 0.2622549
0.23921569 0.37156863 0.26617647
0.27401961 0.3754902 0.27009804
0.31127451 0.37941176 0.27401961
0.34767157 0.38419118 0.27401961
0.38578431 0.38676471 0.27401961
0.4252451 0.39068627 0.27401961
0.46470588 0.39417892 0.27359069
0.50968137 0.40147059 0.28088235
0.55490196 0.41176471 0.29166667
0.60343137 0.41862745 0.30539216
0.64773284 0.43529412 0.32224265
0.69068627 0.45196078 0.33835784
0.72843137 0.46905637 0.34944853
0.76495098 0.48284314 0.35882353
0.80189951 0.49313725 0.36862745
0.83578431 0.50686275 0.38541667
0.86666667 0.52107843 0.40226716
0.89705882 0.53137255 0.41862745
0.14509804 0.39803922 0.28039216
0.1502451 0.39607843 0.27647059
0.15588235 0.39411765 0.27254902
0.16421569 0.39411765 0.26862745
0.18529412 0.39411765 0.27058824
0.20686275 0.39411765 0.27254902
0.22892157 0.39558824 0.27254902
0.25343137 0.39681373 0.27401961
0.28627451 0.4 0.27843137
0.32156863 0.40514706 0.28039216
0.35784314 0.4122549 0.28431373
0.39436275 0.41740196 0.28431373
0.43333333 0.42254902 0.28431373
0.47230392 0.42573529 0.28235294
0.51519608 0.43235294 0.28921569
0.55882353 0.4379902 0.29877451
0.60196078 0.44705882 0.30588235
0.64313725 0.46053922 0.31813725
0.68431373 0.47647059 0.33235294
0.72181373 0.49338235 0.34656863
0.75882353 0.50686275 0.35882353
0.79583333 0.52058824 0.37156863
0.83039216 0.54117647 0.39901961
0.86127451 0.55710784 0.42254902
0.88823529 0.56862745 0.44117647
0.16960784 0.42892157 0.28676471
0.17352941 0.425 0.2841299
0.17843137 0.425 0.28284314
0.18523284 0.425 0.27935049
0.20098039 0.425 0.28308824
0.225 0.425 0.28676471
0.24301471 0.42205882 0.28296569
0.26403186 0.4223652 0.28284314
0.29852941 0.42843137 0.28676471
0.33186275 0.43529412 0.29068627
0.36421569 0.44166667 0.29460784
0.40196078 0.44460784 0.29417892
0.43921569 0.4502451 0.29044118
0.47647059 0.45594363 0.28676471
0.51764706 0.46029412 0.29313725
0.55882353 0.46568627 0.2995098
0.5995098 0.47598039 0.30588235
0.6372549 0.48578431 0.3122549
0.67794118 0.50012255 0.32598039
0.71525735 0.51764706 0.340625
0.75269608 0.53259804 0.35661765
0.78927696 0.55098039 0.37401961
0.82438725 0.57205882 0.40882353
0.85557598 0.59313725 0.44460784
0.88235294 0.61029412 0.46813725
0.19411765 0.45980392 0.29411765
0.19411765 0.45980392 0.29313725
0.19901961 0.45955882 0.29313725
0.20931373 0.45625 0.29313725
0.22303922 0.45882353 0.29656863
0.24215686 0.45931373 0.29705882
0.25980392 0.45514706 0.29705882
0.27941176 0.45196078 0.29313725
0.30588235 0.45588235 0.29705882
0.33970588 0.46262255 0.29987745
0.37156863 0.47156863 0.30416667
0.40245098 0.47512255 0.30098039
0.43921569 0.47941176 0.29705882
0.47647059 0.48382353 0.29705882
0.51764706 0.49044118 0.3
0.55735294 0.49840686 0.30526961
0.59607843 0.50686275 0.30980392
0.63333333 0.51323529 0.31335784
0.67058824 0.5245098 0.31960784
0.70882353 0.54129902 0.33627451
0.74901961 0.55833333 0.35
0.78578431 0.57585784 0.37401961
0.81985294 0.5997549 0.41176471
0.8557598 0.62561275 0.45294118
0.88333333 0.64901961 0.49019608
0.21715686 0.49215686 0.30343137
0.21862745 0.49460784 0.30343137
0.22352941 0.49607843 0.30343137
0.23253676 0.49246324 0.30343137
0.24142157 0.49215686 0.30735294
0.25704657 0.49068627 0.30735294
0.2754902 0.48713235 0.30404412
0.29607843 0.48676471 0.30343137
0.31911765 0.48676471 0.30343137
0.34607843 0.49313725 0.30496324
0.37696078 0.49852941 0.30735294
0.40784314 0.50245098 0.30606618
0.43995098 0.50833333 0.30343137
0.47647059 0.51470588 0.30606618
0.51764706 0.52316176 0.30735294
0.55490196 0.53137255 0.31127451
0.59215686 0.5377451 0.31519608
0.62849265 0.54803922 0.31856618
0.66237745 0.55833333 0.32401961
0.70030637 0.57224265 0.33676471
0.73970588 0.5875 0.3497549
0.77696078 0.60539216 0.371875
0.81127451 0.62561275 0.41029412
0.84607843 0.64957108 0.44846814
0.87303922 0.66960784 0.48088235
0.23529412 0.52941176 0.30980392
0.23529412 0.53186275 0.31372549
0.24019608 0.53333333 0.31372549
0.2504902 0.52941176 0.31372549
0.25686275 0.5254902 0.31372549
0.27156863 0.5254902 0.31372549
0.29215686 0.52254902 0.31372549
0.3127451 0.52156863 0.31372549
0.33333333 0.52156863 0.31372549
0.35637255 0.52401961 0.31372549
0.38333333 0.52941176 0.31372549
0.41421569 0.53333333 0.31372549
0.44509804 0.54313725 0.31372549
0.47990196 0.5495098 0.31372549
0.51470588 0.55588235 0.31372549
0.55343137 0.56617647 0.31764706
0.58823529 0.57254902 0.32156863
0.62303922 0.58284314 0.3254902
0.65784314 0.59313725 0.32941176
0.69264706 0.60686275 0.33676471
0.73137255 0.62156863 0.35294118
0.76666667 0.63627451 0.37401961
0.80490196 0.65294118 0.40784314
0.84117647 0.67745098 0.44362745
0.87058824 0.69411765 0.47058824
0.2495098 0.57058824 0.32009804
0.25441176 0.57058824 0.32401961
0.26017157 0.5745098 0.32794118
0.26715686 0.56930147 0.32432598
0.275 0.56544118 0.32279412
0.28823529 0.5627451 0.3213848
0.30882353 0.56029412 0.32009804
0.32696078 0.55882353 0.32009804
0.34754902 0.55882353 0.32009804
0.36813725 0.55882353 0.32009804
0.38970588 0.56127451 0.32156863
0.42028186 0.56764706 0.32371324
0.45220588 0.57794118 0.3252451
0.48627451 0.58645833 0.32775735
0.52046569 0.59313725 0.32401961
0.55251225 0.60343137 0.32647059
0.58823529 0.61127451 0.33039216
0.62156863 0.62009804 0.33431373
0.65428922 0.63039216 0.33578431
0.69001225 0.64197304 0.34068627
0.72426471 0.65563725 0.35686275
0.76029412 0.67089461 0.38167892
0.79816176 0.6877451 0.40882353
0.83633578 0.70441176 0.43970588
0.86911765 0.725 0.46666667
0.26862745 0.61568627 0.33529412
0.27254902 0.61666667 0.33713235
0.27745098 0.61960784 0.34240196
0.28688725 0.61323529 0.33958333
0.29411765 0.60882353 0.33529412
0.30490196 0.60490196 0.33529412
0.3245098 0.60196078 0.33529412
0.34215686 0.60098039 0.33529412
0.3627451 0.60098039 0.33529412
0.38235294 0.60098039 0.33529412
0.4 0.60171569 0.33529412
0.43051471 0.60833333 0.33529412
0.46176471 0.61862745 0.33921569
0.49558824 0.62794118 0.33958333
0.52647059 0.63823529 0.34313725
0.55735294 0.64522059 0.34742647
0.58921569 0.65490196 0.35098039
0.62303922 0.66335784 0.35098039
0.65416667 0.67156863 0.34705882
0.68872549 0.67806373 0.34411765
0.72107843 0.69117647 0.36176471
0.75747549 0.70196078 0.38529412
0.79289216 0.71789216 0.40710784
0.83125 0.73431373 0.43382353
0.86078431 0.75 0.45588235
0.28921569 0.66421569 0.35588235
0.29166667 0.66666667 0.35588235
0.29803922 0.66813725 0.35980392
0.30441176 0.66121324 0.35594363
0.31470588 0.65661765 0.35588235
0.32199755 0.65294118 0.35588235
0.33872549 0.65245098 0.35245098
0.35882353 0.65245098 0.35588235
0.37598039 0.65245098 0.35588235
0.39626225 0.65245098 0.35716912
0.41323529 0.65245098 0.35588235
0.44117647 0.65680147 0.35588235
0.47205882 0.66617647 0.35612745
0.50251225 0.67303922 0.35980392
0.53039216 0.68296569 0.3627451
0.56127451 0.69185049 0.36911765
0.59215686 0.7 0.3754902
0.62647059 0.70765931 0.375
0.65784314 0.71654412 0.37156863
0.68872549 0.72303922 0.37150735
0.71960784 0.7254902 0.37720588
0.75441176 0.73235294 0.38529412
0.78958333 0.74301471 0.39558824
0.82579657 0.75863971 0.41568627
0.84411765 0.76764706 0.42892157
0.30980392 0.71568627 0.37647059
0.3122549 0.71887255 0.37647059
0.31862745 0.71862745 0.37696078
0.325 0.7122549 0.37843137
0.33529412 0.70784314 0.37941176
0.34166667 0.70392157 0.37598039
0.35343137 0.70392157 0.37254902
0.37279412 0.70392157 0.37254902
0.39019608 0.70392157 0.37647059
0.40686275 0.70392157 0.37720588
0.42745098 0.70392157 0.37647059
0.45196078 0.70784314 0.37671569
0.48235294 0.71666667 0.37843137
0.50931373 0.72352941 0.38063725
0.53676471 0.72892157 0.3877451
0.56715686 0.73676471 0.39362745
0.59803922 0.74509804 0.4
0.62696078 0.75220588 0.4
0.65784314 0.76127451 0.4
0.69044118 0.76838235 0.4
0.72156863 0.76862745 0.40294118
0.75465686 0.77254902 0.40980392
0.78921569 0.77941176 0.40980392
0.82401961 0.78970588 0.4125
0.83333333 0.79215686 0.41568627
0.32647059 0.77107843 0.40098039
0.33547794 0.77058824 0.40441176
0.34754902 0.76715686 0.41776961
0.35484069 0.76715686 0.41819853
0.35857843 0.76151961 0.40857843
0.3627451 0.75931373 0.40147059
0.36911765 0.75931373 0.39375
0.38431373 0.75784314 0.39332108
0.40098039 0.75539216 0.39705882
0.41862745 0.75539216 0.39705882
0.43382353 0.75539216 0.39669118
0.46182598 0.75931373 0.39803922
0.48872549 0.76519608 0.3995098
0.51868873 0.77107843 0.4088848
0.54620098 0.77757353 0.41323529
0.57334559 0.78431373 0.41844363
0.6004902 0.79411765 0.425
0.63137255 0.79834559 0.425
0.6622549 0.80686275 0.425
0.69313725 0.81415441 0.425
0.72769608 0.81421569 0.43186275
0.75925245 0.81770833 0.44613971
0.79620098 0.8245098 0.45686275
0.82971814 0.83480392 0.46715686
0.84362745 0.8377451 0.47303922
0.36470588 0.82254902 0.45294118
0.3692402 0.81862745 0.45355392
0.38161765 0.81862745 0.46372549
0.39178922 0.82120098 0.47610294
0.39803922 0.81813725 0.47058824
0.4 0.81458333 0.45637255
0.40612745 0.81372549 0.44828431
0.41360294 0.81262255 0.44595588
0.42843137 0.80980392 0.44411765
0.44227941 0.80980392 0.43872549
0.45588235 0.80980392 0.43602941
0.47794118 0.81372549 0.43676471
0.50490196 0.81617647 0.44215686
0.53186275 0.82169118 0.44901961
0.55686275 0.8254902 0.45
0.5817402 0.83247549 0.45098039
0.60686275 0.84215686 0.45196078
0.64068627 0.84497549 0.46421569
0.67622549 0.85098039 0.47720588
0.71286765 0.85833333 0.48970588
0.73823529 0.85882353 0.49313725
0.76948529 0.86311275 0.50747549
0.80392157 0.87034314 0.51862745
0.83982843 0.87990196 0.52781863
0.86078431 0.88529412 0.53137255
0.41519608 0.87794118 0.52794118
0.41911765 0.87248775 0.5254902
0.42365196 0.87009804 0.52647059
0.43125 0.87371324 0.53253676
0.43921569 0.8754902 0.53627451
0.44295343 0.87156863 0.52745098
0.4495098 0.87156863 0.52401961
0.45925245 0.86917892 0.52101716
0.47254902 0.86764706 0.52009804
0.48584559 0.87156863 0.51856618
0.4995098 0.87156863 0.51801471
0.52254902 0.87371324 0.52334559
0.54313725 0.8754902 0.52426471
0.56617647 0.87794118 0.52922794
0.58676471 0.87683824 0.52291667
0.60790441 0.87647059 0.51433824
0.63970588 0.88578431 0.53088235
0.67598039 0.89362745 0.55202206
0.70796569 0.89693627 0.56311275
0.74019608 0.90490196 0.58137255
0.76519608 0.90147059 0.58186275
0.79019608 0.90441176 0.58841912
0.82352941 0.91323529 0.59656863
0.85441176 0.92352941 0.60943627
0.87892157 0.93137255 0.63088235
0.47058824 0.9372549 0.60392157
0.4627451 0.92303922 0.58578431
0.4627451 0.91764706 0.58039216
0.46617647 0.92107843 0.58431373
0.47843137 0.92941176 0.59607843
0.48235294 0.925 0.58823529
0.48921569 0.9245098 0.59117647
0.49558824 0.91617647 0.58284314
0.50588235 0.91372549 0.58039216
0.52254902 0.92009804 0.58921569
0.53823529 0.9245098 0.59215686
0.55637255 0.9254902 0.59607843
0.5745098 0.92156863 0.59215686
0.59313725 0.92107843 0.59117647
0.61078431 0.91078431 0.57745098
0.63970588 0.91519608 0.58480392
0.6745098 0.92941176 0.61568627
0.71470588 0.94656863 0.64852941
0.73823529 0.94313725 0.64705882
0.77156863 0.9495098 0.66764706
0.78823529 0.93921569 0.65686275
0.8127451 0.9372549 0.65931373
0.84019608 0.94411765 0.67941176
0.87254902 0.95588235 0.71421569
0.90980392 0.97254902 0.76078431
0 0.18823529 0.17647059
0 0.19215686 0.18039216
0 0.19276961 0.18284314
0 0.19589461 0.18645833
0.0078431373 0.19607843 0.1875
0.042647059 0.20441176 0.19920343
0.073039216 0.20245098 0.19705882
0.11568627 0.20245098 0.19761029
0.15539216 0.20392157 0.20245098
0.19319853 0.20784314 0.20637255
0.22928922 0.20845588 0.21029412
0.26715686 0.21029412 0.21243873
0.31568627 0.2129902 0.22009804
0.37107843 0.21568627 0.22647059
0.41862745 0.21813725 0.23382353
0.46770833 0.21813725 0.23921569
0.51764706 0.21960784 0.24705882
0.5627451 0.21960784 0.25435049
0.60784314 0.22058824 0.2627451
0.65294118 0.22696078 0.27009804
0.69803922 0.22745098 0.27769608
0.74295343 0.23137255 0.28284314
0.7810049 0.23823529 0.28982843
0.82156863 0.25245098 0.30196078
0.85637255 0.2627451 0.30980392
0 0.19460784 0.18039216
0 0.19852941 0.18341759
0.00038296569 0.19992341 0.18806679
0.0031403186 0.20245098 0.19050245
0.01495098 0.20291054 0.19341299
0.049019608 0.21078431 0.20220588
0.08448223 0.20859375 0.20212929
0.12205882 0.20671722 0.20153186
0.16323529 0.209375 0.20490196
0.2004902 0.2115579 0.20974265
0.2377451 0.21421569 0.21311275
0.2783701 0.21421569 0.21647518
0.32374387 0.21568627 0.22205882
0.37234988 0.21721814 0.22909773
0.41862745 0.21813725 0.23382353
0.46617647 0.21813725 0.23921569
0.51672794 0.21960784 0.24613971
0.56485141 0.21960784 0.25377604
0.60997243 0.22058824 0.2627451
0.65508578 0.22696078 0.27009804
0.69926471 0.2301777 0.27843137
0.74466912 0.23137255 0.28284314
0.78431373 0.24007353 0.29272365
0.82269455 0.25432751 0.30196078
0.85882353 0.26519608 0.31133578
0 0.20882353 0.18921569
0 0.20882353 0.19036458
0.0028186275 0.20882353 0.19359681
0.0063878676 0.2127451 0.19655331
0.024019608 0.2127451 0.20006127
0.059313725 0.21708027 0.2069087
0.095465686 0.2169424 0.20716912
0.13235294 0.21666667 0.20845588
0.17352941 0.21666667 0.21127451
0.21078431 0.22045037 0.21444547
0.25196078 0.22058824 0.2185049
0.29099265 0.22058824 0.22316176
0.33504902 0.22058824 0.22843137
0.38022365 0.22058824 0.23226103
0.4252451 0.22288603 0.2370098
0.47169118 0.2245098 0.24203431
0.52107843 0.2245098 0.2495098
0.56865809 0.2245098 0.25473346
0.61501225 0.2254902 0.26372549
0.66041667 0.23186275 0.27401961
0.70582108 0.23627451 0.28118873
0.74964767 0.24162071 0.28730086
0.78602941 0.25196078 0.29623162
0.8221201 0.26519608 0.30796569
0.85257353 0.27512255 0.31654412
