site/assets/luts/sha256-f73274886f3da011bee88a33d1dcdafe1c6106680248e521b0fb4ba82016de53.cube
# LUTr-Schema-Version: 2
# LUTr-ID: sha256-f73274886f3da011bee88a33d1dcdafe1c6106680248e521b0fb4ba82016de53
# LUTr-Title: polaroid px-680 cold +
# LUTr-Collection: Natron HaldCLUT
# LUTr-Collection-ID: natron-haldclut-presets
# LUTr-Source: https://github.com/NatronGitHub/clut
# LUTr-Retrieved: 2026-07-27
# LUTr-Source-File: submissions/natron-haldclut-presets/instant_consumer/polaroid_px-680_cold_+.png
# LUTr-Source-Format: HALD-PNG
# LUTr-Source-SHA256: f73274886f3da011bee88a33d1dcdafe1c6106680248e521b0fb4ba82016de53
# LUTr-License: CC-BY-SA-4.0
# LUTr-License-URL: https://github.com/NatronGitHub/clut#license
# LUTr-License-Basis: repo-license-file
# LUTr-Transform-Class: film-emulation
# LUTr-Tags: creative, film, film-emulation, hald-clut, natron, png, cool, cube
# LUTr-Input-Color-Space: srgb
# LUTr-Input-Gamut: rec709
# LUTr-Input-Transfer: srgb
# LUTr-Output-Color-Space: srgb
# LUTr-Output-Gamut: rec709
# LUTr-Output-Transfer: srgb
# LUTr-Color-Space-Confidence: assumed-display-referred
# LUTr-Domain-Normalized: true
# LUTr-Shaper: none
# LUTr-Original-Grid: 64x64x64
# LUTr-Conversion-Grid: 25x25x25
# LUTr-Conversion-Interpolation: trilinear
# LUTr-Conversion-Method: HALD-PNG LUT image decoded at 16-bit and sampled to 25x25x25 3D CUBE
# LUTr-Conversion-Tool: LUTr scripts/convert-all-to-cube.mjs 2.0.0
# LUTr-Conversion-Date: 2026-07-27
# LUTr-Note: Preserve this metadata and the upstream license notices when redistributing.
TITLE "polaroid px-680 cold +"
LUT_3D_SIZE 9
DOMAIN_MIN 0 0 0
DOMAIN_MAX 1 1 1
0.039215686 0.20784314 0.25490196
0.042647059 0.20441176 0.25490196
0.088235294 0.20784314 0.25784314
0.17156863 0.21029412 0.25882353
0.35686275 0.21960784 0.25882353
0.60784314 0.23529412 0.25490196
0.8127451 0.30980392 0.24607843
0.93039216 0.40931373 0.24362745
0.98039216 0.48627451 0.26666667
0.02745098 0.21519608 0.25833333
0.046507353 0.21568627 0.25833333
0.1 0.21568627 0.25882353
0.20392157 0.22567402 0.25882353
0.38112745 0.23063725 0.25882353
0.62941176 0.26519608 0.24969363
0.82401961 0.33529412 0.23921569
0.93474265 0.44019608 0.23970588
0.98480392 0.50931373 0.27058824
0.0078431373 0.22647059 0.25882353
0.029289216 0.24852941 0.25882353
0.078431373 0.2497549 0.25882353
0.23186275 0.25686275 0.25490196
0.43823529 0.28921569 0.2495098
0.65098039 0.3372549 0.23982843
0.81495098 0.39215686 0.23137255
0.92254902 0.4745098 0.23578431
0.96568627 0.5245098 0.27058824
0.0039215686 0.33137255 0.25490196
0.0017769608 0.3276348 0.25490196
0.033823529 0.32254902 0.25490196
0.23731618 0.36127451 0.24705882
0.47058824 0.40980392 0.23995098
0.66917892 0.43817402 0.22653186
0.80784314 0.47990196 0.22352941
0.90833333 0.52959559 0.23039216
0.97254902 0.58529412 0.28480392
0 0.45490196 0.25098039
0 0.45857843 0.25490196
0 0.4627451 0.25147059
0.18553922 0.48480392 0.24779412
0.46568627 0.53333333 0.23431373
0.68431373 0.5752451 0.22034314
0.80735294 0.59068627 0.2254902
0.89460784 0.59656863 0.22818627
0.91764706 0.61372549 0.25882353
0.0039215686 0.56911765 0.25637255
0.0053921569 0.57303922 0.26029412
0.017156863 0.58088235 0.25882353
0.18088235 0.59601716 0.25582108
0.45882353 0.6252451 0.25637255
0.65833333 0.65539216 0.25692402
0.79117647 0.66960784 0.26568627
0.87990196 0.68137255 0.27843137
0.94509804 0.68676471 0.32058824
0 0.67352941 0.27941176
0.019117647 0.67058824 0.27941176
0.02377451 0.67254902 0.2752451
0.27634804 0.68321078 0.29791667
0.47401961 0.69803922 0.29068627
0.6504902 0.71507353 0.31568627
0.77622549 0.72843137 0.3370098
0.88676471 0.75833333 0.37107843
0.95196078 0.76176471 0.40196078
0.31862745 0.76176471 0.34313725
0.31078431 0.75484069 0.34221814
0.36764706 0.75441176 0.34166667
0.46390931 0.76047794 0.35343137
0.5870098 0.76593137 0.37647059
0.68431373 0.77352941 0.3995098
0.79166667 0.78529412 0.42512255
0.86856618 0.79270833 0.4495098
0.92156863 0.8004902 0.46862745
0.61960784 0.83137255 0.4627451
0.62696078 0.83137255 0.46617647
0.63823529 0.82745098 0.46666667
0.68088235 0.82745098 0.48235294
0.73137255 0.83137255 0.50196078
0.7872549 0.83529412 0.52303922
0.84411765 0.83529412 0.54117647
0.89117647 0.83970588 0.56911765
0.93333333 0.85098039 0.60784314
0.039215686 0.20784314 0.25882353
0.039215686 0.20392157 0.25833333
0.091176471 0.20784314 0.25882353
0.18823529 0.20784314 0.2627451
0.37205882 0.2120098 0.2627451
0.62352941 0.23823529 0.26403186
0.82708333 0.32830882 0.26617647
0.92738971 0.4245098 0.27794118
0.98480392 0.50931373 0.30490196
0.02745098 0.21519608 0.25882353
0.04564951 0.21567862 0.25882353
0.099984681 0.21568627 0.26107537
0.20512408 0.21911765 0.25909161
0.39286152 0.23235294 0.26424632
0.64215686 0.27303922 0.25837163
0.82063419 0.3504902 0.25882353
0.92647059 0.44019608 0.27456342
0.98480392 0.52107843 0.30098039
0.0078431373 0.22610294 0.2622549
0.040563725 0.24068627 0.26268382
0.095588235 0.25462623 0.2627451
0.23184743 0.27196691 0.26011029
0.45055147 0.30183824 0.25533088
0.66925551 0.34364277 0.25275735
0.8192402 0.40775123 0.25070466
0.92342218 0.48627451 0.27058824
0.97303922 0.53664216 0.2935049
0.0078431373 0.33921569 0.26617647
0.0078431373 0.33921569 0.26621477
0.024862132 0.3432598 0.2627451
0.2471201 0.36646752 0.25833333
0.49543505 0.42264093 0.25
0.67782629 0.4359758 0.24136029
0.81876532 0.48916973 0.24315257
0.90863971 0.53917739 0.2627451
0.97303922 0.58578431 0.3
0.0078431373 0.4627451 0.27009804
0.0039215686 0.4627451 0.26467525
0.006372549 0.46660539 0.2622549
0.21749387 0.49852941 0.25842525
0.47254902 0.53431373 0.25453431
0.68431373 0.56862745 0.24485294
0.81145833 0.58553922 0.24546569
0.8995098 0.60637255 0.26400123
0.94632353 0.62720588 0.29509804
0.011458333 0.58039216 0.2754902
0.0039215686 0.57665441 0.26795343
0.0089920343 0.58480392 0.27009804
0.2033701 0.59535846 0.27500766
0.45833333 0.62205882 0.2754902
0.65360754 0.65294118 0.27941176
0.79007353 0.67046569 0.29154412
0.88570006 0.68545496 0.30490196
0.9536152 0.69313725 0.33008578
0 0.68480392 0.29068627
0.0077665441 0.68105086 0.28713235
0.11060049 0.68137255 0.29142157
0.3276348 0.69313725 0.3037837
0.49810049 0.70196078 0.31519608
0.64705882 0.71568627 0.32850797
0.78048407 0.73210784 0.34852941
0.87979473 0.75134804 0.38236826
0.94411765 0.75882353 0.41323529
0.3254902 0.76176471 0.35790441
0.33462776 0.75790441 0.35397518
0.4004902 0.76165748 0.36214767
0.48480392 0.76176471 0.36881127
0.58431373 0.76568627 0.38777574
0.70106464 0.775 0.41497396
0.79241728 0.78883272 0.43339461
0.87248775 0.79619332 0.45729167
0.91813725 0.80098039 0.47990196
0.64705882 0.83529412 0.47843137
0.64166667 0.83137255 0.47352941
0.65428922 0.83137255 0.47745098
0.68921569 0.83137255 0.48890931
0.70465686 0.81985294 0.48480392
0.78511029 0.83155637 0.52322304
0.84215686 0.83235294 0.54142157
0.89460784 0.83921569 0.57261029
0.93333333 0.85098039 0.61176471
0.031372549 0.21176471 0.27745098
0.050490196 0.21176471 0.2745098
0.088970588 0.20784314 0.26985294
0.17977941 0.20723039 0.27058824
0.39117647 0.2004902 0.28137255
0.64852941 0.19338235 0.29313725
0.8372549 0.33210784 0.31372549
0.93039216 0.46629902 0.35061275
0.97352941 0.53529412 0.37843137
0.024019608 0.21568627 0.27745098
0.050168505 0.21911765 0.27375919
0.10707721 0.21240809 0.27352941
0.21519608 0.22040441 0.27731311
0.43308824 0.22126225 0.28529412
0.67452512 0.24878983 0.29718137
0.83814338 0.37686887 0.31951593
0.93039216 0.48213848 0.34658395
0.98039216 0.55539216 0.38235294
0.0017156863 0.23112745 0.27058824
0.036764706 0.24316789 0.27573529
0.13235294 0.26292892 0.28112745
0.27879902 0.275 0.28492647
0.49313725 0.3 0.28921569
0.69231005 0.35833333 0.30064338
0.8341299 0.43915441 0.31568627
0.92846201 0.51887255 0.34264706
0.97156863 0.56862745 0.37352941
0.0045343137 0.35 0.28884804
0.0021446078 0.33734681 0.2877451
0.13311887 0.36369485 0.29313725
0.2864277 0.37810968 0.29036458
0.5122549 0.42536765 0.29607843
0.69754902 0.4509038 0.28823529
0.825 0.5015625 0.30137868
0.91416973 0.55784314 0.33319547
0.97708333 0.61102941 0.36960784
0.015686275 0.47843137 0.30490196
0.0071078431 0.47751225 0.29877451
0.03002451 0.4872549 0.29313725
0.26721814 0.50392157 0.296875
0.50980392 0.54632353 0.3
0.69601716 0.57083333 0.29773284
0.81151961 0.58002451 0.29754902
0.89926471 0.61182598 0.321875
0.95588235 0.63921569 0.35343137
0.0045343137 0.5995098 0.30882353
0.012117034 0.59397978 0.30531556
0.03036152 0.59641544 0.30036765
0.27912071 0.60294118 0.30951287
0.49283088 0.62598039 0.31568627
0.6754902 0.65791973 0.3227788
0.80196078 0.67291667 0.33838848
0.89162071 0.686106 0.35044424
0.92095588 0.6935049 0.36605392
0.038970588 0.68823529 0.31789216
0.072457108 0.68823529 0.31838235
0.20435049 0.68529412 0.31881127
0.36881127 0.69215686 0.33578431
0.52401961 0.7 0.34803922
0.65894608 0.71568627 0.3698223
0.78946078 0.73400735 0.38903186
0.87947304 0.74742647 0.40931373
0.94534314 0.76348039 0.44019608
0.37512255 0.7622549 0.38088235
0.38970588 0.76176471 0.38088235
0.43995098 0.76176471 0.38946078
0.51822917 0.76176471 0.39901961
0.60294118 0.76568627 0.41029412
0.70520833 0.775 0.44064032
0.80189951 0.78893995 0.46222426
0.8754902 0.79661458 0.48039216
0.91470588 0.80098039 0.50343137
0.6372549 0.83137255 0.48235294
0.63823529 0.83137255 0.48137255
0.65318627 0.82745098 0.48455882
0.68272059 0.825 0.4935049
0.73333333 0.82794118 0.51176471
0.79473039 0.83529412 0.54166667
0.84289216 0.83235294 0.5497549
0.89117647 0.8314951 0.56776961
0.92941176 0.8372549 0.59117647
0.023529412 0.21568627 0.30686275
0.044117647 0.21176471 0.30294118
0.13958333 0.2192402 0.30404412
0.22009804 0.22205882 0.30686275
0.39166667 0.21813725 0.3245098
0.63676471 0.20343137 0.34754902
0.84460784 0.26801471 0.3685049
0.93805147 0.41979167 0.3995098
0.98039216 0.57156863 0.45490196
0.019607843 0.21568627 0.30165441
0.067976409 0.22538297 0.31040135
0.15499387 0.22663909 0.30828738
0.24369638 0.24233303 0.31586244
0.43406863 0.25116422 0.33342525
0.67863051 0.24852941 0.35853248
0.84456189 0.33137255 0.37824755
0.93318781 0.47434896 0.41078431
0.98272059 0.59761029 0.46341912
0.0078431373 0.27107843 0.32156863
0.01239277 0.26568627 0.32115502
0.16657475 0.28351716 0.33394608
0.31153493 0.30185355 0.33615196
0.50238971 0.33020833 0.35098039
0.70902267 0.36133578 0.37052696
0.84675245 0.45667892 0.39659926
0.91960784 0.55580576 0.43223039
0.97855392 0.61862745 0.46372549
0.0014705882 0.35882353 0.33186275
0.0073529412 0.36747089 0.33781403
0.18272059 0.38872549 0.34921875
0.36197151 0.40743719 0.35602788
0.56390931 0.44604779 0.36813725
0.71868873 0.47589614 0.37052696
0.83500306 0.55117953 0.40182292
0.9122549 0.59785539 0.42433364
0.96525735 0.64019608 0.45496324
0.0078431373 0.49019608 0.34289216
0.044270833 0.48235294 0.34166667
0.24601716 0.51127451 0.35392157
0.35416667 0.52251838 0.36253064
0.56458333 0.56041667 0.36752451
0.71029412 0.57769608 0.37159926
0.82647059 0.58988971 0.3716299
0.90710784 0.63235294 0.40588235
0.96004902 0.66960784 0.44509804
0.20275735 0.60735294 0.36078431
0.23276654 0.60814185 0.36415441
0.29083946 0.61092218 0.36196385
0.38748468 0.62289369 0.36233915
0.53581495 0.63777574 0.37745098
0.69515931 0.66323529 0.38976716
0.82633272 0.67928922 0.40389093
0.90073529 0.69051011 0.41862745
0.940625 0.70735294 0.44264706
0.31568627 0.69571078 0.37806373
0.30422794 0.69215686 0.37264093
0.34901961 0.69188113 0.3745098
0.44434743 0.69299939 0.38442096
0.55667892 0.70392157 0.40196078
0.69166667 0.72222733 0.41934743
0.81041667 0.74332108 0.44215686
0.89491422 0.7597886 0.4623315
0.92401961 0.75453431 0.46568627
0.43400735 0.7596201 0.41390931
0.44773284 0.75802696 0.41305147
0.48302696 0.76190257 0.41720282
0.56009498 0.7622549 0.43824295
0.62867647 0.76593137 0.44469975
0.71648284 0.77714461 0.46783088
0.80735294 0.78907782 0.49028799
0.88333333 0.7966299 0.50964308
0.91403186 0.79705882 0.52401961
0.6377451 0.82990196 0.49656863
0.62873775 0.8213848 0.49019608
0.67365196 0.83247549 0.50490196
0.70140931 0.8283701 0.51525735
0.73284314 0.82426471 0.52034314
0.78333333 0.82408088 0.54172794
0.84620098 0.83137255 0.5692402
0.89871324 0.83547794 0.59411765
0.9372549 0.84705882 0.63284314
0.019607843 0.22352941 0.3745098
0.05245098 0.22156863 0.36862745
0.22107843 0.23431373 0.37990196
0.36519608 0.27083333 0.38676471
0.50196078 0.30098039 0.40882353
0.64436275 0.28431373 0.41715686
0.8245098 0.33529412 0.45196078
0.92647059 0.44313725 0.47107843
0.98235294 0.54901961 0.49803922
0.025980392 0.24093137 0.38627451
0.11862745 0.23651961 0.38385417
0.25735294 0.25729167 0.39338235
0.39911152 0.30245098 0.40793505
0.525 0.32585784 0.41372549
0.67254902 0.34028799 0.43259804
0.8341299 0.37205882 0.4588848
0.9247549 0.47156863 0.47671569
0.98088235 0.57205882 0.50367647
0.0039215686 0.29264706 0.39803922
0.080821078 0.30471814 0.4057598
0.25980392 0.31409314 0.4120098
0.43872549 0.35741422 0.42156863
0.57107843 0.42156863 0.42843137
0.69246324 0.41525735 0.44411765
0.83431373 0.46421569 0.46862745
0.91862745 0.54589461 0.48676471
0.97254902 0.61813725 0.51715686
0.011029412 0.39877451 0.40588235
0.010202206 0.40269608 0.40833333
0.21979167 0.41770833 0.41764706
0.42674632 0.45539216 0.43063725
0.62058824 0.51384804 0.44497549
0.72423407 0.52408088 0.45686275
0.82677696 0.57794118 0.48333333
0.91323529 0.62239583 0.50628064
0.96862745 0.68063725 0.54362745
0.0029411765 0.51078431 0.40588235
0.054044118 0.50122549 0.40110294
0.24460784 0.51985294 0.41495098
0.43321078 0.54362745 0.43259804
0.61078431 0.58039216 0.45196078
0.73259804 0.6067402 0.46470588
0.83627451 0.6375 0.48186275
0.90710784 0.67414216 0.50735294
0.95392157 0.69901961 0.53333333
0.12892157 0.58946078 0.40073529
0.22509191 0.59837623 0.40343137
0.35808824 0.61464461 0.42303922
0.50251225 0.63431373 0.4377451
0.60551471 0.64742647 0.44963235
0.72567402 0.67230392 0.46498162
0.82628676 0.68651961 0.47328431
0.89901961 0.69476103 0.48143382
0.93995098 0.71519608 0.50784314
0.36862745 0.68676471 0.42647059
0.40036765 0.69215686 0.43014706
0.45441176 0.68909314 0.43578431
0.53474265 0.69944853 0.44313725
0.61029412 0.71078431 0.45710784
0.71917892 0.72800245 0.47910539
0.82083333 0.74276961 0.49509804
0.89417892 0.75098039 0.50759804
0.95441176 0.76176471 0.52254902
0.53137255 0.76176471 0.46960784
0.53458946 0.75784314 0.46868873
0.55784314 0.7596201 0.46960784
0.60327819 0.76323529 0.47533701
0.65784314 0.77132353 0.48112745
0.73259804 0.78106618 0.49960172
0.8129902 0.79276961 0.52702206
0.8872549 0.8004902 0.55027574
0.93897059 0.80661765 0.57769608
0.65686275 0.82745098 0.52745098
0.64926471 0.82156863 0.51985294
0.68039216 0.82990196 0.52794118
0.70245098 0.82745098 0.53382353
0.73333333 0.82156863 0.53823529
0.79460784 0.83088235 0.57426471
0.85588235 0.83823529 0.60441176
0.89877451 0.8375 0.61593137
0.93529412 0.84509804 0.64117647
0.095588235 0.24607843 0.47254902
0.20275735 0.2473652 0.47107843
0.35968137 0.26176471 0.48284314
0.5221201 0.31930147 0.49908088
0.65490196 0.4120098 0.50637255
0.74460784 0.47009804 0.51121324
0.81568627 0.46029412 0.52156863
0.91323529 0.49344363 0.54019608
0.97107843 0.5754902 0.55980392
0.16911765 0.26354167 0.48823529
0.23570006 0.27303922 0.48439798
0.3893076 0.30324755 0.49768689
0.53155637 0.35925245 0.50507813
0.65916054 0.46617647 0.50701593
0.74460784 0.50233609 0.51783088
0.81887255 0.49603248 0.52806373
0.90922947 0.53226869 0.54427849
0.96862745 0.59705882 0.56372549
0.13639706 0.33578431 0.49460784
0.23681066 0.35182292 0.49852941
0.37389706 0.36262255 0.50327819
0.54160539 0.43186275 0.51343444
0.67573529 0.52156863 0.51764706
0.76568627 0.57107843 0.52928922
0.8379902 0.56360294 0.53973652
0.91292892 0.5754902 0.55214461
0.96115196 0.62193627 0.56764706
0.01182598 0.4495098 0.49215686
0.11487439 0.45104167 0.49607843
0.31409314 0.46182598 0.49963235
0.52497702 0.49417892 0.51308977
0.6921875 0.56985294 0.52570466
0.77058824 0.62289369 0.5377451
0.83370098 0.61467525 0.548269
0.91078431 0.62713695 0.56243873
0.96470588 0.67395833 0.5848652
0.017892157 0.54460784 0.48014706
0.11629902 0.54273897 0.48284314
0.28792892 0.54852941 0.48841912
0.48428309 0.56908701 0.50612745
0.66176471 0.60710784 0.52585784
0.76813725 0.65343137 0.54362745
0.84313725 0.67095588 0.55980392
0.90686275 0.68676471 0.57181373
0.95441176 0.71176471 0.59509804
0.23578431 0.62156863 0.47261029
0.26696538 0.62009804 0.47241881
0.36164216 0.62702206 0.48137255
0.49720435 0.63731618 0.4972886
0.64068627 0.6588848 0.51639093
0.75660233 0.68527114 0.54224112
0.84633885 0.70588235 0.56127451
0.90686275 0.72058824 0.56176471
0.95441176 0.74620098 0.59957108
0.32745098 0.6807598 0.46629902
0.33805147 0.67942708 0.46141238
0.41678922 0.68422181 0.47135417
0.53431373 0.69460784 0.48835784
0.63627451 0.71072304 0.50931373
0.75061275 0.73509498 0.538894
0.83370098 0.74898897 0.56078431
0.90390625 0.76234681 0.57611826
0.95294118 0.77953431 0.60502451
0.48498775 0.75422794 0.49313725
0.49362745 0.75279565 0.49656863
0.54125306 0.75602022 0.49607843
0.61863511 0.76176471 0.51421569
0.68333333 0.77147672 0.52745098
0.75539216 0.78137255 0.54741881
0.83359375 0.79007353 0.58079044
0.89665288 0.80533088 0.60026808
0.94901961 0.81666667 0.62567402
0.67156863 0.83137255 0.56617647
0.68106618 0.82959559 0.56470588
0.69534314 0.83247549 0.56727941
0.71519608 0.82591912 0.56464461
0.75759804 0.83259804 0.58063725
0.79754902 0.82352941 0.59117647
0.85294118 0.82843137 0.62205882
0.90814951 0.84491422 0.65686275
0.94901961 0.85735294 0.68235294
0.34901961 0.30294118 0.5872549
0.4245098 0.33321078 0.58737745
0.51568627 0.34803922 0.59117647
0.64411765 0.4254902 0.59901961
0.75882353 0.52892157 0.60441176
0.82058824 0.63026961 0.60686275
0.86078431 0.64313725 0.61078431
0.89803922 0.61654412 0.61372549
0.95098039 0.64509804 0.6254902
0.38382353 0.35490196 0.59117647
0.4279565 0.35571385 0.59117647
0.52178309 0.38946078 0.59500613
0.63935355 0.442019 0.59509804
0.75490196 0.54503676 0.60294118
0.81946998 0.63898591 0.60678615
0.86078431 0.63633578 0.61078431
0.90782782 0.63921569 0.62124694
0.95196078 0.6564951 0.62941176
0.35392157 0.41764706 0.59117647
0.41446078 0.41602328 0.59509804
0.51960784 0.44761029 0.59846814
0.6372549 0.50061275 0.59874387
0.75061275 0.5807598 0.60625
0.82058824 0.65343137 0.61063113
0.86881127 0.65612745 0.61917892
0.90723039 0.66176471 0.6254902
0.9372549 0.67181373 0.62941176
0.34105392 0.51727941 0.58872549
0.39209559 0.5113511 0.58872549
0.48517157 0.51712623 0.59117647
0.62426471 0.5551011 0.59578738
0.74534314 0.61911765 0.60588235
0.82414216 0.68019301 0.61580882
0.87791054 0.69166667 0.62647059
0.91799939 0.69068627 0.62941176
0.95196078 0.70539216 0.63970588
0.15245098 0.57990196 0.56176471
0.24209559 0.57843137 0.56164216
0.38492647 0.58615196 0.56911765
0.55655637 0.60588235 0.584375
0.71764706 0.64338235 0.60318627
0.81354167 0.69534314 0.61856618
0.86960784 0.71372549 0.62941176
0.90735294 0.71801471 0.63382353
0.95637255 0.73480392 0.65245098
0.29166667 0.64914216 0.55196078
0.31720282 0.64705882 0.55151654
0.39607843 0.65073529 0.55689338
0.51813725 0.65735294 0.56663603
0.68014706 0.68039216 0.58976716
0.79215686 0.70957414 0.61557904
0.87153799 0.74442402 0.63851103
0.91657475 0.75565257 0.646875
0.94901961 0.7682598 0.65796569
0.36862745 0.69926471 0.53602941
0.38578431 0.7 0.53624387
0.44313725 0.7 0.54019608
0.54283088 0.71176471 0.55333946
0.65 0.71605392 0.56862745
0.76593137 0.73578431 0.59715074
0.85759804 0.76985294 0.63192402
0.91822917 0.78538603 0.65428922
0.94901961 0.79387255 0.66862745
0.39289216 0.74607843 0.52389706
0.41695772 0.74742647 0.52830882
0.47490809 0.74644608 0.53152574
0.55349265 0.75387561 0.54203431
0.678125 0.76740196 0.57058824
0.75718444 0.77481618 0.59246324
0.84316789 0.79371936 0.63376225
0.91041667 0.81227022 0.66911765
0.95208333 0.82107843 0.68039216
0.59901961 0.82843137 0.58921569
0.60931373 0.82745098 0.58921569
0.64166667 0.82818627 0.58921569
0.68235294 0.82745098 0.59558824
0.74803922 0.82892157 0.61421569
0.81556373 0.82977941 0.63284314
0.86078431 0.83137255 0.65686275
0.91421569 0.83921569 0.69117647
0.94901961 0.82843137 0.68823529
0.57598039 0.46568627 0.67598039
0.60196078 0.45784314 0.67941176
0.66311275 0.50686275 0.68676471
0.73480392 0.55245098 0.68204657
0.80833333 0.6245098 0.68333333
0.85833333 0.68609069 0.68333333
0.89166667 0.71948529 0.68382353
0.91862745 0.72745098 0.69117647
0.94166667 0.71911765 0.69166667
0.59466912 0.4995098 0.68382353
0.6141008 0.50692402 0.68731618
0.66666667 0.53382353 0.68650429
0.73578431 0.57285539 0.67990196
0.80514706 0.62693015 0.68357843
0.86078431 0.68422947 0.6872549
0.89644608 0.71960784 0.68843444
0.9224954 0.73872549 0.69509804
0.9377451 0.7338848 0.69117647
0.57941176 0.53737745 0.68382353
0.60255821 0.53871017 0.68382353
0.65882353 0.56470588 0.67990196
0.73431373 0.604856 0.68382353
0.80490196 0.64914216 0.68382353
0.86617647 0.7011489 0.6872549
0.8995098 0.73440564 0.69445466
0.92555147 0.74252451 0.69509804
0.93382353 0.74215686 0.69509804
0.55128676 0.59430147 0.67745098
0.56911765 0.59057904 0.67614124
0.63978248 0.6073989 0.67630208
0.72108609 0.63351716 0.67598039
0.80618873 0.67598039 0.67990196
0.86236979 0.71667433 0.68983609
0.90343137 0.75736826 0.69901961
0.92640931 0.76160386 0.69901961
0.94117647 0.75245098 0.69901961
0.46617647 0.64436275 0.65833333
0.51204044 0.64065564 0.66268382
0.57745098 0.65294118 0.66470588
0.67941176 0.66176471 0.67132353
0.76985294 0.68529412 0.67671569
0.85235907 0.72515319 0.68854167
0.90294118 0.76764706 0.69901961
0.92643995 0.77107843 0.70076593
0.94509804 0.7752451 0.70686275
0.3723652 0.68235294 0.64068627
0.3906633 0.68057598 0.63939951
0.46888787 0.68377757 0.64820772
0.57634804 0.68823529 0.65109528
0.70042892 0.70235907 0.66151961
0.82646293 0.73395374 0.68656556
0.89420956 0.77588848 0.70392157
0.93017004 0.79411765 0.71252298
0.94117647 0.79656863 0.71470588
0.4495098 0.73088235 0.63333333
0.46219363 0.72798713 0.63590686
0.50505515 0.72769608 0.63321078
0.57843137 0.73186275 0.63676471
0.67444853 0.73572304 0.6504902
0.77892157 0.75588235 0.6712163
0.87178309 0.7864277 0.69607843
0.92640931 0.8057598 0.71875
0.94558824 0.81311275 0.72659314
0.48578431 0.77444853 0.6254902
0.51182598 0.77794118 0.62941176
0.54275429 0.77365196 0.6254902
0.59246324 0.77401961 0.62935049
0.68504902 0.77794118 0.64286152
0.76203278 0.78284314 0.65392157
0.84854473 0.80093444 0.68296569
0.92254902 0.82444853 0.73007047
0.94607843 0.83235294 0.73964461
0.57205882 0.82696078 0.64019608
0.53737745 0.82352941 0.62849265
0.6004902 0.825 0.64105392
0.63137255 0.80833333 0.63854167
0.69877451 0.82941176 0.65245098
0.77058824 0.81501225 0.66060049
0.8557598 0.82634804 0.6875
0.90686275 0.83137255 0.72261029
0.96078431 0.85147059 0.76176471
0.74901961 0.64705882 0.75686275
0.75294118 0.64313725 0.75294118
0.77843137 0.65392157 0.74901961
0.81813725 0.67696078 0.74901961
0.85686275 0.71176471 0.74705882
0.89166667 0.73872549 0.74117647
0.91470588 0.76078431 0.73333333
0.92990196 0.77254902 0.7254902
0.95294118 0.80392157 0.75686275
0.74166667 0.64705882 0.75294118
0.75643382 0.65490196 0.75343137
0.77169118 0.65502451 0.74901961
0.82205882 0.69001225 0.75294118
0.86078431 0.71740196 0.75245098
0.89558824 0.74656863 0.74883578
0.91764706 0.76470588 0.7372549
0.93290441 0.77604167 0.72591912
0.95245098 0.80686275 0.75588235
0.74019608 0.66176471 0.75294118
0.76580882 0.68161765 0.76090686
0.77083333 0.67034314 0.74803922
0.81421569 0.69313725 0.74620098
0.86323529 0.72598039 0.75
0.88872549 0.73872549 0.73431373
0.91764706 0.76960784 0.73333333
0.93382353 0.78737745 0.7372549
0.94509804 0.79313725 0.74117647
0.72303922 0.68627451 0.7504902
0.73057598 0.68627451 0.74871324
0.76691176 0.69411765 0.75257353
0.81029412 0.71133578 0.74901961
0.8502451 0.72598039 0.73970588
0.8783701 0.7372549 0.72457108
0.925 0.7877451 0.74754902
0.9377451 0.80686275 0.75165441
0.94509804 0.81421569 0.75539216
0.7 0.71372549 0.74901961
0.71568627 0.71176471 0.75122549
0.72401961 0.70784314 0.74215686
0.7879902 0.7247549 0.7497549
0.83823529 0.74509804 0.74901961
0.88529412 0.76568627 0.74460784
0.91862745 0.79068627 0.74313725
0.94509804 0.81372549 0.75882353
0.95686275 0.82352941 0.76862745
0.63382353 0.73872549 0.75441176
0.63431373 0.7346201 0.7463848
0.68039216 0.73382353 0.74803922
0.73382353 0.74025735 0.74901961
0.80098039 0.75171569 0.74828431
0.86219363 0.76862745 0.74460784
0.91470588 0.79607843 0.74166667
0.9377451 0.8122549 0.75343137
0.95686275 0.82745098 0.77254902
0.60098039 0.76666667 0.73627451
0.60882353 0.76703431 0.74031863
0.61495098 0.76102941 0.72156863
0.68517157 0.76568627 0.7372549
0.74607843 0.76568627 0.74313725
0.81911765 0.78284314 0.74901961
0.89509804 0.80808824 0.76151961
0.94117647 0.82365196 0.77303922
0.96078431 0.83921569 0.78823529
0.64803922 0.80882353 0.74117647
0.66317402 0.8122549 0.74895833
0.64730392 0.8002451 0.71973039
0.69558824 0.80704657 0.74362745
0.74558824 0.80441176 0.74117647
0.79509804 0.80588235 0.74822304
0.85686275 0.81360294 0.73627451
0.92555147 0.8283701 0.77702206
0.96862745 0.85539216 0.80784314
0.68627451 0.84313725 0.75294118
0.69509804 0.84754902 0.74607843
0.68921569 0.83529412 0.73333333
0.72794118 0.83921569 0.75294118
0.78039216 0.85294118 0.76666667
0.81323529 0.84705882 0.7622549
0.86764706 0.85392157 0.78039216
0.91470588 0.83529412 0.78088235
0.98431373 0.88627451 0.84313725
