site/assets/luts/sha256-0d3ac0f349e446e658c57291394b14b31050dbf4d34a61e5420a18c0039743e0.cube
# LUTr-Schema-Version: 2
# LUTr-ID: sha256-0d3ac0f349e446e658c57291394b14b31050dbf4d34a61e5420a18c0039743e0
# LUTr-Title: polaroid 690 warm
# LUTr-Collection: Natron HaldCLUT
# LUTr-Collection-ID: natron-haldclut-presets
# LUTr-Source: https://github.com/NatronGitHub/clut
# LUTr-Retrieved: 2026-07-27
# LUTr-Source-File: submissions/natron-haldclut-presets/instant_pro/polaroid_690_warm.png
# LUTr-Source-Format: HALD-PNG
# LUTr-Source-SHA256: 0d3ac0f349e446e658c57291394b14b31050dbf4d34a61e5420a18c0039743e0
# LUTr-License: CC-BY-SA-4.0
# LUTr-License-URL: https://github.com/NatronGitHub/clut#license
# LUTr-License-Basis: repo-license-file
# LUTr-Transform-Class: film-emulation
# LUTr-Tags: creative, film, film-emulation, hald-clut, natron, png, warm, cube
# LUTr-Input-Color-Space: srgb
# LUTr-Input-Gamut: rec709
# LUTr-Input-Transfer: srgb
# LUTr-Output-Color-Space: srgb
# LUTr-Output-Gamut: rec709
# LUTr-Output-Transfer: srgb
# LUTr-Color-Space-Confidence: assumed-display-referred
# LUTr-Domain-Normalized: true
# LUTr-Shaper: none
# LUTr-Original-Grid: 64x64x64
# LUTr-Conversion-Grid: 25x25x25
# LUTr-Conversion-Interpolation: trilinear
# LUTr-Conversion-Method: HALD-PNG LUT image decoded at 16-bit and sampled to 25x25x25 3D CUBE
# LUTr-Conversion-Tool: LUTr scripts/convert-all-to-cube.mjs 2.0.0
# LUTr-Conversion-Date: 2026-07-27
# LUTr-Note: Preserve this metadata and the upstream license notices when redistributing.
TITLE "polaroid 690 warm"
LUT_3D_SIZE 9
DOMAIN_MIN 0 0 0
DOMAIN_MAX 1 1 1
0.14901961 0.066666667 0.050980392
0.16715686 0.066666667 0.050980392
0.24411765 0.078431373 0.058823529
0.3377451 0.021078431 0.054901961
0.49607843 0.0058823529 0.062745098
0.64117647 0 0.047058824
0.78431373 0 0.02745098
0.92745098 0 0.01127451
0.99215686 0 0
0.12990196 0.1127451 0.047058824
0.17199755 0.12058824 0.06182598
0.24803922 0.11090686 0.048039216
0.37009804 0.080208333 0.051286765
0.51102941 0.016911765 0.04754902
0.66697304 0.0036151961 0.035294118
0.81482843 0.0039215686 0.023897059
0.95 0.0039215686 0.0078431373
0.99215686 0.011764706 0.0078431373
0.14901961 0.19705882 0.048039216
0.18627451 0.20477941 0.051960784
0.26985294 0.21495098 0.037990196
0.40306373 0.21715686 0.017647059
0.57598039 0.20882353 0.012745098
0.72879902 0.1682598 0.016666667
0.85318627 0.093872549 0.015686275
0.97696078 0.03247549 0
1 0.016666667 0
0.13088235 0.33382353 0.032843137
0.18511029 0.32990196 0.0058823529
0.27941176 0.34105392 0.011764706
0.4122549 0.36764706 0.0039215686
0.59215686 0.38995098 0
0.78082108 0.40833333 0
0.90833333 0.39301471 0
0.98560049 0.36648284 0
1 0.34264706 0
0.092156863 0.47647059 0
0.17303922 0.47083333 0
0.27009804 0.47352941 0
0.40906863 0.49656863 0.0031862745
0.58137255 0.52843137 0
0.75196078 0.54901961 0
0.90098039 0.56470588 0
0.99264706 0.56078431 0
1 0.56666667 0
0.092647059 0.62156863 0
0.17401961 0.60980392 0
0.27561275 0.60196078 0
0.4028799 0.60833333 0
0.56470588 0.6377451 0
0.725 0.66862745 0
0.87340686 0.68431373 0
0.99264706 0.70030637 0.00049019608
0.99607843 0.70637255 0.011764706
0.18529412 0.74411765 0
0.22463235 0.73370098 0
0.32083333 0.72941176 0.0031862745
0.43137255 0.72941176 0
0.56568627 0.74264706 0
0.72071078 0.76127451 0.0039215686
0.85465686 0.78039216 0.0039215686
0.96519608 0.7995098 0
1 0.80686275 0.0039215686
0.35588235 0.85686275 0.015686275
0.37892157 0.8533701 0.0078431373
0.44656863 0.84901961 0.011887255
0.52058824 0.84509804 0.010477941
0.63455882 0.84460784 0.0041666667
0.75637255 0.85655637 0.015686275
0.87107843 0.86813725 0.015686275
0.96966912 0.87941176 0.019607843
1 0.88333333 0.019607843
0.54901961 0.96078431 0.11372549
0.55637255 0.95686275 0.10882353
0.59901961 0.96078431 0.083333333
0.64803922 0.95294118 0.060294118
0.72352941 0.94509804 0.01372549
0.81470588 0.94117647 0.017156863
0.90490196 0.95294118 0.056862745
0.98186275 0.95294118 0.075490196
1 0.95686275 0.10980392
0.14901961 0.074019608 0.10098039
0.16372549 0.074509804 0.09754902
0.23223039 0.06752451 0.092647059
0.34313725 0.051960784 0.093137255
0.47671569 0.0093137255 0.089215686
0.62352941 0 0.085294118
0.77659314 0.00049019608 0.072671569
0.91917892 0.0034313725 0.050428922
0.99607843 0 0.042156863
0.14460784 0.1127451 0.10055147
0.17860754 0.12058824 0.10098039
0.25931373 0.11285233 0.10490196
0.36615349 0.099471507 0.096568627
0.50882353 0.024448529 0.093137255
0.66803002 0.00018382353 0.081211703
0.8082261 0.0039215686 0.060906863
0.93915441 0.0039215686 0.042156863
0.99607843 0.011335784 0.042156863
0.15257353 0.21531863 0.094117647
0.19105392 0.20870098 0.096844363
0.27441789 0.21063113 0.09754902
0.42438725 0.22708333 0.096338848
0.58431373 0.20300245 0.075061275
0.7230239 0.15177696 0.072058824
0.85686275 0.060477941 0.043382353
0.97374387 0.03169424 0.02231924
0.99558824 0.033823529 0.0052696078
0.13921569 0.34117647 0.075306373
0.18480392 0.34509804 0.06652114
0.27843137 0.35208333 0.054044118
0.41972273 0.37365962 0.041973039
0.59960172 0.38979779 0.023192402
0.7745098 0.39692862 0.014215686
0.90735294 0.38382353 0.0057444853
0.99044118 0.34581036 0.0053921569
0.99981618 0.328125 0
0.086764706 0.48995098 0.0075980392
0.16544118 0.48627451 0.011734069
0.27230392 0.48578431 0.019914216
0.41439951 0.50612745 0.0052083333
0.58602941 0.53161765 0.00085784314
0.7622549 0.55171569 0.0037683824
0.90827206 0.56862745 0.0056372549
0.99436275 0.57037377 0.0080269608
1 0.5627451 0.0039215686
0.08314951 0.6254902 0.010784314
0.16832108 0.62130055 0.0034696691
0.27976409 0.61501225 0
0.41060815 0.61898744 0.0044041054
0.57058824 0.64151348 0.0039215686
0.72745098 0.66862745 0.0022594975
0.87728248 0.6847886 0.0065104167
0.98572304 0.70010723 0.010186887
1 0.70998775 0.0042279412
0.16752451 0.74767157 0
0.2254902 0.74375 0.0039215686
0.3245098 0.73789828 0.0039215686
0.43521752 0.7372549 0
0.57058824 0.75 0.00042892157
0.71605392 0.76573223 0.0039215686
0.85784314 0.78651961 0.0041360294
0.97374387 0.79816176 0.012515319
1 0.81029412 0.0049019608
0.34068627 0.86035539 0.0078431373
0.37064951 0.8598652 0.0087086397
0.4365962 0.85294118 0.0078431373
0.52303922 0.85294118 0.0093137255
0.62720588 0.84874387 0.01807598
0.7560432 0.86421569 0.014598652
0.87009804 0.86888787 0.011764706
0.96923254 0.88033088 0.023468137
1 0.8872549 0.015686275
0.54068627 0.96078431 0.18235294
0.55422794 0.95729167 0.16580882
0.58517157 0.95428922 0.12377451
0.65128676 0.95422794 0.12089461
0.71397059 0.94117647 0.028431373
0.81568627 0.95214461 0.094301471
0.90870098 0.95416667 0.12683824
0.98137255 0.95294118 0.1375
1 0.95735294 0.17794118
0.13431373 0.074509804 0.1627451
0.17855392 0.082843137 0.17745098
0.25490196 0.079411765 0.18627451
0.35085784 0.060294118 0.17696078
0.4877451 0.030882353 0.18039216
0.62879902 0 0.17205882
0.76176471 0 0.15980392
0.89313725 0 0.13676471
0.99607843 0 0.11176471
0.15294118 0.12352941 0.18431373
0.18713235 0.12438725 0.18727022
0.26639093 0.12123162 0.19203431
0.38221507 0.097104779 0.20289522
0.51035539 0.033455882 0.17702206
0.65134804 0.0057598039 0.17352941
0.77769608 0 0.15787377
0.91999081 0 0.14068627
0.99607843 0 0.1254902
0.16470588 0.20490196 0.18921569
0.1997549 0.21568627 0.19408701
0.28382353 0.22120098 0.20704657
0.42999387 0.2296875 0.21060049
0.56752451 0.17781863 0.19460784
0.69901961 0.075490196 0.16890319
0.83449755 0.014522059 0.15257353
0.95860907 0.0040747549 0.13284314
0.99607843 0.01372549 0.10196078
0.11666667 0.36875 0.19571078
0.19425551 0.36703431 0.20625
0.29313725 0.3676777 0.20012255
0.44450061 0.38374694 0.19327512
0.61862745 0.39993873 0.20514706
0.77041973 0.3897212 0.19765625
0.89463848 0.34653799 0.17267157
0.98480392 0.30539216 0.13982843
1 0.2745098 0.10147059
0.060294118 0.5245098 0.18578431
0.16666667 0.52083333 0.18682598
0.28529412 0.50735294 0.16470588
0.42352941 0.5122549 0.14822304
0.58946078 0.53529412 0.13823529
0.7622549 0.55906863 0.10980392
0.91176471 0.57610294 0.17009804
0.99515931 0.56617647 0.19865196
1 0.54705882 0.17058824
0.08872549 0.64411765 0.15392157
0.17023591 0.64411765 0.14361213
0.28958333 0.6354473 0.11109069
0.41358762 0.62702206 0.086963848
0.56617647 0.64497549 0.06875
0.72745098 0.66862745 0.059604779
0.87512255 0.69105392 0.066053922
0.98984375 0.70752145 0.10439645
1 0.7192402 0.23051471
0.17034314 0.75661765 0.096078431
0.22046569 0.75533088 0.074417892
0.31985294 0.75140931 0.053186275
0.43385417 0.74592525 0.029473039
0.57340686 0.75441176 0.01752451
0.71568627 0.76957721 0.0096507353
0.85490196 0.7879902 0.012990196
0.96862745 0.80533088 0.037254902
1 0.81544118 0.14485294
0.32843137 0.86813725 0.087254902
0.35147059 0.8685049 0.070940564
0.41495098 0.86133578 0.051593137
0.5073989 0.86066176 0.028079044
0.60955882 0.8567402 0.0025735294
0.7399663 0.86960784 0.0028033088
0.86283701 0.87598039 0.024234069
0.96977635 0.88656556 0.033624387
0.99607843 0.89117647 0.10906863
0.53039216 0.95980392 0.28921569
0.53186275 0.95294118 0.26605392
0.58014706 0.95465686 0.27230392
0.62781863 0.94620098 0.21752451
0.72303922 0.95441176 0.23431373
0.80539216 0.94901961 0.21715686
0.90171569 0.95 0.24411765
0.97879902 0.95294118 0.26715686
0.99607843 0.94901961 0.26764706
0.12303922 0.08627451 0.31421569
0.17469363 0.089215686 0.33578431
0.28627451 0.068259804 0.35919118
0.40778186 0.034313725 0.37941176
0.52916667 0.0073529412 0.34215686
0.64908088 0 0.32395833
0.77107843 0 0.30208333
0.89460784 0 0.2745098
0.98186275 0 0.25392157
0.13057598 0.13088235 0.328125
0.18269761 0.13235294 0.33756127
0.2745098 0.12401961 0.35130208
0.42205882 0.10520067 0.3810815
0.54558824 0.068627451 0.35661765
0.66300551 0.0047257966 0.31574755
0.79019608 0.0037990196 0.30693934
0.90762102 0 0.27843137
0.99981618 0 0.25900735
0.1504902 0.21678922 0.32892157
0.19160539 0.22449449 0.34617034
0.29019608 0.23504902 0.3745098
0.45225184 0.24048713 0.39685968
0.56795343 0.21280637 0.35232843
0.69117647 0.13627451 0.33051471
0.81387868 0.016053922 0.29525123
0.93432904 0.0054074755 0.26939338
0.97904412 0.0039215686 0.25245098
0.14957108 0.37457108 0.37248775
0.20171569 0.3754902 0.3754902
0.31017157 0.38333333 0.37794118
0.45784314 0.39924939 0.39489124
0.6 0.3625 0.36764706
0.73382353 0.34489124 0.35083487
0.85735294 0.25071998 0.31790748
0.96617647 0.19100031 0.2743796
0.99761029 0.15189951 0.24901961
0.10931373 0.53848039 0.38259804
0.19883578 0.54764093 0.39166667
0.32132353 0.54215686 0.39166667
0.45196078 0.54289216 0.37717525
0.61004902 0.55833333 0.37132353
0.77405025 0.57181373 0.38112745
0.90085784 0.55943627 0.39148284
0.98979779 0.53284314 0.36151961
1 0.475 0.32426471
0.10251225 0.67647059 0.36709559
0.18584559 0.67241881 0.36862745
0.30778186 0.66360294 0.36531863
0.43731618 0.65761336 0.3372549
0.58480392 0.66295956 0.32941176
0.74313725 0.68318781 0.33220741
0.89223346 0.6995098 0.35513174
0.97506127 0.71352635 0.40323989
1 0.71672794 0.44466912
0.18786765 0.7754902 0.3377451
0.23872549 0.77452512 0.34185049
0.33042279 0.77089461 0.32904412
0.45 0.76124387 0.30637255
0.57984069 0.76011029 0.27990196
0.72208946 0.77480086 0.27984069
0.86265319 0.79427083 0.28590686
0.97068015 0.80723039 0.33596814
0.99607843 0.81654412 0.38419118
0.32107843 0.87598039 0.34803922
0.35030637 0.87673866 0.33897059
0.4060049 0.87259498 0.31501225
0.50030637 0.86551011 0.28517157
0.60775123 0.86060049 0.2518076
0.73197763 0.86733303 0.26292892
0.85490196 0.87683824 0.27745098
0.96599265 0.88817402 0.3031633
0.98792892 0.89117647 0.35067402
0.51372549 0.95686275 0.43186275
0.53284314 0.95900735 0.43186275
0.56164216 0.95183824 0.41286765
0.62058824 0.94656863 0.40104167
0.69362745 0.93872549 0.36862745
0.78235294 0.93633578 0.34920343
0.88676471 0.94718137 0.38333333
0.96568627 0.93302696 0.36985294
1 0.95294118 0.42254902
0.015686275 0.084313725 0.50196078
0.12794118 0.080882353 0.51348039
0.26372549 0.058333333 0.54019608
0.43161765 0.01372549 0.58651961
0.60294118 0.0058823529 0.58627451
0.72794118 0 0.54607843
0.81862745 0 0.49117647
0.92156863 0 0.45441176
0.9745098 0 0.44313725
0.048284314 0.13578431 0.50980392
0.13547794 0.13627451 0.52545956
0.27591912 0.12457108 0.54785539
0.45088848 0.090686275 0.59004289
0.61715686 0.029656863 0.59142157
0.72401961 0.0073529412 0.53823529
0.82261029 0.0047794118 0.49068627
0.92671569 0.0039215686 0.45836397
0.99191176 0.0039215686 0.44705882
0.084803922 0.22843137 0.51372549
0.15637255 0.22579657 0.52242647
0.28137255 0.23504902 0.54693627
0.45931373 0.24460784 0.58382353
0.62352941 0.2372549 0.58921569
0.73290441 0.20876225 0.54338235
0.83161765 0.11911765 0.49693627
0.9341299 0.01372549 0.45637255
0.98627451 0.0078431373 0.44117647
0.092156863 0.35661765 0.51421569
0.16822917 0.3635723 0.52083333
0.29460784 0.37696078 0.53584559
0.45980392 0.4002451 0.56911765
0.63480392 0.41936275 0.5997549
0.74681373 0.37990196 0.55027574
0.85085784 0.31568627 0.50196078
0.946875 0.14650735 0.43627451
0.99338235 0.040686275 0.4004902
0.12058824 0.53137255 0.54313725
0.20245098 0.53713235 0.54705882
0.33504902 0.54656863 0.56421569
0.46666667 0.55294118 0.56666667
0.62156863 0.57647059 0.58088235
0.75808824 0.55404412 0.56936275
0.86985294 0.49632353 0.5245098
0.95980392 0.42083333 0.46397059
1 0.37941176 0.42156863
0.21715686 0.68627451 0.56862745
0.27910539 0.69157475 0.57107843
0.36084559 0.68731618 0.5658701
0.48262868 0.69142157 0.56761642
0.61323529 0.68737745 0.55661765
0.75294118 0.69292279 0.55707721
0.88265931 0.71004902 0.57800245
0.98054534 0.70566789 0.59096201
1 0.67794118 0.57083333
0.27107843 0.78970588 0.55196078
0.30643382 0.79289216 0.54803922
0.37401961 0.79705882 0.54693627
0.48382353 0.78921569 0.53167892
0.59215686 0.77647059 0.50098039
0.72647059 0.78069853 0.4973652
0.85821078 0.79987745 0.51311275
0.96102941 0.81446078 0.54693627
0.99607843 0.81862745 0.58235294
0.36151961 0.88553922 0.54779412
0.37447917 0.88357843 0.53970588
0.42867647 0.88321078 0.52224265
0.5125 0.87254902 0.50784314
0.61323529 0.87009804 0.47843137
0.71936275 0.86813725 0.45490196
0.84338235 0.87947304 0.47573529
0.95070466 0.88731618 0.50857843
0.98823529 0.89117647 0.54068627
0.52941176 0.96078431 0.59803922
0.53480392 0.95686275 0.58284314
0.57303922 0.95931373 0.58284314
0.61544118 0.94583333 0.5622549
0.69019608 0.94411765 0.53921569
0.78284314 0.94632353 0.52009804
0.87892157 0.95245098 0.53137255
0.96372549 0.94901961 0.55294118
0.99607843 0.95294118 0.57254902
0.0078431373 0.090196078 0.6754902
0.068933824 0.097058824 0.69491422
0.25625 0.061642157 0.70980392
0.43823529 0.011213235 0.73921569
0.64068627 0.0031862745 0.76813725
0.79258578 0.0039215686 0.76237745
0.88039216 0.0039215686 0.70637255
0.96060049 0 0.66862745
0.99607843 0 0.62843137
0.0080269608 0.14166667 0.68939951
0.082069547 0.14362745 0.69863664
0.28137255 0.13163297 0.72009804
0.45 0.10568321 0.74032629
0.64093137 0.073192402 0.76813725
0.79810815 0.043137255 0.76966912
0.8872549 0.014828431 0.72205882
0.95539216 0.0058210784 0.65947457
0.99607843 0.006004902 0.64166667
0.0093137255 0.23627451 0.69068627
0.12806373 0.24033395 0.69754902
0.28921569 0.23921569 0.70637255
0.46424632 0.25105699 0.73705576
0.64877451 0.27052696 0.77334559
0.79558824 0.2685049 0.76813725
0.88112745 0.24371936 0.71421569
0.95877757 0.19068627 0.65882353
0.99607843 0.063480392 0.62732843
0.012254902 0.34944853 0.66127451
0.12952665 0.3627451 0.67860754
0.27984069 0.36997549 0.68056066
0.45447304 0.39172794 0.71511183
0.63259804 0.42990196 0.74901961
0.79262408 0.45743719 0.76762408
0.88284314 0.41378676 0.7127451
0.95392157 0.35460325 0.65637255
0.99123775 0.209375 0.61660539
0.046078431 0.50833333 0.67132353
0.14074755 0.50710784 0.67279412
0.2911152 0.51421569 0.67542892
0.4333027 0.5245098 0.68630515
0.61727941 0.56789216 0.72708333
0.77374387 0.59607843 0.73995098
0.86868873 0.55294118 0.70545343
0.95670956 0.46715686 0.63504902
0.99338235 0.34877451 0.57254902
0.22303922 0.67647059 0.70784314
0.26697304 0.67254902 0.70392157
0.37693015 0.68000919 0.70330882
0.49475337 0.68134957 0.71176471
0.62745098 0.69114583 0.72429534
0.76421569 0.71715686 0.73529412
0.87683824 0.71311275 0.73987439
0.95251991 0.63131127 0.67346814
0.99607843 0.55925245 0.62653186
0.37683824 0.80441176 0.71678922
0.42256434 0.80833333 0.72610294
0.47959559 0.81078431 0.71835172
0.54653799 0.80294118 0.7122549
0.64822304 0.80349265 0.70441176
0.75631127 0.80441176 0.70882353
0.85894608 0.81017157 0.71173407
0.95343137 0.8189951 0.71960784
0.99497549 0.82647059 0.73676471
0.45588235 0.89136029 0.71715686
0.46613817 0.89166667 0.71323529
0.51668199 0.89117647 0.71086091
0.58284314 0.88983609 0.70165441
0.64534314 0.88511029 0.68808211
0.7323606 0.87567402 0.65802696
0.832981 0.87941176 0.65245098
0.94264706 0.89119945 0.68186275
0.99215686 0.89509804 0.70833333
0.5627451 0.95833333 0.74068627
0.58284314 0.95686275 0.73137255
0.60588235 0.95870098 0.73468137
0.65398284 0.95539216 0.72199755
0.70147059 0.94387255 0.70147059
0.77303922 0.92941176 0.67009804
0.85257353 0.9314951 0.65992647
0.95441176 0.953125 0.69675245
0.99607843 0.95294118 0.71813725
0.015686275 0.10392157 0.83823529
0.14816176 0.1004902 0.83529412
0.30490196 0.076470588 0.84534314
0.46666667 0.030392157 0.85637255
0.64607843 0.0039215686 0.87352941
0.80735294 0.033210784 0.88921569
0.9254902 0.097303922 0.87818627
0.98529412 0.056862745 0.84607843
1 0.043137255 0.80490196
0.042769608 0.1564951 0.83431373
0.1738511 0.15637255 0.83953738
0.33088235 0.15245098 0.84503676
0.47696078 0.14085478 0.85392157
0.64319853 0.14411765 0.87156863
0.80703125 0.18386949 0.89031863
0.9252451 0.19347426 0.87745098
0.98475797 0.15266544 0.84319853
1 0.15 0.8127451
0.081617647 0.25294118 0.82745098
0.17990196 0.24966299 0.83452819
0.33921569 0.26115196 0.83958333
0.48691789 0.27193627 0.85392157
0.64607843 0.29669118 0.86960784
0.80343137 0.34338235 0.88648897
0.92156863 0.35196078 0.87818627
0.98958333 0.32205882 0.8388174
0.99215686 0.30318627 0.80686275
0.064828431 0.36911765 0.81323529
0.16799939 0.37156863 0.80931373
0.31617647 0.38318015 0.82374387
0.47742034 0.40539216 0.83970588
0.6370098 0.44264706 0.85269608
0.80306373 0.49829963 0.87725184
0.91311275 0.51096814 0.87398897
0.97843137 0.46239277 0.83144914
0.99252451 0.43039216 0.7995098
0.021078431 0.4995098 0.79411765
0.055821078 0.48780637 0.7838848
0.2692402 0.5057598 0.79411765
0.44221814 0.5286152 0.80588235
0.61936275 0.5627451 0.83431373
0.7838848 0.61838235 0.86151961
0.89117647 0.62745098 0.85392157
0.96102941 0.59564951 0.83088235
0.99607843 0.53627451 0.79362745
0.13088235 0.65343137 0.80232843
0.20723039 0.64987745 0.80294118
0.32352941 0.65343137 0.79901961
0.44362745 0.6495098 0.80163909
0.58566176 0.659375 0.80814951
0.76029412 0.71715686 0.84287684
0.88054534 0.73967525 0.85294118
0.94647672 0.69283088 0.81911765
0.98578431 0.62683824 0.76911765
0.37352941 0.79338235 0.82254902
0.39157475 0.79117647 0.81936275
0.46372549 0.79117647 0.81807598
0.55346201 0.79163603 0.82254902
0.65943627 0.80012255 0.83002451
0.77895221 0.81519608 0.8416973
0.87352941 0.83057598 0.85257353
0.94215686 0.80658701 0.8301777
0.99828431 0.75661765 0.79509804
0.56776961 0.89166667 0.84215686
0.57130821 0.89198836 0.83120404
0.60980392 0.89509804 0.83823529
0.66776961 0.89780944 0.84607843
0.71819853 0.89546569 0.83897059
0.79705882 0.89563419 0.8345435
0.865625 0.89509804 0.81161152
0.94215686 0.90064338 0.82256434
0.99215686 0.90257353 0.8495098
0.63333333 0.94117647 0.84215686
0.66666667 0.95428922 0.84705882
0.6754902 0.95196078 0.84901961
0.71421569 0.95012255 0.84644608
0.75931373 0.94901961 0.83088235
0.80453431 0.95294118 0.82990196
0.86642157 0.95294118 0.81151961
0.93823529 0.94901961 0.81568627
0.99901961 0.95588235 0.83823529
0.28970588 0.15490196 0.93823529
0.33529412 0.15588235 0.93431373
0.41764706 0.1435049 0.9372549
0.53890931 0.13333333 0.93872549
0.67352941 0.14754902 0.94607843
0.81764706 0.20490196 0.95128676
0.93186275 0.28737745 0.95735294
0.99558824 0.30931373 0.94607843
0.99607843 0.30539216 0.94607843
0.28970588 0.21519608 0.93045343
0.32745098 0.19962469 0.93479626
0.42291667 0.20833333 0.93431373
0.54509804 0.20925245 0.94068627
0.6754902 0.22573529 0.94607843
0.81184896 0.26993719 0.95504749
0.92930453 0.35266544 0.95741422
0.98920803 0.3696155 0.9495098
1 0.35539216 0.94172794
0.29227941 0.29607843 0.92696078
0.34313725 0.30747549 0.92389706
0.42552083 0.30762868 0.93039216
0.54460784 0.30980392 0.93921569
0.67720588 0.34852941 0.94197304
0.81421569 0.38823529 0.94754902
0.92515319 0.45199142 0.9564951
0.99227941 0.47218137 0.94211091
0.99607843 0.45747549 0.93480392
0.26764706 0.41078431 0.92058824
0.31807598 0.41240043 0.91862745
0.41527267 0.41764706 0.92058824
0.53743107 0.43419884 0.9278799
0.67352941 0.46853554 0.93823529
0.81158088 0.52255668 0.93970588
0.91666667 0.57308517 0.94607843
0.98262102 0.58511029 0.93812806
1 0.54742647 0.93431373
0.17941176 0.5245098 0.8995098
0.23676471 0.52279412 0.90343137
0.36458333 0.53167892 0.90147059
0.5015625 0.54607843 0.91421569
0.65588235 0.57904412 0.9245098
0.79656863 0.62729779 0.92720588
0.9036152 0.6745098 0.93658088
0.97745098 0.68431373 0.9379902
0.99803922 0.68161765 0.93627451
0.098345588 0.63351716 0.8877451
0.17963388 0.63183977 0.89166667
0.29473039 0.6346201 0.89166667
0.43806679 0.63756127 0.89166667
0.59181985 0.6627451 0.9004902
0.76966912 0.71164982 0.91636795
0.8877451 0.75686275 0.92700674
0.96133578 0.77745098 0.93039216
0.98216912 0.75686275 0.91893382
0.32573529 0.78039216 0.89522059
0.36703431 0.77647059 0.89477635
0.42843137 0.77647059 0.89252451
0.51685049 0.77291667 0.89545037
0.61501225 0.77089461 0.89509804
0.73333333 0.78431373 0.90441176
0.86632966 0.82349877 0.91853554
0.95628064 0.84901961 0.92490809
0.99607843 0.82732843 0.91519608
0.53970588 0.8877451 0.89944853
0.56194087 0.8877451 0.8995098
0.60952819 0.88779105 0.90729167
0.65441176 0.88743873 0.90643382
0.72083333 0.8872549 0.91035539
0.805553 0.89136029 0.91443781
0.89264706 0.90294118 0.91862745
0.95042892 0.91029412 0.92254902
0.99607843 0.90392157 0.92604167
0.7372549 0.95637255 0.92205882
0.73676471 0.95294118 0.91862745
0.72843137 0.94129902 0.9182598
0.76617647 0.94362745 0.92077206
0.82941176 0.95294118 0.92598039
0.86470588 0.95294118 0.92254902
0.89656863 0.94901961 0.91127451
0.95042892 0.94117647 0.91911765
0.99607843 0.93382353 0.92990196
0.49019608 0.28235294 0.99215686
0.49460784 0.26764706 0.98480392
0.56960784 0.28921569 0.99215686
0.62058824 0.26666667 0.98039216
0.73529412 0.31960784 0.98823529
0.8372549 0.35980392 0.99215686
0.92058824 0.42156863 0.99117647
0.98137255 0.50343137 0.99215686
1 0.52941176 0.98823529
0.49411765 0.32843137 0.99215686
0.5127451 0.32794118 0.98823529
0.56519608 0.32696078 0.98823529
0.65030637 0.34215686 0.99215686
0.74093137 0.36348039 0.99019608
0.83939951 0.40753676 0.99215686
0.9245098 0.4504902 0.98823529
0.9995098 0.49901961 0.984375
1 0.55980392 0.99215686
0.47745098 0.39313725 0.98431373
0.53308824 0.41678922 0.99227941
0.57034314 0.4125 0.98823529
0.64803922 0.42058824 0.98823529
0.74215686 0.45245098 0.99068627
0.82843137 0.45686275 0.98186275
0.9245098 0.53014706 0.98823529
0.98602941 0.57965686 0.98553922
1 0.60588235 0.98431373
0.4995098 0.50539216 0.98186275
0.53008578 0.51145833 0.98431373
0.5629902 0.5064951 0.98088235
0.64656863 0.52352941 0.98339461
0.74436275 0.54583333 0.98431373
0.82395833 0.56078431 0.9754902
0.91997549 0.61323529 0.98039216
0.97843137 0.66158088 0.98431373
1 0.67941176 0.98431373
0.49411765 0.60784314 0.97843137
0.50906863 0.60588235 0.97647059
0.56960784 0.61617647 0.97941176
0.63995098 0.62009804 0.97965686
0.73039216 0.63627451 0.97647059
0.82990196 0.67205882 0.97843137
0.91617647 0.70490196 0.98235294
0.97303922 0.73529412 0.97647059
0.99607843 0.75490196 0.98039216
0.46127451 0.69460784 0.97254902
0.4723652 0.69491422 0.97285539
0.52328431 0.69571078 0.97365196
0.59019608 0.69705882 0.96862745
0.69926471 0.71544118 0.96740196
0.80349265 0.73529412 0.9622549
0.90245098 0.77647059 0.97254902
0.96960784 0.81127451 0.97647059
0.98823529 0.81470588 0.97254902
0.4627451 0.79215686 0.95
0.49620098 0.79509804 0.95992647
0.54313725 0.79607843 0.96470588
0.59509804 0.79963235 0.9682598
0.68431373 0.79852941 0.95196078
0.78737745 0.81188725 0.9622549
0.8875 0.83823529 0.96862745
0.96176471 0.86948529 0.97156863
0.98823529 0.87647059 0.97156863
0.61372549 0.89509804 0.95294118
0.59601716 0.89166667 0.9495098
0.65931373 0.90294118 0.96556373
0.69068627 0.89344363 0.95686275
0.72132353 0.8877451 0.94117647
0.79803922 0.88903186 0.9622549
0.89362745 0.9 0.96470588
0.95392157 0.90729167 0.95637255
0.99215686 0.91813725 0.95735294
0.72941176 0.95294118 0.94117647
0.75686275 0.95686275 0.96519608
0.78627451 0.95980392 0.96764706
0.75 0.93333333 0.95686275
0.8254902 0.95098039 0.9627451
0.87990196 0.95539216 0.96862745
0.92745098 0.95784314 0.97254902
0.96127451 0.95294118 0.96470588
1 0.96078431 0.97647059
