site/assets/luts/sha256-855a9fe920d8a1a67b5a1b0e4a31c79fa87620d60c675075f9bdab90cd267c1c.cube
# LUTr-Schema-Version: 2
# LUTr-ID: sha256-855a9fe920d8a1a67b5a1b0e4a31c79fa87620d60c675075f9bdab90cd267c1c
# LUTr-Title: fuji ilford delta 3200 ++
# LUTr-Collection: Natron HaldCLUT
# LUTr-Collection-ID: natron-haldclut-presets
# LUTr-Source: https://github.com/NatronGitHub/clut
# LUTr-Retrieved: 2026-07-27
# LUTr-Source-File: submissions/natron-haldclut-presets/negative_old/fuji_ilford_delta_3200_++.png
# LUTr-Source-Format: HALD-PNG
# LUTr-Source-SHA256: 855a9fe920d8a1a67b5a1b0e4a31c79fa87620d60c675075f9bdab90cd267c1c
# LUTr-License: CC-BY-SA-4.0
# LUTr-License-URL: https://github.com/NatronGitHub/clut#license
# LUTr-License-Basis: repo-license-file
# LUTr-Transform-Class: film-emulation
# LUTr-Tags: creative, film, film-emulation, hald-clut, natron, png, cube
# LUTr-Input-Color-Space: srgb
# LUTr-Input-Gamut: rec709
# LUTr-Input-Transfer: srgb
# LUTr-Output-Color-Space: srgb
# LUTr-Output-Gamut: rec709
# LUTr-Output-Transfer: srgb
# LUTr-Color-Space-Confidence: assumed-display-referred
# LUTr-Domain-Normalized: true
# LUTr-Shaper: none
# LUTr-Original-Grid: 64x64x64
# LUTr-Conversion-Grid: 25x25x25
# LUTr-Conversion-Interpolation: trilinear
# LUTr-Conversion-Method: HALD-PNG LUT image decoded at 16-bit and sampled to 25x25x25 3D CUBE
# LUTr-Conversion-Tool: LUTr scripts/convert-all-to-cube.mjs 2.0.0
# LUTr-Conversion-Date: 2026-07-27
# LUTr-Note: Preserve this metadata and the upstream license notices when redistributing.
TITLE "fuji ilford delta 3200 ++"
LUT_3D_SIZE 5
DOMAIN_MIN 0 0 0
DOMAIN_MAX 1 1 1
0.15686275 0.15686275 0.15686275
0.15686275 0.15686275 0.15686275
0.18823529 0.18823529 0.18823529
0.28039216 0.28039216 0.28039216
0.44705882 0.44705882 0.44705882
0.15882353 0.15882353 0.15882353
0.17696078 0.17696078 0.17696078
0.25098039 0.25098039 0.25098039
0.36372549 0.36372549 0.36372549
0.51568627 0.51568627 0.51568627
0.28431373 0.28431373 0.28431373
0.30392157 0.30392157 0.30392157
0.38823529 0.38823529 0.38823529
0.51960784 0.51960784 0.51960784
0.6627451 0.6627451 0.6627451
0.52254902 0.52254902 0.52254902
0.53333333 0.53333333 0.53333333
0.57401961 0.57401961 0.57401961
0.65882353 0.65882353 0.65882353
0.75980392 0.75980392 0.75980392
0.80784314 0.80784314 0.80784314
0.80392157 0.80392157 0.80392157
0.82745098 0.82745098 0.82745098
0.87058824 0.87058824 0.87058824
0.85490196 0.85490196 0.85490196
0.15686275 0.15686275 0.15686275
0.17156863 0.17156863 0.17156863
0.21323529 0.21323529 0.21323529
0.30686275 0.30686275 0.30686275
0.45980392 0.45980392 0.45980392
0.17941176 0.17941176 0.17941176
0.22132353 0.22132353 0.22132353
0.28186275 0.28186275 0.28186275
0.37867647 0.37867647 0.37867647
0.51666667 0.51666667 0.51666667
0.33431373 0.33431373 0.33431373
0.35686275 0.35686275 0.35686275
0.41593137 0.41593137 0.41593137
0.53713235 0.53713235 0.53713235
0.66078431 0.66078431 0.66078431
0.56372549 0.56372549 0.56372549
0.56764706 0.56764706 0.56764706
0.59240196 0.59240196 0.59240196
0.66292892 0.66292892 0.66292892
0.79803922 0.79803922 0.79803922
0.81960784 0.81960784 0.81960784
0.8245098 0.8245098 0.8245098
0.83921569 0.83921569 0.83921569
0.87156863 0.87156863 0.87156863
0.89019608 0.89019608 0.89019608
0.20980392 0.20980392 0.20980392
0.23676471 0.23676471 0.23676471
0.30784314 0.30784314 0.30784314
0.37892157 0.37892157 0.37892157
0.52352941 0.52352941 0.52352941
0.24264706 0.24264706 0.24264706
0.29987745 0.29987745 0.29987745
0.3629902 0.3629902 0.3629902
0.43884804 0.43884804 0.43884804
0.55 0.55 0.55
0.36078431 0.36078431 0.36078431
0.40416667 0.40416667 0.40416667
0.49411765 0.49411765 0.49411765
0.56764706 0.56764706 0.56764706
0.67058824 0.67058824 0.67058824
0.60931373 0.60931373 0.60931373
0.6245098 0.6245098 0.6245098
0.65318627 0.65318627 0.65318627
0.71176471 0.71176471 0.71176471
0.81715686 0.81715686 0.81715686
0.84117647 0.84117647 0.84117647
0.83627451 0.83627451 0.83627451
0.85784314 0.85784314 0.85784314
0.87941176 0.87941176 0.87941176
0.90784314 0.90784314 0.90784314
0.36470588 0.36470588 0.36470588
0.39607843 0.39607843 0.39607843
0.49705882 0.49705882 0.49705882
0.55073529 0.55073529 0.55073529
0.61764706 0.61764706 0.61764706
0.42622549 0.42622549 0.42622549
0.45269608 0.45269608 0.45269608
0.5317402 0.5317402 0.5317402
0.60196078 0.60196078 0.60196078
0.64803922 0.64803922 0.64803922
0.45686275 0.45686275 0.45686275
0.50784314 0.50784314 0.50784314
0.60465686 0.60465686 0.60465686
0.66801471 0.66801471 0.66801471
0.69313725 0.69313725 0.69313725
0.61642157 0.61642157 0.61642157
0.63817402 0.63817402 0.63817402
0.68186275 0.68186275 0.68186275
0.76862745 0.76862745 0.76862745
0.83406863 0.83406863 0.83406863
0.84705882 0.84705882 0.84705882
0.85098039 0.85098039 0.85098039
0.88088235 0.88088235 0.88088235
0.8997549 0.8997549 0.8997549
0.9254902 0.9254902 0.9254902
0.64705882 0.64705882 0.64705882
0.65490196 0.65490196 0.65490196
0.72745098 0.72745098 0.72745098
0.80098039 0.80098039 0.80098039
0.82745098 0.82745098 0.82745098
0.6745098 0.6745098 0.6745098
0.66666667 0.66666667 0.66666667
0.7504902 0.7504902 0.7504902
0.81568627 0.81568627 0.81568627
0.85392157 0.85392157 0.85392157
0.70392157 0.70392157 0.70392157
0.72598039 0.72598039 0.72598039
0.78137255 0.78137255 0.78137255
0.83039216 0.83039216 0.83039216
0.86666667 0.86666667 0.86666667
0.73137255 0.73137255 0.73137255
0.70882353 0.70882353 0.70882353
0.79117647 0.79117647 0.79117647
0.86764706 0.86764706 0.86764706
0.90588235 0.90588235 0.90588235
0.8627451 0.8627451 0.8627451
0.85980392 0.85980392 0.85980392
0.89803922 0.89803922 0.89803922
0.91372549 0.91372549 0.91372549
0.94117647 0.94117647 0.94117647
