site/assets/luts/sha256-268fe8537672456a51b1247d7d259f43d39a140b8f75376acc520b24641e59d9.cube
# LUTr-Schema-Version: 2
# LUTr-ID: sha256-268fe8537672456a51b1247d7d259f43d39a140b8f75376acc520b24641e59d9
# LUTr-Title: kodak kodachrome 200
# LUTr-Collection: Natron HaldCLUT
# LUTr-Collection-ID: natron-haldclut-presets
# LUTr-Source: https://github.com/NatronGitHub/clut
# LUTr-Retrieved: 2026-07-27
# LUTr-Source-File: submissions/natron-haldclut-presets/colorslide/kodak_kodachrome_200.png
# LUTr-Source-Format: HALD-PNG
# LUTr-Source-SHA256: 268fe8537672456a51b1247d7d259f43d39a140b8f75376acc520b24641e59d9
# LUTr-License: CC-BY-SA-4.0
# LUTr-License-URL: https://github.com/NatronGitHub/clut#license
# LUTr-License-Basis: repo-license-file
# LUTr-Transform-Class: film-emulation
# LUTr-Tags: creative, film, film-emulation, hald-clut, natron, png, cube
# LUTr-Input-Color-Space: srgb
# LUTr-Input-Gamut: rec709
# LUTr-Input-Transfer: srgb
# LUTr-Output-Color-Space: srgb
# LUTr-Output-Gamut: rec709
# LUTr-Output-Transfer: srgb
# LUTr-Color-Space-Confidence: assumed-display-referred
# LUTr-Domain-Normalized: true
# LUTr-Shaper: none
# LUTr-Original-Grid: 64x64x64
# LUTr-Conversion-Grid: 25x25x25
# LUTr-Conversion-Interpolation: trilinear
# LUTr-Conversion-Method: HALD-PNG LUT image decoded at 16-bit and sampled to 25x25x25 3D CUBE
# LUTr-Conversion-Tool: LUTr scripts/convert-all-to-cube.mjs 2.0.0
# LUTr-Conversion-Date: 2026-07-27
# LUTr-Note: Preserve this metadata and the upstream license notices when redistributing.
TITLE "kodak kodachrome 200"
LUT_3D_SIZE 5
DOMAIN_MIN 0 0 0
DOMAIN_MAX 1 1 1
0.019607843 0.015686275 0.023529412
0.1754902 0.018627451 0.018627451
0.49607843 0.02745098 0.033333333
0.75588235 0.023529412 0.019607843
0.91764706 0.0078431373 0.019607843
0.073529412 0.21470588 0.11078431
0.23406863 0.21470588 0.10686275
0.54019608 0.2127451 0.12303922
0.77083333 0.19117647 0.10073529
0.93627451 0.15392157 0.061764706
0.11568627 0.51764706 0.28431373
0.33333333 0.51176471 0.27254902
0.57058824 0.52156863 0.28039216
0.7754902 0.50588235 0.25441176
0.94117647 0.48627451 0.2
0.42647059 0.72843137 0.46568627
0.48014706 0.73235294 0.46960784
0.62892157 0.73284314 0.4627451
0.79019608 0.72916667 0.44534314
0.95196078 0.72843137 0.37647059
0.58823529 0.91372549 0.64313725
0.61470588 0.93137255 0.65588235
0.69411765 0.90392157 0.64117647
0.82254902 0.91470588 0.64313725
0.97647059 0.93333333 0.62745098
0.028431373 0.011764706 0.096078431
0.15661765 0.0039215686 0.08627451
0.48823529 0.010294118 0.098039216
0.74411765 0.0080882353 0.085294118
0.91764706 0.0078431373 0.07254902
0.073529412 0.21151961 0.21789216
0.21942402 0.21470588 0.21936275
0.52647059 0.2064951 0.22953431
0.76115196 0.18235294 0.2002451
0.92867647 0.14901961 0.14901961
0.1 0.52156863 0.37794118
0.31066176 0.52316176 0.38480392
0.5629902 0.52156863 0.38627451
0.77046569 0.50539216 0.36948529
0.91421569 0.49264706 0.32058824
0.40465686 0.73627451 0.54681373
0.47622549 0.74019608 0.54926471
0.62071078 0.73627451 0.53897059
0.78768382 0.72714461 0.53143382
0.94215686 0.7245098 0.50294118
0.57254902 0.92058824 0.68921569
0.60367647 0.92867647 0.68921569
0.69019608 0.93529412 0.69264706
0.81764706 0.93431373 0.69019608
0.97352941 0.93431373 0.6745098
0.0039215686 0.0039215686 0.28235294
0.1372549 0.0019607843 0.28578431
0.46764706 0.011764706 0.3
0.73235294 0.0078431373 0.28529412
0.90588235 0.0058823529 0.24509804
0.041176471 0.20980392 0.38823529
0.20330882 0.20294118 0.3939951
0.50416667 0.19534314 0.40367647
0.74595588 0.18002451 0.39546569
0.90882353 0.14313725 0.36176471
0.039215686 0.52941176 0.52941176
0.27990196 0.52132353 0.53333333
0.54607843 0.51911765 0.53970588
0.75514706 0.50980392 0.54191176
0.91862745 0.49411765 0.52352941
0.37990196 0.73627451 0.64509804
0.45686275 0.73872549 0.64509804
0.60588235 0.73946078 0.65441176
0.77598039 0.73909314 0.65294118
0.93431373 0.73088235 0.64117647
0.55294118 0.92745098 0.75490196
0.59215686 0.93284314 0.75588235
0.67843137 0.93039216 0.7627451
0.81617647 0.94117647 0.76715686
0.95882353 0.93333333 0.75490196
0 0 0.44117647
0.11960784 0.0078431373 0.43333333
0.45833333 0.023529412 0.46666667
0.7127451 0.0039215686 0.46568627
0.8754902 0.015686275 0.47647059
0.025735294 0.18235294 0.52058824
0.17843137 0.17512255 0.5254902
0.4872549 0.16482843 0.54117647
0.72843137 0.1466299 0.54172794
0.89779412 0.10294118 0.53651961
0.025490196 0.51519608 0.64117647
0.24705882 0.50735294 0.64460784
0.53112745 0.51176471 0.65539216
0.74019608 0.48970588 0.65723039
0.90490196 0.47745098 0.65686275
0.35220588 0.73627451 0.74338235
0.42843137 0.74019608 0.74730392
0.58762255 0.73321078 0.74877451
0.75686275 0.73553922 0.75514706
0.93014706 0.72843137 0.75294118
0.54901961 0.95392157 0.85196078
0.57941176 0.95 0.84901961
0.66666667 0.94558824 0.85196078
0.80294118 0.95343137 0.85980392
0.96862745 0.94019608 0.84901961
0.0039215686 0.015686275 0.54509804
0.06372549 0 0.5254902
0.4372549 0.0039215686 0.54705882
0.70882353 0.0078431373 0.57647059
0.88627451 0 0.54117647
0.011764706 0.13823529 0.59117647
0.14044118 0.13039216 0.60196078
0.47254902 0.11960784 0.61568627
0.71740196 0.1245098 0.62941176
0.89313725 0.070588235 0.62647059
0.0098039216 0.48627451 0.71372549
0.15686275 0.49019608 0.71764706
0.52156863 0.47745098 0.72156863
0.73284314 0.46666667 0.73333333
0.88823529 0.45098039 0.73137255
0.26470588 0.73235294 0.82156863
0.38357843 0.72769608 0.81764706
0.56372549 0.73333333 0.82941176
0.74901961 0.72941176 0.8379902
0.9254902 0.71666667 0.8372549
0.49019608 0.91372549 0.90196078
0.54803922 0.95686275 0.93823529
0.63921569 0.95490196 0.94509804
0.7872549 0.96568627 0.95784314
0.98823529 0.97254902 0.98039216
