site/assets/luts/sha256-ca5d66af39ebfbad4ed4a936de7022a96f39fce6a47ef15b968c980ba8f87b8a.cube
# LUTr-Schema-Version: 2
# LUTr-ID: sha256-ca5d66af39ebfbad4ed4a936de7022a96f39fce6a47ef15b968c980ba8f87b8a
# LUTr-Title: fuji 800z
# LUTr-Collection: Natron HaldCLUT
# LUTr-Collection-ID: natron-haldclut-presets
# LUTr-Source: https://github.com/NatronGitHub/clut
# LUTr-Retrieved: 2026-07-27
# LUTr-Source-File: submissions/natron-haldclut-presets/negative_new/fuji_800z.png
# LUTr-Source-Format: HALD-PNG
# LUTr-Source-SHA256: ca5d66af39ebfbad4ed4a936de7022a96f39fce6a47ef15b968c980ba8f87b8a
# LUTr-License: CC-BY-SA-4.0
# LUTr-License-URL: https://github.com/NatronGitHub/clut#license
# LUTr-License-Basis: repo-license-file
# LUTr-Transform-Class: film-emulation
# LUTr-Tags: creative, film, film-emulation, hald-clut, natron, png, cube
# LUTr-Input-Color-Space: srgb
# LUTr-Input-Gamut: rec709
# LUTr-Input-Transfer: srgb
# LUTr-Output-Color-Space: srgb
# LUTr-Output-Gamut: rec709
# LUTr-Output-Transfer: srgb
# LUTr-Color-Space-Confidence: assumed-display-referred
# LUTr-Domain-Normalized: true
# LUTr-Shaper: none
# LUTr-Original-Grid: 64x64x64
# LUTr-Conversion-Grid: 25x25x25
# LUTr-Conversion-Interpolation: trilinear
# LUTr-Conversion-Method: HALD-PNG LUT image decoded at 16-bit and sampled to 25x25x25 3D CUBE
# LUTr-Conversion-Tool: LUTr scripts/convert-all-to-cube.mjs 2.0.0
# LUTr-Conversion-Date: 2026-07-27
# LUTr-Note: Preserve this metadata and the upstream license notices when redistributing.
TITLE "fuji 800z"
LUT_3D_SIZE 5
DOMAIN_MIN 0 0 0
DOMAIN_MAX 1 1 1
0.039215686 0.043137255 0.031372549
0.24313725 0.035294118 0.048039216
0.56862745 0.0039215686 0.011764706
0.87352941 0 0.02254902
1 0.094117647 0
0.051960784 0.20882353 0.065686275
0.21544118 0.22647059 0.042401961
0.5745098 0.26078431 0.0039215686
0.85588235 0.25784314 0.015686275
0.99607843 0.31372549 0.0068627451
0.039215686 0.43529412 0.11372549
0.20147059 0.43333333 0.12156863
0.50882353 0.52352941 0.03627451
0.81862745 0.5622549 0.00049019608
0.99803922 0.56470588 0
0.23921569 0.65784314 0.24215686
0.29509804 0.64387255 0.2372549
0.46323529 0.66764706 0.2254902
0.73627451 0.74509804 0.22794118
0.9627451 0.77941176 0.16862745
0.58039216 0.89803922 0.57647059
0.59313725 0.8872549 0.56666667
0.66666667 0.89215686 0.59215686
0.78333333 0.91078431 0.59607843
0.89411765 0.9372549 0.60392157
0.076470588 0.057843137 0.19901961
0.26568627 0.043137255 0.20784314
0.62745098 0.0078431373 0.22892157
0.88823529 0.011764706 0.22720588
1 0.10882353 0.23039216
0.036029412 0.25392157 0.22034314
0.26905637 0.25839461 0.23449755
0.60588235 0.25330882 0.23333333
0.87316176 0.26231618 0.21936275
0.99191176 0.3245098 0.21397059
0.19460784 0.50980392 0.27254902
0.29362745 0.49080882 0.27254902
0.53137255 0.53357843 0.25784314
0.81715686 0.56041667 0.19093137
0.98970588 0.56323529 0.18186275
0.31470588 0.68823529 0.35098039
0.36078431 0.67034314 0.33572304
0.48921569 0.67132353 0.32377451
0.75349265 0.75349265 0.35594363
0.96691176 0.79901961 0.3627451
0.58823529 0.89803922 0.60392157
0.60294118 0.89019608 0.5997549
0.66862745 0.89411765 0.6127451
0.78946078 0.92156863 0.64117647
0.92058824 0.95196078 0.65
0.15882353 0.096078431 0.49215686
0.33823529 0.10245098 0.50784314
0.63529412 0.039215686 0.55392157
0.91666667 0.010784314 0.55392157
1 0.21176471 0.53921569
0.11421569 0.25539216 0.50392157
0.32745098 0.28198529 0.52340686
0.63823529 0.30686275 0.55686275
0.90196078 0.32095588 0.55245098
1 0.39117647 0.55441176
0.16176471 0.56666667 0.54313725
0.36544118 0.56519608 0.54901961
0.61617647 0.57941176 0.5622549
0.83333333 0.59166667 0.55906863
0.98921569 0.58823529 0.54901961
0.4627451 0.75686275 0.59215686
0.50196078 0.75098039 0.58051471
0.57107843 0.70808824 0.54338235
0.76053922 0.76078431 0.57598039
0.95490196 0.79215686 0.58235294
0.61372549 0.91960784 0.69019608
0.62892157 0.90196078 0.67941176
0.6627451 0.8745098 0.65686275
0.79019608 0.92352941 0.70784314
0.93529412 0.95490196 0.7254902
0.36764706 0.18431373 0.74509804
0.46102941 0.17598039 0.75759804
0.66813725 0.23823529 0.7754902
0.88137255 0.28210784 0.79191176
0.99607843 0.33235294 0.78333333
0.36078431 0.30490196 0.75294118
0.45398284 0.32181373 0.75667892
0.65784314 0.36237745 0.77156863
0.86176471 0.43039216 0.78719363
0.99607843 0.47279412 0.79044118
0.20980392 0.50931373 0.74019608
0.37156863 0.52818627 0.74558824
0.62377451 0.57328431 0.76053922
0.8377451 0.62683824 0.78651961
0.98480392 0.65 0.79509804
0.45980392 0.77647059 0.77647059
0.52181373 0.77843137 0.77622549
0.65232843 0.78088235 0.78014706
0.81341912 0.79865196 0.7875
0.96691176 0.80294118 0.78431373
0.66078431 0.93823529 0.81764706
0.68946078 0.94362745 0.81764706
0.73627451 0.9372549 0.81764706
0.80196078 0.92254902 0.80122549
0.91176471 0.94117647 0.81470588
0.60392157 0.39607843 0.94117647
0.65 0.41568627 0.93823529
0.74705882 0.42156863 0.92352941
0.89215686 0.51176471 0.92843137
0.99215686 0.57647059 0.9372549
0.59313725 0.47647059 0.92941176
0.63823529 0.48112745 0.93039216
0.75294118 0.51911765 0.93333333
0.89044118 0.58651961 0.94117647
0.99607843 0.61862745 0.94117647
0.53333333 0.6 0.93333333
0.62107843 0.62892157 0.94264706
0.72745098 0.64411765 0.93431373
0.8745098 0.68676471 0.94264706
0.99215686 0.71764706 0.94509804
0.50686275 0.78039216 0.93921569
0.54509804 0.77352941 0.9375
0.62205882 0.7495098 0.90343137
0.81764706 0.79117647 0.92647059
0.95294118 0.84117647 0.94411765
0.65882353 0.96078431 0.94509804
0.68529412 0.96568627 0.94215686
0.7372549 0.95098039 0.94509804
0.84901961 0.96372549 0.94803922
0.96470588 0.9372549 0.92156863
