site/assets/luts/sha256-88c42e6b16a07be90360cc33baca006649f9cd538815efb8b54715c77c264bcc.cube
# LUTr-Schema-Version: 2
# LUTr-ID: sha256-88c42e6b16a07be90360cc33baca006649f9cd538815efb8b54715c77c264bcc
# LUTr-Title: kodak portra 160 nc -
# LUTr-Collection: Natron HaldCLUT
# LUTr-Collection-ID: natron-haldclut-presets
# LUTr-Source: https://github.com/NatronGitHub/clut
# LUTr-Retrieved: 2026-07-27
# LUTr-Source-File: submissions/natron-haldclut-presets/negative_old/kodak_portra_160_nc_-.png
# LUTr-Source-Format: HALD-PNG
# LUTr-Source-SHA256: 88c42e6b16a07be90360cc33baca006649f9cd538815efb8b54715c77c264bcc
# LUTr-License: CC-BY-SA-4.0
# LUTr-License-URL: https://github.com/NatronGitHub/clut#license
# LUTr-License-Basis: repo-license-file
# LUTr-Transform-Class: film-emulation
# LUTr-Tags: creative, film, film-emulation, hald-clut, natron, png, cube
# LUTr-Input-Color-Space: srgb
# LUTr-Input-Gamut: rec709
# LUTr-Input-Transfer: srgb
# LUTr-Output-Color-Space: srgb
# LUTr-Output-Gamut: rec709
# LUTr-Output-Transfer: srgb
# LUTr-Color-Space-Confidence: assumed-display-referred
# LUTr-Domain-Normalized: true
# LUTr-Shaper: none
# LUTr-Original-Grid: 64x64x64
# LUTr-Conversion-Grid: 25x25x25
# LUTr-Conversion-Interpolation: trilinear
# LUTr-Conversion-Method: HALD-PNG LUT image decoded at 16-bit and sampled to 25x25x25 3D CUBE
# LUTr-Conversion-Tool: LUTr scripts/convert-all-to-cube.mjs 2.0.0
# LUTr-Conversion-Date: 2026-07-27
# LUTr-Note: Preserve this metadata and the upstream license notices when redistributing.
TITLE "kodak portra 160 nc -"
LUT_3D_SIZE 25
DOMAIN_MIN 0 0 0
DOMAIN_MAX 1 1 1
0.0039215686 0 0.0039215686
0.024509804 0.0078431373 0.006372549
0.044117647 0.011764706 0.011764706
0.061764706 0.011764706 0.015196078
0.08627451 0.0098039216 0.015686275
0.13186275 0.020588235 0.015686275
0.18039216 0.030392157 0.011764706
0.22941176 0.036764706 0.006372549
0.28235294 0.039215686 0.0039215686
0.34019608 0.039215686 0.010294118
0.40196078 0.039215686 0.016666667
0.46029412 0.035294118 0.019607843
0.51372549 0.033333333 0.021568627
0.55882353 0.043137255 0.019117647
0.60686275 0.044117647 0.0088235294
0.65441176 0.041666667 0.0024509804
0.69411765 0.058823529 0
0.73137255 0.087254902 0.0039215686
0.77254902 0.1127451 0.0039215686
0.81372549 0.13970588 0.0039215686
0.85882353 0.16470588 0
0.89215686 0.18529412 0.0083333333
0.92647059 0.20196078 0.015686275
0.96127451 0.21862745 0.023529412
0.99215686 0.23529412 0.031372549
0.006372549 0.016666667 0.006372549
0.020588235 0.023039216 0.0072916667
0.041176471 0.029411765 0.0082107843
0.061764706 0.032352941 0.011458333
0.092647059 0.033578431 0.014460784
0.13792892 0.047058824 0.015686275
0.18394608 0.057352941 0.014583333
0.23333333 0.068566176 0.010294118
0.28872549 0.07254902 0.0078431373
0.34319853 0.067095588 0.010294118
0.40196078 0.065196078 0.016053922
0.45980392 0.060968137 0.017156863
0.51176471 0.060294118 0.016421569
0.55882353 0.066176471 0.011458333
0.6057598 0.066176471 0.0049019608
0.65441176 0.074019608 0.0039215686
0.69411765 0.085784314 0.0039215686
0.72984069 0.10637255 0.009375
0.77071078 0.12389706 0.0093137255
0.81372549 0.14264706 0.0039215686
0.85882353 0.16470588 0
0.89215686 0.18529412 0.0083333333
0.92647059 0.20588235 0.018627451
0.95790441 0.225 0.023529412
0.98431373 0.24166667 0.02745098
0.017647059 0.045098039 0.015686275
0.025 0.048651961 0.011764706
0.037254902 0.049019608 0.0068627451
0.056862745 0.052941176 0.0039215686
0.096568627 0.061764706 0.0098039216
0.1432598 0.078063725 0.015808824
0.19142157 0.092892157 0.019607843
0.24362745 0.10735294 0.01629902
0.29901961 0.10980392 0.012745098
0.35330882 0.10245098 0.011764706
0.40588235 0.096323529 0.011764706
0.45992647 0.089705882 0.010906863
0.5127451 0.088235294 0.0073529412
0.56017157 0.093259804 0.0039215686
0.60784314 0.1002451 0.0039215686
0.65686275 0.10919118 0.0039215686
0.69901961 0.11666667 0.0039215686
0.73627451 0.13333333 0.0074754902
0.77377451 0.14828431 0.0075980392
0.81862745 0.15931373 0.0039215686
0.85882353 0.17107843 0
0.89166667 0.19154412 0.0083333333
0.92254902 0.21789216 0.014705882
0.95526961 0.23921569 0.023529412
0.97647059 0.25588235 0.02745098
0.0044117647 0.061764706 0.011764706
0.01685049 0.071568627 0.011764706
0.032843137 0.077818627 0.010294118
0.047487745 0.083394608 0.0039215686
0.092892157 0.1 0.0098039216
0.14405637 0.11666667 0.016176471
0.19767157 0.13333333 0.01997549
0.25392157 0.14705882 0.019607843
0.30931373 0.14362745 0.015686275
0.36685049 0.13707108 0.011764706
0.41960784 0.13088235 0.0082107843
0.47107843 0.12444853 0.0078431373
0.52107843 0.12352941 0.0073529412
0.57009804 0.12794118 0.0039215686
0.61519608 0.13566176 0.0039215686
0.66176471 0.14332108 0.0039215686
0.70931373 0.14754902 0
0.74656863 0.16029412 0.00049019608
0.78419118 0.17340686 0.0039215686
0.82199755 0.18670343 0.0039215686
0.85882353 0.2004902 0.0039215686
0.89215686 0.21519608 0.0083333333
0.92647059 0.23615196 0.015563725
0.95949755 0.25686275 0.023529412
0.98382353 0.27009804 0.02745098
0 0.10588235 0.021568627
0.0051470588 0.11421569 0.021568627
0.016666667 0.12401961 0.020588235
0.026960784 0.12916667 0.014215686
0.06372549 0.14019608 0.011764706
0.12132353 0.15784314 0.013970588
0.20392157 0.1754902 0.014215686
0.26421569 0.18823529 0.017156863
0.32352941 0.18431373 0.015686275
0.38210784 0.17205882 0.0066176471
0.43431373 0.16617647 0.0039215686
0.48186275 0.16470588 0.0056372549
0.52941176 0.16764706 0.0078431373
0.57696078 0.16911765 0.0078431373
0.6254902 0.17647059 0.0078431373
0.67328431 0.18112745 0.0039215686
0.71960784 0.18431373 0
0.75441176 0.19068627 0
0.7877451 0.20294118 0.0039215686
0.82377451 0.21691176 0.0056372549
0.85980392 0.22745098 0.0078431373
0.89387255 0.24191176 0.012254902
0.92647059 0.25735294 0.015686275
0.9627451 0.27745098 0.021078431
0.99215686 0.29411765 0.025490196
0 0.16323529 0.044117647
0.0024509804 0.1658701 0.039889706
0.0039215686 0.16801471 0.030882353
0.0034313725 0.17058824 0.017156863
0.025980392 0.17622549 0.0080882353
0.10925245 0.19901961 0.012254902
0.20110294 0.21960784 0.012254902
0.27175245 0.23400735 0.013051471
0.33382353 0.23039216 0.011764706
0.39558824 0.21403186 0.0014705882
0.44754902 0.21066176 0.0039215686
0.49264706 0.21029412 0.0073529412
0.53970588 0.2120098 0.0078431373
0.58768382 0.21378676 0.0078431373
0.63872549 0.21764706 0.0078431373
0.68480392 0.22303922 0.0065563725
0.72598039 0.22598039 0.0039215686
0.76078431 0.23186275 0
0.79509804 0.23823529 0.0039215686
0.82647059 0.24503676 0.0039215686
0.8629902 0.25441176 0.0075980392
0.89558824 0.26813725 0.0083333333
0.92610294 0.2814951 0.015563725
0.96029412 0.29785539 0.021078431
0.99117647 0.31078431 0.02745098
0 0.21470588 0.061764706
0.0006127451 0.21862745 0.057230392
0 0.21862745 0.048039216
0 0.21862745 0.036887255
0.0078431373 0.2245098 0.030392157
0.068137255 0.24411765 0.025490196
0.15465686 0.26470588 0.026470588
0.25710784 0.28492647 0.017156863
0.34411765 0.29607843 0.0078431373
0.40404412 0.28480392 0.0014705882
0.45490196 0.27843137 0.0039215686
0.50257353 0.2689951 0.0077205882
0.55 0.26323529 0.0078431373
0.59840686 0.25882353 0.0078431373
0.64901961 0.26176471 0.0078431373
0.69509804 0.26605392 0.0049019608
0.73333333 0.27058824 0.0039215686
0.76715686 0.27303922 0
0.7997549 0.27843137 0.0039215686
0.83370098 0.28235294 0.0039215686
0.86813725 0.28872549 0.0044117647
0.89509804 0.29558824 0.0083333333
0.91666667 0.30294118 0.016421569
0.94656863 0.31715686 0.023529412
0.97647059 0.33137255 0.02745098
0 0.26617647 0.07745098
0 0.26617647 0.073529412
0.0018382353 0.27009804 0.079044118
0.0014705882 0.2713848 0.067463235
0.0058823529 0.27990196 0.064460784
0.021691176 0.29050245 0.04932598
0.096078431 0.30980392 0.037745098
0.21121324 0.33039216 0.028370098
0.32745098 0.34705882 0.013235294
0.41041667 0.35147059 0.00091911765
0.45772059 0.33970588 0.0049019608
0.50373775 0.32941176 0.0078431373
0.55490196 0.31911765 0.0078431373
0.60637255 0.30882353 0.0073529412
0.65784314 0.30539216 0.0039215686
0.70484069 0.30784314 0.0024509804
0.73872549 0.31176471 0
0.77205882 0.31421569 0
0.80441176 0.3185049 0.0039215686
0.8377451 0.32303922 0.0039215686
0.86862745 0.32745098 0.0039215686
0.89705882 0.33400735 0.0078431373
0.92794118 0.34105392 0.011397059
0.95637255 0.34852941 0.015686275
0.97794118 0.35735294 0.022058824
0 0.31372549 0.090196078
0 0.31764706 0.092647059
0.0039215686 0.32156863 0.098039216
0.0039215686 0.32892157 0.098039216
0.0039215686 0.33529412 0.08627451
0.0039215686 0.34117647 0.069607843
0.042156863 0.35098039 0.050980392
0.17058824 0.37009804 0.045588235
0.29019608 0.38431373 0.035294118
0.38039216 0.39607843 0.011764706
0.43235294 0.3872549 0.0078431373
0.48382353 0.37696078 0.0078431373
0.54509804 0.37058824 0.0078431373
0.60637255 0.36421569 0.0039215686
0.66176471 0.35686275 0.00098039216
0.71029412 0.34901961 0
0.74509804 0.35294118 0
0.77598039 0.35539216 0
0.80686275 0.35784314 0.0039215686
0.84166667 0.36421569 0.0039215686
0.86862745 0.36862745 0.0058823529
0.8995098 0.37303922 0.0078431373
0.93431373 0.38039216 0.0078431373
0.97058824 0.38823529 0.0078431373
0.99607843 0.39215686 0.011764706
0 0.36127451 0.11960784
0.0024509804 0.36427696 0.12653186
0.0039215686 0.36948529 0.13198529
0.0039215686 0.37432598 0.13400735
0.0039215686 0.38039216 0.12794118
0.0042279412 0.38235294 0.12009804
0.036887255 0.38921569 0.10110294
0.13584559 0.40398284 0.076531863
0.24117647 0.41911765 0.049509804
0.33284314 0.43186275 0.018014706
0.40269608 0.43088235 0.0020833333
0.47126225 0.43008578 0.0039215686
0.54313725 0.43039216 0.0078431373
0.60931373 0.42628676 0.0039215686
0.66568627 0.41960784 0.0039215686
0.71176471 0.40539216 0.0048406863
0.74754902 0.39656863 0.006372549
0.77990196 0.39748775 0.0048406863
0.81323529 0.40196078 0
0.84411765 0.40588235 0
0.875 0.40980392 0.0039215686
0.90588235 0.41421569 0.0078431373
0.93823529 0.41875 0.0096813725
0.9721201 0.42395833 0.011764706
0.98578431 0.42696078 0.015686275
0 0.40392157 0.15588235
0.0039215686 0.40845588 0.16433824
0.0039215686 0.4120098 0.17254902
0.0039215686 0.41568627 0.17904412
0.0039215686 0.41960784 0.17647059
0.01127451 0.42352941 0.17365196
0.030392157 0.42720588 0.15196078
0.11164216 0.44007353 0.12107843
0.20784314 0.45392157 0.08627451
0.29571078 0.46421569 0.050122549
0.38308824 0.4754902 0.025980392
0.46948529 0.48578431 0.016176471
0.54705882 0.49166667 0.011764706
0.61862745 0.49215686 0.0047794118
0.67058824 0.48235294 0.0039215686
0.71029412 0.46568627 0.0082107843
0.74901961 0.45196078 0.011764706
0.78345588 0.44448529 0.0082107843
0.81862745 0.44485294 0.0031862745
0.8504902 0.44791667 0
0.88039216 0.45098039 0.0019607843
0.91127451 0.45098039 0.0042892157
0.94215686 0.45392157 0.0075980392
0.97009804 0.45784314 0.011764706
0.9754902 0.46176471 0.015686275
0 0.44901961 0.19068627
0.0039215686 0.45147059 0.19705882
0.0039215686 0.45686275 0.20723039
0.0039215686 0.46072304 0.21372549
0.0039215686 0.46078431 0.20833333
0.0039828431 0.46084559 0.19852941
0.0077205882 0.46470588 0.18872549
0.071568627 0.4745098 0.16599265
0.17745098 0.48480392 0.14215686
0.271875 0.49883578 0.1245098
0.35441176 0.50931373 0.10208333
0.44411765 0.52303922 0.072120098
0.53259804 0.5372549 0.046813725
0.615625 0.5504902 0.017218137
0.67058824 0.5432598 0.0073529412
0.71176471 0.52745098 0.0078431373
0.74901961 0.51421569 0.011764706
0.78235294 0.50441176 0.0093137255
0.81862745 0.49816176 0.006495098
0.85643382 0.49258578 0.00042892157
0.88602941 0.49215686 0.0039215686
0.915625 0.49172794 0.0039215686
0.9495098 0.48823529 0.0039215686
0.96881127 0.49019608 0.0080269608
0.96911765 0.49264706 0.011764706
0 0.48823529 0.21764706
0.0012254902 0.49264706 0.22794118
0.0039215686 0.49656863 0.23529412
0.0039215686 0.49803922 0.2372549
0.0049019608 0.49803922 0.23333333
0.0058823529 0.5 0.2254902
0.010294118 0.50147059 0.21862745
0.062254902 0.50539216 0.2129902
0.15490196 0.51568627 0.20588235
0.24828431 0.52990196 0.19632353
0.32745098 0.54019608 0.175
0.40955882 0.5504902 0.13529412
0.49509804 0.56568627 0.10294118
0.57647059 0.57941176 0.066666667
0.65588235 0.59313725 0.025490196
0.71102941 0.59068627 0.0078431373
0.74509804 0.5745098 0.01372549
0.77916667 0.5622549 0.011764706
0.81568627 0.55441176 0.0093137255
0.85294118 0.54754902 0.006127451
0.88529412 0.54313725 0.0058823529
0.91911765 0.53504902 0.0039215686
0.95343137 0.52794118 0.0024509804
0.97058824 0.52426471 0.013970588
0.97058824 0.52745098 0.021568627
0.0039215686 0.52745098 0.24852941
0.0039215686 0.53118873 0.25459559
0.0039215686 0.53223039 0.26127451
0.0039215686 0.53480392 0.26807598
0.0098039216 0.53529412 0.26617647
0.016176471 0.53529412 0.2588848
0.03370098 0.53529412 0.24852941
0.092340686 0.54050245 0.24460784
0.16568627 0.5504902 0.24068627
0.2408701 0.56078431 0.2403799
0.30073529 0.57107843 0.22573529
0.375 0.58088235 0.19258578
0.45686275 0.59338235 0.15735294
0.53829657 0.60539216 0.12794118
0.61715686 0.6182598 0.095833333
0.69136029 0.63223039 0.045220588
0.74068627 0.62990196 0.020098039
0.77843137 0.62009804 0.011764706
0.81556373 0.60980392 0.010906863
0.85294118 0.60251225 0.0044117647
0.88431373 0.59264706 0.0058823529
0.91911765 0.58584559 0.0044117647
0.95 0.57855392 0.028431373
0.9754902 0.5745098 0.06127451
0.98480392 0.5745098 0.076960784
0.0078431373 0.56862745 0.28235294
0.0068627451 0.56862745 0.28333333
0.0039215686 0.56960784 0.2875
0.0039215686 0.56960784 0.29215686
0.0098039216 0.56960784 0.29362745
0.020465686 0.56960784 0.28382353
0.059068627 0.57254902 0.27647059
0.11960784 0.57683824 0.2754902
0.18235294 0.58137255 0.27156863
0.2432598 0.59166667 0.26519608
0.29828431 0.60196078 0.25171569
0.35134804 0.60870098 0.23602941
0.42058824 0.61862745 0.21519608
0.49791667 0.62598039 0.19705882
0.5754902 0.63627451 0.17671569
0.64558824 0.6504902 0.13198529
0.71764706 0.66862745 0.062745098
0.77659314 0.675 0.019485294
0.81176471 0.66372549 0.02254902
0.85036765 0.6504902 0.021568627
0.88431373 0.64117647 0.017156863
0.91617647 0.63125 0.016421569
0.94607843 0.62671569 0.055882353
0.97365196 0.62144608 0.097058824
0.99509804 0.61960784 0.1254902
0.013235294 0.60980392 0.31421569
0.010232843 0.60680147 0.31421569
0.0078431373 0.60588235 0.31421569
0.0056985294 0.60588235 0.31666667
0.0031862745 0.60588235 0.31666667
0.019607843 0.60618873 0.31011029
0.075490196 0.60943627 0.30637255
0.140625 0.6122549 0.30637255
0.19754902 0.61372549 0.30245098
0.25294118 0.62254902 0.29607843
0.30686275 0.63247549 0.28517157
0.35459559 0.63921569 0.27647059
0.40784314 0.64754902 0.26348039
0.47677696 0.65588235 0.24411765
0.55098039 0.66507353 0.22389706
0.6122549 0.67254902 0.19901961
0.675 0.68529412 0.15833333
0.74460784 0.6995098 0.099571078
0.81053922 0.71004902 0.042401961
0.8495098 0.70067402 0.039215686
0.87892157 0.6877451 0.052941176
0.91158088 0.67745098 0.063235294
0.94276961 0.67071078 0.089215686
0.96856618 0.66617647 0.125
0.98676471 0.66617647 0.14656863
0.015686275 0.64705882 0.34509804
0.011764706 0.64460784 0.34264706
0.010784314 0.64313725 0.34117647
0.0039215686 0.64313725 0.34117647
0.0039215686 0.64313725 0.33921569
0.030392157 0.64313725 0.3372549
0.095098039 0.64313725 0.3372549
0.15392157 0.64313725 0.3372549
0.20784314 0.64705882 0.3372549
0.26323529 0.65343137 0.33088235
0.31078431 0.65980392 0.32156863
0.35882353 0.67009804 0.31764706
0.40588235 0.67647059 0.30588235
0.46617647 0.68627451 0.28921569
0.53235294 0.69313725 0.26862745
0.58921569 0.70343137 0.24803922
0.64705882 0.70980392 0.22745098
0.71127451 0.72009804 0.18284314
0.78627451 0.73431373 0.11666667
0.8372549 0.74117647 0.086764706
0.87254902 0.73529412 0.096078431
0.90735294 0.725 0.11029412
0.93823529 0.71764706 0.13137255
0.96764706 0.71372549 0.15196078
0.98823529 0.71372549 0.16862745
0.0093137255 0.68431373 0.37205882
0.012683824 0.68278186 0.37205882
0.023039216 0.68186275 0.37205882
0.022732843 0.68431373 0.3745098
0.048529412 0.68112745 0.3745098
0.085477941 0.67794118 0.37420343
0.12892157 0.67647059 0.37058824
0.17610294 0.67702206 0.36813725
0.21813725 0.67794118 0.36813725
0.26470588 0.68431373 0.3651348
0.31470588 0.69068627 0.35992647
0.36256127 0.69883578 0.35508578
0.40784314 0.70735294 0.34656863
0.45931373 0.71372549 0.33284314
0.51813725 0.72401961 0.31556373
0.57408088 0.73039216 0.29797794
0.62892157 0.73676471 0.27892157
0.68823529 0.74460784 0.24859069
0.75723039 0.75735294 0.19362745
0.80980392 0.76519608 0.16568627
0.8629902 0.77328431 0.15122549
0.90520833 0.77254902 0.15147059
0.93823529 0.76556373 0.17009804
0.96519608 0.76219363 0.18529412
0.99460784 0.75882353 0.19558824
0.010784314 0.72058824 0.40098039
0.041176471 0.72156863 0.40392157
0.085294118 0.72156863 0.41102941
0.11017157 0.72156863 0.41176471
0.13235294 0.72107843 0.41176471
0.16090686 0.71752451 0.41176471
0.19117647 0.71372549 0.40882353
0.22598039 0.71372549 0.40637255
0.25686275 0.71372549 0.40392157
0.28615196 0.71556373 0.40392157
0.32916667 0.72132353 0.3997549
0.37512255 0.72794118 0.39718137
0.4127451 0.73578431 0.38529412
0.4502451 0.74460784 0.37598039
0.50294118 0.75171569 0.3627451
0.55833333 0.75698529 0.34852941
0.61078431 0.76372549 0.33431373
0.67156863 0.77303922 0.30551471
0.73137255 0.78014706 0.26764706
0.78382353 0.78970588 0.24705882
0.83872549 0.8 0.22745098
0.89595588 0.81115196 0.20551471
0.93333333 0.81102941 0.20931373
0.96029412 0.80183824 0.22892157
0.98333333 0.8 0.23137255
0.12401961 0.75539216 0.45245098
0.13578431 0.75539216 0.4463848
0.16421569 0.75894608 0.44558824
0.19166667 0.7588848 0.44558824
0.21421569 0.75539216 0.44583333
0.23676471 0.75490196 0.44944853
0.26029412 0.75232843 0.44901961
0.2877451 0.75128676 0.44901961
0.31127451 0.75098039 0.44901961
0.33578431 0.74969363 0.44871324
0.36531863 0.75245098 0.44362745
0.40091912 0.75882353 0.43376225
0.4377451 0.76519608 0.42696078
0.47058824 0.77506127 0.42064951
0.50490196 0.77806373 0.41029412
0.54871324 0.78431373 0.3963848
0.59656863 0.79068627 0.38578431
0.65098039 0.79883578 0.36243873
0.70526961 0.80735294 0.33713235
0.75931373 0.81421569 0.32254902
0.82009804 0.82622549 0.30588235
0.87745098 0.83480392 0.28529412
0.91605392 0.83823529 0.2745098
0.95735294 0.84117647 0.26488971
0.97254902 0.84117647 0.26519608
0.22745098 0.79019608 0.50196078
0.2370098 0.79019608 0.49485294
0.24803922 0.79019608 0.48529412
0.25661765 0.79019608 0.47867647
0.2754902 0.78627451 0.48137255
0.2995098 0.78627451 0.48872549
0.325 0.78823529 0.49411765
0.34411765 0.78823529 0.49607843
0.3627451 0.78627451 0.49607843
0.38333333 0.78504902 0.49607843
0.40686275 0.78627451 0.49215686
0.43946078 0.79019608 0.48651961
0.47058824 0.79705882 0.47843137
0.49730392 0.80196078 0.47205882
0.52401961 0.80539216 0.4622549
0.56127451 0.81127451 0.44877451
0.59803922 0.81764706 0.43529412
0.6372549 0.82671569 0.425
0.68921569 0.83235294 0.4122549
0.74632353 0.84093137 0.39852941
0.80490196 0.85098039 0.38529412
0.85686275 0.85906863 0.36740196
0.90294118 0.86764706 0.34019608
0.9497549 0.87720588 0.3120098
0.96470588 0.87843137 0.30588235
0.32598039 0.825 0.55098039
0.32990196 0.82285539 0.54117647
0.33333333 0.82156863 0.53615196
0.33676471 0.82156863 0.53235294
0.34485294 0.82107843 0.53186275
0.36568627 0.82156863 0.53627451
0.38933824 0.82156863 0.54313725
0.40441176 0.82107843 0.54313725
0.41862745 0.82107843 0.54313725
0.43498775 0.82107843 0.54362745
0.45134804 0.82156863 0.5435049
0.475 0.82457108 0.53970588
0.50122549 0.82867647 0.53014706
0.52401961 0.82941176 0.52444853
0.54767157 0.83284314 0.51764706
0.58382353 0.83823529 0.50557598
0.62107843 0.84803922 0.49313725
0.65539216 0.85490196 0.49362745
0.68811275 0.86029412 0.48480392
0.7348652 0.86764706 0.4745098
0.78970588 0.87573529 0.46053922
0.84117647 0.88425245 0.4377451
0.88958333 0.89411765 0.41372549
0.93302696 0.90079657 0.39509804
0.94803922 0.90294118 0.38872549
0.41862745 0.85980392 0.59901961
0.41862745 0.85882353 0.59803922
0.41887255 0.85882353 0.59411765
0.41960784 0.85882353 0.59068627
0.42843137 0.85735294 0.59019608
0.43982843 0.85882353 0.59031863
0.45196078 0.85661765 0.59117647
0.46556373 0.85588235 0.59117647
0.48039216 0.85588235 0.59117647
0.4942402 0.85588235 0.59411765
0.50808824 0.85661765 0.59411765
0.52169118 0.85882353 0.59669118
0.54019608 0.85980392 0.58823529
0.56176471 0.86029412 0.57928922
0.58308824 0.86372549 0.5747549
0.61470588 0.86911765 0.56519608
0.64901961 0.87843137 0.56176471
0.67928922 0.88688725 0.56323529
0.71004902 0.89215686 0.56004902
0.74509804 0.89852941 0.5504902
0.78431373 0.90294118 0.53970588
0.82696078 0.91127451 0.52352941
0.8747549 0.91789216 0.50294118
0.91617647 0.92683824 0.48443627
0.92745098 0.92745098 0.48137255
0.5004902 0.89460784 0.65441176
0.50140931 0.89460784 0.65441176
0.50477941 0.89460784 0.65441176
0.50588235 0.89589461 0.65196078
0.50857843 0.89607843 0.65
0.5122549 0.89411765 0.64785539
0.52598039 0.89460784 0.65098039
0.53817402 0.89215686 0.65196078
0.55 0.89068627 0.6504902
0.55974265 0.89215686 0.65349265
0.57487745 0.89607843 0.65796569
0.58872549 0.89822304 0.66341912
0.60294118 0.89607843 0.65147059
0.61568627 0.8963848 0.64001225
0.62892157 0.89852941 0.63333333
0.64895833 0.90300245 0.63235294
0.67745098 0.91029412 0.63382353
0.70588235 0.92058824 0.6377451
0.73468137 0.92696078 0.63284314
0.76470588 0.92990196 0.62647059
0.79166667 0.93382353 0.61617647
0.82285539 0.93823529 0.60980392
0.86127451 0.94558824 0.59522059
0.8995098 0.95343137 0.57702206
0.90686275 0.95343137 0.57401961
0.56078431 0.92156863 0.69411765
0.56470588 0.92156863 0.69411765
0.56862745 0.92156863 0.69803922
0.57254902 0.9254902 0.69803922
0.58235294 0.93137255 0.70392157
0.58039216 0.925 0.69803922
0.59117647 0.9254902 0.70490196
0.59607843 0.92156863 0.7004902
0.59607843 0.91764706 0.69411765
0.60637255 0.92009804 0.69656863
0.6254902 0.92647059 0.70686275
0.6495098 0.93676471 0.7245098
0.65098039 0.92941176 0.70588235
0.65539216 0.9254902 0.68970588
0.66568627 0.9254902 0.68333333
0.68137255 0.92941176 0.68235294
0.70196078 0.9372549 0.68627451
0.72647059 0.94754902 0.69411765
0.75490196 0.95294118 0.68921569
0.7754902 0.95686275 0.68284314
0.80196078 0.95882353 0.67254902
0.82892157 0.96470588 0.66617647
0.85980392 0.97156863 0.6627451
0.88627451 0.97892157 0.66764706
0.89019608 0.97647059 0.65490196
0.010294118 0.010294118 0.024509804
0.024509804 0.010294118 0.020588235
0.044730392 0.011764706 0.016053922
0.061764706 0.0080269608 0.015502451
0.08627451 0.0058823529 0.015686275
0.13578431 0.020772059 0.018321078
0.18370098 0.032965686 0.022426471
0.23088235 0.028921569 0.020588235
0.28480392 0.032843137 0.020588235
0.34319853 0.032843137 0.020588235
0.40196078 0.034681373 0.021446078
0.45980392 0.031556373 0.019607843
0.51372549 0.030882353 0.021568627
0.55667892 0.043627451 0.022058824
0.60330882 0.051348039 0.020955882
0.64957108 0.057352941 0.015196078
0.69656863 0.062745098 0.0039215686
0.73284314 0.088786765 0.0054534314
0.77254902 0.11629902 0.010294118
0.81372549 0.14234069 0.010294118
0.85882353 0.16715686 0.0088235294
0.89185049 0.18743873 0.017156863
0.92647059 0.20477941 0.025980392
0.96127451 0.22107843 0.032352941
0.99362745 0.2377451 0.041176471
0.0078431373 0.017585784 0.019056373
0.023935355 0.022426471 0.018137255
0.042279412 0.027512255 0.017218137
0.061764706 0.0292356 0.015747549
0.0921875 0.032843137 0.017677696
0.13892463 0.043206189 0.024011949
0.1868413 0.05301777 0.027879902
0.2372549 0.057008272 0.026041667
0.28872549 0.059803922 0.020588235
0.34633885 0.059803922 0.020588235
0.40379902 0.059803922 0.019378064
0.4599954 0.059321385 0.019607843
0.51222426 0.058609069 0.015196078
0.55882353 0.066551777 0.014882047
0.60307904 0.073651961 0.016973039
0.64957108 0.081862745 0.01217065
0.69411765 0.092156863 0.0054534314
0.72869179 0.10786612 0.012745098
0.76862745 0.12657782 0.016053922
0.81353401 0.14375766 0.010003064
0.85882353 0.16516544 0.0044117647
0.89185049 0.18529412 0.013235294
0.92647059 0.20741422 0.02689951
0.95859375 0.22892157 0.03627451
0.98578431 0.24558824 0.044178922
