site/assets/luts/sha256-402b47e6c7f01575867f1e7ddd16500d97d450d386983c30d620a9e705dd948d.cube
# LUTr-Schema-Version: 2
# LUTr-ID: sha256-402b47e6c7f01575867f1e7ddd16500d97d450d386983c30d620a9e705dd948d
# LUTr-Title: fuji ilford hp5 -
# LUTr-Collection: Natron HaldCLUT
# LUTr-Collection-ID: natron-haldclut-presets
# LUTr-Source: https://github.com/NatronGitHub/clut
# LUTr-Retrieved: 2026-07-27
# LUTr-Source-File: submissions/natron-haldclut-presets/negative_new/fuji_ilford_hp5_-.png
# LUTr-Source-Format: HALD-PNG
# LUTr-Source-SHA256: 402b47e6c7f01575867f1e7ddd16500d97d450d386983c30d620a9e705dd948d
# LUTr-License: CC-BY-SA-4.0
# LUTr-License-URL: https://github.com/NatronGitHub/clut#license
# LUTr-License-Basis: repo-license-file
# LUTr-Transform-Class: film-emulation
# LUTr-Tags: creative, film, film-emulation, hald-clut, natron, png, cube
# LUTr-Input-Color-Space: srgb
# LUTr-Input-Gamut: rec709
# LUTr-Input-Transfer: srgb
# LUTr-Output-Color-Space: srgb
# LUTr-Output-Gamut: rec709
# LUTr-Output-Transfer: srgb
# LUTr-Color-Space-Confidence: assumed-display-referred
# LUTr-Domain-Normalized: true
# LUTr-Shaper: none
# LUTr-Original-Grid: 64x64x64
# LUTr-Conversion-Grid: 25x25x25
# LUTr-Conversion-Interpolation: trilinear
# LUTr-Conversion-Method: HALD-PNG LUT image decoded at 16-bit and sampled to 25x25x25 3D CUBE
# LUTr-Conversion-Tool: LUTr scripts/convert-all-to-cube.mjs 2.0.0
# LUTr-Conversion-Date: 2026-07-27
# LUTr-Note: Preserve this metadata and the upstream license notices when redistributing.
TITLE "fuji ilford hp5 -"
LUT_3D_SIZE 9
DOMAIN_MIN 0 0 0
DOMAIN_MAX 1 1 1
0.031372549 0.031372549 0.031372549
0.050980392 0.050980392 0.050980392
0.073529412 0.073529412 0.073529412
0.15245098 0.15245098 0.15245098
0.24117647 0.24117647 0.24117647
0.3127451 0.3127451 0.3127451
0.39411765 0.39411765 0.39411765
0.48382353 0.48382353 0.48382353
0.57254902 0.57254902 0.57254902
0.030882353 0.030882353 0.030882353
0.072977941 0.072977941 0.072977941
0.12647059 0.12647059 0.12647059
0.19852941 0.19852941 0.19852941
0.2752451 0.2752451 0.2752451
0.34491422 0.34491422 0.34491422
0.42107843 0.42107843 0.42107843
0.50686275 0.50686275 0.50686275
0.5877451 0.5877451 0.5877451
0.14215686 0.14215686 0.14215686
0.1375 0.1375 0.1375
0.20686275 0.20686275 0.20686275
0.27928922 0.27928922 0.27928922
0.34852941 0.34852941 0.34852941
0.40490196 0.40490196 0.40490196
0.46666667 0.46666667 0.46666667
0.54460784 0.54460784 0.54460784
0.6372549 0.6372549 0.6372549
0.25833333 0.25833333 0.25833333
0.26029412 0.26029412 0.26029412
0.30343137 0.30343137 0.30343137
0.35882353 0.35882353 0.35882353
0.41666667 0.41666667 0.41666667
0.47058824 0.47058824 0.47058824
0.52904412 0.52904412 0.52904412
0.6127451 0.6127451 0.6127451
0.69117647 0.69117647 0.69117647
0.36666667 0.36666667 0.36666667
0.36642157 0.36642157 0.36642157
0.38921569 0.38921569 0.38921569
0.42990196 0.42990196 0.42990196
0.48235294 0.48235294 0.48235294
0.53235294 0.53235294 0.53235294
0.60294118 0.60294118 0.60294118
0.68553922 0.68553922 0.68553922
0.75294118 0.75294118 0.75294118
0.46323529 0.46323529 0.46323529
0.46685049 0.46685049 0.46685049
0.46715686 0.46715686 0.46715686
0.50251225 0.50251225 0.50251225
0.54877451 0.54877451 0.54877451
0.60196078 0.60196078 0.60196078
0.67156863 0.67156863 0.67156863
0.74540441 0.74540441 0.74540441
0.80294118 0.80294118 0.80294118
0.58823529 0.58823529 0.58823529
0.58921569 0.58921569 0.58921569
0.59215686 0.59215686 0.59215686
0.59754902 0.59754902 0.59754902
0.63333333 0.63333333 0.63333333
0.67254902 0.67254902 0.67254902
0.73333333 0.73333333 0.73333333
0.79901961 0.79901961 0.79901961
0.85294118 0.85294118 0.85294118
0.72352941 0.72352941 0.72352941
0.72745098 0.72745098 0.72745098
0.72794118 0.72794118 0.72794118
0.72794118 0.72794118 0.72794118
0.74509804 0.74509804 0.74509804
0.77990196 0.77990196 0.77990196
0.82205882 0.82205882 0.82205882
0.87297794 0.87297794 0.87297794
0.90637255 0.90637255 0.90637255
0.85098039 0.85098039 0.85098039
0.85882353 0.85882353 0.85882353
0.85980392 0.85980392 0.85980392
0.86666667 0.86666667 0.86666667
0.8627451 0.8627451 0.8627451
0.88235294 0.88235294 0.88235294
0.90980392 0.90980392 0.90980392
0.94117647 0.94117647 0.94117647
0.94117647 0.94117647 0.94117647
0.039215686 0.039215686 0.039215686
0.047058824 0.047058824 0.047058824
0.092156863 0.092156863 0.092156863
0.16862745 0.16862745 0.16862745
0.2504902 0.2504902 0.2504902
0.33186275 0.33186275 0.33186275
0.39411765 0.39411765 0.39411765
0.48039216 0.48039216 0.48039216
0.56127451 0.56127451 0.56127451
0.064644608 0.064644608 0.064644608
0.10654105 0.10654105 0.10654105
0.14901961 0.14901961 0.14901961
0.20980392 0.20980392 0.20980392
0.28529412 0.28529412 0.28529412
0.35508578 0.35508578 0.35508578
0.42205882 0.42205882 0.42205882
0.50729167 0.50729167 0.50729167
0.57996324 0.57996324 0.57996324
0.17990196 0.17990196 0.17990196
0.18399203 0.18399203 0.18399203
0.22696078 0.22696078 0.22696078
0.28863358 0.28863358 0.28863358
0.35490196 0.35490196 0.35490196
0.41139706 0.41139706 0.41139706
0.47058824 0.47058824 0.47058824
0.54460784 0.54460784 0.54460784
0.61029412 0.61029412 0.61029412
0.29313725 0.29313725 0.29313725
0.28887102 0.28887102 0.28887102
0.30802696 0.30802696 0.30802696
0.36588542 0.36588542 0.36588542
0.42426471 0.42426471 0.42426471
0.47843137 0.47843137 0.47843137
0.54001225 0.54001225 0.54001225
0.61609222 0.61609222 0.61609222
0.68756127 0.68756127 0.68756127
0.38970588 0.38970588 0.38970588
0.38970588 0.38970588 0.38970588
0.40104167 0.40104167 0.40104167
0.42907475 0.42907475 0.42907475
0.48517157 0.48517157 0.48517157
0.54411765 0.54411765 0.54411765
0.60980392 0.60980392 0.60980392
0.6875 0.6875 0.6875
0.76053922 0.76053922 0.76053922
0.48627451 0.48627451 0.48627451
0.48284314 0.48284314 0.48284314
0.49411765 0.49411765 0.49411765
0.50882353 0.50882353 0.50882353
0.54877451 0.54877451 0.54877451
0.60588235 0.60588235 0.60588235
0.67438725 0.67438725 0.67438725
0.74885876 0.74885876 0.74885876
0.80686275 0.80686275 0.80686275
0.59215686 0.59215686 0.59215686
0.59301471 0.59301471 0.59301471
0.59929534 0.59929534 0.59929534
0.60387561 0.60387561 0.60387561
0.63670343 0.63670343 0.63670343
0.67869179 0.67869179 0.67869179
0.73333333 0.73333333 0.73333333
0.80294118 0.80294118 0.80294118
0.86066176 0.86066176 0.86066176
0.73094363 0.73094363 0.73094363
0.73094363 0.73094363 0.73094363
0.73094363 0.73094363 0.73094363
0.72981771 0.72981771 0.72981771
0.74901961 0.74901961 0.74901961
0.78682598 0.78682598 0.78682598
0.82732843 0.82732843 0.82732843
0.87254902 0.87254902 0.87254902
0.91372549 0.91372549 0.91372549
0.85490196 0.85490196 0.85490196
0.85496324 0.85496324 0.85496324
0.84362745 0.84362745 0.84362745
0.85508578 0.85508578 0.85508578
0.84485294 0.84485294 0.84485294
0.89148284 0.89148284 0.89148284
0.925 0.925 0.925
0.94552696 0.94552696 0.94552696
0.9377451 0.9377451 0.9377451
0.13823529 0.13823529 0.13823529
0.14215686 0.14215686 0.14215686
0.15857843 0.15857843 0.15857843
0.2192402 0.2192402 0.2192402
0.29705882 0.29705882 0.29705882
0.3627451 0.3627451 0.3627451
0.41593137 0.41593137 0.41593137
0.47598039 0.47598039 0.47598039
0.55980392 0.55980392 0.55980392
0.14607843 0.14607843 0.14607843
0.16793811 0.16793811 0.16793811
0.20762868 0.20762868 0.20762868
0.25525429 0.25525429 0.25525429
0.30545343 0.30545343 0.30545343
0.36636029 0.36636029 0.36636029
0.43121936 0.43121936 0.43121936
0.49987745 0.49987745 0.49987745
0.56862745 0.56862745 0.56862745
0.22328431 0.22328431 0.22328431
0.23189338 0.23189338 0.23189338
0.26660539 0.26660539 0.26660539
0.31161152 0.31161152 0.31161152
0.36764706 0.36764706 0.36764706
0.4200674 0.4200674 0.4200674
0.4745098 0.4745098 0.4745098
0.54074755 0.54074755 0.54074755
0.5745098 0.5745098 0.5745098
0.32401961 0.32401961 0.32401961
0.32562806 0.32562806 0.32562806
0.34656863 0.34656863 0.34656863
0.38229167 0.38229167 0.38229167
0.43627451 0.43627451 0.43627451
0.48941483 0.48941483 0.48941483
0.54301471 0.54301471 0.54301471
0.61461397 0.61461397 0.61461397
0.67401961 0.67401961 0.67401961
0.4245098 0.4245098 0.4245098
0.4245098 0.4245098 0.4245098
0.43235294 0.43235294 0.43235294
0.45637255 0.45637255 0.45637255
0.50147059 0.50147059 0.50147059
0.56219363 0.56219363 0.56219363
0.62071078 0.62071078 0.62071078
0.68731618 0.68731618 0.68731618
0.75343137 0.75343137 0.75343137
0.51323529 0.51323529 0.51323529
0.51703431 0.51703431 0.51703431
0.52107843 0.52107843 0.52107843
0.529519 0.529519 0.529519
0.55447304 0.55447304 0.55447304
0.61335784 0.61335784 0.61335784
0.67987132 0.67987132 0.67987132
0.75261949 0.75261949 0.75261949
0.8254902 0.8254902 0.8254902
0.61078431 0.61078431 0.61078431
0.61470588 0.61470588 0.61470588
0.61917892 0.61917892 0.61917892
0.61862745 0.61862745 0.61862745
0.64718137 0.64718137 0.64718137
0.68403799 0.68403799 0.68403799
0.73333333 0.73333333 0.73333333
0.80294118 0.80294118 0.80294118
0.86078431 0.86078431 0.86078431
0.73958333 0.73958333 0.73958333
0.74215686 0.74215686 0.74215686
0.74607843 0.74607843 0.74607843
0.74607843 0.74607843 0.74607843
0.76421569 0.76421569 0.76421569
0.79064032 0.79064032 0.79064032
0.82598039 0.82598039 0.82598039
0.87593444 0.87593444 0.87593444
0.91421569 0.91421569 0.91421569
0.85392157 0.85392157 0.85392157
0.85404412 0.85404412 0.85404412
0.84705882 0.84705882 0.84705882
0.86029412 0.86029412 0.86029412
0.87843137 0.87843137 0.87843137
0.89166667 0.89166667 0.89166667
0.91470588 0.91470588 0.91470588
0.93713235 0.93713235 0.93713235
0.9245098 0.9245098 0.9245098
0.22303922 0.22303922 0.22303922
0.23057598 0.23057598 0.23057598
0.25343137 0.25343137 0.25343137
0.28731618 0.28731618 0.28731618
0.33897059 0.33897059 0.33897059
0.39754902 0.39754902 0.39754902
0.45392157 0.45392157 0.45392157
0.5122549 0.5122549 0.5122549
0.58676471 0.58676471 0.58676471
0.23823529 0.23823529 0.23823529
0.25735294 0.25735294 0.25735294
0.28786765 0.28786765 0.28786765
0.32266391 0.32266391 0.32266391
0.36691176 0.36691176 0.36691176
0.41047028 0.41047028 0.41047028
0.46697304 0.46697304 0.46697304
0.52349112 0.52349112 0.52349112
0.57922794 0.57922794 0.57922794
0.27352941 0.27352941 0.27352941
0.29509804 0.29509804 0.29509804
0.33072917 0.33072917 0.33072917
0.370481 0.370481 0.370481
0.40196078 0.40196078 0.40196078
0.44546569 0.44546569 0.44546569
0.4932598 0.4932598 0.4932598
0.54600184 0.54600184 0.54600184
0.58970588 0.58970588 0.58970588
0.3627451 0.3627451 0.3627451
0.37127757 0.37127757 0.37127757
0.38921569 0.38921569 0.38921569
0.41764706 0.41764706 0.41764706
0.45759804 0.45759804 0.45759804
0.49901961 0.49901961 0.49901961
0.54019608 0.54019608 0.54019608
0.60588235 0.60588235 0.60588235
0.65441176 0.65441176 0.65441176
0.45931373 0.45931373 0.45931373
0.46323529 0.46323529 0.46323529
0.47481618 0.47481618 0.47481618
0.4926777 0.4926777 0.4926777
0.53382353 0.53382353 0.53382353
0.57132353 0.57132353 0.57132353
0.61960784 0.61960784 0.61960784
0.68578431 0.68578431 0.68578431
0.7502451 0.7502451 0.7502451
0.5471201 0.5471201 0.5471201
0.55581342 0.55581342 0.55581342
0.55980392 0.55980392 0.55980392
0.56709559 0.56709559 0.56709559
0.58550858 0.58550858 0.58550858
0.6348652 0.6348652 0.6348652
0.69316789 0.69316789 0.69316789
0.76078431 0.76078431 0.76078431
0.81133578 0.81133578 0.81133578
0.64852941 0.64852941 0.64852941
0.64946385 0.64946385 0.64946385
0.65343137 0.65343137 0.65343137
0.65698529 0.65698529 0.65698529
0.67469363 0.67469363 0.67469363
0.701394 0.701394 0.701394
0.7564951 0.7564951 0.7564951
0.81729473 0.81729473 0.81729473
0.86470588 0.86470588 0.86470588
0.76636029 0.76636029 0.76636029
0.76029412 0.76029412 0.76029412
0.76617647 0.76617647 0.76617647
0.76992187 0.76992187 0.76992187
0.78333333 0.78333333 0.78333333
0.80066636 0.80066636 0.80066636
0.82990196 0.82990196 0.82990196
0.88866422 0.88866422 0.88866422
0.91421569 0.91421569 0.91421569
0.86176471 0.86176471 0.86176471
0.86783088 0.86783088 0.86783088
0.86666667 0.86666667 0.86666667
0.86666667 0.86666667 0.86666667
0.87058824 0.87058824 0.87058824
0.90104167 0.90104167 0.90104167
0.91580882 0.91580882 0.91580882
0.94117647 0.94117647 0.94117647
0.94117647 0.94117647 0.94117647
0.32156863 0.32156863 0.32156863
0.32916667 0.32916667 0.32916667
0.35 0.35 0.35
0.37573529 0.37573529 0.37573529
0.40784314 0.40784314 0.40784314
0.44607843 0.44607843 0.44607843
0.50588235 0.50588235 0.50588235
0.56960784 0.56960784 0.56960784
0.62941176 0.62941176 0.62941176
0.33504902 0.33504902 0.33504902
0.34678309 0.34678309 0.34678309
0.3747549 0.3747549 0.3747549
0.40367647 0.40367647 0.40367647
0.43088235 0.43088235 0.43088235
0.45980392 0.45980392 0.45980392
0.51960784 0.51960784 0.51960784
0.58480392 0.58480392 0.58480392
0.64313725 0.64313725 0.64313725
0.35784314 0.35784314 0.35784314
0.38082108 0.38082108 0.38082108
0.41139706 0.41139706 0.41139706
0.43946078 0.43946078 0.43946078
0.45808824 0.45808824 0.45808824
0.48946078 0.48946078 0.48946078
0.55 0.55 0.55
0.60386029 0.60386029 0.60386029
0.6504902 0.6504902 0.6504902
0.40612745 0.40612745 0.40612745
0.42401961 0.42401961 0.42401961
0.44656863 0.44656863 0.44656863
0.47110907 0.47110907 0.47110907
0.49705882 0.49705882 0.49705882
0.52990196 0.52990196 0.52990196
0.57303922 0.57303922 0.57303922
0.63391544 0.63391544 0.63391544
0.6745098 0.6745098 0.6745098
0.48235294 0.48235294 0.48235294
0.49669118 0.49669118 0.49669118
0.50465686 0.50465686 0.50465686
0.52794118 0.52794118 0.52794118
0.56078431 0.56078431 0.56078431
0.59166667 0.59166667 0.59166667
0.63504902 0.63504902 0.63504902
0.69497549 0.69497549 0.69497549
0.75588235 0.75588235 0.75588235
0.55808824 0.55808824 0.55808824
0.5747549 0.5747549 0.5747549
0.58265931 0.58265931 0.58265931
0.59705882 0.59705882 0.59705882
0.61862745 0.61862745 0.61862745
0.65098039 0.65098039 0.65098039
0.71133578 0.71133578 0.71133578
0.76936275 0.76936275 0.76936275
0.82058824 0.82058824 0.82058824
0.67401961 0.67401961 0.67401961
0.67775735 0.67775735 0.67775735
0.67904412 0.67904412 0.67904412
0.69007353 0.69007353 0.69007353
0.70147059 0.70147059 0.70147059
0.72401961 0.72401961 0.72401961
0.7745098 0.7745098 0.7745098
0.83406863 0.83406863 0.83406863
0.88137255 0.88137255 0.88137255
0.7879902 0.7879902 0.7879902
0.7879902 0.7879902 0.7879902
0.7879902 0.7879902 0.7879902
0.79779412 0.79779412 0.79779412
0.80343137 0.80343137 0.80343137
0.82074142 0.82074142 0.82074142
0.84362745 0.84362745 0.84362745
0.89209559 0.89209559 0.89209559
0.92034314 0.92034314 0.92034314
0.88235294 0.88235294 0.88235294
0.88995098 0.88995098 0.88995098
0.89411765 0.89411765 0.89411765
0.88186275 0.88186275 0.88186275
0.88529412 0.88529412 0.88529412
0.90269608 0.90269608 0.90269608
0.91764706 0.91764706 0.91764706
0.94117647 0.94117647 0.94117647
0.95294118 0.95294118 0.95294118
0.42794118 0.42794118 0.42794118
0.43186275 0.43186275 0.43186275
0.44656863 0.44656863 0.44656863
0.47352941 0.47352941 0.47352941
0.50441176 0.50441176 0.50441176
0.52745098 0.52745098 0.52745098
0.55894608 0.55894608 0.55894608
0.61421569 0.61421569 0.61421569
0.67745098 0.67745098 0.67745098
0.43707108 0.43707108 0.43707108
0.44286918 0.44286918 0.44286918
0.46176471 0.46176471 0.46176471
0.48872549 0.48872549 0.48872549
0.51617647 0.51617647 0.51617647
0.53333333 0.53333333 0.53333333
0.55761336 0.55761336 0.55761336
0.63333333 0.63333333 0.63333333
0.7004902 0.7004902 0.7004902
0.45477941 0.45477941 0.45477941
0.46626838 0.46626838 0.46626838
0.49016544 0.49016544 0.49016544
0.51499694 0.51499694 0.51499694
0.53872549 0.53872549 0.53872549
0.56176471 0.56176471 0.56176471
0.58924632 0.58924632 0.58924632
0.65392157 0.65392157 0.65392157
0.72953431 0.72953431 0.72953431
0.47800245 0.47800245 0.47800245
0.49656863 0.49656863 0.49656863
0.5222886 0.5222886 0.5222886
0.54452359 0.54452359 0.54452359
0.56568627 0.56568627 0.56568627
0.59209559 0.59209559 0.59209559
0.62012868 0.62012868 0.62012868
0.67156863 0.67156863 0.67156863
0.73480392 0.73480392 0.73480392
0.5245098 0.5245098 0.5245098
0.53970588 0.53970588 0.53970588
0.55539216 0.55539216 0.55539216
0.57689951 0.57689951 0.57689951
0.59963235 0.59963235 0.59963235
0.62205882 0.62205882 0.62205882
0.66476716 0.66476716 0.66476716
0.72074142 0.72074142 0.72074142
0.77401961 0.77401961 0.77401961
0.58382353 0.58382353 0.58382353
0.60158548 0.60158548 0.60158548
0.60574449 0.60574449 0.60574449
0.63431373 0.63431373 0.63431373
0.65974265 0.65974265 0.65974265
0.68373928 0.68373928 0.68373928
0.72794118 0.72794118 0.72794118
0.78431373 0.78431373 0.78431373
0.83431373 0.83431373 0.83431373
0.69019608 0.69019608 0.69019608
0.69404105 0.69404105 0.69404105
0.69742647 0.69742647 0.69742647
0.71311275 0.71311275 0.71311275
0.73633578 0.73633578 0.73633578
0.75453431 0.75453431 0.75453431
0.79215686 0.79215686 0.79215686
0.84312194 0.84312194 0.84312194
0.8872549 0.8872549 0.8872549
0.80324755 0.80324755 0.80324755
0.80716912 0.80716912 0.80716912
0.80723039 0.80723039 0.80723039
0.82126225 0.82126225 0.82126225
0.82843137 0.82843137 0.82843137
0.84307598 0.84307598 0.84307598
0.85877757 0.85877757 0.85877757
0.89166667 0.89166667 0.89166667
0.92990196 0.92990196 0.92990196
0.89803922 0.89803922 0.89803922
0.90441176 0.90441176 0.90441176
0.90490196 0.90490196 0.90490196
0.9127451 0.9127451 0.9127451
0.91642157 0.91642157 0.91642157
0.92156863 0.92156863 0.92156863
0.92977941 0.92977941 0.92977941
0.946875 0.946875 0.946875
0.97009804 0.97009804 0.97009804
0.54117647 0.54117647 0.54117647
0.54117647 0.54117647 0.54117647
0.54901961 0.54901961 0.54901961
0.57683824 0.57683824 0.57683824
0.60882353 0.60882353 0.60882353
0.63186275 0.63186275 0.63186275
0.6502451 0.6502451 0.6502451
0.66519608 0.66519608 0.66519608
0.73529412 0.73529412 0.73529412
0.54473039 0.54473039 0.54473039
0.55234375 0.55234375 0.55234375
0.56620711 0.56620711 0.56620711
0.58933824 0.58933824 0.58933824
0.61317402 0.61317402 0.61317402
0.64010417 0.64010417 0.64010417
0.66234681 0.66234681 0.66234681
0.68054534 0.68054534 0.68054534
0.72953431 0.72953431 0.72953431
0.56691176 0.56691176 0.56691176
0.57539828 0.57539828 0.57539828
0.58308824 0.58308824 0.58308824
0.60520833 0.60520833 0.60520833
0.62745098 0.62745098 0.62745098
0.65557598 0.65557598 0.65557598
0.6692402 0.6692402 0.6692402
0.69206495 0.69206495 0.69206495
0.75098039 0.75098039 0.75098039
0.58039216 0.58039216 0.58039216
0.59549632 0.59549632 0.59549632
0.61234681 0.61234681 0.61234681
0.62984069 0.62984069 0.62984069
0.65441176 0.65441176 0.65441176
0.68137255 0.68137255 0.68137255
0.69491422 0.69491422 0.69491422
0.72757353 0.72757353 0.72757353
0.78026961 0.78026961 0.78026961
0.59705882 0.59705882 0.59705882
0.61262255 0.61262255 0.61262255
0.62990196 0.62990196 0.62990196
0.64871324 0.64871324 0.64871324
0.67745098 0.67745098 0.67745098
0.70441176 0.70441176 0.70441176
0.73137255 0.73137255 0.73137255
0.76960784 0.76960784 0.76960784
0.8127451 0.8127451 0.8127451
0.65588235 0.65588235 0.65588235
0.65975797 0.65975797 0.65975797
0.66372549 0.66372549 0.66372549
0.67817096 0.67817096 0.67817096
0.70735294 0.70735294 0.70735294
0.73745404 0.73745404 0.73745404
0.76109069 0.76109069 0.76109069
0.79914216 0.79914216 0.79914216
0.84558824 0.84558824 0.84558824
0.71838235 0.71838235 0.71838235
0.7166973 0.7166973 0.7166973
0.7245098 0.7245098 0.7245098
0.75101103 0.75101103 0.75101103
0.77095588 0.77095588 0.77095588
0.79264706 0.79264706 0.79264706
0.81623775 0.81623775 0.81623775
0.8504902 0.8504902 0.8504902
0.88897059 0.88897059 0.88897059
0.81066176 0.81066176 0.81066176
0.81372549 0.81372549 0.81372549
0.8283701 0.8283701 0.8283701
0.83958333 0.83958333 0.83958333
0.84877451 0.84877451 0.84877451
0.86648284 0.86648284 0.86648284
0.88137255 0.88137255 0.88137255
0.90908395 0.90908395 0.90908395
0.93786765 0.93786765 0.93786765
0.90980392 0.90980392 0.90980392
0.90294118 0.90294118 0.90294118
0.91960784 0.91960784 0.91960784
0.91764706 0.91764706 0.91764706
0.92401961 0.92401961 0.92401961
0.93370098 0.93370098 0.93370098
0.95 0.95 0.95
0.95698529 0.95698529 0.95698529
0.97254902 0.97254902 0.97254902
0.67696078 0.67696078 0.67696078
0.67696078 0.67696078 0.67696078
0.68088235 0.68088235 0.68088235
0.70245098 0.70245098 0.70245098
0.72156863 0.72156863 0.72156863
0.74460784 0.74460784 0.74460784
0.76017157 0.76017157 0.76017157
0.77107843 0.77107843 0.77107843
0.81323529 0.81323529 0.81323529
0.68431373 0.68431373 0.68431373
0.6838848 0.6838848 0.6838848
0.68812806 0.68812806 0.68812806
0.7021829 0.7021829 0.7021829
0.72545956 0.72545956 0.72545956
0.75592065 0.75592065 0.75592065
0.77547488 0.77547488 0.77547488
0.78627451 0.78627451 0.78627451
0.79846814 0.79846814 0.79846814
0.68860294 0.68860294 0.68860294
0.69488358 0.69488358 0.69488358
0.70294118 0.70294118 0.70294118
0.71870404 0.71870404 0.71870404
0.73627451 0.73627451 0.73627451
0.76416973 0.76416973 0.76416973
0.78198529 0.78198529 0.78198529
0.79443934 0.79443934 0.79443934
0.7939951 0.7939951 0.7939951
0.70784314 0.70784314 0.70784314
0.71437653 0.71437653 0.71437653
0.72144608 0.72144608 0.72144608
0.73474265 0.73474265 0.73474265
0.75431985 0.75431985 0.75431985
0.77725184 0.77725184 0.77725184
0.79816176 0.79816176 0.79816176
0.81268382 0.81268382 0.81268382
0.82175245 0.82175245 0.82175245
0.70784314 0.70784314 0.70784314
0.72395833 0.72395833 0.72395833
0.73872549 0.73872549 0.73872549
0.75416667 0.75416667 0.75416667
0.77316176 0.77316176 0.77316176
0.79705882 0.79705882 0.79705882
0.82003676 0.82003676 0.82003676
0.83921569 0.83921569 0.83921569
0.85343137 0.85343137 0.85343137
0.7377451 0.7377451 0.7377451
0.73782935 0.73782935 0.73782935
0.75816483 0.75816483 0.75816483
0.77568168 0.77568168 0.77568168
0.79313725 0.79313725 0.79313725
0.82143842 0.82143842 0.82143842
0.84474571 0.84474571 0.84474571
0.85831036 0.85831036 0.85831036
0.88823529 0.88823529 0.88823529
0.7877451 0.7877451 0.7877451
0.79143689 0.79143689 0.79143689
0.79460784 0.79460784 0.79460784
0.80245098 0.80245098 0.80245098
0.81617647 0.81617647 0.81617647
0.84264706 0.84264706 0.84264706
0.86798407 0.86798407 0.86798407
0.89264706 0.89264706 0.89264706
0.92352941 0.92352941 0.92352941
0.83376225 0.83376225 0.83376225
0.83763021 0.83763021 0.83763021
0.85637255 0.85637255 0.85637255
0.8591682 0.8591682 0.8591682
0.87401961 0.87401961 0.87401961
0.88488817 0.88488817 0.88488817
0.90827206 0.90827206 0.90827206
0.93872549 0.93872549 0.93872549
0.95343137 0.95343137 0.95343137
0.92107843 0.92107843 0.92107843
0.91078431 0.91078431 0.91078431
0.91372549 0.91372549 0.91372549
0.92579657 0.92579657 0.92579657
0.94681373 0.94681373 0.94681373
0.93547794 0.93547794 0.93547794
0.94215686 0.94215686 0.94215686
0.95778186 0.95778186 0.95778186
0.96862745 0.96862745 0.96862745
0.80392157 0.80392157 0.80392157
0.81911765 0.81911765 0.81911765
0.80784314 0.80784314 0.80784314
0.82990196 0.82990196 0.82990196
0.83529412 0.83529412 0.83529412
0.85098039 0.85098039 0.85098039
0.86372549 0.86372549 0.86372549
0.89019608 0.89019608 0.89019608
0.90588235 0.90588235 0.90588235
0.80784314 0.80784314 0.80784314
0.81568627 0.81568627 0.81568627
0.81568627 0.81568627 0.81568627
0.83823529 0.83823529 0.83823529
0.84681373 0.84681373 0.84681373
0.85490196 0.85490196 0.85490196
0.87414216 0.87414216 0.87414216
0.90496324 0.90496324 0.90496324
0.91029412 0.91029412 0.91029412
0.82647059 0.82647059 0.82647059
0.81127451 0.81127451 0.81127451
0.80588235 0.80588235 0.80588235
0.84742647 0.84742647 0.84742647
0.84068627 0.84068627 0.84068627
0.8745098 0.8745098 0.8745098
0.87941176 0.87941176 0.87941176
0.89546569 0.89546569 0.89546569
0.89803922 0.89803922 0.89803922
0.83284314 0.83284314 0.83284314
0.83382353 0.83382353 0.83382353
0.81911765 0.81911765 0.81911765
0.85245098 0.85245098 0.85245098
0.86544118 0.86544118 0.86544118
0.87205882 0.87205882 0.87205882
0.89509804 0.89509804 0.89509804
0.91862745 0.91862745 0.91862745
0.89558824 0.89558824 0.89558824
0.83137255 0.83137255 0.83137255
0.84656863 0.84656863 0.84656863
0.86176471 0.86176471 0.86176471
0.85882353 0.85882353 0.85882353
0.86568627 0.86568627 0.86568627
0.88970588 0.88970588 0.88970588
0.89705882 0.89705882 0.89705882
0.92303922 0.92303922 0.92303922
0.90784314 0.90784314 0.90784314
0.84068627 0.84068627 0.84068627
0.84656863 0.84656863 0.84656863
0.85061275 0.85061275 0.85061275
0.86911765 0.86911765 0.86911765
0.88186275 0.88186275 0.88186275
0.89558824 0.89558824 0.89558824
0.91862745 0.91862745 0.91862745
0.92726716 0.92726716 0.92726716
0.93088235 0.93088235 0.93088235
0.87647059 0.87647059 0.87647059
0.86764706 0.86764706 0.86764706
0.8754902 0.8754902 0.8754902
0.87598039 0.87598039 0.87598039
0.88627451 0.88627451 0.88627451
0.90735294 0.90735294 0.90735294
0.92352941 0.92352941 0.92352941
0.94252451 0.94252451 0.94252451
0.95686275 0.95686275 0.95686275
0.88235294 0.88235294 0.88235294
0.90294118 0.90294118 0.90294118
0.91017157 0.91017157 0.91017157
0.90765931 0.90765931 0.90765931
0.90490196 0.90490196 0.90490196
0.93333333 0.93333333 0.93333333
0.93860294 0.93860294 0.93860294
0.96519608 0.96519608 0.96519608
0.97254902 0.97254902 0.97254902
0.9372549 0.9372549 0.9372549
0.95637255 0.95637255 0.95637255
0.91862745 0.91862745 0.91862745
0.93578431 0.93578431 0.93578431
0.95098039 0.95098039 0.95098039
0.93333333 0.93333333 0.93333333
0.93823529 0.93823529 0.93823529
0.96127451 0.96127451 0.96127451
0.97254902 0.97254902 0.97254902
