site/assets/luts/sha256-0bbebb028bfa40f5a32b2767b118504a3f32b734040a360947916dbe2cf938aa.cube
# LUTr-Schema-Version: 2
# LUTr-ID: sha256-0bbebb028bfa40f5a32b2767b118504a3f32b734040a360947916dbe2cf938aa
# LUTr-Title: kodak2393 cuspclip
# LUTr-Collection: Natron HaldCLUT
# LUTr-Collection-ID: natron-haldclut-presets
# LUTr-Source: https://github.com/NatronGitHub/clut
# LUTr-Retrieved: 2026-07-27
# LUTr-Source-File: submissions/natron-haldclut-presets/print/kodak2393_cuspclip.png
# LUTr-Source-Format: HALD-PNG
# LUTr-Source-SHA256: 0bbebb028bfa40f5a32b2767b118504a3f32b734040a360947916dbe2cf938aa
# LUTr-License: CC-BY-SA-4.0
# LUTr-License-URL: https://github.com/NatronGitHub/clut#license
# LUTr-License-Basis: repo-license-file
# LUTr-Transform-Class: film-emulation
# LUTr-Tags: creative, film, film-emulation, hald-clut, natron, png, cube
# LUTr-Input-Color-Space: srgb
# LUTr-Input-Gamut: rec709
# LUTr-Input-Transfer: srgb
# LUTr-Output-Color-Space: srgb
# LUTr-Output-Gamut: rec709
# LUTr-Output-Transfer: srgb
# LUTr-Color-Space-Confidence: assumed-display-referred
# LUTr-Domain-Normalized: true
# LUTr-Shaper: none
# LUTr-Original-Grid: 64x64x64
# LUTr-Conversion-Grid: 25x25x25
# LUTr-Conversion-Interpolation: trilinear
# LUTr-Conversion-Method: HALD-PNG LUT image decoded at 16-bit and sampled to 25x25x25 3D CUBE
# LUTr-Conversion-Tool: LUTr scripts/convert-all-to-cube.mjs 2.0.0
# LUTr-Conversion-Date: 2026-07-27
# LUTr-Note: Preserve this metadata and the upstream license notices when redistributing.
TITLE "kodak2393 cuspclip"
LUT_3D_SIZE 5
DOMAIN_MIN 0 0 0
DOMAIN_MAX 1 1 1
0.0078431373 0.0078431373 0.0078431373
0.084313725 0.035294118 0.011764706
0.34117647 0.050980392 0
0.55882353 0.098039216 0.0039215686
0.60784314 0.12941176 0.02745098
0 0.075490196 0.034313725
0.070833333 0.090196078 0.00098039216
0.45098039 0.16372549 0
0.66176471 0.22156863 0.020343137
0.71176471 0.24019608 0.02745098
0.0019607843 0.31372549 0.14901961
0 0.33529412 0.0073529412
0.62058824 0.51372549 0
0.82647059 0.53627451 0.016176471
0.87058824 0.5745098 0.025490196
0.0029411765 0.49019608 0.23137255
0.0039215686 0.54828431 0.054901961
0.7122549 0.75392157 0.023039216
0.93137255 0.79019608 0.078676471
0.95686275 0.79313725 0.079411765
0.0039215686 0.55686275 0.23921569
0.19117647 0.63627451 0.00098039216
0.73137255 0.78823529 0.033333333
0.95 0.82843137 0.090196078
0.99215686 0.84313725 0.12156863
0 0.030392157 0.079411765
0.068627451 0.035294118 0.080392157
0.35245098 0 0.058823529
0.58259804 0 0.066421569
0.63431373 0.00098039216 0.07745098
0 0.10220588 0.12254902
0.059007353 0.10061275 0.098406863
0.45036765 0.11348039 0.069730392
0.69381127 0.019362745 0.0059436275
0.74583333 0.088235294 0
0.019607843 0.38088235 0.25784314
0.0073529412 0.39730392 0.18811275
0.61029412 0.50294118 0.0026960784
0.87487745 0.53553922 0.0072303922
0.92401961 0.5754902 0
0.030147059 0.53627451 0.35073529
0.020588235 0.60723039 0.28817402
0.68529412 0.7622549 0.026470588
0.96905637 0.81427696 0.023161765
0.99901961 0.82745098 0.010294118
0.0029411765 0.64607843 0.4745098
0.015441176 0.69828431 0.39534314
0.68872549 0.82107843 0.30147059
0.99240196 0.87818627 0.24828431
1 0.88235294 0.34509804
0 0.15294118 0.31764706
0.058823529 0.021568627 0.30147059
0.38137255 0 0.3627451
0.61176471 0 0.38382353
0.67058824 0 0.40784314
0 0.25294118 0.41372549
0.0068627451 0.18933824 0.41421569
0.4620098 0.11813725 0.45269608
0.71384804 0.00049019608 0.46066176
0.76519608 0.10294118 0.48627451
0.02745098 0.49803922 0.57254902
0.021813725 0.53235294 0.59411765
0.57156863 0.57009804 0.5745098
0.88529412 0.59632353 0.57720588
0.93627451 0.63333333 0.59215686
0.0078431373 0.64313725 0.65147059
0.0031862745 0.71495098 0.67095588
0.59289216 0.83897059 0.64117647
0.95894608 0.89411765 0.6375
1 0.90588235 0.65
0.0098039216 0.71372549 0.72352941
0 0.78333333 0.74411765
0.61666667 0.88823529 0.73431373
0.96421569 0.95098039 0.74607843
1 0.95490196 0.74901961
0 0.23235294 0.45588235
0.043382353 0.052696078 0.46421569
0.39411765 0.0039215686 0.54754902
0.6254902 0 0.56960784
0.68333333 0 0.58235294
0 0.33137255 0.56764706
0.0027573529 0.30422794 0.59730392
0.46703431 0.099877451 0.67794118
0.72843137 0.00055147059 0.69705882
0.78553922 0.092647059 0.72745098
0.019117647 0.53627451 0.70294118
0.016421569 0.56911765 0.76078431
0.5375 0.60588235 0.84093137
0.87879902 0.62990196 0.85723039
0.93284314 0.67058824 0.86470588
0.04754902 0.6754902 0.78210784
0.05502451 0.75196078 0.83602941
0.52254902 0.8872549 0.91176471
0.94258578 0.94221814 0.921875
0.99534314 0.95588235 0.92671569
0.0019607843 0.7372549 0.83137255
0.011029412 0.80759804 0.87622549
0.56666667 0.92352941 0.93431373
0.94411765 0.98431373 0.95098039
0.99901961 0.98823529 0.95392157
0 0.27843137 0.52941176
0 0.24019608 0.55196078
0.42156863 0.0039215686 0.62941176
0.65784314 0 0.63333333
0.72156863 0 0.68235294
0 0.38235294 0.62647059
0.0068627451 0.32230392 0.65098039
0.47401961 0.16421569 0.75098039
0.75416667 0.12990196 0.78039216
0.80980392 0.19705882 0.80490196
0 0.54705882 0.73137255
0.0068627451 0.58186275 0.79019608
0.53823529 0.6245098 0.90392157
0.87205882 0.63921569 0.92107843
0.92941176 0.68039216 0.93529412
0.0078431373 0.67941176 0.80392157
0.0088235294 0.75514706 0.85882353
0.49460784 0.89509804 0.96519608
0.93161765 0.95 0.98431373
0.99215686 0.96078431 0.99215686
0 0.73333333 0.83921569
0.0029411765 0.80980392 0.89705882
0.52156863 0.9254902 0.97058824
0.93823529 0.99215686 0.99607843
1 1 1
