site/assets/luts/sha256-09958e9fd017f75b4847c0c6b0271a2b78e7a3ce698303309e9a63586b6a59e7.cube
# LUTr-Schema-Version: 2
# LUTr-ID: sha256-09958e9fd017f75b4847c0c6b0271a2b78e7a3ce698303309e9a63586b6a59e7
# LUTr-Title: fuji3510 constlmap
# LUTr-Collection: Natron HaldCLUT
# LUTr-Collection-ID: natron-haldclut-presets
# LUTr-Source: https://github.com/NatronGitHub/clut
# LUTr-Retrieved: 2026-07-27
# LUTr-Source-File: submissions/natron-haldclut-presets/print/fuji3510_constlmap.png
# LUTr-Source-Format: HALD-PNG
# LUTr-Source-SHA256: 09958e9fd017f75b4847c0c6b0271a2b78e7a3ce698303309e9a63586b6a59e7
# LUTr-License: CC-BY-SA-4.0
# LUTr-License-URL: https://github.com/NatronGitHub/clut#license
# LUTr-License-Basis: repo-license-file
# LUTr-Transform-Class: film-emulation
# LUTr-Tags: creative, film, film-emulation, hald-clut, natron, png, cube
# LUTr-Input-Color-Space: srgb
# LUTr-Input-Gamut: rec709
# LUTr-Input-Transfer: srgb
# LUTr-Output-Color-Space: srgb
# LUTr-Output-Gamut: rec709
# LUTr-Output-Transfer: srgb
# LUTr-Color-Space-Confidence: assumed-display-referred
# LUTr-Domain-Normalized: true
# LUTr-Shaper: none
# LUTr-Original-Grid: 64x64x64
# LUTr-Conversion-Grid: 25x25x25
# LUTr-Conversion-Interpolation: trilinear
# LUTr-Conversion-Method: HALD-PNG LUT image decoded at 16-bit and sampled to 25x25x25 3D CUBE
# LUTr-Conversion-Tool: LUTr scripts/convert-all-to-cube.mjs 2.0.0
# LUTr-Conversion-Date: 2026-07-27
# LUTr-Note: Preserve this metadata and the upstream license notices when redistributing.
TITLE "fuji3510 constlmap"
LUT_3D_SIZE 9
DOMAIN_MIN 0 0 0
DOMAIN_MAX 1 1 1
0.0078431373 0.0039215686 0.0039215686
0.031372549 0.027941176 0.019607843
0.07254902 0.030392157 0.018627451
0.1754902 0.049509804 0.017156863
0.31764706 0.076470588 0.0078431373
0.39411765 0.075980392 0.0014705882
0.47058824 0.08627451 0.012745098
0.52696078 0.094607843 0.011764706
0.52941176 0.094117647 0.011764706
0.02745098 0.03872549 0.023039216
0.034803922 0.049571078 0.027389706
0.082965686 0.065686275 0.034803922
0.19479167 0.081678922 0.027144608
0.32941176 0.099264706 0.015686275
0.45098039 0.1223652 0.011764706
0.52303922 0.12843137 0.015686275
0.56862745 0.13235294 0.015625
0.59166667 0.13970588 0.015196078
0.015686275 0.10392157 0.052941176
0.012745098 0.1 0.046078431
0.080637255 0.11789216 0.047058824
0.23235294 0.14129902 0.025
0.39803922 0.17941176 0.011764706
0.51617647 0.19705882 0.014215686
0.60196078 0.19117647 0.0017156863
0.62990196 0.21666667 0.011764706
0.65294118 0.22843137 0.020588235
0.0053921569 0.17745098 0.08872549
0.0042279412 0.19019608 0.087254902
0.058823529 0.20919118 0.049632353
0.25735294 0.25484069 0.018688725
0.44681373 0.29338235 0.011764706
0.57401961 0.29852941 0.019607843
0.66960784 0.32634804 0.024509804
0.69981618 0.33284314 0.0098039216
0.725 0.3495098 0.0078431373
0.015686275 0.28627451 0.13529412
0.0098039216 0.29558824 0.13137255
0.0029411765 0.32009804 0.10196078
0.27107843 0.39191176 0.0073529412
0.49901961 0.43921569 0.0058823529
0.64191176 0.45833333 0.023529412
0.7377451 0.47352941 0.029901961
0.76960784 0.48504902 0.023039216
0.8 0.50784314 0.0078431373
0.019607843 0.3872549 0.17401961
0.0056985294 0.3872549 0.16617647
0 0.43137255 0.13578431
0.26954657 0.51764706 0.0078431373
0.55122549 0.59142157 0.0026960784
0.71862745 0.61911765 0.028370098
0.80379902 0.63039216 0.017156863
0.83658088 0.6377451 0.0037377451
0.85539216 0.65686275 0.0029411765
0.019607843 0.43235294 0.19215686
0.023529412 0.45588235 0.18823529
0.018382353 0.50588235 0.13946078
0.2942402 0.59362745 0.006004902
0.5754902 0.67156863 0.0078431373
0.75735294 0.72291667 0.019607843
0.84705882 0.73995098 0.045098039
0.90992647 0.75392157 0.059803922
0.91862745 0.75784314 0.06372549
0.019117647 0.46372549 0.2122549
0.035723039 0.48584559 0.18878676
0.058823529 0.55845588 0.11127451
0.33314951 0.6372549 0.013541667
0.59117647 0.70490196 0.010294118
0.7754902 0.7596201 0.031188725
0.87389706 0.77830882 0.067647059
0.91556373 0.79007353 0.083272059
0.92647059 0.79656863 0.082843137
0 0.49411765 0.23921569
0.019117647 0.54460784 0.18921569
0.15784314 0.63137255 0.031372549
0.44852941 0.70147059 0.0024509804
0.65882353 0.77647059 0.0058823529
0.83872549 0.82107843 0.059313725
0.89509804 0.80294118 0.078431373
0.93431373 0.80833333 0.094607843
0.98039216 0.83137255 0.098039216
0.015686275 0.019117647 0.03872549
0.035232843 0.034375 0.034803922
0.058210784 0.02745098 0.023529412
0.18449755 0.043443627 0.017156863
0.33308824 0.057352941 0.019117647
0.45294118 0.082843137 0.019117647
0.51127451 0.06752451 0.017892157
0.54558824 0.075061275 0.00042892157
0.59117647 0.067156863 0.015686275
0.02745098 0.050428922 0.049509804
0.035294118 0.049954044 0.042156863
0.087637868 0.062239583 0.046078431
0.21503523 0.077719056 0.025796569
0.3671875 0.099050245 0.021078431
0.48921569 0.11715686 0.026577819
0.56245404 0.11580882 0.010462623
0.60326287 0.11684283 0.0082720588
0.61856618 0.13284314 0.0039215686
0.019607843 0.11519608 0.076960784
0.019776348 0.10784314 0.068795956
0.090686275 0.12435662 0.057781863
0.25392157 0.14862132 0.028431373
0.41525735 0.17242647 0.035110294
0.54446998 0.18921569 0.021078431
0.62683824 0.18848039 0.015196078
0.66421569 0.20147059 0.014445466
0.6872549 0.2122549 0.011764706
0.011764706 0.19509804 0.11568627
0.014767157 0.19885876 0.10768229
0.041544118 0.21953125 0.071262255
0.27971814 0.25979626 0.03627451
0.46920956 0.29264706 0.044117647
0.61555607 0.31323529 0.031862745
0.70030637 0.32696078 0.021568627
0.74430147 0.34822304 0.023146446
0.77107843 0.35735294 0.0078431373
0.017647059 0.29411765 0.15441176
0.03192402 0.30735294 0.15223652
0.058394608 0.34001225 0.12818627
0.29298407 0.40646446 0.059068627
0.51666667 0.45220588 0.05870098
0.68342525 0.47931985 0.048529412
0.77898284 0.49123775 0.016115196
0.82153799 0.50808824 0.030637255
0.84215686 0.52328431 0.015686275
0.019607843 0.39607843 0.20018382
0.025061275 0.40369945 0.19264706
0.068918505 0.45782782 0.1567402
0.30748315 0.54344363 0.071446078
0.56844363 0.60726103 0.076715686
0.74155178 0.64185049 0.057536765
0.84056373 0.65882353 0.060278799
0.88872549 0.67640931 0.018872549
0.90784314 0.69166667 0.044117647
0.015686275 0.45147059 0.23088235
0.0087009804 0.46764706 0.22340686
0.031341912 0.52867647 0.17071078
0.29924939 0.6245098 0.045281863
0.60159314 0.69601716 0.026593137
0.78431373 0.74411765 0.080836397
0.88474265 0.76715686 0.12205882
0.93393076 0.77670037 0.072273284
0.95036765 0.78186275 0.078921569
0.0044117647 0.47199755 0.24356618
0.01439185 0.51280637 0.25
0.011871936 0.57757353 0.20540748
0.3164905 0.67843137 0.046346507
0.61859681 0.74859069 0.013939951
0.81534161 0.79409467 0.043282782
0.923269 0.81536458 0.091053922
0.96862745 0.82315411 0.10147059
0.98339461 0.82745098 0.092401961
0.0073529412 0.55147059 0.31617647
0.057904412 0.59473039 0.32322304
0.050612745 0.65122549 0.26237745
0.39509804 0.74754902 0.1846201
0.65098039 0.7875 0.11470588
0.84656863 0.83020833 0.038970588
0.95686275 0.84901961 0.10196078
0.97990196 0.84957108 0.19362745
0.99166667 0.85784314 0.25833333
0.015686275 0.02745098 0.07745098
0.031004902 0.031372549 0.08125
0.075490196 0.035294118 0.084313725
0.1995098 0.046078431 0.093014706
0.35735294 0.03872549 0.090196078
0.4817402 0.045098039 0.087254902
0.55294118 0.032352941 0.097058824
0.59914216 0.022671569 0.094117647
0.61666667 0.039215686 0.082352941
0.016666667 0.062254902 0.10085784
0.026976103 0.061657475 0.10209865
0.090808824 0.069393382 0.10762868
0.23261336 0.084007353 0.10326287
0.39289216 0.097058824 0.10202206
0.52556679 0.10525429 0.11323529
0.60719975 0.056893382 0.096017157
0.65735294 0.044500613 0.089261642
0.68382353 0.043995098 0.085416667
0.012745098 0.12745098 0.12965686
0.023039216 0.11887255 0.12604167
0.10459559 0.13670343 0.13333333
0.2614277 0.16568627 0.1254902
0.44558824 0.18333333 0.12843137
0.59365809 0.1846201 0.12018995
0.69607843 0.14381127 0.076531863
0.74828431 0.13079044 0.059466912
0.76764706 0.16078431 0.07377451
0.0078431373 0.20882353 0.16090686
0.036948529 0.21311275 0.16279105
0.12156863 0.23667279 0.16605392
0.29460784 0.28782169 0.15585172
0.49724265 0.31519608 0.165625
0.66127451 0.32169118 0.14330576
0.77708333 0.32009804 0.099142157
0.82267157 0.3127451 0.038848039
0.85110294 0.33125 0.020833333
0.015686275 0.32009804 0.21666667
0.044791667 0.33572304 0.22843137
0.14019608 0.36605392 0.22598039
0.31427696 0.44191176 0.19626225
0.54656863 0.48921569 0.20098039
0.72279412 0.51029412 0.18676471
0.83737745 0.51862745 0.15
0.89264706 0.52849265 0.054166667
0.91176471 0.53529412 0
0.018504902 0.42941176 0.27732843
0.032965686 0.4410386 0.27120098
0.12613358 0.4877451 0.26127451
0.32254902 0.5877451 0.20257353
0.59540441 0.65110294 0.21979167
0.77794118 0.68529412 0.23950674
0.89292279 0.70085784 0.20723039
0.9504902 0.71911765 0.11078431
0.96421569 0.72401961 0.064828431
0.011764706 0.48627451 0.32745098
0.0088235294 0.50931373 0.31985294
0.077083333 0.55747549 0.29785539
0.26127451 0.68186275 0.19620098
0.61642157 0.74901961 0.17389706
0.82999387 0.79224877 0.18863358
0.9278799 0.80808824 0.25091912
0.98373162 0.81994485 0.15217525
0.99142157 0.82132353 0.15098039
0.016544118 0.52144608 0.35294118
0.022610294 0.55110294 0.35686275
0.020220588 0.61666667 0.34255515
0.2276348 0.7129136 0.27003676
0.62205882 0.79595588 0.18829657
0.85735294 0.84313725 0.12991728
0.96969975 0.85906863 0.14215686
0.99607843 0.8622549 0.23439032
0.99607843 0.8622549 0.27732843
0.0039215686 0.58431373 0.42745098
0.0082107843 0.61727941 0.42671569
0.015931373 0.68504902 0.41764706
0.30637255 0.7685049 0.37267157
0.64411765 0.83431373 0.36127451
0.85085784 0.86752451 0.33088235
0.97083333 0.88921569 0.34142157
1 0.89031863 0.41115196
1 0.88921569 0.43627451
0.0078431373 0.041666667 0.17598039
0.026960784 0.029595588 0.19019608
0.077573529 0.033210784 0.19264706
0.21617647 0.045588235 0.2088848
0.36740196 0.028921569 0.20980392
0.50343137 0.044117647 0.22310049
0.57990196 0.022058824 0.22794118
0.61078431 0.031372549 0.23155637
0.62598039 0.036764706 0.23186275
0.0065563725 0.075980392 0.18627451
0.014253983 0.071606924 0.20494026
0.080882353 0.080085784 0.21619179
0.24166667 0.09833027 0.23363205
0.41617647 0.11078431 0.24378064
0.54993107 0.10755208 0.25098039
0.63622855 0.078921569 0.25098039
0.681947 0.049364277 0.26161918
0.70686275 0.031556373 0.26519608
0.0039215686 0.14803922 0.21813725
0.02935049 0.15324755 0.22933517
0.11344975 0.16421569 0.23382353
0.27568934 0.18235294 0.26839767
0.46219363 0.203125 0.27898284
0.62254902 0.19056373 0.28284314
0.73710172 0.13734681 0.27484681
0.76678922 0.13187806 0.27135417
0.79375 0.14840686 0.29178922
0 0.24607843 0.26960784
0.041666667 0.25501685 0.27814032
0.13236826 0.26801471 0.29722733
0.31491268 0.31485141 0.32214308
0.5252451 0.33897059 0.32892157
0.70882353 0.33599112 0.31773131
0.81037071 0.32918199 0.31072304
0.84931832 0.34216452 0.3048943
0.86764706 0.36525735 0.3221201
0.011764706 0.36715686 0.33137255
0.042156863 0.37729779 0.34151348
0.17426471 0.41740196 0.36421569
0.35294118 0.48088235 0.38284314
0.56495098 0.52659314 0.38443627
0.77619485 0.54047181 0.35098039
0.8783701 0.5471201 0.31960784
0.92509191 0.55873162 0.32794118
0.93970588 0.57034314 0.35490196
0.0087622549 0.4745098 0.39166667
0.056556373 0.48633578 0.39247089
0.17043505 0.52892157 0.40957414
0.31262255 0.63887102 0.40334712
0.59754902 0.70787377 0.40664828
0.8091682 0.7379519 0.42687653
0.94872855 0.75625 0.35445772
0.98057598 0.76923254 0.35728401
1 0.77696078 0.35925245
0 0.52843137 0.43529412
0.0092677696 0.54865196 0.44558824
0.091023284 0.60811887 0.45955882
0.20893076 0.72941176 0.43632047
0.59785539 0.80741422 0.41648284
0.85154718 0.85062806 0.40929841
0.94803922 0.85401348 0.4486826
0.98958333 0.86213235 0.42633272
1 0.86507353 0.44558824
0.0014705882 0.56617647 0.49136029
0.0089690564 0.6009421 0.50471814
0.011856618 0.66087623 0.51821385
0.1002451 0.77567402 0.50821078
0.58936887 0.84215686 0.48382353
0.84166667 0.88229167 0.4716299
0.97585784 0.90344669 0.47107843
0.99855239 0.90343137 0.52557445
1 0.903125 0.53137255
0.0014705882 0.61666667 0.55098039
0.0053921569 0.66372549 0.57714461
0.0039215686 0.72058824 0.5872549
0.24319853 0.80833333 0.59362745
0.61838235 0.86862745 0.58431373
0.83719363 0.90196078 0.57401961
0.95980392 0.92071078 0.575
0.99785539 0.92794118 0.61813725
1 0.92401961 0.63039216
0.0058823529 0.10784314 0.24705882
0.010784314 0.075490196 0.27377451
0.076960784 0.036764706 0.31176471
0.22720588 0.041666667 0.33333333
0.39215686 0.043137255 0.35
0.50637255 0.044362745 0.35686275
0.58823529 0.035784314 0.36176471
0.64019608 0.045098039 0.37867647
0.64509804 0.043137255 0.37843137
0.0078431373 0.13284314 0.26593137
0.022610294 0.12282475 0.29877451
0.070098039 0.096997549 0.34705882
0.24797794 0.11087623 0.37490809
0.42781863 0.12683824 0.38541667
0.56691176 0.12843137 0.39990809
0.65392157 0.1 0.39754902
0.70318627 0.058333333 0.41348039
0.72401961 0.031617647 0.42843137
0.0039215686 0.19019608 0.31421569
0.044362745 0.2033701 0.33290441
0.10294118 0.1995098 0.36507353
0.27567402 0.19920343 0.43290441
0.47352941 0.2252451 0.44754902
0.63823529 0.21960784 0.45882353
0.73823529 0.15735294 0.46323529
0.78167892 0.1504902 0.47303922
0.80196078 0.14558824 0.48431373
0.0039215686 0.29607843 0.38921569
0.037101716 0.30309436 0.40064338
0.14650735 0.32291667 0.42077206
0.28370098 0.33676471 0.50744485
0.53039216 0.3627451 0.52181373
0.71786152 0.36614583 0.52282475
0.81348039 0.35833333 0.52647059
0.85572917 0.36813725 0.53293505
0.87009804 0.38112745 0.54019608
0.015686275 0.41666667 0.46666667
0.028186275 0.41936275 0.46544118
0.19803922 0.46764706 0.50343137
0.36666667 0.50870098 0.53198529
0.56421569 0.56078431 0.5745098
0.7747549 0.58970588 0.58357843
0.88431373 0.58112745 0.56862745
0.92205882 0.59632353 0.57757353
0.94117647 0.61372549 0.58823529
0.0083333333 0.52598039 0.5245098
0.051133578 0.53529412 0.52794118
0.19577206 0.59001225 0.56433824
0.35027574 0.67840074 0.60147059
0.57536765 0.7504902 0.61556373
0.81148897 0.78455882 0.63327206
0.93553922 0.79926471 0.61862745
0.97729779 0.79828431 0.61966912
0.99485294 0.81838235 0.61348039
0.0039215686 0.58970588 0.57058824
0.0057598039 0.59338235 0.57230392
0.099142157 0.65245098 0.60404412
0.21213235 0.7627451 0.64718137
0.56053922 0.84460784 0.65808824
0.82401961 0.88474265 0.66041667
0.95453431 0.90159314 0.67781863
0.99215686 0.90606618 0.67579657
0.99607843 0.90980392 0.68578431
0.0039215686 0.62401961 0.6125
0.0037071078 0.64558824 0.6299326
0.0027573529 0.70196078 0.66182598
0.10692402 0.80784314 0.70431985
0.55919118 0.88088235 0.71078431
0.83226103 0.92264093 0.70906863
0.96231618 0.93933824 0.71145833
0.99610907 0.94359681 0.73039216
1 0.94338235 0.74828431
0 0.67843137 0.67647059
0 0.69583333 0.69044118
0 0.7622549 0.72745098
0.091911765 0.83897059 0.75441176
0.57941176 0.89803922 0.76470588
0.8245098 0.93284314 0.76397059
0.95539216 0.95490196 0.77205882
1 0.96078431 0.78823529
1 0.95882353 0.79803922
0.011764706 0.14509804 0.30098039
0.0078431373 0.13529412 0.31715686
0.069240196 0.043137255 0.41997549
0.23186275 0.030821078 0.44215686
0.3877451 0.032843137 0.46127451
0.52205882 0.056372549 0.4716299
0.60343137 0.046691176 0.47671569
0.65116422 0.040196078 0.49430147
0.65637255 0.043137255 0.49460784
0.010477941 0.17696078 0.34705882
0.013909314 0.17481618 0.35463388
0.047778799 0.11441483 0.45514706
0.25245098 0.11482077 0.5
0.43823529 0.13097426 0.51789216
0.57782629 0.13970588 0.52947304
0.67035846 0.11176471 0.52401961
0.71276808 0.070182292 0.54869026
0.73186275 0.037745098 0.56550245
0.0049019608 0.23627451 0.40539216
0.010784314 0.23480392 0.41243873
0.097640931 0.24047181 0.43584559
0.25134804 0.19166667 0.58615196
0.48639706 0.22107843 0.60140931
0.64667586 0.2221201 0.60963542
0.74574142 0.18082108 0.61752451
0.7903799 0.13965993 0.6307598
0.80588235 0.15355392 0.64313725
0.003370098 0.34068627 0.49356618
0.0021446078 0.33155637 0.48952972
0.10939032 0.35220588 0.53068321
0.26331189 0.35236673 0.65061275
0.53112745 0.3747549 0.68602941
0.7220818 0.37941176 0.69705882
0.82046569 0.35778186 0.69419424
0.85911458 0.36900276 0.69852941
0.87156863 0.39515931 0.70398284
0.015931373 0.46029412 0.57156863
0.010110294 0.45122549 0.56446078
0.18167892 0.49834559 0.60484069
0.33946078 0.55147059 0.67916667
0.54901961 0.59191176 0.75257353
0.76887255 0.60539216 0.75808824
0.88069853 0.60931373 0.75735294
0.92205882 0.61626838 0.76053922
0.9372549 0.63995098 0.76813725
0.012316176 0.56813725 0.63088235
0.057598039 0.57273284 0.63302696
0.19725797 0.62800245 0.67567402
0.37015931 0.70469516 0.73137255
0.58624387 0.7796875 0.78679534
0.80637255 0.82116268 0.80098039
0.9283701 0.81666667 0.80159314
0.9745098 0.83154871 0.80651042
0.98823529 0.84901961 0.81427696
0.006372549 0.62267157 0.6627451
0.012745098 0.63333333 0.67401961
0.10422794 0.69460784 0.72435662
0.22527574 0.79287684 0.78999694
0.53406863 0.87401961 0.82984069
0.81418505 0.91262255 0.83639706
0.94019608 0.92711397 0.83477328
0.98872549 0.93386949 0.84816176
1 0.94362745 0.85036765
0.0052083333 0.64332108 0.68578431
0.012438725 0.66856618 0.70947457
0.01127451 0.7317402 0.75882353
0.083946078 0.83045343 0.82971814
0.52760417 0.90621936 0.86323529
0.80722273 0.9457644 0.8713848
0.95453431 0.96666667 0.87058824
0.9908701 0.96666667 0.87522212
0.99393382 0.96666667 0.87904412
0 0.66127451 0.71127451
0 0.72383578 0.76501225
0.0039215686 0.79129902 0.82058824
0.054105392 0.86372549 0.87297794
0.55563725 0.92034314 0.89313725
0.81127451 0.95441176 0.88976716
0.94203431 0.97254902 0.88676471
0.9908701 0.97794118 0.89656863
1 0.98039216 0.90882353
0.015686275 0.16862745 0.33921569
0.0091911765 0.16605392 0.36176471
0.063235294 0.052205882 0.47083333
0.23860294 0.035294118 0.52205882
0.40833333 0.055392157 0.54705882
0.53578431 0.067647059 0.55012255
0.61446078 0.055637255 0.55882353
0.65894608 0.047058824 0.57095588
0.67156863 0.044117647 0.58235294
0.0078431373 0.20428922 0.39607843
0.0039215686 0.20392157 0.40736826
0.045557598 0.12601103 0.51443015
0.24938725 0.10196078 0.59563419
0.45447304 0.11433824 0.61470588
0.59568015 0.13965993 0.62438725
0.6823223 0.11911765 0.62996324
0.72575061 0.084114583 0.64390319
0.74375 0.043137255 0.65931373
0.0031862745 0.25784314 0.45882353
0.004564951 0.26176471 0.47429534
0.051531863 0.24877451 0.5408701
0.24803922 0.18440564 0.68480392
0.49852941 0.20392157 0.71286765
0.66393995 0.18587623 0.71829044
0.75533088 0.18535539 0.72064951
0.79803922 0.14583333 0.73627451
0.80931373 0.15122549 0.7372549
0.0035539216 0.35882353 0.53811275
0.0039215686 0.36269914 0.54938725
0.061948529 0.36764706 0.58762255
0.20553002 0.35833333 0.76078431
0.52248775 0.38419118 0.79099265
0.71821385 0.38575368 0.79192708
0.82282475 0.3658701 0.80073529
0.86276042 0.38135723 0.80165441
0.87794118 0.40453431 0.82107843
0.0093137255 0.47892157 0.62058824
0.012254902 0.48302696 0.62647059
0.12291667 0.51556373 0.66875
0.23192402 0.56783088 0.79142157
0.53970588 0.60196078 0.84705882
0.75557598 0.61960784 0.86145833
0.88039216 0.62132353 0.86862745
0.92199755 0.63216912 0.86868873
0.93529412 0.64656863 0.87892157
0.0053921569 0.59117647 0.68382353
0.021737132 0.59710478 0.69362745
0.1729473 0.63893995 0.73137255
0.29356618 0.726731 0.82970282
0.53143382 0.79895833 0.89185049
0.79538909 0.82657782 0.90931373
0.92876838 0.8325674 0.91213235
0.96666667 0.84546569 0.91421569
0.97512255 0.8432598 0.91323529
0.0058823529 0.63921569 0.71397059
0.036458333 0.65560662 0.73085172
0.115625 0.70563725 0.7754902
0.24800858 0.80346201 0.8567402
0.51335784 0.8872549 0.91727941
0.80428922 0.93128064 0.9317402
0.93627451 0.94779412 0.93529412
0.98443627 0.94705882 0.93492647
1 0.95490196 0.94240196
0.052573529 0.64889706 0.71960784
0.030882353 0.68714767 0.75441176
0.0042585784 0.74010417 0.8
0.039108456 0.84281556 0.89056373
0.49117647 0.91636029 0.93504902
0.80044424 0.95845588 0.94428615
0.93566176 0.97717525 0.95119485
0.98871017 0.98431373 0.95784314
0.99644608 0.98431373 0.95392157
0.014705882 0.70686275 0.77745098
0.034313725 0.72941176 0.79742647
0.03995098 0.78995098 0.85122549
0.079166667 0.86335784 0.9122549
0.54019608 0.92745098 0.94411765
0.79742647 0.96617647 0.95784314
0.93235294 0.98431373 0.9620098
0.98468137 0.98823529 0.96127451
0.99607843 0.98823529 0.95392157
0.01127451 0.18480392 0.38088235
0.011764706 0.18823529 0.38872549
0.060784314 0.1 0.48884804
0.23235294 0.02254902 0.55882353
0.42892157 0.047794118 0.61151961
0.55931373 0.060294118 0.61188725
0.63382353 0.066666667 0.61629902
0.66813725 0.062316176 0.61715686
0.68333333 0.062745098 0.62843137
0 0.21960784 0.43088235
0.0070389093 0.22696078 0.44607843
0.0035386029 0.08448223 0.60168505
0.26781556 0.040640319 0.66862745
0.46988358 0.075704657 0.6879902
0.61655944 0.088641238 0.69754902
0.70343137 0.10196078 0.69767157
0.74509804 0.085791973 0.709375
0.76329657 0.06372549 0.72107843
0 0.28088235 0.48872549
0 0.28769914 0.50816483
0.013082108 0.28072917 0.56666667
0.24540441 0.20637255 0.73026961
0.49773284 0.20079657 0.76672794
0.67463235 0.18494179 0.78198529
0.76838235 0.15428922 0.78526348
0.80681679 0.17403493 0.78714767
0.82647059 0.15551471 0.80343137
0 0.37077206 0.56207108
0 0.37628676 0.58164063
0.0055300245 0.38632047 0.64460784
0.18111213 0.38645067 0.79423254
0.51681985 0.40058211 0.83587623
0.72598039 0.39675245 0.85245098
0.82647059 0.39675245 0.85526961
0.86437653 0.39023438 0.8591682
0.87941176 0.41568627 0.86029412
0 0.48627451 0.6375
0.02254902 0.49433211 0.65272672
0.046078431 0.52316176 0.70171569
0.093933824 0.57490809 0.83970588
0.52622549 0.60894608 0.89534314
0.75931373 0.63333333 0.90882353
0.88082108 0.6370098 0.9127451
0.92205882 0.64338235 0.91421569
0.9372549 0.66102941 0.91985294
0 0.59509804 0.7
0.022817096 0.60310202 0.71488971
0.056862745 0.65 0.76462929
0.14139859 0.73491881 0.86666667
0.50870098 0.80373775 0.93612132
0.77666207 0.83007813 0.9508655
0.91902574 0.84005821 0.95704657
0.96617647 0.84967065 0.95882353
0.97401961 0.84558824 0.95704657
0.0039215686 0.64816176 0.73480392
0.04754902 0.66323529 0.7495098
0.097120098 0.71436887 0.79607843
0.17245711 0.81136642 0.8888174
0.49846814 0.89387255 0.95238971
0.79437806 0.93226103 0.967019
0.93563113 0.95098039 0.97696078
0.98523284 0.96188725 0.97470895
0.99215686 0.95147059 0.97745098
0.010784314 0.66366422 0.74558824
0.0074065564 0.69411765 0.77647059
0.010952819 0.74754902 0.82254902
0.0079427083 0.83925398 0.90618873
0.48385417 0.92181373 0.96127451
0.78688725 0.9622549 0.97665441
0.9355239 0.98098958 0.98448223
0.97696078 0.98480392 0.98393842
0.99607843 0.98915441 0.98474265
0.00049019608 0.68235294 0.76470588
0.0044117647 0.74019608 0.81470588
0.014338235 0.78835784 0.85992647
0.052205882 0.86666667 0.92714461
0.52083333 0.92941176 0.96691176
0.79019608 0.96617647 0.97824755
0.93664216 0.98823529 0.98823529
0.98088235 0.99215686 0.98780637
0.99607843 0.99215686 0.97696078
0 0.2 0.4
0 0.20784314 0.42352941
0.052941176 0.10882353 0.53823529
0.26813725 0.036764706 0.64019608
0.44705882 0.011764706 0.65882353
0.60343137 0.066666667 0.69166667
0.67843137 0.078431373 0.67843137
0.725 0.081862745 0.69705882
0.7254902 0.074509804 0.68235294
0 0.25 0.46519608
0.0038602941 0.24699755 0.48045343
0.034191176 0.25122549 0.53590686
0.2596201 0.10753676 0.70606618
0.47794118 0.10073529 0.73995098
0.64803922 0.10490196 0.7536152
0.73835784 0.10061275 0.75588235
0.77984069 0.099877451 0.76415441
0.7995098 0.10833333 0.78039216
0 0.30392157 0.51666667
0 0.30306373 0.53137255
0.0039215686 0.3 0.58235294
0.22365196 0.24460784 0.76556373
0.50392157 0.25294118 0.79901961
0.68443627 0.23811275 0.81041667
0.78112745 0.20784314 0.81691176
0.82561275 0.22941176 0.8254902
0.8372549 0.25392157 0.82941176
0 0.38382353 0.57352941
0 0.3877451 0.59920343
0 0.40698529 0.66335784
0.19583333 0.41017157 0.81317402
0.51617647 0.42254902 0.85588235
0.71176471 0.43039216 0.86911765
0.82855392 0.42794118 0.87941176
0.87205882 0.43284314 0.88333333
0.8872549 0.44460784 0.8872549
0 0.49019608 0.64705882
0 0.50539216 0.66446078
0.0093137255 0.53578431 0.72352941
0.052696078 0.58529412 0.85441176
0.51568627 0.6254902 0.91078431
0.74264706 0.6372549 0.92230392
0.87647059 0.63970588 0.93333333
0.92573529 0.63578431 0.93333333
0.9372549 0.66078431 0.93921569
0 0.60294118 0.71519608
0.0052083333 0.61176471 0.72616422
0.012867647 0.65625 0.77242647
0.041176471 0.74264706 0.88186275
0.48161765 0.80147059 0.94852941
0.77892157 0.83143382 0.96464461
0.92401961 0.85294118 0.97291667
0.96617647 0.85686275 0.97401961
0.97401961 0.85196078 0.97156863
0.0039215686 0.64411765 0.7372549
0.00085784314 0.66323529 0.75343137
0.030392157 0.71740196 0.80686275
0.1182598 0.82046569 0.90183824
0.46127451 0.89754902 0.9627451
0.78639706 0.9307598 0.97855392
0.93921569 0.95490196 0.98823529
0.98823529 0.96568627 0.98431373
0.99215686 0.95784314 0.98823529
0 0.65637255 0.73872549
0.0073529412 0.70153186 0.78039216
0.0087009804 0.75539216 0.83088235
0.034742647 0.83792892 0.90851716
0.47083333 0.91960784 0.96862745
0.78431373 0.9622549 0.98400735
0.93823529 0.98431373 0.99215686
0.97653186 0.98480392 0.99215686
0.99607843 0.98872549 0.99215686
0.035294118 0.69411765 0.77647059
0.012254902 0.73676471 0.81519608
0.011764706 0.79803922 0.86862745
0.051470588 0.87156863 0.93970588
0.48823529 0.92941176 0.96862745
0.77892157 0.96617647 0.98186275
0.93529412 0.98823529 0.99215686
0.97303922 0.99264706 0.99607843
1 1 1
