site/assets/luts/sha256-556ae2a8001dd915fc7c2b9d91c0920c66addffd0ef503e12cadb4a330f7a111.cube
# LUTr-Schema-Version: 2
# LUTr-ID: sha256-556ae2a8001dd915fc7c2b9d91c0920c66addffd0ef503e12cadb4a330f7a111
# LUTr-Title: fuji 160c +
# LUTr-Collection: Natron HaldCLUT
# LUTr-Collection-ID: natron-haldclut-presets
# LUTr-Source: https://github.com/NatronGitHub/clut
# LUTr-Retrieved: 2026-07-27
# LUTr-Source-File: submissions/natron-haldclut-presets/negative_new/fuji_160c_+.png
# LUTr-Source-Format: HALD-PNG
# LUTr-Source-SHA256: 556ae2a8001dd915fc7c2b9d91c0920c66addffd0ef503e12cadb4a330f7a111
# LUTr-License: CC-BY-SA-4.0
# LUTr-License-URL: https://github.com/NatronGitHub/clut#license
# LUTr-License-Basis: repo-license-file
# LUTr-Transform-Class: film-emulation
# LUTr-Tags: creative, film, film-emulation, hald-clut, natron, png, cube
# LUTr-Input-Color-Space: srgb
# LUTr-Input-Gamut: rec709
# LUTr-Input-Transfer: srgb
# LUTr-Output-Color-Space: srgb
# LUTr-Output-Gamut: rec709
# LUTr-Output-Transfer: srgb
# LUTr-Color-Space-Confidence: assumed-display-referred
# LUTr-Domain-Normalized: true
# LUTr-Shaper: none
# LUTr-Original-Grid: 64x64x64
# LUTr-Conversion-Grid: 25x25x25
# LUTr-Conversion-Interpolation: trilinear
# LUTr-Conversion-Method: HALD-PNG LUT image decoded at 16-bit and sampled to 25x25x25 3D CUBE
# LUTr-Conversion-Tool: LUTr scripts/convert-all-to-cube.mjs 2.0.0
# LUTr-Conversion-Date: 2026-07-27
# LUTr-Note: Preserve this metadata and the upstream license notices when redistributing.
TITLE "fuji 160c +"
LUT_3D_SIZE 25
DOMAIN_MIN 0 0 0
DOMAIN_MAX 1 1 1
0.011764706 0.015686275 0.0078431373
0.042647059 0.032352941 0.022058824
0.069607843 0.049019608 0.034313725
0.097058824 0.032352941 0.020098039
0.13333333 0.023529412 0.011764706
0.19068627 0.019117647 0.015686275
0.24607843 0.011764706 0.015686275
0.29901961 0.0024509804 0.015686275
0.36470588 0.0039215686 0.019607843
0.43284314 0.0078431373 0.025980392
0.5 0.0078431373 0.02745098
0.55441176 0.0078431373 0.023529412
0.60980392 0.0058823529 0.011764706
0.65735294 0 0
0.70490196 0.0029411765 0
0.75098039 0.0039215686 0.0039215686
0.79607843 0.0078431373 0.0078431373
0.8372549 0.0078431373 0.0078431373
0.8745098 0.0068627451 0.0039215686
0.9122549 0.034803922 0
0.94313725 0.11372549 0.0019607843
0.97303922 0.17058824 0.00049019608
0.97941176 0.21176471 0.010784314
0.98578431 0.25294118 0.017156863
0.99607843 0.28627451 0.019607843
0.015686275 0.050490196 0.018137255
0.033272059 0.052941176 0.022058824
0.060416667 0.062745098 0.030392157
0.090196078 0.054595588 0.020098039
0.13014706 0.05245098 0.015686275
0.18854167 0.042156863 0.015686275
0.24546569 0.027941176 0.015686275
0.29846814 0.01317402 0.012683824
0.36715686 0.0088235294 0.022058824
0.43584559 0.0078431373 0.029901961
0.5 0.0078431373 0.030392157
0.55833333 0.0078431373 0.020098039
0.60980392 0.0058823529 0.0098039216
0.66109069 0 0
0.70588235 0.0029411765 0
0.75398284 0.0039215686 0.0039215686
0.79607843 0.0078431373 0.0078431373
0.83817402 0.01182598 0.011764706
0.8745098 0.032965686 0.0068627451
0.90833333 0.080208333 0.0037377451
0.93921569 0.14779412 0.0039215686
0.96323529 0.19313725 0.0039215686
0.97941176 0.22267157 0.0074754902
0.98970588 0.25931373 0.014154412
0.99607843 0.29019608 0.017156863
0.015686275 0.081372549 0.024509804
0.025 0.084191176 0.023897059
0.044117647 0.089215686 0.026470588
0.075857843 0.085784314 0.01997549
0.125 0.083333333 0.015686275
0.18627451 0.074387255 0.015563725
0.24509804 0.064460784 0.011029412
0.30514706 0.053431373 0.016176471
0.37254902 0.043137255 0.026470588
0.43823529 0.03002451 0.033210784
0.5 0.017401961 0.029411765
0.55821078 0.0055147059 0.016544118
0.60980392 0.0039215686 0.0049019608
0.66384804 0.014705882 0.0035539216
0.70980392 0.010294118 0.0039215686
0.75698529 0.0029411765 0.0029411765
0.8 0.0098039216 0.0039215686
0.83664216 0.042156863 0.0078431373
0.87279412 0.087254902 0.0068627451
0.90698529 0.13198529 0.0039215686
0.93480392 0.18578431 0.0039215686
0.9564951 0.21997549 0.0078431373
0.97352941 0.24632353 0.0078431373
0.99007353 0.27303922 0.0068627451
0.99705882 0.29803922 0.010784314
0.015686275 0.11617647 0.024019608
0.015992647 0.11617647 0.020098039
0.026470588 0.11752451 0.01875
0.060845588 0.11623775 0.015747549
0.11813725 0.11421569 0.013970588
0.17990196 0.11127451 0.011764706
0.24166667 0.10404412 0.0079656863
0.303125 0.094607843 0.0019607843
0.36911765 0.084313725 0.012745098
0.4346201 0.073529412 0.016666667
0.49644608 0.058333333 0.012622549
0.55441176 0.037745098 0.0083946078
0.60980392 0.026470588 0.0017156863
0.66084559 0.04564951 0.0039215686
0.70882353 0.045710784 0.0047794118
0.75900735 0.028370098 0.0024509804
0.79607843 0.05245098 0.00049019608
0.83118873 0.097365196 0.0039215686
0.86703431 0.13872549 0.0039215686
0.90398284 0.18033088 0.00049019608
0.92990196 0.22009804 0.0039215686
0.95 0.24705882 0.0078431373
0.96801471 0.27401961 0.0078431373
0.9872549 0.29577206 0.0039215686
1 0.30882353 0.0039215686
0.0078431373 0.15294118 0.01372549
0.0078431373 0.15294118 0.011764706
0.006372549 0.14852941 0.0073529412
0.048284314 0.14901961 0.0078431373
0.10686275 0.15294118 0.011764706
0.16764706 0.15098039 0.011764706
0.22745098 0.15098039 0.0083333333
0.3004902 0.15098039 0.0058823529
0.36862745 0.14509804 0.0078431373
0.43431373 0.13480392 0.0078431373
0.49607843 0.12205882 0.0098039216
0.55441176 0.10833333 0.0080882353
0.60980392 0.10196078 0.0039215686
0.66078431 0.10833333 0.0044117647
0.70882353 0.10882353 0.0049019608
0.75294118 0.10588235 0.0031862745
0.79019608 0.11568627 0
0.82622549 0.15098039 0.0039215686
0.8627451 0.19362745 0
0.9002451 0.22965686 0.0017156863
0.92843137 0.25490196 0.0049019608
0.95 0.27769608 0.0080882353
0.97058824 0.30196078 0.0078431373
0.99044118 0.32254902 0.006372549
1 0.33333333 0.0039215686
0.0078431373 0.19852941 0.011764706
0.0039215686 0.19607843 0.011764706
0.0039215686 0.19460784 0.0091911765
0.028002451 0.19803922 0.012254902
0.089215686 0.2002451 0.013970588
0.15147059 0.20245098 0.015686275
0.21752451 0.20281863 0.011764706
0.29362745 0.20655637 0.0081495098
0.36421569 0.20686275 0.0078431373
0.42990196 0.196875 0.0078431373
0.49166667 0.19019608 0.01127451
0.54957108 0.18033088 0.0043504902
0.60563725 0.17377451 0.0039215686
0.66035539 0.17598039 0.0039215686
0.70588235 0.17941176 0.0047794118
0.74920343 0.17990196 0.0039215686
0.78431373 0.18382353 0
0.82285539 0.20637255 0.0039215686
0.85882353 0.24411765 0.0039215686
0.89564951 0.275 0.0039215686
0.92328431 0.29607843 0.0080882353
0.94957108 0.3127451 0.0078431373
0.9745098 0.33284314 0.0049019608
0.99411765 0.34932598 0.0037377451
1 0.35441176 0.0034313725
0.0078431373 0.25 0.011764706
0.0053921569 0.24607843 0.011764706
0.0039215686 0.24607843 0.016421569
0.012132353 0.24607843 0.02254902
0.067156863 0.25 0.019607843
0.1377451 0.25392157 0.015686275
0.20882353 0.25784314 0.012745098
0.28223039 0.26286765 0.010294118
0.35392157 0.26470588 0.0049019608
0.41960784 0.26078431 0.0039215686
0.48137255 0.25514706 0.0039215686
0.54313725 0.24938725 0.0039215686
0.60098039 0.24411765 0.0039215686
0.65735294 0.24411765 0.0039215686
0.70588235 0.24509804 0.0039215686
0.74705882 0.25012255 0.0006127451
0.78431373 0.25588235 0
0.81911765 0.26384804 0.0028186275
0.85490196 0.28921569 0.0039215686
0.88958333 0.31617647 0.0073529412
0.91666667 0.33382353 0.01127451
0.94362745 0.35085784 0.0078431373
0.97132353 0.36764706 0.0041666667
0.99460784 0.3807598 0
1 0.38431373 0
0.0078431373 0.30147059 0.014215686
0.0048406863 0.30147059 0.015686275
0.0039215686 0.29901961 0.019607843
0.0088235294 0.29901961 0.022058824
0.042156863 0.30147059 0.018872549
0.10294118 0.30539216 0.015502451
0.18137255 0.30931373 0.010661765
0.2622549 0.31415441 0.0072916667
0.33823529 0.31715686 0.0039215686
0.41231618 0.31715686 0.0014705882
0.475 0.31862745 0.0039215686
0.53676471 0.31470588 0.0039215686
0.59460784 0.31078431 0.0039215686
0.65196078 0.31078431 0.0039215686
0.70490196 0.31078431 0
0.74558824 0.31617647 0
0.78039216 0.32009804 0
0.81519608 0.32555147 0
0.85061275 0.33541667 0.0006127451
0.88333333 0.35655637 0.0060661765
0.91102941 0.37254902 0.0078431373
0.9372549 0.38939951 0.0076593137
0.96458333 0.40453431 0.0039215686
0.98670343 0.41672794 0
0.99460784 0.42156863 0.0039215686
0.0039215686 0.36078431 0.0078431373
0.0039215686 0.35686275 0.011764706
0.0078431373 0.35686275 0.016666667
0.015196078 0.35686275 0.019607843
0.023529412 0.35294118 0.015686275
0.061764706 0.35343137 0.01127451
0.14411765 0.35980392 0.0078431373
0.23284314 0.36470588 0.0039215686
0.32941176 0.36470588 0.0039215686
0.40539216 0.36715686 0.006372549
0.46862745 0.37254902 0.0078431373
0.53039216 0.37254902 0.0078431373
0.58823529 0.37058824 0.0039215686
0.64558824 0.36862745 0.0034313725
0.69705882 0.36862745 0
0.73921569 0.37401961 0
0.77647059 0.38039216 0
0.81127451 0.38676471 0
0.84607843 0.38823529 0
0.87696078 0.39558824 0.0034313725
0.90392157 0.40980392 0.0039215686
0.93088235 0.4245098 0.0039215686
0.95784314 0.43823529 0.0039215686
0.98088235 0.45245098 0
0.99607843 0.45882353 0
0.0014705882 0.41862745 0.0039215686
0.0039215686 0.41709559 0.0069240196
0.0088235294 0.41409314 0.013848039
0.015196078 0.41096814 0.015686275
0.019607843 0.40637255 0.010539216
0.02879902 0.40441176 0.0052083333
0.10833333 0.40551471 0.0033088235
0.21427696 0.40980392 0.0039215686
0.31911765 0.40980392 0.0078431373
0.39509804 0.41317402 0.0078431373
0.45833333 0.4182598 0.0078431373
0.52254902 0.42371324 0.0078431373
0.58308824 0.42401961 0.0039215686
0.63743873 0.42401961 0
0.68382353 0.42585784 0
0.72892157 0.42886029 0
0.76617647 0.43578431 0
0.80343137 0.43823529 0
0.83860294 0.43970588 0
0.87058824 0.44099265 0
0.90073529 0.45098039 0.0039215686
0.92696078 0.46145833 0.0039215686
0.95208333 0.47303922 0.0039215686
0.9778799 0.48333333 0.003370098
0.99607843 0.48970588 0.0024509804
0 0.47058824 0.0049019608
0.0024509804 0.46875 0.0078431373
0.0071078431 0.46348039 0.011764706
0.011642157 0.46017157 0.011764706
0.015686275 0.45735294 0.0093137255
0.020220588 0.45196078 0.0035539216
0.088235294 0.45098039 0.0031862745
0.19411765 0.45490196 0.0053921569
0.29705882 0.45490196 0.0088235294
0.38235294 0.45772059 0.011764706
0.44828431 0.46372549 0.011764706
0.51372549 0.47009804 0.0082107843
0.5754902 0.47647059 0.0039215686
0.62892157 0.47806373 0
0.67426471 0.4754902 0
0.71862745 0.47879902 0
0.75980392 0.48333333 0
0.79742647 0.4872549 0
0.83112745 0.4872549 0
0.86507353 0.4872549 0
0.89901961 0.49215686 0.0014705882
0.92561275 0.49840686 0.0039215686
0.95171569 0.50784314 0.006127451
0.97977941 0.51421569 0.0042892157
0.99215686 0.51960784 0.0078431373
0 0.51568627 0.01127451
0.0024509804 0.51305147 0.011764706
0.0039215686 0.51041667 0.011764706
0.0074142157 0.50741422 0.011764706
0.012009804 0.50343137 0.0078431373
0.017095588 0.4995098 0.0069240196
0.085661765 0.4995098 0.0039215686
0.1872549 0.49607843 0.0053921569
0.28676471 0.49607843 0.0078431373
0.3745098 0.5 0.0080269608
0.44129902 0.50404412 0.0078431373
0.50343137 0.50827206 0.0078431373
0.56323529 0.51397059 0.0039215686
0.61862745 0.51960784 0
0.66703431 0.51960784 0
0.7122549 0.52481618 0
0.7495098 0.53137255 0
0.78823529 0.53480392 0
0.82303922 0.53137255 0
0.85778186 0.53137255 0
0.88872549 0.53137255 0.0019607843
0.91960784 0.53578431 0.0039215686
0.9504902 0.54227941 0.0039215686
0.98118873 0.54724265 0.0041053922
0.98823529 0.54754902 0.0078431373
0 0.55882353 0.011764706
0.0012254902 0.55686275 0.015686275
0.0019607843 0.55294118 0.01127451
0.0019607843 0.55122549 0.0078431373
0.0039215686 0.54705882 0.0078431373
0.0049019608 0.54509804 0.0039215686
0.076470588 0.54117647 0.0039215686
0.18406863 0.54044118 0.0066176471
0.28627451 0.5372549 0.0058823529
0.36887255 0.53848039 0.0039215686
0.43137255 0.54166667 0.006372549
0.49313725 0.54485294 0.0078431373
0.55098039 0.54901961 0.0039215686
0.60490196 0.55490196 0.0036764706
0.65980392 0.55833333 0
0.70122549 0.56544118 0
0.73921569 0.57058824 0.0019607843
0.7752451 0.5745098 0
0.8127451 0.575 0
0.84754902 0.57647059 0
0.87843137 0.57254902 0
0.90931373 0.57647059 0.0041666667
0.94166667 0.57794118 0.0093137255
0.97230392 0.57843137 0.0090686275
0.98823529 0.58039216 0.0058823529
0 0.59362745 0.011764706
0 0.59148284 0.015196078
0 0.59007353 0.010906863
0.00042892157 0.58970588 0.0083333333
0 0.58627451 0.0075980392
0.00091911765 0.58235294 0.0038602941
0.072426471 0.58198529 0.0039215686
0.17892157 0.57843137 0.0078431373
0.27794118 0.57794118 0.0083333333
0.36127451 0.5745098 0.009620098
0.425 0.57794118 0.0068627451
0.48290441 0.57843137 0.0039215686
0.54068627 0.58406863 0.0039215686
0.59454657 0.58670343 0.0039215686
0.64509804 0.59264706 0.0044117647
0.68596814 0.59754902 0.0039215686
0.7245098 0.60147059 0.0039215686
0.7596201 0.60539216 0.0039215686
0.79901961 0.60943627 0.0039215686
0.83676471 0.61323529 0.00006127451
0.87034314 0.61372549 0
0.90294118 0.61372549 0.0044117647
0.93431373 0.61323529 0.011642157
0.96862745 0.61372549 0.0078431373
0.98823529 0.61715686 0.0039215686
0 0.62745098 0.011764706
0 0.62561275 0.011764706
0.00073529412 0.6245098 0.011764706
0.0039215686 0.6245098 0.012132353
0.0034313725 0.62352941 0.0078431373
0 0.62046569 0.0025735294
0.065441176 0.61960784 0.0058823529
0.16715686 0.61629902 0.012254902
0.26078431 0.6127451 0.015686275
0.3442402 0.61176471 0.015073529
0.41470588 0.6127451 0.0068627451
0.47303922 0.61568627 0.0039215686
0.52892157 0.61960784 0.0039215686
0.58039216 0.62058824 0.0069852941
0.6254902 0.62426471 0.0078431373
0.66960784 0.62843137 0.0057598039
0.70784314 0.63235294 0.0039215686
0.74558824 0.63627451 0.0039215686
0.78235294 0.64117647 0.0046568627
0.82254902 0.64754902 0.0068627451
0.86176471 0.65147059 0.0044117647
0.89656863 0.65098039 0.0039215686
0.93039216 0.65098039 0.0071078431
0.96335784 0.65098039 0.0067401961
0.99117647 0.65196078 0.0039215686
0 0.66078431 0.006372549
0 0.66078431 0.006372549
0.00098039216 0.65931373 0.012132353
0.0039215686 0.65716912 0.022058824
0.0014705882 0.65686275 0.012009804
0.0045343137 0.65686275 0.00067401961
0.10379902 0.65539216 0.010784314
0.19209559 0.65294118 0.017708333
0.26813725 0.65147059 0.02254902
0.33682598 0.64901961 0.019546569
0.40196078 0.65147059 0.012254902
0.46243873 0.65294118 0.00067401961
0.51348039 0.65294118 0.0053921569
0.56158088 0.65539216 0.0093137255
0.6060049 0.65539216 0.011764706
0.65238971 0.65931373 0.0069240196
0.69656863 0.66323529 0.0039215686
0.73382353 0.66715686 0.0087622549
0.77107843 0.67205882 0.01997549
0.8122549 0.67843137 0.031372549
0.85147059 0.68210784 0.033088235
0.88676471 0.68676471 0.015502451
0.92438725 0.68676471 0.0031862745
0.95716912 0.68676471 0.012438725
0.99166667 0.68676471 0.0073529412
0 0.69803922 0.0078431373
0 0.69803922 0.0014705882
0.0039215686 0.69411765 0.025490196
0.0039215686 0.69411765 0.042647059
0.0058823529 0.69411765 0.037254902
0.070588235 0.69019608 0.023529412
0.14215686 0.69019608 0.032352941
0.21813725 0.69019608 0.05
0.29019608 0.69019608 0.062745098
0.35196078 0.68627451 0.058823529
0.4127451 0.68627451 0.05
0.46421569 0.68627451 0.039705882
0.50784314 0.68627451 0.039215686
0.55147059 0.68627451 0.039215686
0.59607843 0.69019608 0.039215686
0.64264706 0.69166667 0.033823529
0.68627451 0.69411765 0.02745098
0.72352941 0.69803922 0.040196078
0.76078431 0.70294118 0.055882353
0.80196078 0.70588235 0.066176471
0.83921569 0.71176471 0.064705882
0.87990196 0.71764706 0.05
0.91764706 0.72058824 0.029411765
0.94411765 0.72156863 0.038235294
0.96862745 0.72156863 0.062745098
0.0039215686 0.72892157 0.063235294
0.0054534314 0.73137255 0.068137255
0.0039215686 0.7307598 0.073161765
0.0060661765 0.72892157 0.075
0.045588235 0.72892157 0.073039216
0.13204657 0.725 0.079411765
0.18553922 0.725 0.084681373
0.24509804 0.72444853 0.093627451
0.31470588 0.72107843 0.10392157
0.37009804 0.72107843 0.10392157
0.42022059 0.72107843 0.099632353
0.46685049 0.71979167 0.091176471
0.50980392 0.71960784 0.090686275
0.55147059 0.72107843 0.090686275
0.59607843 0.72291667 0.090686275
0.64117647 0.725 0.086764706
0.67990196 0.72892157 0.085294118
0.71715686 0.73045343 0.093137255
0.75441176 0.73382353 0.10735294
0.79411765 0.73676471 0.11403186
0.83284314 0.74264706 0.1122549
0.87009804 0.74852941 0.10177696
0.90833333 0.75147059 0.098897059
0.93719363 0.75637255 0.10882353
0.9504902 0.75637255 0.12058824
0 0.76372549 0.11470588
0.022181373 0.76372549 0.125
0.019362745 0.76372549 0.11789216
0.072181373 0.76372549 0.12218137
0.13872549 0.75980392 0.12647059
0.19019608 0.75980392 0.13039216
0.23455882 0.75612745 0.13431373
0.27757353 0.75588235 0.13394608
0.33431373 0.75588235 0.14019608
0.38296569 0.75588235 0.14473039
0.4252451 0.75294118 0.14509804
0.46948529 0.75208333 0.14252451
0.51078431 0.75196078 0.14215686
0.55490196 0.75330882 0.14215686
0.59607843 0.75588235 0.14754902
0.6372549 0.75796569 0.14007353
0.6745098 0.75980392 0.14215686
0.71115196 0.76262255 0.14669118
0.74803922 0.76470588 0.15563725
0.78664216 0.76764706 0.16556373
0.82647059 0.77352941 0.16568627
0.86335784 0.77855392 0.1692402
0.90098039 0.78235294 0.16740196
0.93382353 0.7872549 0.17598039
0.95 0.79117647 0.18235294
0.080882353 0.79460784 0.16617647
0.10618873 0.79460784 0.17040441
0.13897059 0.79460784 0.17267157
0.16470588 0.79460784 0.17352941
0.19166667 0.79240196 0.17965686
0.23137255 0.79068627 0.18229167
0.27647059 0.79068627 0.18578431
0.31764706 0.79019608 0.18186275
0.35539216 0.78676471 0.18137255
0.39344363 0.78676471 0.18609069
0.43137255 0.78676471 0.19105392
0.47254902 0.78676471 0.19362745
0.51715686 0.78676471 0.19019608
0.55833333 0.78676471 0.190625
0.59693627 0.79019608 0.19166667
0.63363971 0.79068627 0.19332108
0.67058824 0.79068627 0.19705882
0.70569853 0.79460784 0.2
0.74166667 0.79816176 0.20551471
0.77935049 0.79852941 0.21323529
0.81789216 0.80441176 0.21519608
0.85643382 0.8098652 0.22205882
0.8942402 0.81323529 0.2314951
0.93167892 0.81960784 0.2377451
0.95637255 0.8254902 0.24803922
0.16862745 0.82941176 0.21176471
0.18406863 0.82818627 0.22009804
0.2 0.8254902 0.22794118
0.21862745 0.82745098 0.23137255
0.24509804 0.8254902 0.23529412
0.27647059 0.8254902 0.23946078
0.31764706 0.8254902 0.23970588
0.35539216 0.82352941 0.23921569
0.38235294 0.82156863 0.24313725
0.41127451 0.82156863 0.24313725
0.44656863 0.82156863 0.24264706
0.48235294 0.82156863 0.23946078
0.52156863 0.81960784 0.2372549
0.5622549 0.82156863 0.2372549
0.59705882 0.82156863 0.24117647
0.63259804 0.82352941 0.24583333
0.66666667 0.8254902 0.25098039
0.70269608 0.82671569 0.25294118
0.73676471 0.82941176 0.25343137
0.77279412 0.83284314 0.25857843
0.80980392 0.83529412 0.26372549
0.84877451 0.84117647 0.27328431
0.88676471 0.84509804 0.28529412
0.9247549 0.85171569 0.29558824
0.95686275 0.85882353 0.30784314
0.22647059 0.86029412 0.26960784
0.23627451 0.86029412 0.27352941
0.25441176 0.86029412 0.28186275
0.27205882 0.86029412 0.28872549
0.29460784 0.86029412 0.29264706
0.325 0.86029412 0.29656863
0.35539216 0.86029412 0.29705882
0.38449755 0.85686275 0.30067402
0.40931373 0.85637255 0.30098039
0.43578431 0.85637255 0.30098039
0.46666667 0.85637255 0.29705882
0.49754902 0.85294118 0.29270833
0.53186275 0.85245098 0.28357843
0.56317402 0.85294118 0.28970588
0.59742647 0.85637255 0.29742647
0.63363971 0.85637255 0.30637255
0.66715686 0.86029412 0.30931373
0.70147059 0.86029412 0.30931373
0.73627451 0.86164216 0.30882353
0.76715686 0.86421569 0.30539216
0.80367647 0.86642157 0.31495098
0.84417892 0.87205882 0.33284314
0.88198529 0.87585784 0.34313725
0.91764706 0.87990196 0.35557598
0.93627451 0.88333333 0.35980392
0.28529412 0.89117647 0.33431373
0.29460784 0.89117647 0.33529412
0.30588235 0.89117647 0.33946078
0.32009804 0.89411765 0.3439951
0.34068627 0.89509804 0.34754902
0.36960784 0.89509804 0.35110294
0.39019608 0.89411765 0.35490196
0.41213235 0.89411765 0.35882353
0.43627451 0.89117647 0.3627451
0.45747549 0.89019608 0.35980392
0.49019608 0.89019608 0.35784314
0.51813725 0.8872549 0.35147059
0.54558824 0.88676471 0.3504902
0.57267157 0.8872549 0.35796569
0.60392157 0.89019608 0.3625
0.63688725 0.89117647 0.37058824
0.67058824 0.89117647 0.3745098
0.70502451 0.89473039 0.3745098
0.73627451 0.89509804 0.37279412
0.76715686 0.89509804 0.37316176
0.8 0.89901961 0.38529412
0.83811275 0.90294118 0.39754902
0.87622549 0.90514706 0.40784314
0.90294118 0.90686275 0.41372549
0.91568627 0.90784314 0.41764706
0.34607843 0.92745098 0.39705882
0.35153186 0.92598039 0.39558824
0.35919118 0.92598039 0.39558824
0.37156863 0.92726716 0.3995098
0.38627451 0.92990196 0.40343137
0.40931373 0.92990196 0.40753676
0.42634804 0.92745098 0.41066176
0.44264706 0.92598039 0.41666667
0.46323529 0.92598039 0.42058824
0.48535539 0.92598039 0.42058824
0.51078431 0.92169118 0.41813725
0.53382353 0.91685049 0.41145833
0.55833333 0.91813725 0.41862745
0.58333333 0.92205882 0.42628676
0.61066176 0.92352941 0.42990196
0.64209559 0.92598039 0.43474265
0.6745098 0.92598039 0.43627451
0.70539216 0.92598039 0.43627451
0.73627451 0.92598039 0.43627451
0.76715686 0.92598039 0.44117647
0.79926471 0.93186275 0.45539216
0.83314951 0.93560049 0.46813725
0.86507353 0.93443627 0.47156863
0.88627451 0.93235294 0.47064951
0.89509804 0.93382353 0.47941176
0.39215686 0.95686275 0.44705882
0.39607843 0.95294118 0.44068627
0.40098039 0.95294118 0.44019608
0.41127451 0.95637255 0.44656863
0.42745098 0.9627451 0.45686275
0.43970588 0.95686275 0.45490196
0.45 0.95392157 0.45490196
0.46568627 0.95294118 0.46029412
0.48627451 0.95294118 0.46666667
0.50294118 0.95294118 0.46666667
0.52352941 0.94803922 0.46666667
0.54411765 0.94117647 0.4627451
0.57058824 0.94509804 0.4745098
0.59705882 0.9495098 0.48284314
0.62156863 0.95294118 0.48627451
0.64754902 0.95441176 0.49019608
0.67843137 0.95294118 0.49019608
0.70539216 0.95294118 0.49019608
0.73627451 0.95294118 0.49411765
0.76715686 0.95294118 0.50147059
0.79803922 0.95882353 0.51372549
0.82892157 0.96421569 0.5254902
0.85294118 0.95686275 0.51862745
0.86960784 0.95294118 0.51519608
0.87843137 0.95686275 0.5254902
0.019607843 0.03627451 0.028431373
0.045098039 0.037193627 0.033272059
0.073529412 0.046691176 0.040686275
0.103125 0.040379902 0.03627451
0.14362745 0.031862745 0.032352941
0.19491422 0.023039216 0.029901961
0.25183824 0.012745098 0.032352941
0.30784314 0.0039215686 0.033823529
0.36862745 0.006372549 0.040196078
0.43431373 0.011213235 0.044117647
0.49607843 0.014215686 0.044117647
0.55441176 0.012071078 0.036764706
0.60906863 0.0071078431 0.02377451
0.66109069 0 0.0098039216
0.70772059 0.0039215686 0.01127451
0.75343137 0.006372549 0.012745098
0.79607843 0.0039215686 0.014215686
0.8372549 0.0078431373 0.020588235
0.87745098 0.015441176 0.022671569
0.9096201 0.063235294 0.030392157
0.94313725 0.12181373 0.021078431
0.97089461 0.17371324 0.013235294
0.97941176 0.21090686 0.029901961
0.98578431 0.24846814 0.04564951
0.99215686 0.28235294 0.056862745
0.029044118 0.050796569 0.033272059
0.045381434 0.0526731 0.036848958
0.069607843 0.056985294 0.041528799
0.1004902 0.054526654 0.037454044
0.14439338 0.053186275 0.032352941
0.19724265 0.046078431 0.031548713
0.2522212 0.03247549 0.032352941
0.30784314 0.019523591 0.033823529
0.37015931 0.012745098 0.042647059
0.43699449 0.013089767 0.050283395
0.5 0.013526348 0.048590686
0.55655637 0.012071078 0.036764706
0.60980392 0.0071078431 0.021813725
0.66441483 0 0.009497549
0.70902267 0.003783701 0.011351103
0.75455729 0.0078431373 0.014008885
0.79944853 0.0039215686 0.010294118
0.84117647 0.0079044118 0.012339154
0.87561275 0.04341299 0.014445466
0.90833333 0.094538909 0.020281863
0.93921569 0.15266544 0.014705882
0.96557138 0.19558824 0.015441176
0.97941176 0.22757353 0.031571691
0.98915441 0.26329657 0.047487745
0.99460784 0.29117647 0.055392157
0.019607843 0.077818627 0.037132353
0.030729167 0.080453431 0.037147672
0.057352941 0.083915441 0.04129902
0.089307598 0.085294118 0.036688113
0.14136029 0.082107843 0.032352941
0.19754902 0.077313113 0.032000613
0.25355392 0.069944853 0.028431373
