site/assets/luts/sha256-984b1ef2a884944fca9918b183275ae02429609b6f6ffb54417036ad4ed840ff.cube
# LUTr-Schema-Version: 2
# LUTr-ID: sha256-984b1ef2a884944fca9918b183275ae02429609b6f6ffb54417036ad4ed840ff
# LUTr-Title: generic fuji velvia 100
# LUTr-Collection: Natron HaldCLUT
# LUTr-Collection-ID: natron-haldclut-presets
# LUTr-Source: https://github.com/NatronGitHub/clut
# LUTr-Retrieved: 2026-07-27
# LUTr-Source-File: submissions/natron-haldclut-presets/colorslide/generic_fuji_velvia_100.png
# LUTr-Source-Format: HALD-PNG
# LUTr-Source-SHA256: 984b1ef2a884944fca9918b183275ae02429609b6f6ffb54417036ad4ed840ff
# LUTr-License: CC-BY-SA-4.0
# LUTr-License-URL: https://github.com/NatronGitHub/clut#license
# LUTr-License-Basis: repo-license-file
# LUTr-Transform-Class: film-emulation
# LUTr-Tags: creative, film, film-emulation, hald-clut, natron, png, cube
# LUTr-Input-Color-Space: srgb
# LUTr-Input-Gamut: rec709
# LUTr-Input-Transfer: srgb
# LUTr-Output-Color-Space: srgb
# LUTr-Output-Gamut: rec709
# LUTr-Output-Transfer: srgb
# LUTr-Color-Space-Confidence: assumed-display-referred
# LUTr-Domain-Normalized: true
# LUTr-Shaper: none
# LUTr-Original-Grid: 64x64x64
# LUTr-Conversion-Grid: 25x25x25
# LUTr-Conversion-Interpolation: trilinear
# LUTr-Conversion-Method: HALD-PNG LUT image decoded at 16-bit and sampled to 25x25x25 3D CUBE
# LUTr-Conversion-Tool: LUTr scripts/convert-all-to-cube.mjs 2.0.0
# LUTr-Conversion-Date: 2026-07-27
# LUTr-Note: Preserve this metadata and the upstream license notices when redistributing.
TITLE "generic fuji velvia 100"
LUT_3D_SIZE 5
DOMAIN_MIN 0 0 0
DOMAIN_MAX 1 1 1
0.02745098 0.039215686 0.023529412
0.20294118 0.018627451 0.02254902
0.54117647 0.0078431373 0.033333333
0.89901961 0.0039215686 0.014705882
1 0 0.0039215686
0.059803922 0.20294118 0.011764706
0.1747549 0.20294118 0.014705882
0.5372549 0.19705882 0.0078431373
0.89215686 0.18333333 0.0078431373
1 0.16372549 0.02254902
0.0078431373 0.55686275 0.037254902
0 0.55882353 0.011764706
0.48627451 0.55980392 0.02254902
0.83823529 0.54068627 0.019607843
0.99607843 0.5254902 0.01372549
0 0.87156863 0.010784314
0.0039215686 0.87132353 0.0071078431
0.39215686 0.87941176 0.0029411765
0.77867647 0.86666667 0.0039215686
0.97843137 0.85098039 0.0039215686
0.0039215686 0.99215686 0
0.18137255 1 0
0.5372549 1 0
0.79607843 0.99705882 0
0.95686275 0.99607843 0
0.014705882 0.018627451 0.19901961
0.2 0.0085784314 0.20392157
0.54656863 0.0019607843 0.19607843
0.91176471 0.0039215686 0.18333333
1 0 0.18235294
0.055882353 0.18823529 0.18333333
0.1879902 0.19289216 0.18651961
0.54901961 0.18137255 0.19044118
0.89215686 0.16446078 0.18039216
1 0.15588235 0.18455882
0 0.55294118 0.15392157
0.013480392 0.55355392 0.15392157
0.49558824 0.5497549 0.16078431
0.84571078 0.53235294 0.15710784
0.99607843 0.52156863 0.15686275
0 0.87843137 0.050735294
0.006495098 0.8747549 0.062928922
0.40134804 0.86948529 0.054411765
0.7754902 0.86292892 0.059252451
0.99117647 0.85294118 0.053921569
0.0039215686 1 0.083333333
0.18112745 1 0.082352941
0.5254902 1 0.092156863
0.79583333 0.99901961 0.087745098
0.95784314 0.98627451 0.054901961
0.021568627 0.0058823529 0.54705882
0.20294118 0.0039215686 0.54705882
0.54509804 0.0039215686 0.55098039
0.91470588 0.0093137255 0.55245098
0.99607843 0.0078431373 0.5372549
0.053431373 0.16666667 0.53578431
0.20686275 0.15821078 0.54215686
0.55784314 0.15196078 0.54509804
0.90294118 0.13088235 0.52598039
0.99607843 0.12892157 0.52401961
0.00098039216 0.53333333 0.51862745
0.012745098 0.52745098 0.51960784
0.51519608 0.51176471 0.51960784
0.86176471 0.50882353 0.51372549
0.99607843 0.50686275 0.51568627
0 0.85147059 0.50539216
0.0045343137 0.84742647 0.50134804
0.45343137 0.84117647 0.49411765
0.80183824 0.8372549 0.49227941
0.99264706 0.82892157 0.49019608
0.0039215686 0.99215686 0.48627451
0.2 1 0.50098039
0.53333333 0.99215686 0.49313725
0.80098039 0.99019608 0.49411765
0.97647059 1 0.48235294
0.031372549 0.0039215686 0.86568627
0.21568627 0.0039215686 0.86470588
0.5495098 0.011764706 0.86176471
0.92352941 0.0029411765 0.86887255
1 0.0039215686 0.85882353
0.067401961 0.12769608 0.85882353
0.22745098 0.13229167 0.85882353
0.56544118 0.11568627 0.8627451
0.91470588 0.10839461 0.85643382
1 0.1127451 0.84705882
0.00098039216 0.49411765 0.8504902
0.084803922 0.50122549 0.83921569
0.53137255 0.48995098 0.83848039
0.86960784 0.48345588 0.83921569
1 0.47352941 0.83578431
0 0.83137255 0.82254902
0.0099877451 0.82647059 0.82089461
0.47879902 0.81960784 0.81568627
0.81697304 0.81568627 0.80919118
0.99215686 0.80318627 0.81642157
0.024509804 0.99313725 0.80784314
0.20514706 0.99387255 0.81176471
0.55539216 0.99215686 0.80441176
0.80294118 0.97647059 0.79607843
0.98823529 0.99313725 0.80392157
0.015686275 0.0039215686 0.99607843
0.22352941 0.0039215686 0.98529412
0.54705882 0.0039215686 0.98431373
0.91568627 0.0039215686 0.99313725
1 0.0039215686 0.99607843
0.070588235 0.1245098 0.99705882
0.23137255 0.10955882 0.99607843
0.57254902 0.093137255 0.99607843
0.90514706 0.093137255 0.99607843
1 0.093137255 0.98431373
0.015686275 0.49019608 0.99215686
0.10980392 0.49019608 0.9872549
0.53921569 0.48235294 0.99019608
0.86813725 0.47009804 0.99215686
0.99803922 0.45294118 0.99607843
0 0.80686275 0.99117647
0.01004902 0.80955882 0.97941176
0.49656863 0.80735294 0.99607843
0.82254902 0.80098039 0.99117647
0.99607843 0.79607843 0.9872549
0.0039215686 0.99215686 0.99215686
0.23627451 0.99607843 0.9754902
0.55882353 0.99411765 0.98823529
0.81176471 0.99215686 0.97745098
0.99607843 0.99607843 0.99607843
