site/assets/luts/sha256-03399b3211dbb2356f7fbdb0a33e30e2cf495691d253bb79b43ca5c5d06ba21a.cube
# LUTr-Schema-Version: 2
# LUTr-ID: sha256-03399b3211dbb2356f7fbdb0a33e30e2cf495691d253bb79b43ca5c5d06ba21a
# LUTr-Title: fuji fp-3000b negative
# LUTr-Collection: Natron HaldCLUT
# LUTr-Collection-ID: natron-haldclut-presets
# LUTr-Source: https://github.com/NatronGitHub/clut
# LUTr-Retrieved: 2026-07-27
# LUTr-Source-File: submissions/natron-haldclut-presets/instant_pro/fuji_fp-3000b_negative.png
# LUTr-Source-Format: HALD-PNG
# LUTr-Source-SHA256: 03399b3211dbb2356f7fbdb0a33e30e2cf495691d253bb79b43ca5c5d06ba21a
# LUTr-License: CC-BY-SA-4.0
# LUTr-License-URL: https://github.com/NatronGitHub/clut#license
# LUTr-License-Basis: repo-license-file
# LUTr-Transform-Class: film-emulation
# LUTr-Tags: creative, film, film-emulation, hald-clut, natron, png, cube
# LUTr-Input-Color-Space: srgb
# LUTr-Input-Gamut: rec709
# LUTr-Input-Transfer: srgb
# LUTr-Output-Color-Space: srgb
# LUTr-Output-Gamut: rec709
# LUTr-Output-Transfer: srgb
# LUTr-Color-Space-Confidence: assumed-display-referred
# LUTr-Domain-Normalized: true
# LUTr-Shaper: none
# LUTr-Original-Grid: 64x64x64
# LUTr-Conversion-Grid: 25x25x25
# LUTr-Conversion-Interpolation: trilinear
# LUTr-Conversion-Method: HALD-PNG LUT image decoded at 16-bit and sampled to 25x25x25 3D CUBE
# LUTr-Conversion-Tool: LUTr scripts/convert-all-to-cube.mjs 2.0.0
# LUTr-Conversion-Date: 2026-07-27
# LUTr-Note: Preserve this metadata and the upstream license notices when redistributing.
TITLE "fuji fp-3000b negative"
LUT_3D_SIZE 25
DOMAIN_MIN 0 0 0
DOMAIN_MAX 1 1 1
0.054901961 0.054901961 0.054901961
0.06127451 0.06127451 0.06127451
0.066666667 0.066666667 0.066666667
0.070588235 0.070588235 0.070588235
0.076470588 0.076470588 0.076470588
0.082352941 0.082352941 0.082352941
0.092156863 0.092156863 0.092156863
0.1127451 0.1127451 0.1127451
0.13333333 0.13333333 0.13333333
0.15 0.15 0.15
0.16862745 0.16862745 0.16862745
0.20980392 0.20980392 0.20980392
0.25098039 0.25098039 0.25098039
0.29215686 0.29215686 0.29215686
0.33333333 0.33333333 0.33333333
0.36911765 0.36911765 0.36911765
0.40392157 0.40392157 0.40392157
0.43872549 0.43872549 0.43872549
0.47352941 0.47352941 0.47352941
0.50784314 0.50784314 0.50784314
0.54117647 0.54117647 0.54117647
0.5745098 0.5745098 0.5745098
0.60882353 0.60882353 0.60882353
0.64362745 0.64362745 0.64362745
0.6745098 0.6745098 0.6745098
0.054901961 0.054901961 0.054901961
0.060355392 0.060355392 0.060355392
0.067279412 0.067279412 0.067279412
0.072732843 0.072732843 0.072732843
0.078921569 0.078921569 0.078921569
0.081372549 0.081372549 0.081372549
0.094240196 0.094240196 0.094240196
0.11666667 0.11666667 0.11666667
0.13970588 0.13970588 0.13970588
0.16029412 0.16029412 0.16029412
0.18186275 0.18186275 0.18186275
0.21617647 0.21617647 0.21617647
0.25735294 0.25735294 0.25735294
0.29589461 0.29589461 0.29589461
0.33333333 0.33333333 0.33333333
0.36911765 0.36911765 0.36911765
0.40392157 0.40392157 0.40392157
0.43872549 0.43872549 0.43872549
0.47352941 0.47352941 0.47352941
0.50784314 0.50784314 0.50784314
0.54117647 0.54117647 0.54117647
0.57665441 0.57665441 0.57665441
0.61237745 0.61237745 0.61237745
0.6466299 0.6466299 0.6466299
0.67058824 0.67058824 0.67058824
0.060784314 0.060784314 0.060784314
0.066176471 0.066176471 0.066176471
0.076470588 0.076470588 0.076470588
0.082965686 0.082965686 0.082965686
0.090196078 0.090196078 0.090196078
0.099632353 0.099632353 0.099632353
0.11372549 0.11372549 0.11372549
0.13002451 0.13002451 0.13002451
0.15 0.15 0.15
0.17058824 0.17058824 0.17058824
0.19607843 0.19607843 0.19607843
0.22781863 0.22781863 0.22781863
0.26176471 0.26176471 0.26176471
0.2995098 0.2995098 0.2995098
0.33357843 0.33357843 0.33357843
0.36911765 0.36911765 0.36911765
0.40392157 0.40392157 0.40392157
0.43933824 0.43933824 0.43933824
0.47769608 0.47769608 0.47769608
0.51188725 0.51188725 0.51188725
0.54607843 0.54607843 0.54607843
0.58198529 0.58198529 0.58198529
0.61666667 0.61666667 0.61666667
0.64754902 0.64754902 0.64754902
0.67058824 0.67058824 0.67058824
0.07745098 0.07745098 0.07745098
0.080392157 0.080392157 0.080392157
0.086764706 0.086764706 0.086764706
0.097058824 0.097058824 0.097058824
0.10686275 0.10686275 0.10686275
0.11715686 0.11715686 0.11715686
0.13051471 0.13051471 0.13051471
0.14705882 0.14705882 0.14705882
0.16372549 0.16372549 0.16372549
0.18088235 0.18088235 0.18088235
0.20980392 0.20980392 0.20980392
0.24117647 0.24117647 0.24117647
0.27205882 0.27205882 0.27205882
0.30300245 0.30300245 0.30300245
0.33431373 0.33431373 0.33431373
0.37040441 0.37040441 0.37040441
0.40735294 0.40735294 0.40735294
0.44479167 0.44479167 0.44479167
0.48492647 0.48492647 0.48492647
0.51960784 0.51960784 0.51960784
0.55441176 0.55441176 0.55441176
0.58921569 0.58921569 0.58921569
0.62046569 0.62046569 0.62046569
0.65098039 0.65098039 0.65098039
0.6745098 0.6745098 0.6745098
0.096078431 0.096078431 0.096078431
0.098039216 0.098039216 0.098039216
0.1004902 0.1004902 0.1004902
0.10735294 0.10735294 0.10735294
0.11764706 0.11764706 0.11764706
0.13186275 0.13186275 0.13186275
0.14754902 0.14754902 0.14754902
0.1629902 0.1629902 0.1629902
0.17843137 0.17843137 0.17843137
0.19387255 0.19387255 0.19387255
0.22254902 0.22254902 0.22254902
0.25539216 0.25539216 0.25539216
0.28823529 0.28823529 0.28823529
0.31911765 0.31911765 0.31911765
0.35 0.35 0.35
0.38235294 0.38235294 0.38235294
0.41960784 0.41960784 0.41960784
0.45563725 0.45563725 0.45563725
0.49509804 0.49509804 0.49509804
0.53161765 0.53161765 0.53161765
0.56470588 0.56470588 0.56470588
0.5995098 0.5995098 0.5995098
0.63039216 0.63039216 0.63039216
0.66127451 0.66127451 0.66127451
0.68431373 0.68431373 0.68431373
0.11470588 0.11470588 0.11470588
0.11470588 0.11470588 0.11470588
0.11470588 0.11470588 0.11470588
0.11770833 0.11770833 0.11770833
0.12794118 0.12794118 0.12794118
0.14264706 0.14264706 0.14264706
0.16323529 0.16323529 0.16323529
0.18039216 0.18039216 0.18039216
0.19705882 0.19705882 0.19705882
0.21764706 0.21764706 0.21764706
0.24313725 0.24313725 0.24313725
0.27401961 0.27401961 0.27401961
0.30882353 0.30882353 0.30882353
0.33970588 0.33970588 0.33970588
0.37058824 0.37058824 0.37058824
0.40539216 0.40539216 0.40539216
0.43627451 0.43627451 0.43627451
0.47107843 0.47107843 0.47107843
0.5067402 0.5067402 0.5067402
0.54368873 0.54368873 0.54368873
0.575 0.575 0.575
0.60980392 0.60980392 0.60980392
0.64068627 0.64068627 0.64068627
0.67205882 0.67205882 0.67205882
0.69852941 0.69852941 0.69852941
0.13529412 0.13529412 0.13529412
0.13529412 0.13529412 0.13529412
0.13431373 0.13431373 0.13431373
0.13137255 0.13137255 0.13137255
0.13676471 0.13676471 0.13676471
0.15723039 0.15723039 0.15723039
0.18039216 0.18039216 0.18039216
0.19767157 0.19767157 0.19767157
0.21470588 0.21470588 0.21470588
0.24007353 0.24007353 0.24007353
0.26740196 0.26740196 0.26740196
0.29754902 0.29754902 0.29754902
0.32941176 0.32941176 0.32941176
0.36029412 0.36029412 0.36029412
0.39338235 0.39338235 0.39338235
0.42598039 0.42598039 0.42598039
0.45686275 0.45686275 0.45686275
0.49166667 0.49166667 0.49166667
0.52279412 0.52279412 0.52279412
0.55441176 0.55441176 0.55441176
0.58676471 0.58676471 0.58676471
0.62009804 0.62009804 0.62009804
0.65098039 0.65098039 0.65098039
0.68284314 0.68284314 0.68284314
0.70882353 0.70882353 0.70882353
0.16127451 0.16127451 0.16127451
0.16127451 0.16127451 0.16127451
0.16127451 0.16127451 0.16127451
0.15753676 0.15753676 0.15753676
0.16004902 0.16004902 0.16004902
0.18039216 0.18039216 0.18039216
0.19803922 0.19803922 0.19803922
0.2122549 0.2122549 0.2122549
0.23284314 0.23284314 0.23284314
0.26127451 0.26127451 0.26127451
0.29154412 0.29154412 0.29154412
0.31911765 0.31911765 0.31911765
0.35 0.35 0.35
0.38088235 0.38088235 0.38088235
0.41176471 0.41176471 0.41176471
0.44509804 0.44509804 0.44509804
0.47598039 0.47598039 0.47598039
0.50686275 0.50686275 0.50686275
0.5377451 0.5377451 0.5377451
0.56648284 0.56648284 0.56648284
0.5995098 0.5995098 0.5995098
0.63039216 0.63039216 0.63039216
0.66127451 0.66127451 0.66127451
0.68976716 0.68976716 0.68976716
0.71127451 0.71127451 0.71127451
0.19215686 0.19215686 0.19215686
0.19215686 0.19215686 0.19215686
0.19215686 0.19215686 0.19215686
0.19215686 0.19215686 0.19215686
0.19411765 0.19411765 0.19411765
0.20882353 0.20882353 0.20882353
0.21960784 0.21960784 0.21960784
0.22745098 0.22745098 0.22745098
0.25490196 0.25490196 0.25490196
0.28333333 0.28333333 0.28333333
0.3127451 0.3127451 0.3127451
0.33970588 0.33970588 0.33970588
0.37058824 0.37058824 0.37058824
0.40147059 0.40147059 0.40147059
0.43235294 0.43235294 0.43235294
0.45931373 0.45931373 0.45931373
0.49019608 0.49019608 0.49019608
0.51862745 0.51862745 0.51862745
0.54803922 0.54803922 0.54803922
0.57892157 0.57892157 0.57892157
0.60980392 0.60980392 0.60980392
0.63676471 0.63676471 0.63676471
0.66764706 0.66764706 0.66764706
0.69460784 0.69460784 0.69460784
0.71764706 0.71764706 0.71764706
0.22303922 0.22303922 0.22303922
0.22303922 0.22303922 0.22303922
0.22303922 0.22303922 0.22303922
0.21942402 0.21942402 0.21942402
0.21985294 0.21985294 0.21985294
0.23529412 0.23529412 0.23529412
0.2495098 0.2495098 0.2495098
0.26280637 0.26280637 0.26280637
0.28186275 0.28186275 0.28186275
0.30637255 0.30637255 0.30637255
0.33333333 0.33333333 0.33333333
0.36029412 0.36029412 0.36029412
0.38872549 0.38872549 0.38872549
0.41813725 0.41813725 0.41813725
0.44901961 0.44901961 0.44901961
0.47898284 0.47898284 0.47898284
0.50686275 0.50686275 0.50686275
0.534375 0.534375 0.534375
0.56409314 0.56409314 0.56409314
0.59313725 0.59313725 0.59313725
0.62009804 0.62009804 0.62009804
0.64705882 0.64705882 0.64705882
0.67794118 0.67794118 0.67794118
0.70490196 0.70490196 0.70490196
0.72794118 0.72794118 0.72794118
0.26372549 0.26372549 0.26372549
0.26372549 0.26372549 0.26372549
0.26372549 0.26372549 0.26372549
0.26372549 0.26372549 0.26372549
0.26764706 0.26764706 0.26764706
0.27107843 0.27107843 0.27107843
0.28357843 0.28357843 0.28357843
0.29889706 0.29889706 0.29889706
0.31666667 0.31666667 0.31666667
0.33370098 0.33370098 0.33370098
0.35392157 0.35392157 0.35392157
0.37745098 0.37745098 0.37745098
0.40784314 0.40784314 0.40784314
0.4377451 0.4377451 0.4377451
0.46568627 0.46568627 0.46568627
0.49656863 0.49656863 0.49656863
0.52352941 0.52352941 0.52352941
0.55196078 0.55196078 0.55196078
0.58112745 0.58112745 0.58112745
0.60747549 0.60747549 0.60747549
0.63480392 0.63480392 0.63480392
0.66213235 0.66213235 0.66213235
0.68848039 0.68848039 0.68848039
0.71764706 0.71764706 0.71764706
0.74215686 0.74215686 0.74215686
0.31127451 0.31127451 0.31127451
0.31127451 0.31127451 0.31127451
0.3122549 0.3122549 0.3122549
0.31519608 0.31519608 0.31519608
0.31568627 0.31568627 0.31568627
0.3161152 0.3161152 0.3161152
0.32254902 0.32254902 0.32254902
0.33088235 0.33088235 0.33088235
0.34754902 0.34754902 0.34754902
0.36439951 0.36439951 0.36439951
0.38382353 0.38382353 0.38382353
0.40147059 0.40147059 0.40147059
0.42843137 0.42843137 0.42843137
0.45539216 0.45539216 0.45539216
0.48627451 0.48627451 0.48627451
0.51354167 0.51354167 0.51354167
0.54411765 0.54411765 0.54411765
0.57107843 0.57107843 0.57107843
0.59803922 0.59803922 0.59803922
0.62506127 0.62506127 0.62506127
0.65196078 0.65196078 0.65196078
0.67849265 0.67849265 0.67849265
0.70330882 0.70330882 0.70330882
0.73155637 0.73155637 0.73155637
0.75637255 0.75637255 0.75637255
0.35686275 0.35686275 0.35686275
0.35686275 0.35686275 0.35686275
0.35784314 0.35784314 0.35784314
0.36078431 0.36078431 0.36078431
0.36078431 0.36078431 0.36078431
0.36102941 0.36102941 0.36102941
0.36421569 0.36421569 0.36421569
0.36617647 0.36617647 0.36617647
0.37843137 0.37843137 0.37843137
0.39509804 0.39509804 0.39509804
0.41470588 0.41470588 0.41470588
0.43063725 0.43063725 0.43063725
0.45392157 0.45392157 0.45392157
0.47965686 0.47965686 0.47965686
0.50686275 0.50686275 0.50686275
0.53382353 0.53382353 0.53382353
0.56470588 0.56470588 0.56470588
0.59166667 0.59166667 0.59166667
0.61764706 0.61764706 0.61764706
0.64215686 0.64215686 0.64215686
0.66960784 0.66960784 0.66960784
0.69362745 0.69362745 0.69362745
0.71911765 0.71911765 0.71911765
0.74485294 0.74485294 0.74485294
0.7627451 0.7627451 0.7627451
0.39803922 0.39803922 0.39803922
0.39803922 0.39803922 0.39803922
0.39803922 0.39803922 0.39803922
0.39803922 0.39803922 0.39803922
0.39803922 0.39803922 0.39803922
0.39803922 0.39803922 0.39803922
0.40183824 0.40183824 0.40183824
0.40588235 0.40588235 0.40588235
0.41323529 0.41323529 0.41323529
0.42745098 0.42745098 0.42745098
0.44558824 0.44558824 0.44558824
0.45980392 0.45980392 0.45980392
0.48161765 0.48161765 0.48161765
0.50790441 0.50790441 0.50790441
0.53272059 0.53272059 0.53272059
0.55863971 0.55863971 0.55863971
0.58529412 0.58529412 0.58529412
0.60980392 0.60980392 0.60980392
0.63394608 0.63394608 0.63394608
0.65833333 0.65833333 0.65833333
0.68308824 0.68308824 0.68308824
0.70784314 0.70784314 0.70784314
0.73186275 0.73186275 0.73186275
0.75637255 0.75637255 0.75637255
0.77303922 0.77303922 0.77303922
0.44215686 0.44215686 0.44215686
0.43921569 0.43921569 0.43921569
0.43921569 0.43921569 0.43921569
0.43578431 0.43578431 0.43578431
0.43382353 0.43382353 0.43382353
0.43578431 0.43578431 0.43578431
0.44215686 0.44215686 0.44215686
0.44705882 0.44705882 0.44705882
0.45098039 0.45098039 0.45098039
0.46188725 0.46188725 0.46188725
0.47647059 0.47647059 0.47647059
0.49019608 0.49019608 0.49019608
0.51078431 0.51078431 0.51078431
0.53529412 0.53529412 0.53529412
0.55686275 0.55686275 0.55686275
0.58137255 0.58137255 0.58137255
0.60294118 0.60294118 0.60294118
0.62647059 0.62647059 0.62647059
0.64803922 0.64803922 0.64803922
0.67205882 0.67205882 0.67205882
0.69656863 0.69656863 0.69656863
0.72156863 0.72156863 0.72156863
0.74583333 0.74583333 0.74583333
0.76960784 0.76960784 0.76960784
0.78333333 0.78333333 0.78333333
0.48431373 0.48431373 0.48431373
0.48431373 0.48431373 0.48431373
0.4814951 0.4814951 0.4814951
0.48039216 0.48039216 0.48039216
0.47720588 0.47720588 0.47720588
0.47824755 0.47824755 0.47824755
0.48333333 0.48333333 0.48333333
0.48823529 0.48823529 0.48823529
0.49215686 0.49215686 0.49215686
0.5 0.5 0.5
0.50882353 0.50882353 0.50882353
0.52126225 0.52126225 0.52126225
0.5377451 0.5377451 0.5377451
0.55814951 0.55814951 0.55814951
0.57990196 0.57990196 0.57990196
0.59957108 0.59957108 0.59957108
0.61862745 0.61862745 0.61862745
0.64166667 0.64166667 0.64166667
0.6622549 0.6622549 0.6622549
0.6841299 0.6841299 0.6841299
0.70808824 0.70808824 0.70808824
0.73235294 0.73235294 0.73235294
0.75747549 0.75747549 0.75747549
0.78180147 0.78180147 0.78180147
0.79754902 0.79754902 0.79754902
0.5254902 0.5254902 0.5254902
0.5254902 0.5254902 0.5254902
0.5254902 0.5254902 0.5254902
0.5254902 0.5254902 0.5254902
0.52156863 0.52156863 0.52156863
0.52205882 0.52205882 0.52205882
0.5254902 0.5254902 0.5254902
0.52941176 0.52941176 0.52941176
0.53333333 0.53333333 0.53333333
0.53970588 0.53970588 0.53970588
0.54607843 0.54607843 0.54607843
0.55637255 0.55637255 0.55637255
0.56862745 0.56862745 0.56862745
0.58480392 0.58480392 0.58480392
0.60196078 0.60196078 0.60196078
0.61862745 0.61862745 0.61862745
0.63529412 0.63529412 0.63529412
0.65588235 0.65588235 0.65588235
0.67647059 0.67647059 0.67647059
0.69705882 0.69705882 0.69705882
0.72156863 0.72156863 0.72156863
0.74607843 0.74607843 0.74607843
0.77058824 0.77058824 0.77058824
0.79509804 0.79509804 0.79509804
0.81176471 0.81176471 0.81176471
0.56666667 0.56666667 0.56666667
0.56666667 0.56666667 0.56666667
0.56666667 0.56666667 0.56666667
0.56881127 0.56881127 0.56881127
0.56789216 0.56789216 0.56789216
0.56666667 0.56666667 0.56666667
0.56666667 0.56666667 0.56666667
0.57058824 0.57058824 0.57058824
0.5745098 0.5745098 0.5745098
0.58088235 0.58088235 0.58088235
0.5872549 0.5872549 0.5872549
0.59381127 0.59381127 0.59381127
0.60465686 0.60465686 0.60465686
0.61599265 0.61599265 0.61599265
0.62990196 0.62990196 0.62990196
0.64466912 0.64466912 0.64466912
0.65980392 0.65980392 0.65980392
0.67401961 0.67401961 0.67401961
0.69313725 0.69313725 0.69313725
0.71127451 0.71127451 0.71127451
0.73504902 0.73504902 0.73504902
0.75900735 0.75900735 0.75900735
0.78664216 0.78664216 0.78664216
0.81023284 0.81023284 0.81023284
0.82598039 0.82598039 0.82598039
0.60882353 0.60882353 0.60882353
0.60784314 0.60784314 0.60784314
0.60955882 0.60955882 0.60955882
0.61176471 0.61176471 0.61176471
0.61176471 0.61176471 0.61176471
0.60784314 0.60784314 0.60784314
0.60882353 0.60882353 0.60882353
0.61176471 0.61176471 0.61176471
0.61568627 0.61568627 0.61568627
0.62205882 0.62205882 0.62205882
0.62745098 0.62745098 0.62745098
0.63480392 0.63480392 0.63480392
0.64411765 0.64411765 0.64411765
0.65441176 0.65441176 0.65441176
0.66470588 0.66470588 0.66470588
0.67598039 0.67598039 0.67598039
0.68921569 0.68921569 0.68921569
0.70196078 0.70196078 0.70196078
0.71470588 0.71470588 0.71470588
0.73051471 0.73051471 0.73051471
0.7504902 0.7504902 0.7504902
0.77463235 0.77463235 0.77463235
0.79901961 0.79901961 0.79901961
0.82352941 0.82352941 0.82352941
0.84411765 0.84411765 0.84411765
0.65294118 0.65294118 0.65294118
0.65294118 0.65294118 0.65294118
0.65294118 0.65294118 0.65294118
0.65294118 0.65294118 0.65294118
0.65294118 0.65294118 0.65294118
0.65294118 0.65294118 0.65294118
0.65294118 0.65294118 0.65294118
0.65655637 0.65655637 0.65655637
0.66029412 0.66029412 0.66029412
0.66323529 0.66323529 0.66323529
0.66862745 0.66862745 0.66862745
0.6721201 0.6721201 0.6721201
0.68235294 0.68235294 0.68235294
0.69221814 0.69221814 0.69221814
0.6995098 0.6995098 0.6995098
0.70980392 0.70980392 0.70980392
0.72009804 0.72009804 0.72009804
0.73284314 0.73284314 0.73284314
0.74460784 0.74460784 0.74460784
0.75882353 0.75882353 0.75882353
0.77328431 0.77328431 0.77328431
0.78915441 0.78915441 0.78915441
0.81568627 0.81568627 0.81568627
0.83903186 0.83903186 0.83903186
0.85833333 0.85833333 0.85833333
0.69803922 0.69803922 0.69803922
0.69803922 0.69803922 0.69803922
0.69803922 0.69803922 0.69803922
0.69803922 0.69803922 0.69803922
0.69607843 0.69607843 0.69607843
0.69632353 0.69632353 0.69632353
0.69803922 0.69803922 0.69803922
0.6995098 0.6995098 0.6995098
0.70196078 0.70196078 0.70196078
0.70588235 0.70588235 0.70588235
0.70588235 0.70588235 0.70588235
0.71151961 0.71151961 0.71151961
0.71960784 0.71960784 0.71960784
0.72794118 0.72794118 0.72794118
0.73480392 0.73480392 0.73480392
0.74460784 0.74460784 0.74460784
0.75490196 0.75490196 0.75490196
0.76519608 0.76519608 0.76519608
0.77794118 0.77794118 0.77794118
0.78970588 0.78970588 0.78970588
0.80196078 0.80196078 0.80196078
0.81446078 0.81446078 0.81446078
0.83627451 0.83627451 0.83627451
0.85906863 0.85906863 0.85906863
0.86862745 0.86862745 0.86862745
0.74362745 0.74362745 0.74362745
0.74332108 0.74332108 0.74332108
0.74313725 0.74313725 0.74313725
0.7401348 0.7401348 0.7401348
0.73970588 0.73970588 0.73970588
0.73970588 0.73970588 0.73970588
0.74227941 0.74227941 0.74227941
0.74332108 0.74332108 0.74332108
0.74705882 0.74705882 0.74705882
0.74705882 0.74705882 0.74705882
0.74558824 0.74558824 0.74558824
0.75 0.75 0.75
0.75686275 0.75686275 0.75686275
0.76323529 0.76323529 0.76323529
0.77046569 0.77046569 0.77046569
0.77598039 0.77598039 0.77598039
0.78627451 0.78627451 0.78627451
0.8 0.8 0.8
0.81029412 0.81029412 0.81029412
0.82058824 0.82058824 0.82058824
0.83088235 0.83088235 0.83088235
0.84117647 0.84117647 0.84117647
0.85784314 0.85784314 0.85784314
0.87677696 0.87677696 0.87677696
0.87892157 0.87892157 0.87892157
0.78823529 0.78823529 0.78823529
0.78823529 0.78823529 0.78823529
0.78651961 0.78651961 0.78651961
0.78688725 0.78688725 0.78688725
0.7872549 0.7872549 0.7872549
0.7872549 0.7872549 0.7872549
0.7872549 0.7872549 0.7872549
0.78823529 0.78823529 0.78823529
0.78823529 0.78823529 0.78823529
0.78639706 0.78639706 0.78639706
0.77647059 0.77647059 0.77647059
0.78431373 0.78431373 0.78431373
0.79460784 0.79460784 0.79460784
0.80134804 0.80134804 0.80134804
0.80465686 0.80465686 0.80465686
0.81029412 0.81029412 0.81029412
0.82058824 0.82058824 0.82058824
0.83382353 0.83382353 0.83382353
0.84411765 0.84411765 0.84411765
0.85147059 0.85147059 0.85147059
0.85833333 0.85833333 0.85833333
0.8682598 0.8682598 0.8682598
0.88235294 0.88235294 0.88235294
0.89252451 0.89252451 0.89252451
0.89215686 0.89215686 0.89215686
0.83333333 0.83333333 0.83333333
0.82941176 0.82941176 0.82941176
0.82732843 0.82732843 0.82732843
0.8276348 0.8276348 0.8276348
0.82916667 0.82916667 0.82916667
0.83155637 0.83155637 0.83155637
0.82941176 0.82941176 0.82941176
0.82886029 0.82886029 0.82886029
0.82401961 0.82401961 0.82401961
0.81617647 0.81617647 0.81617647
0.80588235 0.80588235 0.80588235
0.81176471 0.81176471 0.81176471
0.82598039 0.82598039 0.82598039
0.83596814 0.83596814 0.83596814
0.83970588 0.83970588 0.83970588
0.84656863 0.84656863 0.84656863
0.85686275 0.85686275 0.85686275
0.86960784 0.86960784 0.86960784
0.875 0.875 0.875
0.88106618 0.88106618 0.88106618
0.8879902 0.8879902 0.8879902
0.89754902 0.89754902 0.89754902
0.90490196 0.90490196 0.90490196
0.90735294 0.90735294 0.90735294
0.90735294 0.90735294 0.90735294
0.86666667 0.86666667 0.86666667
0.86029412 0.86029412 0.86029412
0.85392157 0.85392157 0.85392157
0.84362745 0.84362745 0.84362745
0.84509804 0.84509804 0.84509804
0.86372549 0.86372549 0.86372549
0.86372549 0.86372549 0.86372549
0.85735294 0.85735294 0.85735294
0.84705882 0.84705882 0.84705882
0.83676471 0.83676471 0.83676471
0.82647059 0.82647059 0.82647059
0.83088235 0.83088235 0.83088235
0.84901961 0.84901961 0.84901961
0.85931373 0.85931373 0.85931373
0.86666667 0.86666667 0.86666667
0.87598039 0.87598039 0.87598039
0.89411765 0.89411765 0.89411765
0.89411765 0.89411765 0.89411765
0.89803922 0.89803922 0.89803922
0.90196078 0.90196078 0.90196078
0.90784314 0.90784314 0.90784314
0.91813725 0.91813725 0.91813725
0.92156863 0.92156863 0.92156863
0.92009804 0.92009804 0.92009804
0.91764706 0.91764706 0.91764706
0.054901961 0.054901961 0.054901961
0.06127451 0.06127451 0.06127451
0.067647059 0.067647059 0.067647059
0.07432598 0.07432598 0.07432598
0.082843137 0.082843137 0.082843137
0.091666667 0.091666667 0.091666667
0.10196078 0.10196078 0.10196078
0.11911765 0.11911765 0.11911765
0.1372549 0.1372549 0.1372549
0.15637255 0.15637255 0.15637255
0.18186275 0.18186275 0.18186275
0.21666667 0.21666667 0.21666667
0.25735294 0.25735294 0.25735294
0.29852941 0.29852941 0.29852941
0.33786765 0.33786765 0.33786765
0.37156863 0.37156863 0.37156863
0.40392157 0.40392157 0.40392157
0.43872549 0.43872549 0.43872549
0.47352941 0.47352941 0.47352941
0.50569853 0.50569853 0.50569853
0.54117647 0.54117647 0.54117647
0.5745098 0.5745098 0.5745098
0.60882353 0.60882353 0.60882353
0.64454657 0.64454657 0.64454657
0.67598039 0.67598039 0.67598039
0.054901961 0.054901961 0.054901961
0.059397978 0.059397978 0.059397978
0.067647059 0.067647059 0.067647059
0.076585478 0.076585478 0.076585478
0.084834559 0.084834559 0.084834559
0.092777267 0.092777267 0.092777267
0.10551471 0.10551471 0.10551471
0.1254902 0.1254902 0.1254902
0.14607843 0.14607843 0.14607843
0.16666667 0.16666667 0.16666667
0.19007353 0.19007353 0.19007353
0.22273284 0.22273284 0.22273284
0.26173407 0.26173407 0.26173407
0.30115656 0.30115656 0.30115656
0.33786765 0.33786765 0.33786765
0.37156863 0.37156863 0.37156863
0.40392157 0.40392157 0.40392157
0.43872549 0.43872549 0.43872549
0.47352941 0.47352941 0.47352941
0.50784314 0.50784314 0.50784314
0.54117647 0.54117647 0.54117647
0.57665441 0.57665441 0.57665441
0.61237745 0.61237745 0.61237745
0.64754902 0.64754902 0.64754902
0.6745098 0.6745098 0.6745098
0.060171569 0.060171569 0.060171569
0.066176471 0.066176471 0.066176471
0.076470588 0.076470588 0.076470588
0.086764706 0.086764706 0.086764706
0.095955882 0.095955882 0.095955882
0.10686275 0.10686275 0.10686275
0.12107843 0.12107843 0.12107843
0.14008885 0.14008885 0.14008885
0.1567402 0.1567402 0.1567402
0.17696078 0.17696078 0.17696078
0.20245098 0.20245098 0.20245098
