site/assets/luts/sha256-a4347b0997904ffdc2c5b333d21778e4d652053eeb2b9330b183bb8c7a408493.cube
# LUTr-Schema-Version: 2
# LUTr-ID: sha256-a4347b0997904ffdc2c5b333d21778e4d652053eeb2b9330b183bb8c7a408493
# LUTr-Title: fuji fp-3000b negative ++
# LUTr-Collection: Natron HaldCLUT
# LUTr-Collection-ID: natron-haldclut-presets
# LUTr-Source: https://github.com/NatronGitHub/clut
# LUTr-Retrieved: 2026-07-27
# LUTr-Source-File: submissions/natron-haldclut-presets/instant_pro/fuji_fp-3000b_negative_++.png
# LUTr-Source-Format: HALD-PNG
# LUTr-Source-SHA256: a4347b0997904ffdc2c5b333d21778e4d652053eeb2b9330b183bb8c7a408493
# LUTr-License: CC-BY-SA-4.0
# LUTr-License-URL: https://github.com/NatronGitHub/clut#license
# LUTr-License-Basis: repo-license-file
# LUTr-Transform-Class: film-emulation
# LUTr-Tags: creative, film, film-emulation, hald-clut, natron, png, cube
# LUTr-Input-Color-Space: srgb
# LUTr-Input-Gamut: rec709
# LUTr-Input-Transfer: srgb
# LUTr-Output-Color-Space: srgb
# LUTr-Output-Gamut: rec709
# LUTr-Output-Transfer: srgb
# LUTr-Color-Space-Confidence: assumed-display-referred
# LUTr-Domain-Normalized: true
# LUTr-Shaper: none
# LUTr-Original-Grid: 64x64x64
# LUTr-Conversion-Grid: 25x25x25
# LUTr-Conversion-Interpolation: trilinear
# LUTr-Conversion-Method: HALD-PNG LUT image decoded at 16-bit and sampled to 25x25x25 3D CUBE
# LUTr-Conversion-Tool: LUTr scripts/convert-all-to-cube.mjs 2.0.0
# LUTr-Conversion-Date: 2026-07-27
# LUTr-Note: Preserve this metadata and the upstream license notices when redistributing.
TITLE "fuji fp-3000b negative ++"
LUT_3D_SIZE 9
DOMAIN_MIN 0 0 0
DOMAIN_MAX 1 1 1
0.11372549 0.11372549 0.11372549
0.125 0.125 0.125
0.14019608 0.14019608 0.14019608
0.17352941 0.17352941 0.17352941
0.23921569 0.23921569 0.23921569
0.31568627 0.31568627 0.31568627
0.43529412 0.43529412 0.43529412
0.55490196 0.55490196 0.55490196
0.65882353 0.65882353 0.65882353
0.1245098 0.1245098 0.1245098
0.14019608 0.14019608 0.14019608
0.15931373 0.15931373 0.15931373
0.19656863 0.19656863 0.19656863
0.24852941 0.24852941 0.24852941
0.3372549 0.3372549 0.3372549
0.44656863 0.44656863 0.44656863
0.57009804 0.57009804 0.57009804
0.67009804 0.67009804 0.67009804
0.17156863 0.17156863 0.17156863
0.16286765 0.16286765 0.16286765
0.18921569 0.18921569 0.18921569
0.23529412 0.23529412 0.23529412
0.28872549 0.28872549 0.28872549
0.38492647 0.38492647 0.38492647
0.49142157 0.49142157 0.49142157
0.60098039 0.60098039 0.60098039
0.69411765 0.69411765 0.69411765
0.23235294 0.23235294 0.23235294
0.22873775 0.22873775 0.22873775
0.23419118 0.23419118 0.23419118
0.28039216 0.28039216 0.28039216
0.35 0.35 0.35
0.44123775 0.44123775 0.44123775
0.54509804 0.54509804 0.54509804
0.64166667 0.64166667 0.64166667
0.7122549 0.7122549 0.7122549
0.31176471 0.31176471 0.31176471
0.31568627 0.31568627 0.31568627
0.33088235 0.33088235 0.33088235
0.3625 0.3625 0.3625
0.41470588 0.41470588 0.41470588
0.49852941 0.49852941 0.49852941
0.60294118 0.60294118 0.60294118
0.69338235 0.69338235 0.69338235
0.74313725 0.74313725 0.74313725
0.46617647 0.46617647 0.46617647
0.4627451 0.4627451 0.4627451
0.45 0.45 0.45
0.475 0.475 0.475
0.52205882 0.52205882 0.52205882
0.58382353 0.58382353 0.58382353
0.66078431 0.66078431 0.66078431
0.72794118 0.72794118 0.72794118
0.78333333 0.78333333 0.78333333
0.6127451 0.6127451 0.6127451
0.61176471 0.61176471 0.61176471
0.58627451 0.58627451 0.58627451
0.59460784 0.59460784 0.59460784
0.62990196 0.62990196 0.62990196
0.67156863 0.67156863 0.67156863
0.7245098 0.7245098 0.7245098
0.76666667 0.76666667 0.76666667
0.80882353 0.80882353 0.80882353
0.73088235 0.73088235 0.73088235
0.73829657 0.73829657 0.73829657
0.73529412 0.73529412 0.73529412
0.73137255 0.73137255 0.73137255
0.75220588 0.75220588 0.75220588
0.76568627 0.76568627 0.76568627
0.78235294 0.78235294 0.78235294
0.81709559 0.81709559 0.81709559
0.83186275 0.83186275 0.83186275
0.81960784 0.81960784 0.81960784
0.79705882 0.79705882 0.79705882
0.78235294 0.78235294 0.78235294
0.81960784 0.81960784 0.81960784
0.82156863 0.82156863 0.82156863
0.82745098 0.82745098 0.82745098
0.84019608 0.84019608 0.84019608
0.84754902 0.84754902 0.84754902
0.85882353 0.85882353 0.85882353
0.13284314 0.13284314 0.13284314
0.12941176 0.12941176 0.12941176
0.15539216 0.15539216 0.15539216
0.19411765 0.19411765 0.19411765
0.24705882 0.24705882 0.24705882
0.33382353 0.33382353 0.33382353
0.44656863 0.44656863 0.44656863
0.57058824 0.57058824 0.57058824
0.67794118 0.67794118 0.67794118
0.14803922 0.14803922 0.14803922
0.15163909 0.15163909 0.15163909
0.17225797 0.17225797 0.17225797
0.21192555 0.21192555 0.21192555
0.27132353 0.27132353 0.27132353
0.35508578 0.35508578 0.35508578
0.45854779 0.45854779 0.45854779
0.57831648 0.57831648 0.57831648
0.68529412 0.68529412 0.68529412
0.18590686 0.18590686 0.18590686
0.18284314 0.18284314 0.18284314
0.20931373 0.20931373 0.20931373
0.24656863 0.24656863 0.24656863
0.31127451 0.31127451 0.31127451
0.39862132 0.39862132 0.39862132
0.49856005 0.49856005 0.49856005
0.60430453 0.60430453 0.60430453
0.7057598 0.7057598 0.7057598
0.2495098 0.2495098 0.2495098
0.24199602 0.24199602 0.24199602
0.25686275 0.25686275 0.25686275
0.2863894 0.2863894 0.2863894
0.36804534 0.36804534 0.36804534
0.45618107 0.45618107 0.45618107
0.55191483 0.55191483 0.55191483
0.64558824 0.64558824 0.64558824
0.72371324 0.72371324 0.72371324
0.35612745 0.35612745 0.35612745
0.35266544 0.35266544 0.35266544
0.34828431 0.34828431 0.34828431
0.375 0.375 0.375
0.43308824 0.43308824 0.43308824
0.51764706 0.51764706 0.51764706
0.61207108 0.61207108 0.61207108
0.69512868 0.69512868 0.69512868
0.75073529 0.75073529 0.75073529
0.49117647 0.49117647 0.49117647
0.48529412 0.48529412 0.48529412
0.47634804 0.47634804 0.47634804
0.48125 0.48125 0.48125
0.53431373 0.53431373 0.53431373
0.59381127 0.59381127 0.59381127
0.67023591 0.67023591 0.67023591
0.73186275 0.73186275 0.73186275
0.78970588 0.78970588 0.78970588
0.62303922 0.62303922 0.62303922
0.61971507 0.61971507 0.61971507
0.61151961 0.61151961 0.61151961
0.61073836 0.61073836 0.61073836
0.63897059 0.63897059 0.63897059
0.68471201 0.68471201 0.68471201
0.7245098 0.7245098 0.7245098
0.77069547 0.77069547 0.77069547
0.80882353 0.80882353 0.80882353
0.75006127 0.75006127 0.75006127
0.74264706 0.74264706 0.74264706
0.73872549 0.73872549 0.73872549
0.727428 0.727428 0.727428
0.75245098 0.75245098 0.75245098
0.76960784 0.76960784 0.76960784
0.78529412 0.78529412 0.78529412
0.80576746 0.80576746 0.80576746
0.83186275 0.83186275 0.83186275
0.82352941 0.82352941 0.82352941
0.82702206 0.82702206 0.82702206
0.80833333 0.80833333 0.80833333
0.82714461 0.82714461 0.82714461
0.81960784 0.81960784 0.81960784
0.82745098 0.82745098 0.82745098
0.83664216 0.83664216 0.83664216
0.84705882 0.84705882 0.84705882
0.8627451 0.8627451 0.8627451
0.15588235 0.15588235 0.15588235
0.16752451 0.16752451 0.16752451
0.18848039 0.18848039 0.18848039
0.23039216 0.23039216 0.23039216
0.29215686 0.29215686 0.29215686
0.37107843 0.37107843 0.37107843
0.46789216 0.46789216 0.46789216
0.58664216 0.58664216 0.58664216
0.69019608 0.69019608 0.69019608
0.17156863 0.17156863 0.17156863
0.17155331 0.17155331 0.17155331
0.19742647 0.19742647 0.19742647
0.23484988 0.23484988 0.23484988
0.30851716 0.30851716 0.30851716
0.38370098 0.38370098 0.38370098
0.48872549 0.48872549 0.48872549
0.60059743 0.60059743 0.60059743
0.69791667 0.69791667 0.69791667
0.20490196 0.20490196 0.20490196
0.21167279 0.21167279 0.21167279
0.24160539 0.24160539 0.24160539
0.28357843 0.28357843 0.28357843
0.34914216 0.34914216 0.34914216
0.42107843 0.42107843 0.42107843
0.52126225 0.52126225 0.52126225
0.62374387 0.62374387 0.62374387
0.7120098 0.7120098 0.7120098
0.29901961 0.29901961 0.29901961
0.30324755 0.30324755 0.30324755
0.30343137 0.30343137 0.30343137
0.33480392 0.33480392 0.33480392
0.4 0.4 0.4
0.48584559 0.48584559 0.48584559
0.5754902 0.5754902 0.5754902
0.66162684 0.66162684 0.66162684
0.7372549 0.7372549 0.7372549
0.41372549 0.41372549 0.41372549
0.40735294 0.40735294 0.40735294
0.40196078 0.40196078 0.40196078
0.40557598 0.40557598 0.40557598
0.46348039 0.46348039 0.46348039
0.53872549 0.53872549 0.53872549
0.62904412 0.62904412 0.62904412
0.70055147 0.70055147 0.70055147
0.75833333 0.75833333 0.75833333
0.53333333 0.53333333 0.53333333
0.52561275 0.52561275 0.52561275
0.51773897 0.51773897 0.51773897
0.51637561 0.51637561 0.51637561
0.55851716 0.55851716 0.55851716
0.60637255 0.60637255 0.60637255
0.67904412 0.67904412 0.67904412
0.73970588 0.73970588 0.73970588
0.78541667 0.78541667 0.78541667
0.66078431 0.66078431 0.66078431
0.65698529 0.65698529 0.65698529
0.64534314 0.64534314 0.64534314
0.63431373 0.63431373 0.63431373
0.65980392 0.65980392 0.65980392
0.69681373 0.69681373 0.69681373
0.7245098 0.7245098 0.7245098
0.77374387 0.77374387 0.77374387
0.80882353 0.80882353 0.80882353
0.76568627 0.76568627 0.76568627
0.75703125 0.75703125 0.75703125
0.74972426 0.74972426 0.74972426
0.75343137 0.75343137 0.75343137
0.75741422 0.75741422 0.75741422
0.77107843 0.77107843 0.77107843
0.79047181 0.79047181 0.79047181
0.80914522 0.80914522 0.80914522
0.83186275 0.83186275 0.83186275
0.82843137 0.82843137 0.82843137
0.82352941 0.82352941 0.82352941
0.8245098 0.8245098 0.8245098
0.82708333 0.82708333 0.82708333
0.82647059 0.82647059 0.82647059
0.83137255 0.83137255 0.83137255
0.83431373 0.83431373 0.83431373
0.84620098 0.84620098 0.84620098
0.85882353 0.85882353 0.85882353
0.25441176 0.25441176 0.25441176
0.25814951 0.25814951 0.25814951
0.2814951 0.2814951 0.2814951
0.31421569 0.31421569 0.31421569
0.35784314 0.35784314 0.35784314
0.43921569 0.43921569 0.43921569
0.53333333 0.53333333 0.53333333
0.62352941 0.62352941 0.62352941
0.7122549 0.7122549 0.7122549
0.2504902 0.2504902 0.2504902
0.25800398 0.25800398 0.25800398
0.28520221 0.28520221 0.28520221
0.31806832 0.31806832 0.31806832
0.36412377 0.36412377 0.36412377
0.44852941 0.44852941 0.44852941
0.53886336 0.53886336 0.53886336
0.6312117 0.6312117 0.6312117
0.7122549 0.7122549 0.7122549
0.24669118 0.24669118 0.24669118
0.25729167 0.25729167 0.25729167
0.30343137 0.30343137 0.30343137
0.35068934 0.35068934 0.35068934
0.40147059 0.40147059 0.40147059
0.4783701 0.4783701 0.4783701
0.56519608 0.56519608 0.56519608
0.65392157 0.65392157 0.65392157
0.71727941 0.71727941 0.71727941
0.33143382 0.33143382 0.33143382
0.35042892 0.35042892 0.35042892
0.3649663 0.3649663 0.3649663
0.39656863 0.39656863 0.39656863
0.45294118 0.45294118 0.45294118
0.51883425 0.51883425 0.51883425
0.60206801 0.60206801 0.60206801
0.68438266 0.68438266 0.68438266
0.75147059 0.75147059 0.75147059
0.47279412 0.47279412 0.47279412
0.48529412 0.48529412 0.48529412
0.4752451 0.4752451 0.4752451
0.46960784 0.46960784 0.46960784
0.50759804 0.50759804 0.50759804
0.57840074 0.57840074 0.57840074
0.65588235 0.65588235 0.65588235
0.71896446 0.71896446 0.71896446
0.77303922 0.77303922 0.77303922
0.58970588 0.58970588 0.58970588
0.58988971 0.58988971 0.58988971
0.58209252 0.58209252 0.58209252
0.57401961 0.57401961 0.57401961
0.58771446 0.58771446 0.58771446
0.64005055 0.64005055 0.64005055
0.70193015 0.70193015 0.70193015
0.75520833 0.75520833 0.75520833
0.79215686 0.79215686 0.79215686
0.6995098 0.6995098 0.6995098
0.6995098 0.6995098 0.6995098
0.69283088 0.69283088 0.69283088
0.6790288 0.6790288 0.6790288
0.69068627 0.69068627 0.69068627
0.71960784 0.71960784 0.71960784
0.74430147 0.74430147 0.74430147
0.78841912 0.78841912 0.78841912
0.81519608 0.81519608 0.81519608
0.77352941 0.77352941 0.77352941
0.77379749 0.77379749 0.77379749
0.77205882 0.77205882 0.77205882
0.76979933 0.76979933 0.76979933
0.7763174 0.7763174 0.7763174
0.78609835 0.78609835 0.78609835
0.8011489 0.8011489 0.8011489
0.81666667 0.81666667 0.81666667
0.83921569 0.83921569 0.83921569
0.82990196 0.82990196 0.82990196
0.83137255 0.83137255 0.83137255
0.82990196 0.82990196 0.82990196
0.82677696 0.82677696 0.82677696
0.83137255 0.83137255 0.83137255
0.83529412 0.83529412 0.83529412
0.84375 0.84375 0.84375
0.84442402 0.84442402 0.84442402
0.84068627 0.84068627 0.84068627
0.38235294 0.38235294 0.38235294
0.38210784 0.38210784 0.38210784
0.39117647 0.39117647 0.39117647
0.43872549 0.43872549 0.43872549
0.48529412 0.48529412 0.48529412
0.51421569 0.51421569 0.51421569
0.59803922 0.59803922 0.59803922
0.67181373 0.67181373 0.67181373
0.74509804 0.74509804 0.74509804
0.37843137 0.37843137 0.37843137
0.38207721 0.38207721 0.38207721
0.40116422 0.40116422 0.40116422
0.45098039 0.45098039 0.45098039
0.5002451 0.5002451 0.5002451
0.54142157 0.54142157 0.54142157
0.60931373 0.60931373 0.60931373
0.67916667 0.67916667 0.67916667
0.74485294 0.74485294 0.74485294
0.3745098 0.3745098 0.3745098
0.39166667 0.39166667 0.39166667
0.41862745 0.41862745 0.41862745
0.46966912 0.46966912 0.46966912
0.51764706 0.51764706 0.51764706
0.55790441 0.55790441 0.55790441
0.62512255 0.62512255 0.62512255
0.69270833 0.69270833 0.69270833
0.75882353 0.75882353 0.75882353
0.41323529 0.41323529 0.41323529
0.41461397 0.41461397 0.41461397
0.43345588 0.43345588 0.43345588
0.49362745 0.49362745 0.49362745
0.5442402 0.5442402 0.5442402
0.57720588 0.57720588 0.57720588
0.64834559 0.64834559 0.64834559
0.71519608 0.71519608 0.71519608
0.76789216 0.76789216 0.76789216
0.50882353 0.50882353 0.50882353
0.52598039 0.52598039 0.52598039
0.5372549 0.5372549 0.5372549
0.55196078 0.55196078 0.55196078
0.57156863 0.57156863 0.57156863
0.62352941 0.62352941 0.62352941
0.68823529 0.68823529 0.68823529
0.74215686 0.74215686 0.74215686
0.79019608 0.79019608 0.79019608
0.64362745 0.64362745 0.64362745
0.64558824 0.64558824 0.64558824
0.64558824 0.64558824 0.64558824
0.63697917 0.63697917 0.63697917
0.6432598 0.6432598 0.6432598
0.68011642 0.68011642 0.68011642
0.72328431 0.72328431 0.72328431
0.77083333 0.77083333 0.77083333
0.80392157 0.80392157 0.80392157
0.73333333 0.73333333 0.73333333
0.73333333 0.73333333 0.73333333
0.73333333 0.73333333 0.73333333
0.71973039 0.71973039 0.71973039
0.72916667 0.72916667 0.72916667
0.74656863 0.74656863 0.74656863
0.76715686 0.76715686 0.76715686
0.7995098 0.7995098 0.7995098
0.82058824 0.82058824 0.82058824
0.79117647 0.79117647 0.79117647
0.79139093 0.79139093 0.79139093
0.79093137 0.79093137 0.79093137
0.79476103 0.79476103 0.79476103
0.79987745 0.79987745 0.79987745
0.80269608 0.80269608 0.80269608
0.80931373 0.80931373 0.80931373
0.82380515 0.82380515 0.82380515
0.83921569 0.83921569 0.83921569
0.84313725 0.84313725 0.84313725
0.83921569 0.83921569 0.83921569
0.83921569 0.83921569 0.83921569
0.84387255 0.84387255 0.84387255
0.83921569 0.83921569 0.83921569
0.83921569 0.83921569 0.83921569
0.84117647 0.84117647 0.84117647
0.84313725 0.84313725 0.84313725
0.84313725 0.84313725 0.84313725
0.52745098 0.52745098 0.52745098
0.52107843 0.52107843 0.52107843
0.52683824 0.52683824 0.52683824
0.57457108 0.57457108 0.57457108
0.61764706 0.61764706 0.61764706
0.64019608 0.64019608 0.64019608
0.65943627 0.65943627 0.65943627
0.71617647 0.71617647 0.71617647
0.76862745 0.76862745 0.76862745
0.525 0.525 0.525
0.53284314 0.53284314 0.53284314
0.54313725 0.54313725 0.54313725
0.5861443 0.5861443 0.5861443
0.64136029 0.64136029 0.64136029
0.65948989 0.65948989 0.65948989
0.67401961 0.67401961 0.67401961
0.71950061 0.71950061 0.71950061
0.77401961 0.77401961 0.77401961
0.5307598 0.5307598 0.5307598
0.54068627 0.54068627 0.54068627
0.57107843 0.57107843 0.57107843
0.60029105 0.60029105 0.60029105
0.64166667 0.64166667 0.64166667
0.66115196 0.66115196 0.66115196
0.68235294 0.68235294 0.68235294
0.73457414 0.73457414 0.73457414
0.78125 0.78125 0.78125
0.525 0.525 0.525
0.54803922 0.54803922 0.54803922
0.57352941 0.57352941 0.57352941
0.60594363 0.60594363 0.60594363
0.64635417 0.64635417 0.64635417
0.665625 0.665625 0.665625
0.69649203 0.69649203 0.69649203
0.75 0.75 0.75
0.79699755 0.79699755 0.79699755
0.58137255 0.58137255 0.58137255
0.59068627 0.59068627 0.59068627
0.59448529 0.59448529 0.59448529
0.6208027 0.6208027 0.6208027
0.66286765 0.66286765 0.66286765
0.68627451 0.68627451 0.68627451
0.71911765 0.71911765 0.71911765
0.76813725 0.76813725 0.76813725
0.8 0.8 0.8
0.67794118 0.67794118 0.67794118
0.66354933 0.66354933 0.66354933
0.67218137 0.67218137 0.67218137
0.67869179 0.67869179 0.67869179
0.69656863 0.69656863 0.69656863
0.71848192 0.71848192 0.71848192
0.74509804 0.74509804 0.74509804
0.78726256 0.78726256 0.78726256
0.80784314 0.80784314 0.80784314
0.76029412 0.76029412 0.76029412
0.76309743 0.76309743 0.76309743
0.7620098 0.7620098 0.7620098
0.75845588 0.75845588 0.75845588
0.76488971 0.76488971 0.76488971
0.76992953 0.76992953 0.76992953
0.78471201 0.78471201 0.78471201
0.8102788 0.8102788 0.8102788
0.82169118 0.82169118 0.82169118
0.81029412 0.81029412 0.81029412
0.80833333 0.80833333 0.80833333
0.80779718 0.80779718 0.80779718
0.8122549 0.8122549 0.8122549
0.81617647 0.81617647 0.81617647
0.81403186 0.81403186 0.81403186
0.81830576 0.81830576 0.81830576
0.83363971 0.83363971 0.83363971
0.84332108 0.84332108 0.84332108
0.83676471 0.83676471 0.83676471
0.83676471 0.83676471 0.83676471
0.84252451 0.84252451 0.84252451
0.84705882 0.84705882 0.84705882
0.84852941 0.84852941 0.84852941
0.84705882 0.84705882 0.84705882
0.85134804 0.85134804 0.85134804
0.84852941 0.84852941 0.84852941
0.84705882 0.84705882 0.84705882
0.66764706 0.66764706 0.66764706
0.6627451 0.6627451 0.6627451
0.66593137 0.66593137 0.66593137
0.7004902 0.7004902 0.7004902
0.73039216 0.73039216 0.73039216
0.75821078 0.75821078 0.75821078
0.75661765 0.75661765 0.75661765
0.77892157 0.77892157 0.77892157
0.79313725 0.79313725 0.79313725
0.67058824 0.67058824 0.67058824
0.66939338 0.66939338 0.66939338
0.67732843 0.67732843 0.67732843
0.70735294 0.70735294 0.70735294
0.72794118 0.72794118 0.72794118
0.75306373 0.75306373 0.75306373
0.76372549 0.76372549 0.76372549
0.78901654 0.78901654 0.78901654
0.80098039 0.80098039 0.80098039
0.67916667 0.67916667 0.67916667
0.67870711 0.67870711 0.67870711
0.69234069 0.69234069 0.69234069
0.7067402 0.7067402 0.7067402
0.72941176 0.72941176 0.72941176
0.7544424 0.7544424 0.7544424
0.7713848 0.7713848 0.7713848
0.78676471 0.78676471 0.78676471
0.80490196 0.80490196 0.80490196
0.66875 0.66875 0.66875
0.67789522 0.67789522 0.67789522
0.69077819 0.69077819 0.69077819
0.70905331 0.70905331 0.70905331
0.7341299 0.7341299 0.7341299
0.76384804 0.76384804 0.76384804
0.77254902 0.77254902 0.77254902
0.79840686 0.79840686 0.79840686
0.81176471 0.81176471 0.81176471
0.66078431 0.66078431 0.66078431
0.68339461 0.68339461 0.68339461
0.69166667 0.69166667 0.69166667
0.70735294 0.70735294 0.70735294
0.74142157 0.74142157 0.74142157
0.76060049 0.76060049 0.76060049
0.78039216 0.78039216 0.78039216
0.80582108 0.80582108 0.80582108
0.81617647 0.81617647 0.81617647
0.73431373 0.73431373 0.73431373
0.73086703 0.73086703 0.73086703
0.72990196 0.72990196 0.72990196
0.74166667 0.74166667 0.74166667
0.76439951 0.76439951 0.76439951
0.76813725 0.76813725 0.76813725
0.78664216 0.78664216 0.78664216
0.81452206 0.81452206 0.81452206
0.82169118 0.82169118 0.82169118
0.78235294 0.78235294 0.78235294
0.76994485 0.76994485 0.76994485
0.76721814 0.76721814 0.76721814
0.78900123 0.78900123 0.78900123
0.80196078 0.80196078 0.80196078
0.80260417 0.80260417 0.80260417
0.81372549 0.81372549 0.81372549
0.8252451 0.8252451 0.8252451
0.83308824 0.83308824 0.83308824
0.825 0.825 0.825
0.81392463 0.81392463 0.81392463
0.8122549 0.8122549 0.8122549
0.82463235 0.82463235 0.82463235
0.83284314 0.83284314 0.83284314
0.83272059 0.83272059 0.83272059
0.83664216 0.83664216 0.83664216
0.84090074 0.84090074 0.84090074
0.85098039 0.85098039 0.85098039
0.85784314 0.85784314 0.85784314
0.85098039 0.85098039 0.85098039
0.84705882 0.84705882 0.84705882
0.85343137 0.85343137 0.85343137
0.85686275 0.85686275 0.85686275
0.85490196 0.85490196 0.85490196
0.85490196 0.85490196 0.85490196
0.85490196 0.85490196 0.85490196
0.85098039 0.85098039 0.85098039
0.7622549 0.7622549 0.7622549
0.76617647 0.76617647 0.76617647
0.77745098 0.77745098 0.77745098
0.78529412 0.78529412 0.78529412
0.80073529 0.80073529 0.80073529
0.80851716 0.80851716 0.80851716
0.82009804 0.82009804 0.82009804
0.82401961 0.82401961 0.82401961
0.82401961 0.82401961 0.82401961
0.7661152 0.7661152 0.7661152
0.77390472 0.77390472 0.77390472
0.78137255 0.78137255 0.78137255
0.78529412 0.78529412 0.78529412
0.80269608 0.80269608 0.80269608
0.8122549 0.8122549 0.8122549
0.81752451 0.81752451 0.81752451
0.82401961 0.82401961 0.82401961
0.82794118 0.82794118 0.82794118
0.77009804 0.77009804 0.77009804
0.77477022 0.77477022 0.77477022
0.78115809 0.78115809 0.78115809
0.78497243 0.78497243 0.78497243
0.79901961 0.79901961 0.79901961
0.8122549 0.8122549 0.8122549
0.82083333 0.82083333 0.82083333
0.82674632 0.82674632 0.82674632
0.82794118 0.82794118 0.82794118
0.77745098 0.77745098 0.77745098
0.78167892 0.78167892 0.78167892
0.77999387 0.77999387 0.77999387
0.78903186 0.78903186 0.78903186
0.8020527 0.8020527 0.8020527
0.81636029 0.81636029 0.81636029
0.82794118 0.82794118 0.82794118
0.83039216 0.83039216 0.83039216
0.83167892 0.83167892 0.83167892
0.78186275 0.78186275 0.78186275
0.79142157 0.79142157 0.79142157
0.78921569 0.78921569 0.78921569
0.79313725 0.79313725 0.79313725
0.80355392 0.80355392 0.80355392
0.81617647 0.81617647 0.81617647
0.82886029 0.82886029 0.82886029
0.83578431 0.83578431 0.83578431
0.83578431 0.83578431 0.83578431
0.79313725 0.79313725 0.79313725
0.79656863 0.79656863 0.79656863
0.79313725 0.79313725 0.79313725
0.80098039 0.80098039 0.80098039
0.80931373 0.80931373 0.80931373
0.82028186 0.82028186 0.82028186
0.83002451 0.83002451 0.83002451
0.83970588 0.83970588 0.83970588
0.84332108 0.84332108 0.84332108
0.80931373 0.80931373 0.80931373
0.80543811 0.80543811 0.80543811
0.80453431 0.80453431 0.80453431
0.81314338 0.81314338 0.81314338
0.82365196 0.82365196 0.82365196
0.83186275 0.83186275 0.83186275
0.83970588 0.83970588 0.83970588
0.84405637 0.84405637 0.84405637
0.85098039 0.85098039 0.85098039
0.83970588 0.83970588 0.83970588
0.83192402 0.83192402 0.83192402
0.82843137 0.82843137 0.82843137
0.83605239 0.83605239 0.83605239
0.8401348 0.8401348 0.8401348
0.84362745 0.84362745 0.84362745
0.8471201 0.8471201 0.8471201
0.85098805 0.85098805 0.85098805
0.85496324 0.85496324 0.85496324
0.85490196 0.85490196 0.85490196
0.85098039 0.85098039 0.85098039
0.85098039 0.85098039 0.85098039
0.85490196 0.85490196 0.85490196
0.85882353 0.85882353 0.85882353
0.85539216 0.85539216 0.85539216
0.85539216 0.85539216 0.85539216
0.85882353 0.85882353 0.85882353
0.85882353 0.85882353 0.85882353
0.84313725 0.84313725 0.84313725
0.83137255 0.83137255 0.83137255
0.84215686 0.84215686 0.84215686
0.84313725 0.84313725 0.84313725
0.84313725 0.84313725 0.84313725
0.84852941 0.84852941 0.84852941
0.85490196 0.85490196 0.85490196
0.85490196 0.85490196 0.85490196
0.85882353 0.85882353 0.85882353
0.83529412 0.83529412 0.83529412
0.83480392 0.83480392 0.83480392
0.83921569 0.83921569 0.83921569
0.83921569 0.83921569 0.83921569
0.84142157 0.84142157 0.84142157
0.85098039 0.85098039 0.85098039
0.84840686 0.84840686 0.84840686
0.85098039 0.85098039 0.85098039
0.85539216 0.85539216 0.85539216
0.83921569 0.83921569 0.83921569
0.83921569 0.83921569 0.83921569
0.84215686 0.84215686 0.84215686
0.84166667 0.84166667 0.84166667
0.84656863 0.84656863 0.84656863
0.84068627 0.84068627 0.84068627
0.84779412 0.84779412 0.84779412
0.85404412 0.85404412 0.85404412
0.85196078 0.85196078 0.85196078
0.82892157 0.82892157 0.82892157
0.825 0.825 0.825
0.8307598 0.8307598 0.8307598
0.83137255 0.83137255 0.83137255
0.84313725 0.84313725 0.84313725
0.84313725 0.84313725 0.84313725
0.85490196 0.85490196 0.85490196
0.85863971 0.85863971 0.85863971
0.85490196 0.85490196 0.85490196
0.81176471 0.81176471 0.81176471
0.81176471 0.81176471 0.81176471
0.82107843 0.82107843 0.82107843
0.83651961 0.83651961 0.83651961
0.84411765 0.84411765 0.84411765
0.84705882 0.84705882 0.84705882
0.8504902 0.8504902 0.8504902
0.85490196 0.85490196 0.85490196
0.85098039 0.85098039 0.85098039
0.81960784 0.81960784 0.81960784
0.82352941 0.82352941 0.82352941
0.82745098 0.82745098 0.82745098
0.84613971 0.84613971 0.84613971
0.84705882 0.84705882 0.84705882
0.85153186 0.85153186 0.85153186
0.85490196 0.85490196 0.85490196
0.85098039 0.85098039 0.85098039
0.85098039 0.85098039 0.85098039
0.83627451 0.83627451 0.83627451
0.83529412 0.83529412 0.83529412
0.84240196 0.84240196 0.84240196
0.84705882 0.84705882 0.84705882
0.85098039 0.85098039 0.85098039
0.85061275 0.85061275 0.85061275
0.85490196 0.85490196 0.85490196
0.85453431 0.85453431 0.85453431
0.85098039 0.85098039 0.85098039
0.85931373 0.85931373 0.85931373
0.85490196 0.85490196 0.85490196
0.85098039 0.85098039 0.85098039
0.85098039 0.85098039 0.85098039
0.85490196 0.85490196 0.85490196
0.85882353 0.85882353 0.85882353
0.85882353 0.85882353 0.85882353
0.85882353 0.85882353 0.85882353
0.85882353 0.85882353 0.85882353
0.8627451 0.8627451 0.8627451
0.85882353 0.85882353 0.85882353
0.85490196 0.85490196 0.85490196
0.85882353 0.85882353 0.85882353
0.85882353 0.85882353 0.85882353
0.8627451 0.8627451 0.8627451
0.8627451 0.8627451 0.8627451
0.8627451 0.8627451 0.8627451
0.8627451 0.8627451 0.8627451
