site/assets/luts/sha256-0bbebb028bfa40f5a32b2767b118504a3f32b734040a360947916dbe2cf938aa.cube
# LUTr-Schema-Version: 2
# LUTr-ID: sha256-0bbebb028bfa40f5a32b2767b118504a3f32b734040a360947916dbe2cf938aa
# LUTr-Title: kodak2393 cuspclip
# LUTr-Collection: Natron HaldCLUT
# LUTr-Collection-ID: natron-haldclut-presets
# LUTr-Source: https://github.com/NatronGitHub/clut
# LUTr-Retrieved: 2026-07-27
# LUTr-Source-File: submissions/natron-haldclut-presets/print/kodak2393_cuspclip.png
# LUTr-Source-Format: HALD-PNG
# LUTr-Source-SHA256: 0bbebb028bfa40f5a32b2767b118504a3f32b734040a360947916dbe2cf938aa
# LUTr-License: CC-BY-SA-4.0
# LUTr-License-URL: https://github.com/NatronGitHub/clut#license
# LUTr-License-Basis: repo-license-file
# LUTr-Transform-Class: film-emulation
# LUTr-Tags: creative, film, film-emulation, hald-clut, natron, png, cube
# LUTr-Input-Color-Space: srgb
# LUTr-Input-Gamut: rec709
# LUTr-Input-Transfer: srgb
# LUTr-Output-Color-Space: srgb
# LUTr-Output-Gamut: rec709
# LUTr-Output-Transfer: srgb
# LUTr-Color-Space-Confidence: assumed-display-referred
# LUTr-Domain-Normalized: true
# LUTr-Shaper: none
# LUTr-Original-Grid: 64x64x64
# LUTr-Conversion-Grid: 25x25x25
# LUTr-Conversion-Interpolation: trilinear
# LUTr-Conversion-Method: HALD-PNG LUT image decoded at 16-bit and sampled to 25x25x25 3D CUBE
# LUTr-Conversion-Tool: LUTr scripts/convert-all-to-cube.mjs 2.0.0
# LUTr-Conversion-Date: 2026-07-27
# LUTr-Note: Preserve this metadata and the upstream license notices when redistributing.
TITLE "kodak2393 cuspclip"
LUT_3D_SIZE 9
DOMAIN_MIN 0 0 0
DOMAIN_MAX 1 1 1
0.0078431373 0.0078431373 0.0078431373
0.030882353 0.023529412 0.015686275
0.084313725 0.035294118 0.011764706
0.17009804 0.037745098 0
0.34117647 0.050980392 0
0.47892157 0.079901961 0
0.55882353 0.098039216 0.0039215686
0.59215686 0.12205882 0.0083333333
0.60784314 0.12941176 0.02745098
0.0078431373 0.035294118 0.023039216
0.023529412 0.03872549 0.019607843
0.091176471 0.046568627 0.0091911765
0.20294118 0.060968137 0
0.39509804 0.095098039 0
0.53431373 0.12598039 0
0.60392157 0.14803922 0.015196078
0.63829657 0.16378676 0.019546569
0.65 0.16029412 0.00049019608
0 0.075490196 0.034313725
0.0044117647 0.075490196 0.023897059
0.070833333 0.090196078 0.00098039216
0.24215686 0.12745098 0.0039215686
0.45098039 0.16372549 0
0.59791667 0.20245098 0.0020833333
0.66176471 0.22156863 0.020343137
0.69264706 0.22941176 0.020098039
0.71176471 0.24019608 0.02745098
0 0.16029412 0.065196078
0 0.18088235 0.052634804
0.038235294 0.18468137 0.0022058824
0.29270833 0.25189951 0
0.53014706 0.30931373 0
0.67843137 0.34558824 0
0.7495098 0.35294118 0.028921569
0.77598039 0.36813725 0.028247549
0.78382353 0.37941176 0.014705882
0.0019607843 0.31372549 0.14901961
0.0098039216 0.33480392 0.13578431
0 0.33529412 0.0073529412
0.35122549 0.43333333 0.00073529412
0.62058824 0.51372549 0
0.77107843 0.54191176 0.010294118
0.82647059 0.53627451 0.016176471
0.85906863 0.55539216 0.014215686
0.87058824 0.5745098 0.025490196
0.040196078 0.43186275 0.21715686
0.022855392 0.45882353 0.20196078
0.0029411765 0.47830882 0.032107843
0.37990196 0.58578431 0.0087622549
0.68578431 0.68039216 0.0071078431
0.83872549 0.70392157 0.02254902
0.89803922 0.70490196 0.042156863
0.92303922 0.71568627 0.03872549
0.92843137 0.71960784 0.056372549
0.0029411765 0.49019608 0.23137255
0.0039215686 0.51813725 0.21617647
0.0039215686 0.54828431 0.054901961
0.41335784 0.66176471 0.006004902
0.7122549 0.75392157 0.023039216
0.86715686 0.77953431 0.056985294
0.93137255 0.79019608 0.078676471
0.95392157 0.79411765 0.082352941
0.95686275 0.79313725 0.079411765
0.00049019608 0.50735294 0.24705882
0.026960784 0.55251225 0.20398284
0.012990196 0.5817402 0.01752451
0.43823529 0.69264706 0.013909314
0.72377451 0.77696078 0.025
0.88284314 0.81568627 0.068137255
0.94313725 0.82095588 0.087254902
0.97303922 0.82745098 0.094117647
0.97303922 0.82401961 0.094607843
0.0039215686 0.55686275 0.23921569
0 0.59166667 0.13529412
0.19117647 0.63627451 0.00098039216
0.49656863 0.71715686 0.0024509804
0.73137255 0.78823529 0.033333333
0.88921569 0.82745098 0.074509804
0.95 0.82843137 0.090196078
0.98088235 0.83921569 0.094607843
0.99215686 0.84313725 0.12156863
0.011764706 0.023529412 0.034803922
0.02745098 0.031372549 0.034803922
0.069607843 0.031372549 0.024019608
0.18645833 0.017647059 0.0039215686
0.34166667 0.012990196 0
0.50159314 0.041789216 0
0.56311275 0.056862745 0
0.60349265 0.05692402 0.0039215686
0.62303922 0.10686275 0.012254902
0.011335784 0.03872549 0.034803922
0.023475797 0.042532169 0.034803922
0.077159926 0.049509804 0.030882353
0.20475643 0.060516238 0.0036151961
0.39338235 0.062775735 0
0.54011183 0.080208333 0
0.61219363 0.1129902 0.0040441176
0.64302237 0.11029412 0.0074678309
0.66133578 0.14460784 0.015625
0 0.087254902 0.05379902
0.0061734069 0.082643995 0.046568627
0.075214461 0.092156863 0.027542892
0.23970588 0.11813725 0.0061887255
0.45422794 0.15055147 0.003002451
0.60392157 0.1740962 0.0039215686
0.6734375 0.19705882 0.0072303922
0.70439645 0.20582108 0.015196078
0.71960784 0.21421569 0.011397059
0.0024509804 0.17696078 0.091176471
0 0.18278186 0.080859375
0.028063725 0.18783701 0.021783088
0.29148284 0.25667892 0.0052083333
0.53186275 0.30719975 0.0039215686
0.69532782 0.34307598 0.018022365
0.75821078 0.35294118 0.02075674
0.78085938 0.35762102 0.037293199
0.79920343 0.38333333 0.029595588
0.025490196 0.34068627 0.18357843
0.0098039216 0.35833333 0.16688113
0.0096813725 0.35857843 0.05
0.32852328 0.43872549 0.0037683824
0.61813725 0.51213235 0.0037990196
0.77564338 0.54690564 0.027267157
0.84240196 0.54577206 0.013664216
0.86862745 0.55906863 0.014246324
0.88578431 0.58210784 0.029411765
0.02254902 0.45735294 0.24656863
0.0041896446 0.4740579 0.22091759
0.016636029 0.50490196 0.10124081
0.34429381 0.58841912 0.0021446078
0.67598039 0.68186275 0.0125
0.84253217 0.70784314 0.041237745
0.91015625 0.71942402 0.036902574
0.93216912 0.72007506 0.04654565
0.94234069 0.72775735 0.060294118
0.012867647 0.50772059 0.26176471
0.0051011029 0.53060662 0.2439951
0.0030943627 0.56090686 0.12622549
0.39545037 0.66622243 0.00012254902
0.70686275 0.75441176 0.018995098
0.86902574 0.78953738 0.055882353
0.93808211 0.79669118 0.079411765
0.96197917 0.80061275 0.08247549
0.96948529 0.80061275 0.085906863
0.013786765 0.52984069 0.2901348
0.01115962 0.57206648 0.2631204
0.0081648284 0.5967065 0.11963848
0.40345435 0.6959712 0.013541667
0.71439951 0.78259804 0.024295343
0.88069853 0.81762408 0.057881434
0.95435049 0.8278799 0.086963848
0.98007047 0.83186275 0.072426471
0.98474265 0.83186275 0.12156863
0.020588235 0.6 0.32401961
0.02254902 0.62156863 0.29123775
0.0052696078 0.65098039 0.13125
0.45539216 0.72990196 0.0026348039
0.71617647 0.79583333 0.0024509804
0.89215686 0.83265931 0.030882353
0.97855392 0.84571078 0.020098039
0.99901961 0.8504902 0.01060049
0.9995098 0.8504902 0.18235294
0 0.030392157 0.079411765
0.0082107843 0.026470588 0.079289216
0.068627451 0.035294118 0.080392157
0.17303922 0.016544118 0.065196078
0.35245098 0 0.058823529
0.49963235 0.00036764706 0.060294118
0.58259804 0 0.066421569
0.61482843 0 0.06997549
0.63431373 0.00098039216 0.07745098
0.0039215686 0.050490196 0.091789216
0.0044577206 0.046568627 0.081081495
0.068627451 0.04721201 0.091176471
0.19871324 0.050490196 0.079534314
0.38504902 0.0066176471 0.058823529
0.54269301 0.0034313725 0.06484375
0.62426471 0.0039215686 0.055238971
0.65854779 0.0062806373 0.054901961
0.67647059 0.0039215686 0.06372549
0 0.10220588 0.12254902
0.00024509804 0.09129902 0.10885417
0.059007353 0.10061275 0.098406863
0.24393382 0.12092525 0.087653186
0.45036765 0.11348039 0.069730392
0.61443015 0.071109069 0.0047181373
0.69381127 0.019362745 0.0059436275
0.72561275 0.011182598 0.0038296569
0.74583333 0.088235294 0
0 0.20882353 0.16666667
0 0.21550245 0.16213235
0.0234375 0.21102941 0.1299326
0.26458333 0.25821078 0.097686887
0.53088235 0.29289216 0.060171569
0.70453431 0.3004902 0.0036917892
0.78553922 0.2903799 0
0.82487745 0.31623775 0.0021905637
0.84105392 0.33737745 0.00098039216
0.019607843 0.38088235 0.25784314
0.0083946078 0.38823529 0.25324755
0.0073529412 0.39730392 0.18811275
0.27751225 0.44215686 0.051102941
0.61029412 0.50294118 0.0026960784
0.80036765 0.53449755 0.029411765
0.87487745 0.53553922 0.0072303922
0.90465686 0.54993873 0.0087622549
0.92401961 0.5754902 0
0.0072303922 0.47794118 0.30980392
0.012561275 0.50998775 0.30994179
0.0025735294 0.54546569 0.26035539
0.29034926 0.59594056 0.021629902
0.65772059 0.68676471 0.0079044118
0.85482537 0.71968444 0.028247549
0.93789828 0.73431373 0.040134804
0.96629902 0.7384038 0.040088848
0.97303922 0.74889706 0.024509804
0.030147059 0.53627451 0.35073529
0.016574755 0.56329657 0.33602941
0.020588235 0.60723039 0.28817402
0.30955882 0.67454044 0.0071997549
0.68529412 0.7622549 0.026470588
0.88275123 0.80428922 0.037683824
0.96905637 0.81427696 0.023161765
0.99129902 0.81985294 0.016421569
0.99901961 0.82745098 0.010294118
0.024142157 0.57659314 0.40134804
0.044025735 0.61115196 0.39232537
0.063756127 0.64469975 0.34653799
0.29701287 0.70837929 0.17974877
0.67469363 0.78988971 0.076531863
0.90145527 0.83688725 0.011780025
0.99375 0.85441176 0.023682598
0.99607843 0.85473346 0.13742341
1 0.85441176 0.19718137
0.0029411765 0.64607843 0.4745098
0.026593137 0.66519608 0.45404412
0.015441176 0.69828431 0.39534314
0.3810049 0.75796569 0.33982843
0.68872549 0.82107843 0.30147059
0.89068627 0.86176471 0.26286765
0.99240196 0.87818627 0.24828431
1 0.88394608 0.31715686
1 0.88235294 0.34509804
0 0.080882353 0.1877451
0 0.051776961 0.18039216
0.051960784 0.0067401961 0.19019608
0.17193627 0 0.18817402
0.35367647 0.00073529412 0.20514706
0.49552696 0 0.21317402
0.58480392 0 0.22009804
0.63823529 0 0.24626225
0.65196078 0 0.25392157
0 0.10098039 0.20245098
0.0034313725 0.089437806 0.2122549
0.051026348 0.028170956 0.20367647
0.211106 0.025796569 0.22262561
0.39764093 0.0057291667 0.23210784
0.54529718 0.0011106005 0.2417356
0.63198529 0.0044577206 0.24946385
0.67224265 0.0071920956 0.25083487
0.68921569 0.0026348039 0.26488971
0 0.16017157 0.26078431
0 0.16531863 0.27241115
0.013296569 0.11623775 0.24767157
0.23786765 0.1254902 0.25588235
0.45686275 0.11795343 0.26323529
0.61946998 0.085294118 0.26960784
0.70735294 0.064797794 0.2760723
0.73543199 0.0062806373 0.27794118
0.75306373 0.076715686 0.28051471
0.0078431373 0.28419118 0.33523284
0.0051011029 0.29901961 0.3504902
0.025628064 0.27948836 0.32545956
0.24893536 0.28278186 0.31266085
0.52619485 0.31372549 0.3169424
0.7091682 0.31917892 0.30873928
0.79764093 0.30908395 0.3073223
0.83137255 0.33117341 0.31366422
0.84656863 0.34699755 0.315625
0.0031862745 0.43872549 0.42254902
0.0039215686 0.45873162 0.43318015
0.002879902 0.47291667 0.41770833
0.22760417 0.48446691 0.35021446
0.59093137 0.53909314 0.34056373
0.80269608 0.55658701 0.32126225
0.88682598 0.56164216 0.31176471
0.92386642 0.5754902 0.30946691
0.94191176 0.60367647 0.32990196
0.020526961 0.54362745 0.47254902
0.01194087 0.57168352 0.48284314
0.034068627 0.60791973 0.46980699
0.19250919 0.65058211 0.37754289
0.62965686 0.71712623 0.35903799
0.86280637 0.75377604 0.32939645
0.95761336 0.76591605 0.31283701
0.99069393 0.77346048 0.32238817
0.99754902 0.7911152 0.35441176
0.019607843 0.59509804 0.51409314
0.01953125 0.62536765 0.51936275
0.013480392 0.66418505 0.49604779
0.14433211 0.72545956 0.41622243
0.62904412 0.79895833 0.39172794
0.88033088 0.84693627 0.37896752
0.97916667 0.85931373 0.34393382
1 0.86507353 0.35683211
1 0.86678922 0.37843137
0.016666667 0.6346201 0.55441176
0.0049402574 0.67113971 0.57383578
0.017156863 0.70551471 0.54713542
0.12087163 0.76034773 0.48773744
0.63146446 0.83284314 0.47172181
0.86764706 0.87714461 0.45078891
0.98151042 0.896875 0.44512868
1 0.896875 0.43246017
1 0.89558824 0.4627451
0 0.68872549 0.63480392
0 0.71930147 0.62518382
0.0078431373 0.74264706 0.58639706
0.29454657 0.79803922 0.56819853
0.65441176 0.85735294 0.5504902
0.86617647 0.89503676 0.54356618
0.9745098 0.91262255 0.53848039
1 0.92401961 0.55588235
1 0.92009804 0.56323529
0 0.15294118 0.31764706
0 0.15514706 0.33088235
0.058823529 0.021568627 0.30147059
0.19656863 0.0026960784 0.33308824
0.38137255 0 0.3627451
0.54681373 0 0.3875
0.61176471 0 0.38382353
0.64754902 0 0.38823529
0.67058824 0 0.40784314
0 0.1877451 0.35612745
0 0.18753064 0.36764706
0.041727941 0.023651961 0.34528186
0.20900735 0.0010723039 0.36773897
0.41090686 0.0037990196 0.39509804
0.57028186 0.00064338235 0.40499387
0.64411765 0.0039215686 0.41666667
0.68556985 0.0073529412 0.42696078
0.70318627 0 0.43676471
0 0.25294118 0.41372549
0 0.25435049 0.42745098
0.0068627451 0.18933824 0.41421569
0.22647059 0.11801471 0.42990196
0.4620098 0.11813725 0.45269608
0.63014706 0.073039216 0.45735294
0.71384804 0.00049019608 0.46066176
0.74362745 0.0097426471 0.46623775
0.76519608 0.10294118 0.48627451
0.016911765 0.36666667 0.49632353
0.01495098 0.37043505 0.50726103
0.015073529 0.34479167 0.50545343
0.21991422 0.31148897 0.50045956
0.52254902 0.33713235 0.52193627
0.70839461 0.33066789 0.52331495
0.79754902 0.32922794 0.53118873
0.83244485 0.34632353 0.53446691
0.84656863 0.36323529 0.54607843
0.02745098 0.49803922 0.57254902
0.025245098 0.51311275 0.58210784
0.021813725 0.53235294 0.59411765
0.16727941 0.52781863 0.56654412
0.57156863 0.57009804 0.5745098
0.78897059 0.59313725 0.57708333
0.88529412 0.59632353 0.57720588
0.91703431 0.60931373 0.57683824
0.93627451 0.63333333 0.59215686
0.010294118 0.59436275 0.62107843
0.015931373 0.62009804 0.63284314
0.0021446078 0.66666667 0.64705882
0.085814951 0.69509804 0.6051777
0.58627451 0.75686275 0.60931373
0.83655025 0.7924326 0.61053922
0.94264706 0.80428922 0.60435049
0.98186275 0.81577819 0.6098652
0.98897059 0.82352941 0.62303922
0.0078431373 0.64313725 0.65147059
0.010845588 0.67530637 0.6685049
0.0031862745 0.71495098 0.67095588
0.08627451 0.77089461 0.64785539
0.59289216 0.83897059 0.64117647
0.84901961 0.87935049 0.64215686
0.95894608 0.89411765 0.6375
0.99044118 0.89822304 0.64136029
1 0.90588235 0.65
0.0039215686 0.67132353 0.68897059
0.0080882353 0.71568627 0.70983456
0.0039215686 0.75441176 0.70980392
0.09375 0.80140931 0.68964461
0.5932598 0.86997549 0.6870098
0.85367647 0.91715686 0.6879902
0.9627451 0.93186275 0.68921569
0.99286152 0.93924632 0.69163603
1 0.93578431 0.69338235
0.0098039216 0.71372549 0.72352941
0.00073529412 0.75367647 0.74828431
0 0.78333333 0.74411765
0.14779412 0.82745098 0.72843137
0.61666667 0.88823529 0.73431373
0.85294118 0.93014706 0.74044118
0.96421569 0.95098039 0.74607843
1 0.95490196 0.74705882
1 0.95490196 0.74901961
0 0.20539216 0.41078431
0.0012867647 0.20557598 0.42224265
0.060171569 0.022058824 0.39669118
0.2004902 0.0014705882 0.43131127
0.38186275 0 0.4627451
0.54460784 0 0.49607843
0.6245098 0 0.50245098
0.65968137 0 0.50692402
0.67205882 0 0.50637255
0 0.24411765 0.45716912
0.00030637255 0.23612898 0.46601562
0.019776348 0.16409314 0.47066483
0.20893842 0.0039215686 0.4903799
0.42156863 0.0049938725 0.52181373
0.57519148 0.0012867647 0.53339461
0.66113664 0 0.54068627
0.69773284 0 0.54552696
0.71452206 0.0039215686 0.56176471
0 0.30147059 0.50833333
0 0.29773284 0.52383578
0 0.26936275 0.53416054
0.20628064 0.10533088 0.56139706
0.47083333 0.10410539 0.59234069
0.63275123 0.050735294 0.59977022
0.72267157 0 0.60453431
0.75050551 0.00030637255 0.60053615
0.77745098 0.092769608 0.63284314
0.0024509804 0.40189951 0.58823529
0.010294118 0.40336244 0.59803922
0.0039215686 0.38307292 0.6192402
0.20563725 0.32570466 0.64968597
0.5127451 0.34754902 0.67325368
0.70974265 0.33915441 0.67990196
0.80580576 0.34901961 0.68852635
0.83921569 0.35441176 0.69424786
0.85441176 0.38284314 0.70490196
0.0083333333 0.52303922 0.66053922
0.026960784 0.53939951 0.67573529
0.024019608 0.5629902 0.70073529
0.10462623 0.55637255 0.72300858
0.5495098 0.59252451 0.74154412
0.78158701 0.61277574 0.75245098
0.87579657 0.61979167 0.75153186
0.91681985 0.63333333 0.75775123
0.93529412 0.65833333 0.76544118
0.040257353 0.62647059 0.71721814
0.023039216 0.64797794 0.73340227
0.021798407 0.68586091 0.75522365
0.079143689 0.73717065 0.77689951
0.55539216 0.78532475 0.78137255
0.82058824 0.81666667 0.79313725
0.92892157 0.82303922 0.79313725
0.97047335 0.8368796 0.79725031
0.98578431 0.85441176 0.80098039
0.025980392 0.67205882 0.74803922
0.033685662 0.69852941 0.763894
0.014215686 0.74056373 0.78406863
0.050704657 0.80458027 0.80569853
0.55422794 0.87009804 0.81390931
0.82267157 0.91156556 0.82254902
0.95055147 0.92426471 0.82365196
0.98823529 0.93198529 0.82365196
0.99852941 0.93823529 0.81973039
0.022855392 0.68952206 0.76421569
0.011006434 0.73069853 0.7872549
0.018979779 0.775 0.81015625
0.084168199 0.83101256 0.82628676
0.56651348 0.89981618 0.84289216
0.8243796 0.93890931 0.8495098
0.94943321 0.95868566 0.85494792
0.99215686 0.96462163 0.85079657
1 0.96096814 0.84197304
0.0029411765 0.72941176 0.80147059
0.025183824 0.76636029 0.81685049
0.0011029412 0.80012255 0.8314951
0.082352941 0.85343137 0.85392157
0.59509804 0.9125 0.86446078
0.83333333 0.9504902 0.87254902
0.94767157 0.97071078 0.875
0.99607843 0.9776348 0.87977941
1 0.97647059 0.87352941
0 0.23235294 0.45588235
0.014215686 0.23627451 0.47254902
0.043382353 0.052696078 0.46421569
0.19656863 0.0078431373 0.5057598
0.39411765 0.0039215686 0.54754902
0.53884804 0 0.55539216
0.6254902 0 0.56960784
0.67107843 0 0.57757353
0.68333333 0 0.58235294
0 0.2745098 0.51519608
0 0.27757353 0.52924326
0.0074754902 0.24114583 0.53661152
0.21311275 0.0051776961 0.56416973
0.41911765 0.0049019608 0.60073529
0.58537071 0.0038756127 0.61659007
0.67855392 0 0.62843137
0.70899203 0 0.62859988
0.72585784 0.0039215686 0.64497549
0 0.33137255 0.56764706
0 0.33529412 0.58026961
0.0027573529 0.30422794 0.59730392
0.19371936 0.10848652 0.64313725
0.46703431 0.099877451 0.67794118
0.64659926 0.0012254902 0.69632353
0.72843137 0.00055147059 0.69705882
0.75998775 0.0035232843 0.69776348
0.78553922 0.092647059 0.72745098
0 0.41470588 0.62830882
0.0024509804 0.42254902 0.64724265
0.013051471 0.40710784 0.68186275
0.17098652 0.34064032 0.7379136
0.50980392 0.35704657 0.76813725
0.70882353 0.34166667 0.78296569
0.80870098 0.34791667 0.78238358
0.84178922 0.37189032 0.79768689
0.85477941 0.38455882 0.79963235
0.019117647 0.53627451 0.70294118
0.014644608 0.54883578 0.71844363
0.016421569 0.56911765 0.76078431
0.086151961 0.57046569 0.80992647
0.5375 0.60588235 0.84093137
0.778125 0.625 0.85612745
0.87879902 0.62990196 0.85723039
0.91421569 0.64583333 0.85931373
0.93284314 0.67058824 0.86470588
0.023039216 0.63676471 0.76078431
0.0057444853 0.65744485 0.77971814
0.017034314 0.69546569 0.80931373
0.073039216 0.74080882 0.85147059
0.53946078 0.80196078 0.88854167
0.81139706 0.83235294 0.90147059
0.92545956 0.83615196 0.90539216
0.96577819 0.85183824 0.90258885
0.98186275 0.87536765 0.91029412
0.04754902 0.6754902 0.78210784
0.033609069 0.70790441 0.80539216
0.05502451 0.75196078 0.83602941
0.040778186 0.81908701 0.88118873
0.52254902 0.8872549 0.91176471
0.82208946 0.92463235 0.92362132
0.94258578 0.94221814 0.921875
0.98468137 0.94715074 0.92352941
0.99534314 0.95588235 0.92671569
0.01629902 0.69938725 0.80012255
0.032858456 0.73736213 0.82768076
0.015900735 0.77892157 0.85499387
0.052895221 0.84420956 0.89563419
0.53884804 0.91378676 0.9216299
0.81907169 0.9557598 0.93667279
0.94025735 0.97389706 0.94227941
0.98705576 0.98040748 0.93959865
0.99914216 0.98431373 0.94656863
0.0019607843 0.7372549 0.83137255
0.047426471 0.77107843 0.85098039
0.011029412 0.80759804 0.87622549
0.058823529 0.86372549 0.91531863
0.56666667 0.92352941 0.93431373
0.82696078 0.96507353 0.94252451
0.94411765 0.98431373 0.95098039
0.99129902 0.99215686 0.95098039
0.99901961 0.98823529 0.95392157
0 0.24509804 0.48137255
0.003002451 0.24797794 0.49846814
0.0037990196 0.21715686 0.51421569
0.20294118 0.0078431373 0.54675245
0.40465686 0 0.58970588
0.56991422 0 0.62089461
0.64901961 0 0.61703431
0.68235294 0 0.62003676
0.69411765 0 0.62401961
0 0.29754902 0.54852941
0 0.29319853 0.55588235
0 0.2748315 0.57107843
0.2120864 0.01372549 0.60790441
0.43829657 0.00045955882 0.64874387
0.59540441 0.0036534926 0.66606924
0.68403799 0.0073529412 0.67446385
0.72189032 0 0.68272825
0.73719363 0.0087622549 0.69362745
0 0.35539216 0.60245098
0 0.35104167 0.60992647
0.00021446078 0.27674632 0.63247549
0.18939951 0.12840074 0.68200061
0.46727941 0.11525735 0.7254902
0.64754902 0.056464461 0.73877145
0.73670343 0.015900735 0.74402574
0.76845895 0.018428309 0.75196078
0.79019608 0.10477941 0.76973039
0.0024509804 0.42990196 0.66011029
0 0.44068627 0.6776348
0.0043658088 0.42928922 0.71079963
0.17427237 0.3560049 0.76825214
0.49534314 0.36602328 0.80980392
0.71618413 0.36059283 0.82892157
0.80243566 0.34511336 0.8272212
0.83676471 0.35071232 0.83155637
0.85441176 0.37990196 0.83921569
0.021078431 0.55122549 0.73161765
0.0049019608 0.55903799 0.74463848
0.0039215686 0.57530637 0.7814951
0.081158088 0.57775735 0.84246324
0.53247549 0.61397059 0.88480392
0.77573529 0.63514093 0.9
0.87205882 0.63658088 0.90637255
0.91400123 0.64583333 0.91029412
0.92941176 0.67083333 0.91789216
0.0022671569 0.63854167 0.77843137
0.013541667 0.66145833 0.79724265
0.014338235 0.69722733 0.82807904
0.032406556 0.75060509 0.88529412
0.521875 0.80456495 0.93112745
0.80564491 0.83811275 0.94804687
0.91813725 0.85330882 0.95543811
0.95882353 0.85059743 0.95490196
0.97401961 0.86452206 0.95343137
0.019607843 0.67855392 0.8
0.0023284314 0.71029412 0.823269
0.021752451 0.75579044 0.85689338
0.035753676 0.82241115 0.91098346
0.52181373 0.89558824 0.95496324
0.79068627 0.92481618 0.9649663
0.94007353 0.95098039 0.97257966
0.98088235 0.96220895 0.97659314
0.98823529 0.96556373 0.97647059
0.030821078 0.71035539 0.81966912
0.011764706 0.74117647 0.84276195
0.023851103 0.77994792 0.87009804
0.061527267 0.85078125 0.92303922
0.52175245 0.91813725 0.96127451
0.80490196 0.95882353 0.97089461
0.93126532 0.98051471 0.97815564
0.98039216 0.98436734 0.97696078
0.98866422 0.98088235 0.96954657
0.034313725 0.7372549 0.83921569
0.00091911765 0.77205882 0.86231618
0.023529412 0.80588235 0.88921569
0.078676471 0.86960784 0.93921569
0.54803922 0.92745098 0.96470588
0.8122549 0.97009804 0.97665441
0.93480392 0.98823529 0.98431373
0.98088235 0.99607843 0.98431373
0.99215686 0.99607843 0.98039216
0 0.27843137 0.52941176
0 0.25931373 0.51029412
0 0.24019608 0.55196078
0.21960784 0.0014705882 0.60735294
0.42156863 0.0039215686 0.62941176
0.59117647 0 0.6627451
0.65784314 0 0.63333333
0.71372549 0 0.68137255
0.72156863 0 0.68235294
0 0.32843137 0.57990196
0 0.31323529 0.58333333
0.0025735294 0.29203431 0.59803922
0.21764706 0.023713235 0.64852941
0.44852941 0.0071078431 0.69485294
0.61666667 0 0.70606618
0.70343137 0 0.71666667
0.73382353 0.003002451 0.71078431
0.75637255 0.019117647 0.73627451
0 0.38235294 0.62647059
0 0.37058824 0.63333333
0.0068627451 0.32230392 0.65098039
0.20784314 0.17708333 0.71164216
0.47401961 0.16421569 0.75098039
0.66127451 0.12708333 0.76960784
0.75416667 0.12990196 0.78039216
0.78627451 0.1245098 0.78627451
0.80980392 0.19705882 0.80490196
0 0.44117647 0.66764706
0 0.45655637 0.69313725
0.0039215686 0.44607843 0.7254902
0.1466299 0.37653186 0.79319853
0.50882353 0.38823529 0.83357843
0.71421569 0.38970588 0.8471201
0.81041667 0.3877451 0.85441176
0.84852941 0.39852941 0.8622549
0.86911765 0.43823529 0.8754902
0 0.54705882 0.73137255
0.0017156863 0.56838235 0.75637255
0.0068627451 0.58186275 0.79019608
0.056862745 0.5875 0.85588235
0.53823529 0.6245098 0.90392157
0.76617647 0.63529412 0.91519608
0.87205882 0.63921569 0.92107843
0.9120098 0.65147059 0.92573529
0.92941176 0.68039216 0.93529412
0.0039215686 0.63823529 0.78333333
0.019607843 0.66519608 0.80490196
0.014583333 0.69816176 0.83578431
0.037254902 0.74411765 0.89264706
0.50637255 0.80906863 0.94534314
0.80251225 0.84417892 0.96617647
0.91323529 0.84362745 0.96715686
0.9622549 0.86078431 0.97254902
0.97401961 0.86470588 0.97009804
0.0078431373 0.67941176 0.80392157
0.048529412 0.71801471 0.83088235
0.0088235294 0.75514706 0.85882353
0.012867647 0.82156863 0.91862745
0.49460784 0.89509804 0.96519608
0.79411765 0.93468137 0.9807598
0.93161765 0.95 0.98431373
0.97659314 0.95526961 0.98823529
0.99215686 0.96078431 0.99215686
0.00049019608 0.71813725 0.82745098
0.00091911765 0.74117647 0.84705882
0.044485294 0.78284314 0.87659314
0.021139706 0.84313725 0.92303922
0.51936275 0.91960784 0.97058824
0.80667892 0.9622549 0.98609069
0.92745098 0.98051471 0.99215686
0.97696078 0.98480392 0.99215686
0.99215686 0.98039216 0.98872549
0 0.73333333 0.83921569
0.041666667 0.77205882 0.86666667
0.0029411765 0.80980392 0.89705882
0.051470588 0.86764706 0.94754902
0.52156863 0.9254902 0.97058824
0.80098039 0.97009804 0.98823529
0.93823529 0.99215686 0.99607843
0.97303922 0.99607843 0.99607843
1 1 1
