site/assets/luts/sha256-35bcc5dbc780961630af597d6836df112d30bef11ee789f05a530cee353b3a5b.cube
# LUTr-Schema-Version: 2
# LUTr-ID: sha256-35bcc5dbc780961630af597d6836df112d30bef11ee789f05a530cee353b3a5b
# LUTr-Title: GYROFLOW CONVERSION Legal to Full
# LUTr-Collection: DJI Blockbuster
# LUTr-Collection-ID: ircgraphic-d-cinelike-blockbuster
# LUTr-Source: https://github.com/IRCGraphic/D-Cinelike-and-Normal-Blockbuster-LUTs
# LUTr-Retrieved: 2026-07-27
# LUTr-Source-File: submissions/ircgraphic-d-cinelike-blockbuster/GYROFLOW CONVERSION Legal to Full.cube
# LUTr-Source-Format: CUBE
# LUTr-Source-SHA256: 35bcc5dbc780961630af597d6836df112d30bef11ee789f05a530cee353b3a5b
# LUTr-License: CC0-1.0
# LUTr-License-URL: https://github.com/IRCGraphic/D-Cinelike-and-Normal-Blockbuster-LUTs/blob/main/LICENSE
# LUTr-License-Basis: repo-license-file
# LUTr-Transform-Class: creative-look
# LUTr-Tags: creative, camera, dji, d-cinelike, cinematic, blockbuster, 3d-lut, cube
# LUTr-Input-Color-Space:
# LUTr-Input-Gamut: unspecified
# LUTr-Input-Transfer: unspecified
# LUTr-Output-Color-Space: srgb
# LUTr-Output-Gamut: rec709
# LUTr-Output-Transfer: srgb
# LUTr-Color-Space-Confidence: camera-profile-input-required
# LUTr-Domain-Normalized: true
# LUTr-Shaper: none
# LUTr-Original-Grid: 4096
# LUTr-Conversion-Grid: 33x33x33
# LUTr-Conversion-Interpolation: linear
# LUTr-Conversion-Method: Source 1D CUBE sampled to browser-compatible 33x33x33 3D CUBE
# LUTr-Conversion-Tool: LUTr scripts/convert-all-to-cube.mjs 2.0.0
# LUTr-Conversion-Date: 2026-07-27
# LUTr-Conversion-Warning: A 4096-sample 1D CUBE was sampled to 33x33x33 for browser-compatible 3D CUBE hosting.
# LUTr-Note: Preserve this metadata and the upstream license notices when redistributing.
TITLE "GYROFLOW CONVERSION Legal to Full"
LUT_3D_SIZE 5
DOMAIN_MIN 0 0 0
DOMAIN_MAX 1 1 1
-0.073059361 -0.073059361 -0.073059361
0.21889269 -0.073059361 -0.073059361
0.51084475 -0.073059361 -0.073059361
0.8027968 -0.073059361 -0.073059361
1.0947489 -0.073059361 -0.073059361
-0.073059361 0.21889269 -0.073059361
0.21889269 0.21889269 -0.073059361
0.51084475 0.21889269 -0.073059361
0.8027968 0.21889269 -0.073059361
1.0947489 0.21889269 -0.073059361
-0.073059361 0.51084475 -0.073059361
0.21889269 0.51084475 -0.073059361
0.51084475 0.51084475 -0.073059361
0.8027968 0.51084475 -0.073059361
1.0947489 0.51084475 -0.073059361
-0.073059361 0.8027968 -0.073059361
0.21889269 0.8027968 -0.073059361
0.51084475 0.8027968 -0.073059361
0.8027968 0.8027968 -0.073059361
1.0947489 0.8027968 -0.073059361
-0.073059361 1.0947489 -0.073059361
0.21889269 1.0947489 -0.073059361
0.51084475 1.0947489 -0.073059361
0.8027968 1.0947489 -0.073059361
1.0947489 1.0947489 -0.073059361
-0.073059361 -0.073059361 0.21889269
0.21889269 -0.073059361 0.21889269
0.51084475 -0.073059361 0.21889269
0.8027968 -0.073059361 0.21889269
1.0947489 -0.073059361 0.21889269
-0.073059361 0.21889269 0.21889269
0.21889269 0.21889269 0.21889269
0.51084475 0.21889269 0.21889269
0.8027968 0.21889269 0.21889269
1.0947489 0.21889269 0.21889269
-0.073059361 0.51084475 0.21889269
0.21889269 0.51084475 0.21889269
0.51084475 0.51084475 0.21889269
0.8027968 0.51084475 0.21889269
1.0947489 0.51084475 0.21889269
-0.073059361 0.8027968 0.21889269
0.21889269 0.8027968 0.21889269
0.51084475 0.8027968 0.21889269
0.8027968 0.8027968 0.21889269
1.0947489 0.8027968 0.21889269
-0.073059361 1.0947489 0.21889269
0.21889269 1.0947489 0.21889269
0.51084475 1.0947489 0.21889269
0.8027968 1.0947489 0.21889269
1.0947489 1.0947489 0.21889269
-0.073059361 -0.073059361 0.51084475
0.21889269 -0.073059361 0.51084475
0.51084475 -0.073059361 0.51084475
0.8027968 -0.073059361 0.51084475
1.0947489 -0.073059361 0.51084475
-0.073059361 0.21889269 0.51084475
0.21889269 0.21889269 0.51084475
0.51084475 0.21889269 0.51084475
0.8027968 0.21889269 0.51084475
1.0947489 0.21889269 0.51084475
-0.073059361 0.51084475 0.51084475
0.21889269 0.51084475 0.51084475
0.51084475 0.51084475 0.51084475
0.8027968 0.51084475 0.51084475
1.0947489 0.51084475 0.51084475
-0.073059361 0.8027968 0.51084475
0.21889269 0.8027968 0.51084475
0.51084475 0.8027968 0.51084475
0.8027968 0.8027968 0.51084475
1.0947489 0.8027968 0.51084475
-0.073059361 1.0947489 0.51084475
0.21889269 1.0947489 0.51084475
0.51084475 1.0947489 0.51084475
0.8027968 1.0947489 0.51084475
1.0947489 1.0947489 0.51084475
-0.073059361 -0.073059361 0.8027968
0.21889269 -0.073059361 0.8027968
0.51084475 -0.073059361 0.8027968
0.8027968 -0.073059361 0.8027968
1.0947489 -0.073059361 0.8027968
-0.073059361 0.21889269 0.8027968
0.21889269 0.21889269 0.8027968
0.51084475 0.21889269 0.8027968
0.8027968 0.21889269 0.8027968
1.0947489 0.21889269 0.8027968
-0.073059361 0.51084475 0.8027968
0.21889269 0.51084475 0.8027968
0.51084475 0.51084475 0.8027968
0.8027968 0.51084475 0.8027968
1.0947489 0.51084475 0.8027968
-0.073059361 0.8027968 0.8027968
0.21889269 0.8027968 0.8027968
0.51084475 0.8027968 0.8027968
0.8027968 0.8027968 0.8027968
1.0947489 0.8027968 0.8027968
-0.073059361 1.0947489 0.8027968
0.21889269 1.0947489 0.8027968
0.51084475 1.0947489 0.8027968
0.8027968 1.0947489 0.8027968
1.0947489 1.0947489 0.8027968
-0.073059361 -0.073059361 1.0947489
0.21889269 -0.073059361 1.0947489
0.51084475 -0.073059361 1.0947489
0.8027968 -0.073059361 1.0947489
1.0947489 -0.073059361 1.0947489
-0.073059361 0.21889269 1.0947489
0.21889269 0.21889269 1.0947489
0.51084475 0.21889269 1.0947489
0.8027968 0.21889269 1.0947489
1.0947489 0.21889269 1.0947489
-0.073059361 0.51084475 1.0947489
0.21889269 0.51084475 1.0947489
0.51084475 0.51084475 1.0947489
0.8027968 0.51084475 1.0947489
1.0947489 0.51084475 1.0947489
-0.073059361 0.8027968 1.0947489
0.21889269 0.8027968 1.0947489
0.51084475 0.8027968 1.0947489
0.8027968 0.8027968 1.0947489
1.0947489 0.8027968 1.0947489
-0.073059361 1.0947489 1.0947489
0.21889269 1.0947489 1.0947489
0.51084475 1.0947489 1.0947489
0.8027968 1.0947489 1.0947489
1.0947489 1.0947489 1.0947489
