site/assets/luts/sha256-f1b21d6087b214d70c0cd2bbb2855886bb18221eb1a983f61e7787547847f47c.cube
# LUTr-Schema-Version: 2
# LUTr-ID: sha256-f1b21d6087b214d70c0cd2bbb2855886bb18221eb1a983f61e7787547847f47c
# LUTr-Title: kodak tmax 3200 -
# LUTr-Collection: Natron HaldCLUT
# LUTr-Collection-ID: natron-haldclut-presets
# LUTr-Source: https://github.com/NatronGitHub/clut
# LUTr-Retrieved: 2026-07-27
# LUTr-Source-File: submissions/natron-haldclut-presets/negative_new/kodak_tmax_3200_-.png
# LUTr-Source-Format: HALD-PNG
# LUTr-Source-SHA256: f1b21d6087b214d70c0cd2bbb2855886bb18221eb1a983f61e7787547847f47c
# LUTr-License: CC-BY-SA-4.0
# LUTr-License-URL: https://github.com/NatronGitHub/clut#license
# LUTr-License-Basis: repo-license-file
# LUTr-Transform-Class: film-emulation
# LUTr-Tags: creative, film, film-emulation, hald-clut, natron, png, cube
# LUTr-Input-Color-Space: srgb
# LUTr-Input-Gamut: rec709
# LUTr-Input-Transfer: srgb
# LUTr-Output-Color-Space: srgb
# LUTr-Output-Gamut: rec709
# LUTr-Output-Transfer: srgb
# LUTr-Color-Space-Confidence: assumed-display-referred
# LUTr-Domain-Normalized: true
# LUTr-Shaper: none
# LUTr-Original-Grid: 64x64x64
# LUTr-Conversion-Grid: 25x25x25
# LUTr-Conversion-Interpolation: trilinear
# LUTr-Conversion-Method: HALD-PNG LUT image decoded at 16-bit and sampled to 25x25x25 3D CUBE
# LUTr-Conversion-Tool: LUTr scripts/convert-all-to-cube.mjs 2.0.0
# LUTr-Conversion-Date: 2026-07-27
# LUTr-Note: Preserve this metadata and the upstream license notices when redistributing.
TITLE "kodak tmax 3200 -"
LUT_3D_SIZE 25
DOMAIN_MIN 0 0 0
DOMAIN_MAX 1 1 1
0.0078431373 0.0078431373 0.0078431373
0.0078431373 0.0078431373 0.0078431373
0.0039215686 0.0039215686 0.0039215686
0.0068627451 0.0068627451 0.0068627451
0.019607843 0.019607843 0.019607843
0.026960784 0.026960784 0.026960784
0.023529412 0.023529412 0.023529412
0.018627451 0.018627451 0.018627451
0.035294118 0.035294118 0.035294118
0.043137255 0.043137255 0.043137255
0.056862745 0.056862745 0.056862745
0.074019608 0.074019608 0.074019608
0.096078431 0.096078431 0.096078431
0.12696078 0.12696078 0.12696078
0.15784314 0.15784314 0.15784314
0.19019608 0.19019608 0.19019608
0.21568627 0.21568627 0.21568627
0.22990196 0.22990196 0.22990196
0.24411765 0.24411765 0.24411765
0.25441176 0.25441176 0.25441176
0.26470588 0.26470588 0.26470588
0.27941176 0.27941176 0.27941176
0.3 0.3 0.3
0.32058824 0.32058824 0.32058824
0.34117647 0.34117647 0.34117647
0.022058824 0.022058824 0.022058824
0.020588235 0.020588235 0.020588235
0.018137255 0.018137255 0.018137255
0.020588235 0.020588235 0.020588235
0.031862745 0.031862745 0.031862745
0.037745098 0.037745098 0.037745098
0.039828431 0.039828431 0.039828431
0.051960784 0.051960784 0.051960784
0.057352941 0.057352941 0.057352941
0.064338235 0.064338235 0.064338235
0.083823529 0.083823529 0.083823529
0.10441176 0.10441176 0.10441176
0.11838235 0.11838235 0.11838235
0.13939951 0.13939951 0.13939951
0.16482843 0.16482843 0.16482843
0.19601716 0.19601716 0.19601716
0.21813725 0.21813725 0.21813725
0.23327206 0.23327206 0.23327206
0.2504902 0.2504902 0.2504902
0.26078431 0.26078431 0.26078431
0.275 0.275 0.275
0.29185049 0.29185049 0.29185049
0.3127451 0.3127451 0.3127451
0.3338848 0.3338848 0.3338848
0.35147059 0.35147059 0.35147059
0.037254902 0.037254902 0.037254902
0.03627451 0.03627451 0.03627451
0.03627451 0.03627451 0.03627451
0.039828431 0.039828431 0.039828431
0.05 0.05 0.05
0.058333333 0.058333333 0.058333333
0.071568627 0.071568627 0.071568627
0.080392157 0.080392157 0.080392157
0.081372549 0.081372549 0.081372549
0.085171569 0.085171569 0.085171569
0.11078431 0.11078431 0.11078431
0.13431373 0.13431373 0.13431373
0.15 0.15 0.15
0.16470588 0.16470588 0.16470588
0.18210784 0.18210784 0.18210784
0.20392157 0.20392157 0.20392157
0.2245098 0.2245098 0.2245098
0.24117647 0.24117647 0.24117647
0.26004902 0.26004902 0.26004902
0.275 0.275 0.275
0.2872549 0.2872549 0.2872549
0.30490196 0.30490196 0.30490196
0.32843137 0.32843137 0.32843137
0.34901961 0.34901961 0.34901961
0.36568627 0.36568627 0.36568627
0.053921569 0.053921569 0.053921569
0.050490196 0.050490196 0.050490196
0.050490196 0.050490196 0.050490196
0.057352941 0.057352941 0.057352941
0.069362745 0.069362745 0.069362745
0.085784314 0.085784314 0.085784314
0.10245098 0.10245098 0.10245098
0.1096201 0.1096201 0.1096201
0.11568627 0.11568627 0.11568627
0.12598039 0.12598039 0.12598039
0.14509804 0.14509804 0.14509804
0.1622549 0.1622549 0.1622549
0.18088235 0.18088235 0.18088235
0.19558824 0.19558824 0.19558824
0.20968137 0.20968137 0.20968137
0.22371324 0.22371324 0.22371324
0.23823529 0.23823529 0.23823529
0.25275735 0.25275735 0.25275735
0.26813725 0.26813725 0.26813725
0.2848652 0.2848652 0.2848652
0.30122549 0.30122549 0.30122549
0.32156863 0.32156863 0.32156863
0.34264706 0.34264706 0.34264706
0.36666667 0.36666667 0.36666667
0.37941176 0.37941176 0.37941176
0.07254902 0.07254902 0.07254902
0.07254902 0.07254902 0.07254902
0.070588235 0.070588235 0.070588235
0.083333333 0.083333333 0.083333333
0.1 0.1 0.1
0.11666667 0.11666667 0.11666667
0.13333333 0.13333333 0.13333333
0.14656863 0.14656863 0.14656863
0.15686275 0.15686275 0.15686275
0.16838235 0.16838235 0.16838235
0.18186275 0.18186275 0.18186275
0.19730392 0.19730392 0.19730392
0.21372549 0.21372549 0.21372549
0.22647059 0.22647059 0.22647059
0.24019608 0.24019608 0.24019608
0.25245098 0.25245098 0.25245098
0.2627451 0.2627451 0.2627451
0.275 0.275 0.275
0.28578431 0.28578431 0.28578431
0.29754902 0.29754902 0.29754902
0.31372549 0.31372549 0.31372549
0.33823529 0.33823529 0.33823529
0.3622549 0.3622549 0.3622549
0.38333333 0.38333333 0.38333333
0.39607843 0.39607843 0.39607843
0.11176471 0.11176471 0.11176471
0.11176471 0.11176471 0.11176471
0.11311275 0.11311275 0.11311275
0.12303922 0.12303922 0.12303922
0.13676471 0.13676471 0.13676471
0.15104167 0.15104167 0.15104167
0.16519608 0.16519608 0.16519608
0.17959559 0.17959559 0.17959559
0.19362745 0.19362745 0.19362745
0.20422794 0.20422794 0.20422794
0.21813725 0.21813725 0.21813725
0.23192402 0.23192402 0.23192402
0.24485294 0.24485294 0.24485294
0.25778186 0.25778186 0.25778186
0.27107843 0.27107843 0.27107843
0.28137255 0.28137255 0.28137255
0.29117647 0.29117647 0.29117647
0.30147059 0.30147059 0.30147059
0.3122549 0.3122549 0.3122549
0.32254902 0.32254902 0.32254902
0.33872549 0.33872549 0.33872549
0.35931373 0.35931373 0.35931373
0.38333333 0.38333333 0.38333333
0.40392157 0.40392157 0.40392157
0.4127451 0.4127451 0.4127451
0.15294118 0.15294118 0.15294118
0.15294118 0.15294118 0.15294118
0.15784314 0.15784314 0.15784314
0.16164216 0.16164216 0.16164216
0.16764706 0.16764706 0.16764706
0.18235294 0.18235294 0.18235294
0.19681373 0.19681373 0.19681373
0.21029412 0.21029412 0.21029412
0.22156863 0.22156863 0.22156863
0.23762255 0.23762255 0.23762255
0.2497549 0.2497549 0.2497549
0.26323529 0.26323529 0.26323529
0.27745098 0.27745098 0.27745098
0.29166667 0.29166667 0.29166667
0.30196078 0.30196078 0.30196078
0.31115196 0.31115196 0.31115196
0.31862745 0.31862745 0.31862745
0.32892157 0.32892157 0.32892157
0.33921569 0.33921569 0.33921569
0.35343137 0.35343137 0.35343137
0.36960784 0.36960784 0.36960784
0.38627451 0.38627451 0.38627451
0.40392157 0.40392157 0.40392157
0.4245098 0.4245098 0.4245098
0.43333333 0.43333333 0.43333333
0.19411765 0.19411765 0.19411765
0.19803922 0.19803922 0.19803922
0.19803922 0.19803922 0.19803922
0.2004902 0.2004902 0.2004902
0.2004902 0.2004902 0.2004902
0.2127451 0.2127451 0.2127451
0.2254902 0.2254902 0.2254902
0.2372549 0.2372549 0.2372549
0.24754902 0.24754902 0.24754902
0.2651348 0.2651348 0.2651348
0.28088235 0.28088235 0.28088235
0.29754902 0.29754902 0.29754902
0.3122549 0.3122549 0.3122549
0.32254902 0.32254902 0.32254902
0.33284314 0.33284314 0.33284314
0.34074755 0.34074755 0.34074755
0.3495098 0.3495098 0.3495098
0.35980392 0.35980392 0.35980392
0.37046569 0.37046569 0.37046569
0.38560049 0.38560049 0.38560049
0.40122549 0.40122549 0.40122549
0.41666667 0.41666667 0.41666667
0.43088235 0.43088235 0.43088235
0.44601716 0.44601716 0.44601716
0.45 0.45 0.45
0.23137255 0.23137255 0.23137255
0.23529412 0.23529412 0.23529412
0.23529412 0.23529412 0.23529412
0.23529412 0.23529412 0.23529412
0.23529412 0.23529412 0.23529412
0.23970588 0.23970588 0.23970588
0.25294118 0.25294118 0.25294118
0.26421569 0.26421569 0.26421569
0.2745098 0.2745098 0.2745098
0.29117647 0.29117647 0.29117647
0.30784314 0.30784314 0.30784314
0.325 0.325 0.325
0.34313725 0.34313725 0.34313725
0.35686275 0.35686275 0.35686275
0.36372549 0.36372549 0.36372549
0.37009804 0.37009804 0.37009804
0.38039216 0.38039216 0.38039216
0.39068627 0.39068627 0.39068627
0.40490196 0.40490196 0.40490196
0.41911765 0.41911765 0.41911765
0.43333333 0.43333333 0.43333333
0.45147059 0.45147059 0.45147059
0.46568627 0.46568627 0.46568627
0.48137255 0.48137255 0.48137255
0.49019608 0.49019608 0.49019608
0.26617647 0.26617647 0.26617647
0.26617647 0.26617647 0.26617647
0.26617647 0.26617647 0.26617647
0.26617647 0.26617647 0.26617647
0.26617647 0.26617647 0.26617647
0.27058824 0.27058824 0.27058824
0.28088235 0.28088235 0.28088235
0.29117647 0.29117647 0.29117647
0.30539216 0.30539216 0.30539216
0.31660539 0.31660539 0.31660539
0.33235294 0.33235294 0.33235294
0.34932598 0.34932598 0.34932598
0.36691176 0.36691176 0.36691176
0.38186275 0.38186275 0.38186275
0.39215686 0.39215686 0.39215686
0.40098039 0.40098039 0.40098039
0.41127451 0.41127451 0.41127451
0.42310049 0.42310049 0.42310049
0.43860294 0.43860294 0.43860294
0.45373775 0.45373775 0.45373775
0.46936275 0.46936275 0.46936275
0.48529412 0.48529412 0.48529412
0.50588235 0.50588235 0.50588235
0.52254902 0.52254902 0.52254902
0.53137255 0.53137255 0.53137255
0.30098039 0.30098039 0.30098039
0.30098039 0.30098039 0.30098039
0.30098039 0.30098039 0.30098039
0.30098039 0.30098039 0.30098039
0.30098039 0.30098039 0.30098039
0.30232843 0.30232843 0.30232843
0.31176471 0.31176471 0.31176471
0.32205882 0.32205882 0.32205882
0.33235294 0.33235294 0.33235294
0.34264706 0.34264706 0.34264706
0.35759804 0.35759804 0.35759804
0.37365196 0.37365196 0.37365196
0.38872549 0.38872549 0.38872549
0.40245098 0.40245098 0.40245098
0.41348039 0.41348039 0.41348039
0.42732843 0.42732843 0.42732843
0.44215686 0.44215686 0.44215686
0.45698529 0.45698529 0.45698529
0.47230392 0.47230392 0.47230392
0.48958333 0.48958333 0.48958333
0.50588235 0.50588235 0.50588235
0.52647059 0.52647059 0.52647059
0.54387255 0.54387255 0.54387255
0.56372549 0.56372549 0.56372549
0.57254902 0.57254902 0.57254902
0.33578431 0.33578431 0.33578431
0.33578431 0.33578431 0.33578431
0.33443627 0.33443627 0.33443627
0.33186275 0.33186275 0.33186275
0.33186275 0.33186275 0.33186275
0.33578431 0.33578431 0.33578431
0.34264706 0.34264706 0.34264706
0.3504902 0.3504902 0.3504902
0.36323529 0.36323529 0.36323529
0.37009804 0.37009804 0.37009804
0.38125 0.38125 0.38125
0.39803922 0.39803922 0.39803922
0.4125 0.4125 0.4125
0.42346814 0.42346814 0.42346814
0.43982843 0.43982843 0.43982843
0.45637255 0.45637255 0.45637255
0.47303922 0.47303922 0.47303922
0.48970588 0.48970588 0.48970588
0.50894608 0.50894608 0.50894608
0.52647059 0.52647059 0.52647059
0.54705882 0.54705882 0.54705882
0.56764706 0.56764706 0.56764706
0.58517157 0.58517157 0.58517157
0.60490196 0.60490196 0.60490196
0.61764706 0.61764706 0.61764706
0.37058824 0.37058824 0.37058824
0.37058824 0.37058824 0.37058824
0.36813725 0.36813725 0.36813725
0.36666667 0.36666667 0.36666667
0.36568627 0.36568627 0.36568627
0.36715686 0.36715686 0.36715686
0.37352941 0.37352941 0.37352941
0.38382353 0.38382353 0.38382353
0.39019608 0.39019608 0.39019608
0.4004902 0.4004902 0.4004902
0.40686275 0.40686275 0.40686275
0.41911765 0.41911765 0.41911765
0.43431373 0.43431373 0.43431373
0.45171569 0.45171569 0.45171569
0.46715686 0.46715686 0.46715686
0.48259804 0.48259804 0.48259804
0.49803922 0.49803922 0.49803922
0.51666667 0.51666667 0.51666667
0.5372549 0.5372549 0.5372549
0.56127451 0.56127451 0.56127451
0.58529412 0.58529412 0.58529412
0.60882353 0.60882353 0.60882353
0.62941176 0.62941176 0.62941176
0.64926471 0.64926471 0.64926471
0.6627451 0.6627451 0.6627451
0.40931373 0.40931373 0.40931373
0.40588235 0.40588235 0.40588235
0.40453431 0.40453431 0.40453431
0.40153186 0.40153186 0.40153186
0.3997549 0.3997549 0.3997549
0.40147059 0.40147059 0.40147059
0.4057598 0.4057598 0.4057598
0.41470588 0.41470588 0.41470588
0.425 0.425 0.425
0.43137255 0.43137255 0.43137255
0.43823529 0.43823529 0.43823529
0.44803922 0.44803922 0.44803922
0.46029412 0.46029412 0.46029412
0.47996324 0.47996324 0.47996324
0.49448529 0.49448529 0.49448529
0.50851716 0.50851716 0.50851716
0.52303922 0.52303922 0.52303922
0.54362745 0.54362745 0.54362745
0.56813725 0.56813725 0.56813725
0.59215686 0.59215686 0.59215686
0.61715686 0.61715686 0.61715686
0.64209559 0.64209559 0.64209559
0.66617647 0.66617647 0.66617647
0.69068627 0.69068627 0.69068627
0.70735294 0.70735294 0.70735294
0.44705882 0.44705882 0.44705882
0.4435049 0.4435049 0.4435049
0.44240196 0.44240196 0.44240196
0.43921569 0.43921569 0.43921569
0.43578431 0.43578431 0.43578431
0.43627451 0.43627451 0.43627451
0.43995098 0.43995098 0.43995098
0.44852941 0.44852941 0.44852941
0.45588235 0.45588235 0.45588235
0.46617647 0.46617647 0.46617647
0.4754902 0.4754902 0.4754902
0.48578431 0.48578431 0.48578431
0.49313725 0.49313725 0.49313725
0.50477941 0.50477941 0.50477941
0.51862745 0.51862745 0.51862745
0.53223039 0.53223039 0.53223039
0.55 0.55 0.55
0.57340686 0.57340686 0.57340686
0.59607843 0.59607843 0.59607843
0.62046569 0.62046569 0.62046569
0.64656863 0.64656863 0.64656863
0.66997549 0.66997549 0.66997549
0.69411765 0.69411765 0.69411765
0.71764706 0.71764706 0.71764706
0.73235294 0.73235294 0.73235294
0.48431373 0.48431373 0.48431373
0.48431373 0.48431373 0.48431373
0.48039216 0.48039216 0.48039216
0.47647059 0.47647059 0.47647059
0.475 0.475 0.475
0.47647059 0.47647059 0.47647059
0.47647059 0.47647059 0.47647059
0.48339461 0.48339461 0.48339461
0.49215686 0.49215686 0.49215686
0.50245098 0.50245098 0.50245098
0.51237745 0.51237745 0.51237745
0.52156863 0.52156863 0.52156863
0.52794118 0.52794118 0.52794118
0.53431373 0.53431373 0.53431373
0.54460784 0.54460784 0.54460784
0.55790441 0.55790441 0.55790441
0.57696078 0.57696078 0.57696078
0.60091912 0.60091912 0.60091912
0.62487745 0.62487745 0.62487745
0.64871324 0.64871324 0.64871324
0.67034314 0.67034314 0.67034314
0.69411765 0.69411765 0.69411765
0.71764706 0.71764706 0.71764706
0.73921569 0.73921569 0.73921569
0.75196078 0.75196078 0.75196078
0.5254902 0.5254902 0.5254902
0.52303922 0.52303922 0.52303922
0.52058824 0.52058824 0.52058824
0.51764706 0.51764706 0.51764706
0.51764706 0.51764706 0.51764706
0.51764706 0.51764706 0.51764706
0.52058824 0.52058824 0.52058824
0.52303922 0.52303922 0.52303922
0.52941176 0.52941176 0.52941176
0.53970588 0.53970588 0.53970588
0.54901961 0.54901961 0.54901961
0.55637255 0.55637255 0.55637255
0.56078431 0.56078431 0.56078431
0.56862745 0.56862745 0.56862745
0.57254902 0.57254902 0.57254902
0.58333333 0.58333333 0.58333333
0.60392157 0.60392157 0.60392157
0.62696078 0.62696078 0.62696078
0.64901961 0.64901961 0.64901961
0.66960784 0.66960784 0.66960784
0.69411765 0.69411765 0.69411765
0.71470588 0.71470588 0.71470588
0.73823529 0.73823529 0.73823529
0.75833333 0.75833333 0.75833333
0.77254902 0.77254902 0.77254902
0.56666667 0.56666667 0.56666667
0.56421569 0.56421569 0.56421569
0.56237745 0.56237745 0.56237745
0.55882353 0.55882353 0.55882353
0.56127451 0.56127451 0.56127451
0.5627451 0.5627451 0.5627451
0.56458333 0.56458333 0.56458333
0.56666667 0.56666667 0.56666667
0.57058824 0.57058824 0.57058824
0.57696078 0.57696078 0.57696078
0.58443627 0.58443627 0.58443627
0.59148284 0.59148284 0.59148284
0.59803922 0.59803922 0.59803922
0.60588235 0.60588235 0.60588235
0.6127451 0.6127451 0.6127451
0.62303922 0.62303922 0.62303922
0.63480392 0.63480392 0.63480392
0.65386029 0.65386029 0.65386029
0.67352941 0.67352941 0.67352941
0.69411765 0.69411765 0.69411765
0.71470588 0.71470588 0.71470588
0.73529412 0.73529412 0.73529412
0.75980392 0.75980392 0.75980392
0.77892157 0.77892157 0.77892157
0.79313725 0.79313725 0.79313725
0.60784314 0.60784314 0.60784314
0.60784314 0.60784314 0.60784314
0.60490196 0.60490196 0.60490196
0.60490196 0.60490196 0.60490196
0.60784314 0.60784314 0.60784314
0.60882353 0.60882353 0.60882353
0.61102941 0.61102941 0.61102941
0.6127451 0.6127451 0.6127451
0.61568627 0.61568627 0.61568627
0.61960784 0.61960784 0.61960784
0.6252451 0.6252451 0.6252451
0.63480392 0.63480392 0.63480392
0.64117647 0.64117647 0.64117647
0.64754902 0.64754902 0.64754902
0.65416667 0.65416667 0.65416667
0.66421569 0.66421569 0.66421569
0.6745098 0.6745098 0.6745098
0.68872549 0.68872549 0.68872549
0.70612745 0.70612745 0.70612745
0.72095588 0.72095588 0.72095588
0.73823529 0.73823529 0.73823529
0.75723039 0.75723039 0.75723039
0.78039216 0.78039216 0.78039216
0.7995098 0.7995098 0.7995098
0.81372549 0.81372549 0.81372549
0.65245098 0.65245098 0.65245098
0.65245098 0.65245098 0.65245098
0.65245098 0.65245098 0.65245098
0.65245098 0.65245098 0.65245098
0.65465686 0.65465686 0.65465686
0.65637255 0.65637255 0.65637255
0.65686275 0.65686275 0.65686275
0.66029412 0.66029412 0.66029412
0.66078431 0.66078431 0.66078431
0.66452206 0.66452206 0.66452206
0.66960784 0.66960784 0.66960784
0.67640931 0.67640931 0.67640931
0.68406863 0.68406863 0.68406863
0.69172794 0.69172794 0.69172794
0.69901961 0.69901961 0.69901961
0.70539216 0.70539216 0.70539216
0.71568627 0.71568627 0.71568627
0.72990196 0.72990196 0.72990196
0.74411765 0.74411765 0.74411765
0.75833333 0.75833333 0.75833333
0.77254902 0.77254902 0.77254902
0.7872549 0.7872549 0.7872549
0.80183824 0.80183824 0.80183824
0.82009804 0.82009804 0.82009804
0.83431373 0.83431373 0.83431373
0.69803922 0.69803922 0.69803922
0.69803922 0.69803922 0.69803922
0.7 0.7 0.7
0.7 0.7 0.7
0.70294118 0.70294118 0.70294118
0.70392157 0.70392157 0.70392157
0.70588235 0.70588235 0.70588235
0.70784314 0.70784314 0.70784314
0.70980392 0.70980392 0.70980392
0.71176471 0.71176471 0.71176471
0.71470588 0.71470588 0.71470588
0.72132353 0.72132353 0.72132353
0.72843137 0.72843137 0.72843137
0.73553922 0.73553922 0.73553922
0.74264706 0.74264706 0.74264706
0.7497549 0.7497549 0.7497549
0.75686275 0.75686275 0.75686275
0.77107843 0.77107843 0.77107843
0.78529412 0.78529412 0.78529412
0.79926471 0.79926471 0.79926471
0.80980392 0.80980392 0.80980392
0.81813725 0.81813725 0.81813725
0.83137255 0.83137255 0.83137255
0.84534314 0.84534314 0.84534314
0.85882353 0.85882353 0.85882353
0.74754902 0.74754902 0.74754902
0.74754902 0.74754902 0.74754902
0.74754902 0.74754902 0.74754902
0.74754902 0.74754902 0.74754902
0.75122549 0.75122549 0.75122549
0.75189951 0.75189951 0.75189951
0.75539216 0.75539216 0.75539216
0.75539216 0.75539216 0.75539216
0.75882353 0.75882353 0.75882353
0.7591299 0.7591299 0.7591299
0.76017157 0.76017157 0.76017157
0.76623775 0.76623775 0.76623775
0.77254902 0.77254902 0.77254902
0.77892157 0.77892157 0.77892157
0.78541667 0.78541667 0.78541667
0.79166667 0.79166667 0.79166667
0.79852941 0.79852941 0.79852941
0.8122549 0.8122549 0.8122549
0.82647059 0.82647059 0.82647059
0.83676471 0.83676471 0.83676471
0.84681373 0.84681373 0.84681373
0.85294118 0.85294118 0.85294118
0.85931373 0.85931373 0.85931373
0.87303922 0.87303922 0.87303922
0.88333333 0.88333333 0.88333333
0.79509804 0.79509804 0.79509804
0.79509804 0.79509804 0.79509804
0.79607843 0.79607843 0.79607843
0.79607843 0.79607843 0.79607843
0.79901961 0.79901961 0.79901961
0.80036765 0.80036765 0.80036765
0.80367647 0.80367647 0.80367647
0.80686275 0.80686275 0.80686275
0.80686275 0.80686275 0.80686275
0.80686275 0.80686275 0.80686275
0.80710784 0.80710784 0.80710784
0.81041667 0.81041667 0.81041667
0.81568627 0.81568627 0.81568627
0.82267157 0.82267157 0.82267157
0.83039216 0.83039216 0.83039216
0.83529412 0.83529412 0.83529412
0.84313725 0.84313725 0.84313725
0.85343137 0.85343137 0.85343137
0.86397059 0.86397059 0.86397059
0.875 0.875 0.875
0.88137255 0.88137255 0.88137255
0.88468137 0.88468137 0.88468137
0.89019608 0.89019608 0.89019608
0.89754902 0.89754902 0.89754902
0.90784314 0.90784314 0.90784314
0.84656863 0.84656863 0.84656863
0.84564951 0.84564951 0.84564951
0.84448529 0.84448529 0.84448529
0.84117647 0.84117647 0.84117647
0.84191176 0.84191176 0.84191176
0.84558824 0.84558824 0.84558824
0.85012255 0.85012255 0.85012255
0.85294118 0.85294118 0.85294118
0.84901961 0.84901961 0.84901961
0.84901961 0.84901961 0.84901961
0.84901961 0.84901961 0.84901961
0.85147059 0.85147059 0.85147059
0.85612745 0.85612745 0.85612745
0.86341912 0.86341912 0.86341912
0.87156863 0.87156863 0.87156863
0.87555147 0.87555147 0.87555147
0.88431373 0.88431373 0.88431373
0.89068627 0.89068627 0.89068627
0.90343137 0.90343137 0.90343137
0.90851716 0.90851716 0.90851716
0.91029412 0.91029412 0.91029412
0.91421569 0.91421569 0.91421569
0.91960784 0.91960784 0.91960784
0.92506127 0.92506127 0.92506127
0.93235294 0.93235294 0.93235294
0.89019608 0.89019608 0.89019608
0.88382353 0.88382353 0.88382353
0.87843137 0.87843137 0.87843137
0.875 0.875 0.875
0.87843137 0.87843137 0.87843137
0.88235294 0.88235294 0.88235294
0.88627451 0.88627451 0.88627451
0.88480392 0.88480392 0.88480392
0.88235294 0.88235294 0.88235294
0.87843137 0.87843137 0.87843137
0.87843137 0.87843137 0.87843137
0.88235294 0.88235294 0.88235294
0.88627451 0.88627451 0.88627451
0.89411765 0.89411765 0.89411765
0.90098039 0.90098039 0.90098039
0.90735294 0.90735294 0.90735294
0.91764706 0.91764706 0.91764706
0.93039216 0.93039216 0.93039216
0.92941176 0.92941176 0.92941176
0.92941176 0.92941176 0.92941176
0.93137255 0.93137255 0.93137255
0.93382353 0.93382353 0.93382353
0.94019608 0.94019608 0.94019608
0.94656863 0.94656863 0.94656863
0.95294118 0.95294118 0.95294118
0.014215686 0.014215686 0.014215686
0.014215686 0.014215686 0.014215686
0.010294118 0.010294118 0.010294118
0.014031863 0.014031863 0.014031863
0.024019608 0.024019608 0.024019608
0.029901961 0.029901961 0.029901961
0.029901961 0.029901961 0.029901961
0.033823529 0.033823529 0.033823529
0.045588235 0.045588235 0.045588235
0.054963235 0.054963235 0.054963235
0.06997549 0.06997549 0.06997549
0.090196078 0.090196078 0.090196078
0.10686275 0.10686275 0.10686275
0.13088235 0.13088235 0.13088235
0.16176471 0.16176471 0.16176471
0.19264706 0.19264706 0.19264706
0.21568627 0.21568627 0.21568627
0.22990196 0.22990196 0.22990196
0.24056373 0.24056373 0.24056373
0.25441176 0.25441176 0.25441176
0.26470588 0.26470588 0.26470588
0.27941176 0.27941176 0.27941176
0.3 0.3 0.3
0.31813725 0.31813725 0.31813725
0.33333333 0.33333333 0.33333333
0.023590686 0.023590686 0.023590686
0.022058824 0.022058824 0.022058824
0.021507353 0.021507353 0.021507353
0.023521752 0.023521752 0.023521752
0.031862745 0.031862745 0.031862745
0.037745098 0.037745098 0.037745098
0.042723652 0.042723652 0.042723652
0.054005821 0.054005821 0.054005821
0.067647059 0.067647059 0.067647059
0.076125919 0.076125919 0.076125919
0.090196078 0.090196078 0.090196078
0.10863971 0.10863971 0.10863971
0.12322304 0.12322304 0.12322304
0.14244792 0.14244792 0.14244792
0.16813725 0.16813725 0.16813725
0.19636183 0.19636183 0.19636183
0.21868873 0.21868873 0.21868873
0.23327206 0.23327206 0.23327206
0.24693627 0.24693627 0.24693627
0.26078431 0.26078431 0.26078431
0.275 0.275 0.275
0.29185049 0.29185049 0.29185049
0.31121324 0.31121324 0.31121324
0.33053768 0.33053768 0.33053768
0.3466299 0.3466299 0.3466299
0.037254902 0.037254902 0.037254902
0.037254902 0.037254902 0.037254902
0.037714461 0.037714461 0.037714461
0.040196078 0.040196078 0.040196078
0.046139706 0.046139706 0.046139706
0.05747549 0.05747549 0.05747549
0.071568627 0.071568627 0.071568627
0.080759804 0.080759804 0.080759804
0.08627451 0.08627451 0.08627451
0.097487745 0.097487745 0.097487745
0.11715686 0.11715686 0.11715686
0.1377451 0.1377451 0.1377451
0.15318627 0.15318627 0.15318627
0.16795343 0.16795343 0.16795343
