site/assets/luts/sha256-a3eb610d4ed0c5b7297b7e23a9e69bf17bbabe48f6421b361294cf3dd73ef7b0.cube
# LUTr-Schema-Version: 2
# LUTr-ID: sha256-a3eb610d4ed0c5b7297b7e23a9e69bf17bbabe48f6421b361294cf3dd73ef7b0
# LUTr-Title: faux infrared
# LUTr-Collection: Natron HaldCLUT
# LUTr-Collection-ID: natron-haldclut-presets
# LUTr-Source: https://github.com/NatronGitHub/clut
# LUTr-Retrieved: 2026-07-27
# LUTr-Source-File: submissions/natron-haldclut-presets/various/faux_infrared.png
# LUTr-Source-Format: HALD-PNG
# LUTr-Source-SHA256: a3eb610d4ed0c5b7297b7e23a9e69bf17bbabe48f6421b361294cf3dd73ef7b0
# LUTr-License: CC-BY-SA-4.0
# LUTr-License-URL: https://github.com/NatronGitHub/clut#license
# LUTr-License-Basis: repo-license-file
# LUTr-Transform-Class: film-emulation
# LUTr-Tags: creative, film, film-emulation, hald-clut, natron, png, cube
# LUTr-Input-Color-Space: srgb
# LUTr-Input-Gamut: rec709
# LUTr-Input-Transfer: srgb
# LUTr-Output-Color-Space: srgb
# LUTr-Output-Gamut: rec709
# LUTr-Output-Transfer: srgb
# LUTr-Color-Space-Confidence: assumed-display-referred
# LUTr-Domain-Normalized: true
# LUTr-Shaper: none
# LUTr-Original-Grid: 64x64x64
# LUTr-Conversion-Grid: 25x25x25
# LUTr-Conversion-Interpolation: trilinear
# LUTr-Conversion-Method: HALD-PNG LUT image decoded at 16-bit and sampled to 25x25x25 3D CUBE
# LUTr-Conversion-Tool: LUTr scripts/convert-all-to-cube.mjs 2.0.0
# LUTr-Conversion-Date: 2026-07-27
# LUTr-Note: Preserve this metadata and the upstream license notices when redistributing.
TITLE "faux infrared"
LUT_3D_SIZE 25
DOMAIN_MIN 0 0 0
DOMAIN_MAX 1 1 1
0 0 0
0.037254902 0.041176471 0.051470588
0.068627451 0.080392157 0.097058824
0.1 0.10098039 0.13529412
0.13137255 0.1254902 0.17058824
0.15833333 0.14313725 0.20245098
0.18627451 0.18039216 0.25392157
0.2122549 0.2122549 0.3
0.23921569 0.24313725 0.34117647
0.28431373 0.27401961 0.37205882
0.3245098 0.30392157 0.40392157
0.35539216 0.3245098 0.44117647
0.38823529 0.35294118 0.48431373
0.43823529 0.39411765 0.52794118
0.4872549 0.43235294 0.57352941
0.51421569 0.45931373 0.60980392
0.54509804 0.48627451 0.65098039
0.58235294 0.52107843 0.69215686
0.61764706 0.55490196 0.73333333
0.64215686 0.58284314 0.7745098
0.67254902 0.60980392 0.81568627
0.71127451 0.64411765 0.85686275
0.74215686 0.67156863 0.89803922
0.77303922 0.69705882 0.94313725
0.80392157 0.72156863 0.98039216
0.03872549 0.049019608 0.045098039
0.045710784 0.063909314 0.060845588
0.059313725 0.084313725 0.083210784
0.093627451 0.10863971 0.125
0.12745098 0.13308824 0.16666667
0.1622549 0.15900735 0.20637255
0.18982843 0.18443627 0.25392157
0.21133578 0.2122549 0.3
0.23676471 0.24068627 0.33872549
0.28131127 0.27401961 0.37058824
0.3245098 0.30490196 0.40392157
0.35569853 0.33057598 0.44117647
0.39534314 0.36127451 0.48553922
0.44136029 0.39626225 0.53137255
0.47990196 0.43051471 0.57291667
0.50839461 0.45686275 0.6122549
0.54019608 0.4877451 0.65098039
0.57990196 0.52352941 0.69607843
0.61519608 0.55490196 0.7372549
0.63707108 0.58039216 0.77714461
0.66887255 0.60857843 0.81887255
0.71176471 0.64460784 0.85931373
0.74607843 0.67254902 0.89803922
0.7745098 0.69761029 0.94313725
0.79656863 0.71911765 0.98186275
0.075490196 0.093137255 0.084313725
0.061764706 0.090318627 0.075
0.05 0.091666667 0.070343137
0.087254902 0.11764706 0.11458333
0.12205882 0.14558824 0.15735294
0.15784314 0.17193627 0.20539216
0.18848039 0.19901961 0.25318627
0.21078431 0.22058824 0.29607843
0.23137255 0.24117647 0.3372549
0.27830882 0.27683824 0.37205882
0.32156863 0.30980392 0.40784314
0.35833333 0.33970588 0.44607843
0.39117647 0.36666667 0.4872549
0.42683824 0.39754902 0.53125
0.45294118 0.42843137 0.56936275
0.47990196 0.45392157 0.60980392
0.50784314 0.47843137 0.65490196
0.54252451 0.50772059 0.69889706
0.57377451 0.5375 0.74117647
0.59987745 0.56617647 0.77855392
0.6372549 0.59852941 0.81960784
0.69656863 0.63921569 0.86078431
0.73431373 0.67058824 0.90196078
0.74693627 0.68823529 0.93872549
0.76078431 0.70196078 0.97352941
0.11960784 0.11666667 0.10490196
0.10667892 0.11421569 0.10655637
0.090196078 0.11715686 0.11078431
0.075306373 0.1283701 0.099203431
0.10857843 0.15441176 0.14019608
0.15098039 0.18529412 0.19509804
0.18443627 0.21311275 0.24534314
0.21164216 0.23854167 0.2908701
0.23137255 0.26568627 0.33333333
0.27254902 0.29264706 0.37205882
0.31421569 0.31997549 0.41078431
0.35147059 0.34362745 0.44901961
0.38112745 0.36666667 0.49019608
0.40245098 0.39754902 0.52745098
0.42561275 0.42843137 0.56862745
0.45294118 0.45392157 0.60980392
0.47990196 0.47843137 0.65490196
0.51029412 0.50275735 0.7
0.54117647 0.52757353 0.74411765
0.56862745 0.55588235 0.78235294
0.60343137 0.58480392 0.82328431
0.6471201 0.61819853 0.86078431
0.67855392 0.64644608 0.90196078
0.70343137 0.67058824 0.94442402
0.72696078 0.69460784 0.9872549
0.1627451 0.14509804 0.13137255
0.14534314 0.13480392 0.14607843
0.1254902 0.12745098 0.15588235
0.10490196 0.13676471 0.14191176
0.10196078 0.16960784 0.13529412
0.13063725 0.1995098 0.17671569
0.16617647 0.22843137 0.22794118
0.20245098 0.25857843 0.28112745
0.22941176 0.28627451 0.32745098
0.2627451 0.31078431 0.36740196
0.30147059 0.33284314 0.40833333
0.34117647 0.34828431 0.45294118
0.36862745 0.37058824 0.49313725
0.38308824 0.39926471 0.53112745
0.40196078 0.42843137 0.56911765
0.42794118 0.45661765 0.60980392
0.46470588 0.48431373 0.65294118
0.50196078 0.51323529 0.69852941
0.53333333 0.5372549 0.74117647
0.5502451 0.55784314 0.78235294
0.57156863 0.57745098 0.82647059
0.60931373 0.60735294 0.86446078
0.64558824 0.64019608 0.90196078
0.67696078 0.66642157 0.94240196
0.70196078 0.69019608 0.97843137
0.20588235 0.18627451 0.17058824
0.18547794 0.16960784 0.18480392
0.15992647 0.14497549 0.19509804
0.14234069 0.14338235 0.19895833
0.14632353 0.19044118 0.18676471
0.10563725 0.20980392 0.15459559
0.14509804 0.24460784 0.21335784
0.18431373 0.27420343 0.26960784
0.21568627 0.29901961 0.31764706
0.24822304 0.32352941 0.36470588
0.28909314 0.34411765 0.41139706
0.32647059 0.36170343 0.45594363
0.35588235 0.38357843 0.49411765
0.3721201 0.4098652 0.534375
0.38578431 0.43468137 0.57254902
0.41323529 0.46421569 0.61372549
0.45441176 0.49460784 0.65490196
0.49589461 0.5254902 0.69852941
0.52708333 0.55147059 0.74117647
0.54803922 0.57205882 0.78235294
0.56838235 0.59264706 0.82303922
0.59797794 0.61764706 0.86078431
0.63186275 0.64558824 0.90453431
0.66256127 0.67156863 0.94705882
0.68578431 0.69460784 0.98480392
0.25098039 0.22745098 0.21176471
0.22977941 0.21078431 0.22598039
0.2120098 0.18921569 0.23627451
0.18823529 0.17561275 0.24276961
0.16813725 0.18823529 0.23676471
0.14816176 0.22009804 0.21323529
0.14656863 0.25490196 0.21617647
0.17794118 0.28578431 0.26323529
0.20882353 0.3127451 0.31078431
0.23578431 0.34264706 0.35588235
0.26691176 0.36862745 0.40563725
0.30208333 0.38835784 0.45257353
0.33186275 0.40931373 0.49264706
0.35490196 0.43468137 0.53137255
0.37843137 0.46102941 0.57254902
0.40477941 0.48664216 0.61372549
0.44117647 0.51176471 0.65490196
0.4877451 0.54080882 0.69852941
0.52745098 0.56642157 0.74411765
0.54546569 0.58664216 0.78235294
0.56519608 0.60833333 0.81960784
0.59460784 0.63443627 0.86078431
0.6254902 0.65955882 0.90196078
0.65428922 0.68541667 0.94705882
0.67254902 0.70784314 0.98137255
0.29607843 0.27254902 0.24754902
0.2872549 0.25588235 0.26176471
0.27071078 0.23713235 0.27205882
0.23137255 0.20949755 0.28363971
0.19681373 0.19044118 0.28897059
0.18382353 0.2254902 0.27303922
0.16715686 0.26311275 0.25134804
0.16464461 0.29607843 0.25238971
0.19460784 0.32696078 0.29509804
0.22457108 0.35692402 0.34264706
0.25147059 0.38872549 0.39509804
0.27665441 0.41715686 0.44865196
0.30808824 0.43970588 0.49019608
0.34166667 0.46292892 0.53137255
0.37414216 0.4877451 0.57365196
0.40147059 0.51415441 0.61464461
0.42990196 0.5377451 0.65490196
0.46960784 0.5598652 0.69607843
0.5064951 0.58137255 0.73970588
0.53333333 0.60196078 0.77873775
0.55735294 0.625 0.81887255
0.59001225 0.64969363 0.85931373
0.61911765 0.6754902 0.9004902
0.64160539 0.70091912 0.94074755
0.65980392 0.72058824 0.97107843
0.3372549 0.31372549 0.28235294
0.33088235 0.29705882 0.29264706
0.31470588 0.27254902 0.30686275
0.28382353 0.24460784 0.32107843
0.25098039 0.21960784 0.33137255
0.21127451 0.22941176 0.32107843
0.19705882 0.26666667 0.30392157
0.17892157 0.30539216 0.28235294
0.18431373 0.3372549 0.27843137
0.20882353 0.36421569 0.30784314
0.2372549 0.39901961 0.37058824
0.26176471 0.43333333 0.43235294
0.29411765 0.46470588 0.49019608
0.33088235 0.49117647 0.53137255
0.36568627 0.51470588 0.57647059
0.39901961 0.54019608 0.61764706
0.41960784 0.56470588 0.65882353
0.45441176 0.58529412 0.69607843
0.48627451 0.60098039 0.7372549
0.52009804 0.61862745 0.77843137
0.54705882 0.64117647 0.81568627
0.57794118 0.66813725 0.85686275
0.60490196 0.69509804 0.89803922
0.62647059 0.72205882 0.93921569
0.64313725 0.74117647 0.96862745
0.37843137 0.34215686 0.31323529
0.37205882 0.32849265 0.32352941
0.35686275 0.30245098 0.34264706
0.33627451 0.2754902 0.3596201
0.30637255 0.25122549 0.37058824
0.24859069 0.24485294 0.36648284
0.22365196 0.2745098 0.36262255
0.21617647 0.32352941 0.35925245
0.20735294 0.37058824 0.35784314
0.20232843 0.37487745 0.29264706
0.23370098 0.40931373 0.34546569
0.2591299 0.44148284 0.40539216
0.29019608 0.48210784 0.47426471
0.32481618 0.51599265 0.53186275
0.35931373 0.54264706 0.57941176
0.38872549 0.56715686 0.62156863
0.40931373 0.59166667 0.66127451
0.44019608 0.61280637 0.70091912
0.47107843 0.62610294 0.73909314
0.50343137 0.64215686 0.77843137
0.53676471 0.66495098 0.81813725
0.56372549 0.6908701 0.85900735
0.5877451 0.71629902 0.89803922
0.6122549 0.74417892 0.94313725
0.62647059 0.76176471 0.96862745
0.41470588 0.35 0.35196078
0.41470588 0.34816176 0.35477941
0.40686275 0.33357843 0.36887255
0.3872549 0.30723039 0.39105392
0.36666667 0.28823529 0.41176471
0.31372549 0.28186275 0.40784314
0.26617647 0.28284314 0.40784314
0.25343137 0.32794118 0.40784314
0.24705882 0.37156863 0.40392157
0.24068627 0.39558824 0.36470588
0.23382353 0.41936275 0.33112745
0.24901961 0.45036765 0.37009804
0.28529412 0.49313725 0.45
0.31813725 0.53982843 0.53014706
0.34901961 0.56862745 0.57941176
0.37598039 0.59313725 0.62095588
0.39901961 0.61764706 0.66568627
0.42598039 0.63921569 0.70428922
0.45686275 0.65588235 0.74117647
0.49117647 0.67303922 0.78235294
0.52647059 0.69313725 0.8245098
0.55428922 0.71801471 0.86556373
0.57745098 0.74117647 0.90220588
0.60232843 0.76568627 0.94276961
0.62254902 0.78235294 0.96862745
0.4495098 0.36715686 0.38284314
0.4495098 0.36715686 0.38547794
0.45294118 0.36617647 0.39742647
0.45545343 0.34810049 0.43143382
0.43823529 0.32965686 0.45294118
0.38235294 0.32303922 0.45245098
0.32732843 0.31311275 0.44901961
0.2872549 0.32009804 0.44901961
0.28431373 0.36127451 0.44509804
0.27843137 0.4057598 0.43535539
0.25931373 0.43235294 0.38982843
0.23658088 0.45729167 0.33719363
0.27303922 0.5 0.42254902
0.30441176 0.53970588 0.49515931
0.33872549 0.57745098 0.5564951
0.36813725 0.6026348 0.60079657
0.39264706 0.62745098 0.64460784
0.41930147 0.65998775 0.69528186
0.44656863 0.68284314 0.7377451
0.48137255 0.7 0.77892157
0.51617647 0.72401961 0.82941176
0.54656863 0.74509804 0.87205882
0.57095588 0.76568627 0.90294118
0.596875 0.78627451 0.93921569
0.61960784 0.79901961 0.96862745
0.48627451 0.40392157 0.40784314
0.48627451 0.40392157 0.41421569
0.49264706 0.39460784 0.43823529
0.50147059 0.37941176 0.46911765
0.49607843 0.36470588 0.49313725
0.44264706 0.35441176 0.49387255
0.3872549 0.34411765 0.49019608
0.32990196 0.32598039 0.48627451
0.30784314 0.35882353 0.48235294
0.3002451 0.41029412 0.48235294
0.28431373 0.46519608 0.48431373
0.27401961 0.49607843 0.45563725
0.25980392 0.49705882 0.39215686
0.28627451 0.53112745 0.44264706
0.32598039 0.57058824 0.51078431
0.36176471 0.60441176 0.57009804
0.38627451 0.6372549 0.61960784
0.4120098 0.6745098 0.67622549
0.44019608 0.70637255 0.72794118
0.47107843 0.72843137 0.77230392
0.50784314 0.74901961 0.81960784
0.54240196 0.76764706 0.86666667
0.56960784 0.78823529 0.90637255
0.59583333 0.80882353 0.94240196
0.61960784 0.82352941 0.97254902
0.52745098 0.44509804 0.43627451
0.52745098 0.43841912 0.44981618
0.53088235 0.42696078 0.475
0.53431373 0.41029412 0.50202206
0.52720588 0.39558824 0.52745098
0.4901348 0.38523284 0.5348652
0.4314951 0.37071078 0.53137255
0.36911765 0.35098039 0.52745098
0.33431373 0.36470588 0.52745098
0.34044118 0.40845588 0.52745098
0.31335784 0.4685049 0.5310049
0.30349265 0.51954657 0.53137255
0.28995098 0.53406863 0.48014706
0.28952206 0.54056373 0.43688725
0.32120098 0.57267157 0.47928922
0.35275735 0.60851716 0.53658088
0.37598039 0.64705882 0.59068627
0.40441176 0.68872549 0.65667892
0.43296569 0.72904412 0.7182598
0.46427696 0.75294118 0.76617647
0.4997549 0.77009804 0.81127451
0.53480392 0.79019608 0.85729167
0.56568627 0.81115196 0.90453431
0.59264706 0.83529412 0.94705882
0.61568627 0.84852941 0.98039216
0.56862745 0.48627451 0.46372549
0.56507353 0.47352941 0.48321078
0.56470588 0.45710784 0.50661765
0.56213235 0.44105392 0.53676471
0.56470588 0.4245098 0.56666667
0.53737745 0.40931373 0.57647059
0.48897059 0.40245098 0.56813725
0.4122549 0.37634804 0.56862745
0.36470588 0.37156863 0.56862745
0.35539216 0.41617647 0.56862745
0.34803922 0.46544118 0.56960784
0.3377451 0.51997549 0.57598039
0.32794118 0.57009804 0.57303922
0.32218137 0.57745098 0.51678922
0.32132353 0.58431373 0.47205882
0.33431373 0.61556373 0.50085784
0.35882353 0.65392157 0.55686275
0.39264706 0.69509804 0.62438725
0.42426471 0.73651961 0.69289216
0.46078431 0.77022059 0.75245098
0.49460784 0.79411765 0.80294118
0.53088235 0.81470588 0.8504902
0.56176471 0.83529412 0.89877451
0.59154412 0.85882353 0.94742647
0.6127451 0.87647059 0.98431373
0.60980392 0.52205882 0.49852941
0.60827206 0.51807598 0.51127451
0.60588235 0.50196078 0.53468137
0.60343137 0.48284314 0.56372549
0.60343137 0.46078431 0.59583333
0.58939951 0.44068627 0.61764706
0.53676471 0.42708333 0.61409314
0.47990196 0.4122549 0.61372549
0.4245098 0.40196078 0.61127451
0.39613971 0.41721814 0.61280637
0.38921569 0.45343137 0.61409314
0.37892157 0.50392157 0.61764706
0.36470588 0.56446078 0.61568627
0.35471814 0.60098039 0.59117647
0.33786765 0.61127451 0.52818627
0.31985294 0.62340686 0.47438725
0.34509804 0.65882353 0.52254902
0.38327206 0.69607843 0.59313725
0.4192402 0.73333333 0.66127451
0.45686275 0.7745098 0.72726716
0.49338235 0.80735294 0.79191176
0.52726716 0.83186275 0.84411765
0.55784314 0.85698529 0.89375
0.5848652 0.88094363 0.94221814
0.60245098 0.90098039 0.98039216
0.65098039 0.55686275 0.52941176
0.65098039 0.55686275 0.53970588
0.65 0.54705882 0.55980392
0.64705882 0.52647059 0.5872549
0.64705882 0.50196078 0.61960784
0.64264706 0.48529412 0.64852941
0.60784314 0.46470588 0.65882353
0.55196078 0.45343137 0.65882353
0.48627451 0.43921569 0.65882353
0.43333333 0.43137255 0.65490196
0.42352941 0.45490196 0.65882353
0.41617647 0.49558824 0.65882353
0.40196078 0.55686275 0.66078431
0.39166667 0.61862745 0.66666667
0.3745098 0.64215686 0.61960784
0.35 0.65 0.5495098
0.34901961 0.66666667 0.52156863
0.37843137 0.69754902 0.56764706
0.41078431 0.7372549 0.63039216
0.44901961 0.7745098 0.69852941
0.49019608 0.81568627 0.77058824
0.52647059 0.85245098 0.83382353
0.55098039 0.87941176 0.88921569
0.57156863 0.90882353 0.94068627
0.58823529 0.92941176 0.98039216
0.69215686 0.5877451 0.56421569
0.69215686 0.5877451 0.57303922
0.69215686 0.58002451 0.58517157
0.6908701 0.56127451 0.60735294
0.69534314 0.54313725 0.64730392
0.70030637 0.52254902 0.68382353
0.68186275 0.50306373 0.70784314
0.61709559 0.48976716 0.70637255
0.5504902 0.47254902 0.70392157
0.48082108 0.45343137 0.70091912
0.44656863 0.46580882 0.7
0.44313725 0.50814951 0.7
0.43357843 0.55563725 0.70196078
0.42009804 0.61176471 0.70490196
0.40833333 0.65526961 0.69129902
0.39117647 0.6778799 0.65
0.38382353 0.69754902 0.61666667
0.37683824 0.70876225 0.57120098
0.39693627 0.7372549 0.59791667
0.43480392 0.78057598 0.66715686
0.47745098 0.82205882 0.73970588
0.51243873 0.86060049 0.80520833
0.53615196 0.89754902 0.87303922
0.55735294 0.93480392 0.93670343
0.57794118 0.9627451 0.98676471
0.73431373 0.61470588 0.59509804
0.73541667 0.61519608 0.60539216
0.73333333 0.60490196 0.61568627
0.73333333 0.59019608 0.63737745
0.7372549 0.56666667 0.67843137
0.74117647 0.54754902 0.71813725
0.73504902 0.54019608 0.74215686
0.6872549 0.52757353 0.74901961
0.61862745 0.50980392 0.74509804
0.5504902 0.49166667 0.74117647
0.48627451 0.47647059 0.73627451
0.46482843 0.50392157 0.73713235
0.45588235 0.54901961 0.74068627
0.44460784 0.59754902 0.74068627
0.43504902 0.64901961 0.73357843
0.425 0.6997549 0.73431373
0.41470588 0.74117647 0.72352941
0.39803922 0.74056373 0.64620098
0.3875 0.74460784 0.58014706
0.4254902 0.78590686 0.64534314
0.46519608 0.8254902 0.71029412
0.49362745 0.86078431 0.76764706
0.51838235 0.90196078 0.83627451
0.54313725 0.94313725 0.90833333
0.56764706 0.97941176 0.96862745
0.78186275 0.64558824 0.62990196
0.77843137 0.63578431 0.63970588
0.7745098 0.62107843 0.65833333
0.7745098 0.60441176 0.68627451
0.78039216 0.58357843 0.72328431
0.77800245 0.575 0.74852941
0.76813725 0.57107843 0.76960784
0.74834559 0.56550245 0.7877451
0.69068627 0.55098039 0.78627451
0.61666667 0.52696078 0.77990196
0.54019608 0.50294118 0.7745098
0.50477941 0.51556373 0.7745098
0.49215686 0.55441176 0.77867647
0.47598039 0.59068627 0.78186275
0.46875 0.64522059 0.77843137
0.45931373 0.69773284 0.77843137
0.44558824 0.7495098 0.77892157
0.42922794 0.77585784 0.74185049
0.42254902 0.7872549 0.68480392
0.42726716 0.79497549 0.64417892
0.45171569 0.82377451 0.66862745
0.47689951 0.86078431 0.72696078
0.50392157 0.90196078 0.79901961
0.53431373 0.94313725 0.87107843
0.56127451 0.97647059 0.93137255
0.81960784 0.67843137 0.66470588
0.81838235 0.66372549 0.67941176
0.81568627 0.64705882 0.70098039
0.81960784 0.62254902 0.73186275
0.82254902 0.60784314 0.75980392
0.81519608 0.60980392 0.7752451
0.80686275 0.60637255 0.79411765
0.79779412 0.59926471 0.81936275
0.75882353 0.58627451 0.83137255
0.68357843 0.56372549 0.82230392
0.60784314 0.54313725 0.81568627
0.55735294 0.5372549 0.81568627
0.53235294 0.55686275 0.81960784
0.51911765 0.59460784 0.81960784
0.50686275 0.64313725 0.81617647
0.49191176 0.69362745 0.81642157
0.47647059 0.74509804 0.81568627
0.45980392 0.8004902 0.81446078
0.4504902 0.8254902 0.77745098
0.44534314 0.82352941 0.70367647
0.44019608 0.8254902 0.64117647
0.45980392 0.86078431 0.68578431
0.4872549 0.90196078 0.75392157
0.5254902 0.94313725 0.83137255
0.55882353 0.97647059 0.89607843
0.85686275 0.71960784 0.7
0.85863971 0.69901961 0.71666667
0.85784314 0.67843137 0.74203431
0.86078431 0.65784314 0.76862745
0.86078431 0.64681373 0.7872549
0.86084559 0.65735294 0.79362745
0.85784314 0.65735294 0.81421569
0.84393382 0.63756127 0.8495098
0.80588235 0.61715686 0.86813725
0.74197304 0.59656863 0.86599265
0.67512255 0.57990196 0.86078431
0.61372549 0.56323529 0.86078431
0.56053922 0.55514706 0.8629902
0.54607843 0.59068627 0.86078431
0.53578431 0.63909314 0.85784314
0.5254902 0.68707108 0.85735294
0.50735294 0.74068627 0.85686275
0.49068627 0.79607843 0.85655637
0.47892157 0.84178922 0.84583333
0.47254902 0.85723039 0.79693627
0.46029412 0.86078431 0.72303922
0.44093137 0.86642157 0.6591299
0.47009804 0.90196078 0.71188725
0.50735294 0.93743873 0.78302696
0.54068627 0.96813725 0.84460784
0.90098039 0.76078431 0.7372549
0.90196078 0.74019608 0.75453431
0.90196078 0.71568627 0.77843137
0.90196078 0.69215686 0.8
0.90196078 0.68431373 0.81470588
0.90245098 0.69509804 0.8245098
0.90196078 0.68529412 0.85710784
0.8872549 0.66360294 0.89362745
0.84411765 0.64411765 0.90294118
0.78860294 0.62745098 0.90588235
0.72745098 0.61176471 0.90196078
0.675 0.59754902 0.90196078
0.61519608 0.57941176 0.90196078
0.57990196 0.59313725 0.90196078
0.56960784 0.63210784 0.90196078
0.55637255 0.67892157 0.90196078
0.53823529 0.73039216 0.89803922
0.52156863 0.78762255 0.88872549
0.5129902 0.8370098 0.88406863
0.5060049 0.88688725 0.88835784
0.49117647 0.90392157 0.83529412
0.47009804 0.90208333 0.74656863
0.46887255 0.91053922 0.69828431
0.50281863 0.94105392 0.7502451
0.52647059 0.96470588 0.79313725
0.94166667 0.80588235 0.76911765
0.94258578 0.77892157 0.78823529
0.9435049 0.75085784 0.81421569
0.94460784 0.72696078 0.83480392
0.94387255 0.71813725 0.8495098
0.94313725 0.72058824 0.86207108
0.9442402 0.70723039 0.90196078
0.93333333 0.68627451 0.94307598
0.88431373 0.66960784 0.94166667
0.82984069 0.65386029 0.94466912
0.77953431 0.64117647 0.94497549
0.73137255 0.62843137 0.93952206
0.67671569 0.61495098 0.94191176
0.63511029 0.61960784 0.94313725
0.60821078 0.63872549 0.94313725
0.58915441 0.66856618 0.94503676
0.56764706 0.7254902 0.92990196
0.55042892 0.78241422 0.91960784
0.53492647 0.83627451 0.91629902
0.52352941 0.8877451 0.91158088
0.52181373 0.93088235 0.9125
0.50980392 0.94313725 0.85980392
0.50281863 0.94497549 0.78737745
0.5067402 0.95435049 0.73584559
0.51764706 0.96617647 0.75539216
0.97254902 0.83921569 0.79215686
0.97254902 0.8122549 0.8127451
0.97745098 0.78137255 0.83823529
0.98382353 0.75784314 0.86519608
0.98235294 0.74509804 0.88235294
0.97647059 0.74460784 0.89509804
0.97941176 0.72843137 0.93529412
0.97696078 0.70833333 0.98921569
0.92156863 0.69411765 0.97254902
0.85735294 0.67107843 0.9622549
0.8 0.65098039 0.96078431
0.7627451 0.64754902 0.96470588
0.7254902 0.64117647 0.97843137
0.68039216 0.63921569 0.98382353
0.64215686 0.64215686 0.98333333
0.6127451 0.67401961 0.97990196
0.58823529 0.7254902 0.95686275
0.56372549 0.78088235 0.93627451
0.54313725 0.83627451 0.9245098
0.53333333 0.8877451 0.925
0.53921569 0.93921569 0.94901961
0.54019608 0.98039216 0.95980392
0.52352941 0.96960784 0.84705882
0.51519608 0.96372549 0.76176471
0.52156863 0.98431373 0.75294118
0.034803922 0.034803922 0.04754902
0.041789216 0.046629902 0.063296569
0.054779412 0.059803922 0.084926471
0.089705882 0.092034314 0.12714461
0.125 0.11911765 0.16666667
0.15618873 0.14264706 0.20459559
0.19105392 0.17683824 0.25098039
0.21770833 0.20588235 0.2966299
0.24558824 0.23431373 0.3372549
0.29160539 0.27254902 0.36813725
0.33026961 0.30784314 0.40392157
0.35569853 0.32843137 0.44509804
0.3870098 0.35098039 0.48627451
0.43547794 0.3903799 0.53137255
0.48235294 0.42696078 0.57291667
0.50784314 0.45238971 0.61072304
0.53480392 0.47990196 0.65098039
0.57598039 0.51715686 0.69460784
0.61580882 0.55306373 0.7372549
0.64185049 0.57696078 0.7745098
0.67132353 0.60735294 0.81568627
0.71176471 0.64246324 0.85686275
0.74607843 0.67156863 0.89803922
0.77395833 0.69705882 0.93976716
0.8 0.71911765 0.97401961
0.049387255 0.053308824 0.056311275
0.053975184 0.065188419 0.07176777
0.062408088 0.078645833 0.08838848
0.091613051 0.10301011 0.1272212
0.12576593 0.1301777 0.16666667
0.16244638 0.15674786 0.20637255
0.19310662 0.18443627 0.25392157
0.21862745 0.21174173 0.29607843
0.24803922 0.23921569 0.33480392
0.29613971 0.28192402 0.36909467
0.33336397 0.30960478 0.40392157
0.35722273 0.33088235 0.44454657
0.38943015 0.35735294 0.48627451
0.4391008 0.39503676 0.53137255
0.48193934 0.43033088 0.57394301
0.50661765 0.4560049 0.61282935
0.53688725 0.48535539 0.65098039
0.58255974 0.52261029 0.69703585
0.61778493 0.55565257 0.73909314
0.64338235 0.58203891 0.77843137
0.67527574 0.61207108 0.81887255
0.71721814 0.64717371 0.86078431
0.74996936 0.67545956 0.90196078
0.77696078 0.70006127 0.94221814
0.80392157 0.72401961 0.98039216
0.08125 0.085294118 0.083210784
0.075061275 0.092126225 0.085431985
0.072886029 0.10003064 0.093198529
0.088648897 0.11772365 0.11876532
0.12058824 0.14319853 0.15857843
0.16211703 0.17193627 0.2060049
0.19485294 0.19901961 0.25438113
0.21862745 0.22150735 0.29607843
0.25159314 0.25147059 0.33333333
0.29474571 0.28529412 0.3707261
0.33336397 0.31639093 0.40784314
0.3595435 0.33886336 0.44630821
0.39166667 0.36666667 0.48872549
0.42973346 0.39754902 0.53137255
0.45992647 0.42843137 0.57218137
0.4932598 0.45784314 0.61335784
0.52598039 0.48835784 0.65379902
