site/assets/luts/sha256-e1261d5558918732aa28ed6cadfa723d140aa30c7c72d00696ec0bfec54f784e.cube
# LUTr-Schema-Version: 2
# LUTr-ID: sha256-e1261d5558918732aa28ed6cadfa723d140aa30c7c72d00696ec0bfec54f784e
# LUTr-Title: green mono
# LUTr-Collection: Natron HaldCLUT
# LUTr-Collection-ID: natron-haldclut-presets
# LUTr-Source: https://github.com/NatronGitHub/clut
# LUTr-Retrieved: 2026-07-27
# LUTr-Source-File: submissions/natron-haldclut-presets/various/green_mono.png
# LUTr-Source-Format: HALD-PNG
# LUTr-Source-SHA256: e1261d5558918732aa28ed6cadfa723d140aa30c7c72d00696ec0bfec54f784e
# LUTr-License: CC-BY-SA-4.0
# LUTr-License-URL: https://github.com/NatronGitHub/clut#license
# LUTr-License-Basis: repo-license-file
# LUTr-Transform-Class: film-emulation
# LUTr-Tags: creative, film, film-emulation, hald-clut, natron, png, black-and-white, cube
# LUTr-Input-Color-Space: srgb
# LUTr-Input-Gamut: rec709
# LUTr-Input-Transfer: srgb
# LUTr-Output-Color-Space: srgb
# LUTr-Output-Gamut: rec709
# LUTr-Output-Transfer: srgb
# LUTr-Color-Space-Confidence: assumed-display-referred
# LUTr-Domain-Normalized: true
# LUTr-Shaper: none
# LUTr-Original-Grid: 64x64x64
# LUTr-Conversion-Grid: 25x25x25
# LUTr-Conversion-Interpolation: trilinear
# LUTr-Conversion-Method: HALD-PNG LUT image decoded at 16-bit and sampled to 25x25x25 3D CUBE
# LUTr-Conversion-Tool: LUTr scripts/convert-all-to-cube.mjs 2.0.0
# LUTr-Conversion-Date: 2026-07-27
# LUTr-Note: Preserve this metadata and the upstream license notices when redistributing.
TITLE "green mono"
LUT_3D_SIZE 25
DOMAIN_MIN 0 0 0
DOMAIN_MAX 1 1 1
0.0078431373 0.011764706 0.0078431373
0.018137255 0.028431373 0.018137255
0.028431373 0.049019608 0.028431373
0.042156863 0.069607843 0.03872549
0.052941176 0.08627451 0.049019608
0.063235294 0.11127451 0.067647059
0.073529412 0.14607843 0.092156863
0.083823529 0.17696078 0.11813725
0.090196078 0.21176471 0.14509804
0.1004902 0.23872549 0.16568627
0.10686275 0.26568627 0.19019608
0.11372549 0.30392157 0.24362745
0.12156863 0.34509804 0.30588235
0.12598039 0.38578431 0.36764706
0.14215686 0.42647059 0.40784314
0.1877451 0.47401961 0.39705882
0.23529412 0.5254902 0.38039216
0.27892157 0.57303922 0.36617647
0.32647059 0.62058824 0.35196078
0.41421569 0.66862745 0.38921569
0.52745098 0.71960784 0.45294118
0.64068627 0.76715686 0.52107843
0.75098039 0.81568627 0.59019608
0.84852941 0.86078431 0.65441176
0.8745098 0.87058824 0.67058824
0.0078431373 0.011764706 0.0078431373
0.018137255 0.028431373 0.018137255
0.03125 0.051470588 0.029044118
0.042647059 0.072058824 0.041176471
0.054166667 0.091421569 0.052941176
0.065686275 0.11764706 0.070098039
0.075980392 0.14963235 0.092156863
0.083823529 0.18180147 0.11966912
0.094117647 0.21421569 0.14509804
0.10349265 0.24356618 0.16905637
0.11078431 0.27242647 0.19852941
0.11746324 0.30814951 0.24705882
0.12352941 0.34828431 0.30833333
0.12941176 0.38627451 0.36764706
0.14509804 0.42708333 0.40845588
0.18927696 0.47555147 0.39552696
0.23529412 0.5254902 0.38039216
0.28192402 0.57303922 0.36617647
0.33443627 0.62414216 0.36029412
0.425 0.67205882 0.39607843
0.5377451 0.71960784 0.45416667
0.6504902 0.77058824 0.52322304
0.75098039 0.81568627 0.58921569
0.84944853 0.86078431 0.6528799
0.87205882 0.87058824 0.66813725
0.0078431373 0.011764706 0.0078431373
0.018137255 0.028431373 0.018137255
0.032598039 0.052941176 0.032352941
0.046568627 0.073529412 0.042647059
0.056862745 0.096568627 0.057352941
0.067156863 0.12401961 0.075490196
0.07745098 0.15490196 0.096078431
0.087745098 0.18578431 0.12058824
0.098039216 0.21960784 0.14509804
0.10833333 0.24693627 0.17303922
0.11544118 0.27916667 0.20808824
0.12156863 0.31580882 0.25735294
0.12598039 0.35147059 0.31421569
0.1307598 0.39019608 0.37144608
0.14926471 0.43210784 0.40686275
0.19227941 0.47892157 0.3942402
0.23921569 0.52941176 0.38039216
0.28321078 0.57696078 0.36617647
0.3372549 0.6245098 0.3627451
0.43517157 0.67205882 0.40625
0.54852941 0.72352941 0.46176471
0.66482843 0.77463235 0.525
0.76102941 0.81887255 0.59019608
0.84852941 0.85870098 0.65625
0.8754902 0.87058824 0.68039216
0.0044117647 0.0078431373 0.0044117647
0.018137255 0.028431373 0.018137255
0.033333333 0.052941176 0.032352941
0.046568627 0.07745098 0.046078431
0.060294118 0.10343137 0.062254902
0.070588235 0.13088235 0.079411765
0.080882353 0.16176471 0.099632353
0.091176471 0.19215686 0.121875
0.10147059 0.21960784 0.14901961
0.11176471 0.2504902 0.17941176
0.11862745 0.28492647 0.21519608
0.12542892 0.31917892 0.26415441
0.12941176 0.35490196 0.31936275
0.13425245 0.39411765 0.37064951
0.15735294 0.43909314 0.39656863
0.20147059 0.48792892 0.39068627
0.24656863 0.53333333 0.37696078
0.2877451 0.57824755 0.36617647
0.33602941 0.6245098 0.36164216
0.44895833 0.67598039 0.41660539
0.5622549 0.72745098 0.47205882
0.67935049 0.77886029 0.52800245
0.76605392 0.81703431 0.5939951
0.83952206 0.85196078 0.66323529
0.88578431 0.87401961 0.70490196
0.0098039216 0.0098039216 0.0098039216
0.021323529 0.031617647 0.020588235
0.03627451 0.056862745 0.034803922
0.050490196 0.07745098 0.046568627
0.060784314 0.10686275 0.066666667
0.071078431 0.13480392 0.085294118
0.081372549 0.16421569 0.10588235
0.093627451 0.19264706 0.1252451
0.10392157 0.22352941 0.15294118
0.11617647 0.25441176 0.18382353
0.12401961 0.2877451 0.22205882
0.12916667 0.32377451 0.27205882
0.13333333 0.36176471 0.32352941
0.13995098 0.4002451 0.37058824
0.16666667 0.44803922 0.38676471
0.20857843 0.49558824 0.38088235
0.25098039 0.54313725 0.3745098
0.29926471 0.59068627 0.36740196
0.36470588 0.6377451 0.38088235
0.47107843 0.68578431 0.43063725
0.58431373 0.7372549 0.48529412
0.69264706 0.78455882 0.54191176
0.77156863 0.82058824 0.60392157
0.83970588 0.8495098 0.67426471
0.89607843 0.8745098 0.73137255
0.015686275 0.020098039 0.015686275
0.024693627 0.03627451 0.02254902
0.037622549 0.056985294 0.03627451
0.050490196 0.081801471 0.05
0.064705882 0.10784314 0.066421569
0.075 0.13823529 0.086764706
0.085294118 0.16568627 0.10392157
0.095588235 0.19656863 0.1286152
0.10637255 0.22401961 0.15686275
0.12009804 0.25490196 0.18431373
0.12647059 0.29056373 0.22757353
0.12941176 0.3283701 0.27947304
0.13529412 0.36887255 0.32794118
0.14215686 0.40980392 0.37401961
0.17303922 0.45526961 0.38137255
0.21421569 0.50569853 0.3723652
0.25147059 0.55294118 0.36470588
0.29803922 0.59834559 0.36029412
0.38688725 0.64852941 0.39362745
0.49405637 0.69650735 0.44509804
0.6004902 0.74558824 0.49656863
0.69901961 0.79019608 0.55245098
0.78578431 0.825 0.61421569
0.85245098 0.85569853 0.68872549
0.90588235 0.87843137 0.74509804
0.015686275 0.019607843 0.015686275
0.025980392 0.03627451 0.025980392
0.040196078 0.061519608 0.037009804
0.053921569 0.085294118 0.050490196
0.064705882 0.10980392 0.064705882
0.075 0.13823529 0.083333333
0.088235294 0.16568627 0.10392157
0.099509804 0.19656863 0.12990196
0.10980392 0.22745098 0.15980392
0.12009804 0.26127451 0.19068627
0.1254902 0.29632353 0.23455882
0.12941176 0.33443627 0.28382353
0.13333333 0.37254902 0.33529412
0.14215686 0.41372549 0.38088235
0.17647059 0.46176471 0.38455882
0.21764706 0.51115196 0.37401961
0.25490196 0.55686275 0.36470588
0.29693627 0.60379902 0.35625
0.39509804 0.65490196 0.39485294
0.50490196 0.70637255 0.4495098
0.61127451 0.75245098 0.50539216
0.71237745 0.79705882 0.56654412
0.80220588 0.83455882 0.6245098
0.8685049 0.86470588 0.69227941
0.90294118 0.88235294 0.74215686
0.015686275 0.019607843 0.015686275
0.025980392 0.039276961 0.025980392
0.040196078 0.064705882 0.040196078
0.054411765 0.089215686 0.050490196
0.066666667 0.11053922 0.064705882
0.078921569 0.13480392 0.078125
0.089215686 0.16715686 0.10502451
0.099509804 0.20196078 0.13529412
0.10980392 0.23529412 0.16470588
0.11764706 0.26709559 0.19650735
0.12218137 0.30306373 0.24411765
0.1254902 0.34068627 0.29313725
0.13063725 0.37720588 0.34387255
0.13823529 0.41764706 0.38939951
0.17218137 0.46568627 0.39460784
0.21875 0.51678922 0.38376225
0.26421569 0.56470588 0.36862745
0.31813725 0.61372549 0.36078431
0.3995098 0.66311275 0.3817402
0.50833333 0.71145833 0.44019608
0.61568627 0.75686275 0.50784314
0.72254902 0.80196078 0.57175245
0.82120098 0.8442402 0.63480392
0.88376225 0.87107843 0.69362745
0.90588235 0.88627451 0.74117647
0.019607843 0.023529412 0.015686275
0.029901961 0.042647059 0.025980392
0.041176471 0.068627451 0.040196078
0.054411765 0.092647059 0.053921569
0.068627451 0.11372549 0.064705882
0.078921569 0.13872549 0.079411765
0.089215686 0.17352941 0.10686275
0.099509804 0.20833333 0.1377451
0.10980392 0.23921569 0.16862745
0.11617647 0.27401961 0.20196078
0.12156863 0.30980392 0.25196078
0.125 0.34705882 0.30343137
0.12941176 0.38235294 0.35098039
0.13382353 0.41764706 0.39754902
0.16764706 0.46568627 0.40196078
0.22058824 0.51715686 0.38676471
0.2745098 0.56862745 0.37254902
0.33627451 0.62009804 0.36470588
0.40980392 0.67058824 0.38137255
0.5127451 0.71519608 0.44019608
0.61960784 0.75882353 0.50784314
0.72647059 0.80196078 0.57205882
0.82941176 0.84705882 0.6372549
0.88529412 0.87598039 0.69754902
0.90588235 0.89019608 0.74117647
0.019607843 0.02745098 0.015686275
0.029901961 0.04564951 0.027512255
0.044117647 0.069240196 0.040196078
0.05814951 0.095281863 0.054411765
0.069852941 0.12205882 0.067892157
0.082843137 0.14901961 0.085968137
0.089828431 0.1810049 0.11323529
0.099509804 0.21470588 0.1411152
0.10980392 0.24705882 0.16862745
0.11617647 0.28131127 0.20741422
0.11973039 0.31727941 0.25833333
0.125 0.3536152 0.30980392
0.12745098 0.38872549 0.35808824
0.13394608 0.4213848 0.40379902
0.17120098 0.4692402 0.40196078
0.22696078 0.52408088 0.38376225
0.27843137 0.57647059 0.36617647
0.33627451 0.62702206 0.35833333
0.42009804 0.6745098 0.38590686
0.52647059 0.71783088 0.44656863
0.63504902 0.7620098 0.5129902
0.73939951 0.80618873 0.57843137
0.83308824 0.84767157 0.64656863
0.88529412 0.87598039 0.70392157
0.90343137 0.89019608 0.74362745
0.023529412 0.02745098 0.015686275
0.032352941 0.046568627 0.025980392
0.045098039 0.072794118 0.041176471
0.058333333 0.10147059 0.057965686
0.07254902 0.12843137 0.073039216
0.082843137 0.15539216 0.091176471
0.093137255 0.18848039 0.11568627
0.10012255 0.22046569 0.14411765
0.10980392 0.25490196 0.17254902
0.11617647 0.28676471 0.21323529
0.12156863 0.32230392 0.26862745
0.125 0.35894608 0.32009804
0.12990196 0.39460784 0.36960784
0.13982843 0.43039216 0.40441176
0.18063725 0.47843137 0.39803922
0.23590686 0.53394608 0.37745098
0.28235294 0.58137255 0.35980392
0.33627451 0.63223039 0.34803922
0.42671569 0.67843137 0.38651961
0.54031863 0.72316176 0.45294118
0.65490196 0.76911765 0.52058824
0.75870098 0.81335784 0.58823529
0.82941176 0.84803922 0.65392157
0.88431373 0.87745098 0.7185049
0.91078431 0.89117647 0.75980392
0.023529412 0.02745098 0.015686275
0.033823529 0.05 0.028431373
0.047671569 0.07745098 0.044117647
0.058333333 0.10784314 0.061335784
0.07254902 0.13504902 0.076470588
0.082843137 0.16219363 0.091666667
0.093137255 0.19301471 0.11862745
0.10343137 0.22530637 0.14558824
0.10980392 0.25882353 0.17598039
0.11617647 0.29313725 0.22009804
0.12156863 0.32806373 0.27634804
0.1254902 0.36317402 0.33382353
0.13137255 0.3997549 0.38333333
0.15392157 0.44068627 0.40392157
0.19166667 0.48615196 0.39448529
0.24215686 0.53676471 0.37745098
0.28970588 0.5877451 0.35686275
0.33511029 0.63578431 0.34031863
0.4377451 0.68198529 0.39375
0.55484069 0.72738971 0.4627451
0.67205882 0.7745098 0.53088235
0.77107843 0.81672794 0.59852941
0.83284314 0.84803922 0.66335784
0.88400735 0.87714461 0.72990196
0.92107843 0.89754902 0.7872549
0.025490196 0.033333333 0.019607843
0.035784314 0.055147059 0.031127451
0.048529412 0.083333333 0.046568627
0.062254902 0.11053922 0.061764706
0.073529412 0.1372549 0.076470588
0.086519608 0.1622549 0.091666667
0.093627451 0.19656863 0.11862745
0.10343137 0.22867647 0.14558824
0.11372549 0.2627451 0.17647059
0.11764706 0.29681373 0.22401961
0.12205882 0.33284314 0.28235294
0.1254902 0.36887255 0.34044118
0.13333333 0.40588235 0.39019608
0.15882353 0.44730392 0.40563725
0.20196078 0.49509804 0.39362745
0.2497549 0.54460784 0.37352941
0.29607843 0.59411765 0.35686275
0.35441176 0.64313725 0.35196078
0.45539216 0.68921569 0.40441176
0.56715686 0.73333333 0.47132353
0.68039216 0.77941176 0.53921569
0.78259804 0.82352941 0.60906863
0.85539216 0.85980392 0.67598039
0.8997549 0.88406863 0.7375
0.91960784 0.89803922 0.77843137
0.031372549 0.043627451 0.024019608
0.041666667 0.064031863 0.036458333
0.052083333 0.089583333 0.049387255
0.065747549 0.11623775 0.062254902
0.076470588 0.1375 0.076470588
0.086764706 0.1622549 0.090747549
0.097058824 0.19705882 0.1182598
0.10373775 0.23186275 0.14411765
0.11372549 0.26666667 0.17254902
0.11764706 0.30018382 0.22647059
0.12254902 0.33762255 0.28480392
0.12892157 0.375 0.34656863
0.13529412 0.41397059 0.40441176
0.16672794 0.45735294 0.41078431
0.21127451 0.50502451 0.39411765
0.25863971 0.55294118 0.37352941
0.30637255 0.60392157 0.36078431
0.37352941 0.6495098 0.36862745
0.47843137 0.69816176 0.41948529
0.58780637 0.74362745 0.48425245
0.69338235 0.78872549 0.55196078
0.79846814 0.83382353 0.62352941
0.87977941 0.86997549 0.68627451
0.8995098 0.88382353 0.72726716
0.91372549 0.89411765 0.76421569
0.031372549 0.047058824 0.02745098
0.041666667 0.066544118 0.037745098
0.055882353 0.093137255 0.051960784
0.066176471 0.11666667 0.066053922
0.076470588 0.14117647 0.076470588
0.086764706 0.16531863 0.090318627
0.097058824 0.20073529 0.11789216
0.10698529 0.23517157 0.14522059
0.11372549 0.26960784 0.1754902
0.12120098 0.30502451 0.22977941
0.12622549 0.34338235 0.28823529
0.13198529 0.38137255 0.35
0.13823529 0.41960784 0.41029412
0.17365196 0.46470588 0.41078431
0.21862745 0.50955882 0.39387255
0.26519608 0.55821078 0.37647059
0.31666667 0.60784314 0.36078431
0.38676471 0.65539216 0.37598039
0.49313725 0.70294118 0.43014706
0.61531863 0.75355392 0.49803922
0.7127451 0.79607843 0.56421569
0.80833333 0.8372549 0.62659314
0.87941176 0.87181373 0.68602941
0.90392157 0.88884804 0.73541667
0.92058824 0.90098039 0.7745098
0.031372549 0.044607843 0.02745098
0.041666667 0.064644608 0.037745098
0.052941176 0.09252451 0.051960784
0.066176471 0.11795343 0.066176471
0.076470588 0.14313725 0.077205882
0.086764706 0.17028186 0.095588235
0.097058824 0.2060049 0.12647059
0.10735294 0.24025735 0.15490196
0.11764706 0.27598039 0.1872549
0.12457108 0.31231618 0.2372549
0.12977941 0.34901961 0.29178922
0.13676471 0.38645833 0.3463848
0.14191176 0.42230392 0.39926471
0.1786152 0.46519608 0.40196078
0.22463235 0.51311275 0.39166667
0.27101716 0.56029412 0.37892157
0.31911765 0.60784314 0.36470588
0.38676471 0.65594363 0.3745098
0.5004902 0.70686275 0.43468137
0.63302696 0.76194853 0.50784314
0.72181373 0.79877451 0.56544118
0.81372549 0.83872549 0.62647059
0.87843137 0.87156863 0.68639706
0.91029412 0.89368873 0.75055147
0.93088235 0.91127451 0.79656863
0.035294118 0.050980392 0.031372549
0.045588235 0.070098039 0.041666667
0.055882353 0.093137255 0.052941176
0.066176471 0.12009804 0.066176471
0.076470588 0.14705882 0.080392157
0.086764706 0.1745098 0.099509804
0.097058824 0.20882353 0.13039216
0.10735294 0.24509804 0.16519608
0.11764706 0.28235294 0.2
0.12794118 0.31960784 0.24509804
0.13333333 0.35294118 0.29509804
0.1372549 0.39019608 0.34656863
0.14313725 0.42352941 0.39803922
0.17892157 0.46862745 0.3995098
0.22647059 0.51666667 0.38921569
0.27794118 0.56421569 0.375
0.3254902 0.61176471 0.36470588
0.39313725 0.66078431 0.37303922
0.50980392 0.71078431 0.44117647
0.62598039 0.75833333 0.50686275
0.72745098 0.80196078 0.57058824
0.82401961 0.84460784 0.63039216
0.87941176 0.87254902 0.69215686
0.91029412 0.89705882 0.75539216
0.94509804 0.92156863 0.82745098
0.041666667 0.057352941 0.035294118
0.048039216 0.077022059 0.043198529
0.057720588 0.1 0.055882353
0.066176471 0.12303922 0.068321078
0.076470588 0.14828431 0.080392157
0.086764706 0.17794118 0.10214461
0.097058824 0.21237745 0.13615196
0.11035539 0.25055147 0.17303922
0.12156863 0.28627451 0.21029412
0.12941176 0.32261029 0.25392157
0.13333333 0.35870098 0.30539216
0.1372549 0.39283088 0.35686275
0.14044118 0.42867647 0.40514706
0.17892157 0.47285539 0.40343137
0.22928922 0.51948529 0.38921569
0.28039216 0.57058824 0.37647059
0.33186275 0.61813725 0.36470588
0.40435049 0.66623775 0.38278186
0.51127451 0.71262255 0.44754902
0.62469363 0.76078431 0.51323529
0.72867647 0.80392157 0.57647059
0.82745098 0.84509804 0.63676471
0.88186275 0.87438725 0.69669118
0.91421569 0.89797794 0.76268382
0.94117647 0.91764706 0.82107843
0.047058824 0.062745098 0.035294118
0.049877451 0.079411765 0.045588235
0.059803922 0.10392157 0.056862745
0.070098039 0.12794118 0.070098039
0.076960784 0.15098039 0.082843137
0.086764706 0.18186275 0.10735294
0.097058824 0.21666667 0.14289216
0.11127451 0.25355392 0.17904412
0.12156863 0.29019608 0.21568627
0.12904412 0.32561275 0.26213235
0.13333333 0.36078431 0.31495098
0.13676471 0.39546569 0.36617647
0.14558824 0.43235294 0.40392157
0.18382353 0.48088235 0.39938725
0.23529412 0.53333333 0.38455882
0.28676471 0.5814951 0.37046569
0.34313725 0.62843137 0.36470588
0.42683824 0.67536765 0.39607843
0.52941176 0.71862745 0.45784314
0.63578431 0.76629902 0.52352941
0.73578431 0.80784314 0.58529412
0.82879902 0.84865196 0.64705882
0.88651961 0.87720588 0.70514706
0.91813725 0.90098039 0.76813725
0.94117647 0.92156863 0.82352941
0.047058824 0.059313725 0.035294118
0.053125 0.079411765 0.045588235
0.059803922 0.10392157 0.056862745
0.070098039 0.12794118 0.070098039
0.080392157 0.15465686 0.08627451
0.090196078 0.18535539 0.11170343
0.097058824 0.21960784 0.14595588
0.10753676 0.25539216 0.18216912
0.12156863 0.29019608 0.21960784
0.12794118 0.32745098 0.2653799
0.13333333 0.36727941 0.32598039
0.13676471 0.40196078 0.37352941
0.15098039 0.44093137 0.40196078
0.19362745 0.48823529 0.39215686
0.24203431 0.54007353 0.37843137
0.29491422 0.59117647 0.36372549
0.35637255 0.63872549 0.36470588
0.45098039 0.68382353 0.40637255
0.55392157 0.72892157 0.4682598
0.65294118 0.77058824 0.53382353
0.74632353 0.81176471 0.59754902
0.83872549 0.85245098 0.66078431
0.89460784 0.88039216 0.71911765
0.92058824 0.90459559 0.77696078
0.94117647 0.92156863 0.83088235
0.043137255 0.056862745 0.035294118
0.053431373 0.077941176 0.045588235
0.06372549 0.10392157 0.059803922
0.074019608 0.13014706 0.073529412
0.084313725 0.15882353 0.095098039
0.092401961 0.19166667 0.12107843
0.10098039 0.2245098 0.15196078
0.10857843 0.25735294 0.18553922
0.11764706 0.29019608 0.21960784
0.1254902 0.33137255 0.27156863
0.13333333 0.37598039 0.33921569
0.13333333 0.40833333 0.3877451
0.15392157 0.44901961 0.40588235
0.19803922 0.49436275 0.39166667
0.24558824 0.54411765 0.3745098
0.3002451 0.5995098 0.35857843
0.36666667 0.64901961 0.36078431
0.46764706 0.69142157 0.41348039
0.57058824 0.73578431 0.4754902
0.67181373 0.78039216 0.54362745
0.76862745 0.82156863 0.60980392
0.85171569 0.85808824 0.67107843
0.89705882 0.88431373 0.72647059
0.92205882 0.90490196 0.78259804
0.94117647 0.9254902 0.83137255
0.043137255 0.051470588 0.031372549
0.053431373 0.077941176 0.045588235
0.067647059 0.10490196 0.059803922
0.077941176 0.13186275 0.073529412
0.088235294 0.16323529 0.1
0.095036765 0.19803922 0.13045343
0.10490196 0.22892157 0.15833333
0.11158088 0.26323529 0.19050245
0.12156863 0.29460784 0.22352941
0.12579657 0.33529412 0.27990196
0.13333333 0.3807598 0.34607843
0.13333333 0.41421569 0.39368873
0.15906863 0.45490196 0.40392157
0.20245098 0.50006127 0.39074755
0.2504902 0.54852941 0.37438725
0.30588235 0.60520833 0.35735294
0.38088235 0.65539216 0.36519608
0.48805147 0.70030637 0.42322304
0.59607843 0.74558824 0.48578431
0.70245098 0.7911152 0.55484069
0.79313725 0.83161765 0.62009804
0.84944853 0.85980392 0.67702206
0.89105392 0.88431373 0.73284314
0.92205882 0.90882353 0.79215686
0.94509804 0.92941176 0.83970588
0.046078431 0.057843137 0.035294118
0.053431373 0.077941176 0.045588235
0.064705882 0.10416667 0.059803922
0.077941176 0.13186275 0.073897059
0.088235294 0.16813725 0.10147059
0.098529412 0.20441176 0.13088235
0.10808824 0.23627451 0.16176471
0.11519608 0.27009804 0.19264706
0.12156863 0.29803922 0.22745098
0.12794118 0.3377451 0.2810049
0.13333333 0.38333333 0.34607843
0.13333333 0.41421569 0.39411765
0.1622549 0.45637255 0.40196078
0.21017157 0.50441176 0.38737745
0.26078431 0.55588235 0.37058824
0.31617647 0.61066176 0.35502451
0.39117647 0.65882353 0.36862745
0.50379902 0.7057598 0.43333333
0.61446078 0.75294118 0.49828431
0.72990196 0.80183824 0.56813725
0.80735294 0.83872549 0.62843137
0.84901961 0.86029412 0.68431373
0.8872549 0.88431373 0.74215686
0.92205882 0.90882353 0.79889706
0.94901961 0.92941176 0.84705882
0.047058824 0.058823529 0.035294118
0.053431373 0.078492647 0.045588235
0.064338235 0.10392157 0.059803922
0.077941176 0.13186275 0.075306373
0.088235294 0.16862745 0.10392157
0.10245098 0.20588235 0.13088235
0.1127451 0.2435049 0.16176471
0.11819853 0.275 0.1971201
0.12156863 0.30343137 0.23284314
0.12794118 0.33921569 0.28284314
0.13333333 0.38333333 0.34901961
0.13694853 0.41421569 0.39050245
0.16544118 0.45686275 0.40196078
0.21568627 0.50833333 0.38596814
0.26960784 0.55980392 0.3685049
0.32015931 0.61127451 0.35147059
0.39362745 0.6627451 0.36617647
0.51078431 0.71029412 0.43523284
0.62647059 0.75784314 0.50428922
0.73970588 0.80557598 0.57089461
0.80784314 0.83921569 0.63333333
0.84901961 0.86372549 0.69283088
0.8872549 0.88431373 0.74914216
0.92205882 0.90882353 0.80637255
0.94901961 0.92941176 0.85637255
0.047058824 0.058823529 0.035294118
0.053431373 0.079411765 0.045588235
0.06372549 0.10392157 0.059803922
0.077941176 0.13186275 0.07745098
0.088235294 0.16862745 0.10392157
0.10245098 0.20588235 0.13088235
0.1127451 0.24411765 0.16176471
0.11911765 0.27892157 0.2004902
0.12156863 0.30588235 0.23921569
0.12794118 0.33921569 0.28529412
0.13333333 0.38431373 0.34901961
0.1372549 0.41813725 0.39019608
0.16666667 0.45686275 0.39803922
0.22205882 0.5122549 0.38333333
0.27352941 0.56372549 0.36666667
0.32352941 0.61519608 0.35
0.4 0.6627451 0.36862745
0.51323529 0.71029412 0.43676471
0.62647059 0.75784314 0.50490196
0.73970588 0.80588235 0.57303922
0.80784314 0.83921569 0.63333333
0.84852941 0.86372549 0.69313725
0.88333333 0.88431373 0.75098039
0.91813725 0.90882353 0.80882353
0.94901961 0.92941176 0.85882353
0.0053921569 0.0093137255 0.0053921569
0.015134804 0.027512255 0.014215686
0.028431373 0.049019608 0.028431373
0.042156863 0.069607843 0.03872549
0.052941176 0.0875 0.049019608
0.063235294 0.11390931 0.065502451
0.073529412 0.14852941 0.092156863
0.083823529 0.18180147 0.11813725
0.094117647 0.21421569 0.14509804
0.10294118 0.24509804 0.17113971
0.11078431 0.27598039 0.20208333
0.11746324 0.31207108 0.25079657
0.12352941 0.35147059 0.30980392
0.12941176 0.38841912 0.36979167
0.14509804 0.42745098 0.40784314
0.18627451 0.47555147 0.39797794
0.23137255 0.5254902 0.38284314
0.27892157 0.57303922 0.36617647
0.32647059 0.62414216 0.34901961
0.41666667 0.67205882 0.38743873
0.52745098 0.71960784 0.45490196
0.64197304 0.76715686 0.5245098
0.75098039 0.81470588 0.59019608
0.84859069 0.85931373 0.65441176
0.8745098 0.87058824 0.67696078
0.0078431373 0.011764706 0.0078431373
0.017792586 0.028431373 0.017792586
0.03125 0.051700368 0.029044118
0.042647059 0.072977941 0.041176471
0.054166667 0.093106618 0.052941176
0.065686275 0.11856618 0.067647059
0.075980392 0.15153186 0.092156863
0.085355392 0.1850337 0.11813725
0.094117647 0.21813725 0.14509804
0.10441176 0.24714308 0.17171415
0.11262255 0.27879902 0.20582108
0.12059589 0.31452206 0.25552237
0.12521446 0.35343137 0.31317402
0.12960325 0.39001225 0.37149969
0.14509804 0.43036152 0.40868566
0.18927696 0.47773437 0.39552696
0.23529412 0.52702206 0.38039216
0.28249847 0.57661612 0.36617647
0.33466605 0.6245098 0.3573989
0.4294807 0.67370558 0.39460784
0.53927696 0.72083333 0.45612745
0.64982384 0.76930147 0.52402727
0.75251225 0.81508885 0.5899663
0.84985447 0.85965839 0.65441176
0.8745098 0.87058824 0.67604167
0.0078431373 0.011764706 0.0078431373
