site/assets/luts/sha256-5adc0718a777e33b3f073ea0e0b8ce81e660c8abe606615e50fa03ed2527bcf1.cube
# LUTr-Schema-Version: 2
# LUTr-ID: sha256-5adc0718a777e33b3f073ea0e0b8ce81e660c8abe606615e50fa03ed2527bcf1
# LUTr-Title: kodak portra 160 -
# LUTr-Collection: Natron HaldCLUT
# LUTr-Collection-ID: natron-haldclut-presets
# LUTr-Source: https://github.com/NatronGitHub/clut
# LUTr-Retrieved: 2026-07-27
# LUTr-Source-File: submissions/natron-haldclut-presets/negative_new/kodak_portra_160_-.png
# LUTr-Source-Format: HALD-PNG
# LUTr-Source-SHA256: 5adc0718a777e33b3f073ea0e0b8ce81e660c8abe606615e50fa03ed2527bcf1
# LUTr-License: CC-BY-SA-4.0
# LUTr-License-URL: https://github.com/NatronGitHub/clut#license
# LUTr-License-Basis: repo-license-file
# LUTr-Transform-Class: film-emulation
# LUTr-Tags: creative, film, film-emulation, hald-clut, natron, png, cube
# LUTr-Input-Color-Space: srgb
# LUTr-Input-Gamut: rec709
# LUTr-Input-Transfer: srgb
# LUTr-Output-Color-Space: srgb
# LUTr-Output-Gamut: rec709
# LUTr-Output-Transfer: srgb
# LUTr-Color-Space-Confidence: assumed-display-referred
# LUTr-Domain-Normalized: true
# LUTr-Shaper: none
# LUTr-Original-Grid: 64x64x64
# LUTr-Conversion-Grid: 25x25x25
# LUTr-Conversion-Interpolation: trilinear
# LUTr-Conversion-Method: HALD-PNG LUT image decoded at 16-bit and sampled to 25x25x25 3D CUBE
# LUTr-Conversion-Tool: LUTr scripts/convert-all-to-cube.mjs 2.0.0
# LUTr-Conversion-Date: 2026-07-27
# LUTr-Note: Preserve this metadata and the upstream license notices when redistributing.
TITLE "kodak portra 160 -"
LUT_3D_SIZE 5
DOMAIN_MIN 0 0 0
DOMAIN_MAX 1 1 1
0.015686275 0.039215686 0.0078431373
0.25686275 0.020588235 0.012745098
0.61568627 0 0
0.82647059 0.0039215686 0.0039215686
0.98823529 0.16470588 0
0.0039215686 0.2372549 0.015686275
0.2372549 0.26470588 0.0039215686
0.61960784 0.27352941 0.0039215686
0.82647059 0.26887255 0.014705882
0.98039216 0.32647059 0
0.021568627 0.51568627 0.019607843
0.22352941 0.50343137 0.0078431373
0.50980392 0.54313725 0.012745098
0.77401961 0.5627451 0.0078431373
0.97647059 0.55294118 0.0039215686
0.29019608 0.67745098 0.18431373
0.34534314 0.66960784 0.16568627
0.49019608 0.67352941 0.15833333
0.7120098 0.7245098 0.19534314
0.94901961 0.7754902 0.13921569
0.51372549 0.90588235 0.42745098
0.5245098 0.87843137 0.40784314
0.61568627 0.88627451 0.40784314
0.75392157 0.90686275 0.42058824
0.8745098 0.94901961 0.44705882
0.0039215686 0.031372549 0.2754902
0.2627451 0.020588235 0.27254902
0.62647059 0.011764706 0.28039216
0.81397059 0.038235294 0.24117647
0.97254902 0.24215686 0.24509804
0.0088235294 0.2879902 0.26691176
0.28235294 0.29705882 0.26917892
0.61568627 0.30232843 0.24754902
0.80839461 0.30827206 0.22671569
0.98112745 0.3497549 0.24803922
0.20490196 0.54411765 0.29607843
0.31568627 0.53272059 0.28664216
0.53455882 0.5502451 0.29485294
0.78186275 0.56384804 0.24522059
0.98872549 0.56421569 0.20686275
0.35784314 0.69607843 0.34387255
0.39607843 0.68529412 0.33235294
0.50441176 0.67745098 0.31470588
0.70153186 0.71721814 0.34761029
0.94705882 0.77156863 0.32843137
0.5127451 0.89705882 0.47156863
0.53063725 0.89215686 0.4629902
0.61568627 0.90196078 0.46862745
0.7627451 0.93137255 0.48357843
0.91372549 0.94509804 0.49705882
0.0039215686 0.11960784 0.59215686
0.30588235 0.14656863 0.59166667
0.61764706 0.19215686 0.60196078
0.81078431 0.31666667 0.58186275
0.96862745 0.38823529 0.5627451
0.12647059 0.34215686 0.58676471
0.36237745 0.36580882 0.58431373
0.60294118 0.39191176 0.58676471
0.79473039 0.42941176 0.57683824
0.96078431 0.43578431 0.55882353
0.29117647 0.60392157 0.58333333
0.39779412 0.58382353 0.57647059
0.58382353 0.58382353 0.57254902
0.76568627 0.58382353 0.56029412
0.95490196 0.57058824 0.53529412
0.43823529 0.74509804 0.56323529
0.46948529 0.7372549 0.55796569
0.55980392 0.71421569 0.54191176
0.72058824 0.72806373 0.54313725
0.96421569 0.76372549 0.53578431
0.51176471 0.91176471 0.60392157
0.54215686 0.8995098 0.59019608
0.61862745 0.90980392 0.57941176
0.74411765 0.90098039 0.57647059
0.92745098 0.9254902 0.59411765
0.30196078 0.30098039 0.78333333
0.43063725 0.31348039 0.7872549
0.62156863 0.37892157 0.7872549
0.80294118 0.44117647 0.79117647
0.94215686 0.49901961 0.79117647
0.36691176 0.42745098 0.77941176
0.4627451 0.43921569 0.78468137
0.61764706 0.4872549 0.78492647
0.79246324 0.5245098 0.7872549
0.95588235 0.56372549 0.79117647
0.3754902 0.59558824 0.75196078
0.46188725 0.60588235 0.75784314
0.60465686 0.6127451 0.76397059
0.78039216 0.65196078 0.78333333
0.96323529 0.66813725 0.78627451
0.45196078 0.77941176 0.75588235
0.50545343 0.78333333 0.75980392
0.60098039 0.76764706 0.75686275
0.75980392 0.76764706 0.75196078
0.95294118 0.77941176 0.75588235
0.54215686 0.95686275 0.76372549
0.58897059 0.94901961 0.76764706
0.64411765 0.94754902 0.76029412
0.75514706 0.93137255 0.73235294
0.92352941 0.95294118 0.75196078
0.5254902 0.50980392 0.97647059
0.56372549 0.52156863 0.96078431
0.67058824 0.53529412 0.95686275
0.81372549 0.58529412 0.95392157
0.96862745 0.58039216 0.92941176
0.5372549 0.56764706 0.96862745
0.57156863 0.57156863 0.95612745
0.675 0.59117647 0.9627451
0.80980392 0.62352941 0.95294118
0.96862745 0.63333333 0.94509804
0.53529412 0.67058824 0.95686275
0.55784314 0.67303922 0.95686275
0.67058824 0.68627451 0.96372549
0.81470588 0.70833333 0.96078431
0.95882353 0.72941176 0.9627451
0.48627451 0.79901961 0.95588235
0.5247549 0.79901961 0.94068627
0.63333333 0.79656863 0.95490196
0.80686275 0.81372549 0.96176471
0.96960784 0.84509804 0.96960784
0.54117647 0.98431373 0.94901961
0.57156863 0.9754902 0.9745098
0.66862745 0.97058824 0.97254902
0.84117647 0.96764706 0.94313725
0.9254902 0.97647059 0.97254902
