site/assets/luts/sha256-675520eaae3a7e416d4631a1848d05034da100c9e9adeff2d4c3abf1939247b7.cube
# LUTr-Schema-Version: 2
# LUTr-ID: sha256-675520eaae3a7e416d4631a1848d05034da100c9e9adeff2d4c3abf1939247b7
# LUTr-Title: polaroid 665 negative +
# LUTr-Collection: Natron HaldCLUT
# LUTr-Collection-ID: natron-haldclut-presets
# LUTr-Source: https://github.com/NatronGitHub/clut
# LUTr-Retrieved: 2026-07-27
# LUTr-Source-File: submissions/natron-haldclut-presets/instant_pro/polaroid_665_negative_+.png
# LUTr-Source-Format: HALD-PNG
# LUTr-Source-SHA256: 675520eaae3a7e416d4631a1848d05034da100c9e9adeff2d4c3abf1939247b7
# LUTr-License: CC-BY-SA-4.0
# LUTr-License-URL: https://github.com/NatronGitHub/clut#license
# LUTr-License-Basis: repo-license-file
# LUTr-Transform-Class: film-emulation
# LUTr-Tags: creative, film, film-emulation, hald-clut, natron, png, cube
# LUTr-Input-Color-Space: srgb
# LUTr-Input-Gamut: rec709
# LUTr-Input-Transfer: srgb
# LUTr-Output-Color-Space: srgb
# LUTr-Output-Gamut: rec709
# LUTr-Output-Transfer: srgb
# LUTr-Color-Space-Confidence: assumed-display-referred
# LUTr-Domain-Normalized: true
# LUTr-Shaper: none
# LUTr-Original-Grid: 64x64x64
# LUTr-Conversion-Grid: 25x25x25
# LUTr-Conversion-Interpolation: trilinear
# LUTr-Conversion-Method: HALD-PNG LUT image decoded at 16-bit and sampled to 25x25x25 3D CUBE
# LUTr-Conversion-Tool: LUTr scripts/convert-all-to-cube.mjs 2.0.0
# LUTr-Conversion-Date: 2026-07-27
# LUTr-Note: Preserve this metadata and the upstream license notices when redistributing.
TITLE "polaroid 665 negative +"
LUT_3D_SIZE 9
DOMAIN_MIN 0 0 0
DOMAIN_MAX 1 1 1
0.20392157 0.20392157 0.20392157
0.22352941 0.22352941 0.22352941
0.24607843 0.24607843 0.24607843
0.26519608 0.26519608 0.26519608
0.30980392 0.30980392 0.30980392
0.35196078 0.35196078 0.35196078
0.42156863 0.42156863 0.42156863
0.48382353 0.48382353 0.48382353
0.56078431 0.56078431 0.56078431
0.23480392 0.23480392 0.23480392
0.23872549 0.23872549 0.23872549
0.25392157 0.25392157 0.25392157
0.27794118 0.27794118 0.27794118
0.31715686 0.31715686 0.31715686
0.36323529 0.36323529 0.36323529
0.43026961 0.43026961 0.43026961
0.49901961 0.49901961 0.49901961
0.56862745 0.56862745 0.56862745
0.25980392 0.25980392 0.25980392
0.26470588 0.26470588 0.26470588
0.2747549 0.2747549 0.2747549
0.31813725 0.31813725 0.31813725
0.35392157 0.35392157 0.35392157
0.39019608 0.39019608 0.39019608
0.45588235 0.45588235 0.45588235
0.5254902 0.5254902 0.5254902
0.5872549 0.5872549 0.5872549
0.34607843 0.34607843 0.34607843
0.3408701 0.3408701 0.3408701
0.33431373 0.33431373 0.33431373
0.36421569 0.36421569 0.36421569
0.39264706 0.39264706 0.39264706
0.42653186 0.42653186 0.42653186
0.47990196 0.47990196 0.47990196
0.55245098 0.55245098 0.55245098
0.61568627 0.61568627 0.61568627
0.42941176 0.42941176 0.42941176
0.42352941 0.42352941 0.42352941
0.41372549 0.41372549 0.41372549
0.41764706 0.41764706 0.41764706
0.4372549 0.4372549 0.4372549
0.47598039 0.47598039 0.47598039
0.52156863 0.52156863 0.52156863
0.58333333 0.58333333 0.58333333
0.64117647 0.64117647 0.64117647
0.51029412 0.51029412 0.51029412
0.50637255 0.50637255 0.50637255
0.51029412 0.51029412 0.51029412
0.50637255 0.50637255 0.50637255
0.50637255 0.50637255 0.50637255
0.53529412 0.53529412 0.53529412
0.57683824 0.57683824 0.57683824
0.62352941 0.62352941 0.62352941
0.68382353 0.68382353 0.68382353
0.61078431 0.61078431 0.61078431
0.60686275 0.60686275 0.60686275
0.60686275 0.60686275 0.60686275
0.60294118 0.60294118 0.60294118
0.6 0.6 0.6
0.61617647 0.61617647 0.61617647
0.64705882 0.64705882 0.64705882
0.67696078 0.67696078 0.67696078
0.72254902 0.72254902 0.72254902
0.70735294 0.70735294 0.70735294
0.6995098 0.6995098 0.6995098
0.6995098 0.6995098 0.6995098
0.696875 0.696875 0.696875
0.6995098 0.6995098 0.6995098
0.70490196 0.70490196 0.70490196
0.72389706 0.72389706 0.72389706
0.73872549 0.73872549 0.73872549
0.76519608 0.76519608 0.76519608
0.78039216 0.78039216 0.78039216
0.77647059 0.77647059 0.77647059
0.77647059 0.77647059 0.77647059
0.77254902 0.77254902 0.77254902
0.7745098 0.7745098 0.7745098
0.78431373 0.78431373 0.78431373
0.79215686 0.79215686 0.79215686
0.80098039 0.80098039 0.80098039
0.80784314 0.80784314 0.80784314
0.23872549 0.23872549 0.23872549
0.23872549 0.23872549 0.23872549
0.24607843 0.24607843 0.24607843
0.28039216 0.28039216 0.28039216
0.32720588 0.32720588 0.32720588
0.375 0.375 0.375
0.43284314 0.43284314 0.43284314
0.48676471 0.48676471 0.48676471
0.54166667 0.54166667 0.54166667
0.25392157 0.25392157 0.25392157
0.25392157 0.25392157 0.25392157
0.26438419 0.26438419 0.26438419
0.29591759 0.29591759 0.29591759
0.33480392 0.33480392 0.33480392
0.38235294 0.38235294 0.38235294
0.44025735 0.44025735 0.44025735
0.49901195 0.49901195 0.49901195
0.56470588 0.56470588 0.56470588
0.29558824 0.29558824 0.29558824
0.29166667 0.29166667 0.29166667
0.29960172 0.29960172 0.29960172
0.32696078 0.32696078 0.32696078
0.36544118 0.36544118 0.36544118
0.40539216 0.40539216 0.40539216
0.46001838 0.46001838 0.46001838
0.52941176 0.52941176 0.52941176
0.59117647 0.59117647 0.59117647
0.36550245 0.36550245 0.36550245
0.35588235 0.35588235 0.35588235
0.34973958 0.34973958 0.34973958
0.36029412 0.36029412 0.36029412
0.40122549 0.40122549 0.40122549
0.44264706 0.44264706 0.44264706
0.49019608 0.49019608 0.49019608
0.55637255 0.55637255 0.55637255
0.62205882 0.62205882 0.62205882
0.45245098 0.45245098 0.45245098
0.44509804 0.44509804 0.44509804
0.42990196 0.42990196 0.42990196
0.42827819 0.42827819 0.42827819
0.44644608 0.44644608 0.44644608
0.48602941 0.48602941 0.48602941
0.52910539 0.52910539 0.52910539
0.59068627 0.59068627 0.59068627
0.64877451 0.64877451 0.64877451
0.5372549 0.5372549 0.5372549
0.52971814 0.52971814 0.52971814
0.51813725 0.51813725 0.51813725
0.51764706 0.51764706 0.51764706
0.52156863 0.52156863 0.52156863
0.54774816 0.54774816 0.54774816
0.58431373 0.58431373 0.58431373
0.62990196 0.62990196 0.62990196
0.69117647 0.69117647 0.69117647
0.62205882 0.62205882 0.62205882
0.61588542 0.61588542 0.61588542
0.61099877 0.61099877 0.61099877
0.61029412 0.61029412 0.61029412
0.61029412 0.61029412 0.61029412
0.62401961 0.62401961 0.62401961
0.64926471 0.64926471 0.64926471
0.68137255 0.68137255 0.68137255
0.72647059 0.72647059 0.72647059
0.7151348 0.7151348 0.7151348
0.71035539 0.71035539 0.71035539
0.70698529 0.70698529 0.70698529
0.70079657 0.70079657 0.70079657
0.70101103 0.70101103 0.70101103
0.70735294 0.70735294 0.70735294
0.71997549 0.71997549 0.71997549
0.74264706 0.74264706 0.74264706
0.76525735 0.76525735 0.76525735
0.78431373 0.78431373 0.78431373
0.78039216 0.78039216 0.78039216
0.78039216 0.78039216 0.78039216
0.77647059 0.77647059 0.77647059
0.77647059 0.77647059 0.77647059
0.78039216 0.78039216 0.78039216
0.78039216 0.78039216 0.78039216
0.80441176 0.80441176 0.80441176
0.80833333 0.80833333 0.80833333
0.27647059 0.27647059 0.27647059
0.28823529 0.28823529 0.28823529
0.28823529 0.28823529 0.28823529
0.30735294 0.30735294 0.30735294
0.35588235 0.35588235 0.35588235
0.40588235 0.40588235 0.40588235
0.46372549 0.46372549 0.46372549
0.52144608 0.52144608 0.52144608
0.54803922 0.54803922 0.54803922
0.27647059 0.27647059 0.27647059
0.29515931 0.29515931 0.29515931
0.29702819 0.29702819 0.29702819
0.32637868 0.32637868 0.32637868
0.37058824 0.37058824 0.37058824
0.40975797 0.40975797 0.40975797
0.46764706 0.46764706 0.46764706
0.52489277 0.52489277 0.52489277
0.56029412 0.56029412 0.56029412
0.33014706 0.33014706 0.33014706
0.32254902 0.32254902 0.32254902
0.33296569 0.33296569 0.33296569
0.35919118 0.35919118 0.35919118
0.39987745 0.39987745 0.39987745
0.43563113 0.43563113 0.43563113
0.48627451 0.48627451 0.48627451
0.5442402 0.5442402 0.5442402
0.59803922 0.59803922 0.59803922
0.40686275 0.40686275 0.40686275
0.39598652 0.39598652 0.39598652
0.39117647 0.39117647 0.39117647
0.40355392 0.40355392 0.40355392
0.43694853 0.43694853 0.43694853
0.47352941 0.47352941 0.47352941
0.51507353 0.51507353 0.51507353
0.57193627 0.57193627 0.57193627
0.625 0.625 0.625
0.49019608 0.49019608 0.49019608
0.47898284 0.47898284 0.47898284
0.46568627 0.46568627 0.46568627
0.46121324 0.46121324 0.46121324
0.48284314 0.48284314 0.48284314
0.51617647 0.51617647 0.51617647
0.55343137 0.55343137 0.55343137
0.60441176 0.60441176 0.60441176
0.65637255 0.65637255 0.65637255
0.56703431 0.56703431 0.56703431
0.5627451 0.5627451 0.5627451
0.54696691 0.54696691 0.54696691
0.53566176 0.53566176 0.53566176
0.53939951 0.53939951 0.53939951
0.56265319 0.56265319 0.56265319
0.59764093 0.59764093 0.59764093
0.64669118 0.64669118 0.64669118
0.69558824 0.69558824 0.69558824
0.64509804 0.64509804 0.64509804
0.63826593 0.63826593 0.63826593
0.63314951 0.63314951 0.63314951
0.61792279 0.61792279 0.61792279
0.61973039 0.61973039 0.61973039
0.63553922 0.63553922 0.63553922
0.65367647 0.65367647 0.65367647
0.68786765 0.68786765 0.68786765
0.71568627 0.71568627 0.71568627
0.72561275 0.72561275 0.72561275
0.71911765 0.71911765 0.71911765
0.71415441 0.71415441 0.71415441
0.71029412 0.71029412 0.71029412
0.70735294 0.70735294 0.70735294
0.71127451 0.71127451 0.71127451
0.71875 0.71875 0.71875
0.74264706 0.74264706 0.74264706
0.76176471 0.76176471 0.76176471
0.79901961 0.79901961 0.79901961
0.78860294 0.78860294 0.78860294
0.79117647 0.79117647 0.79117647
0.7872549 0.7872549 0.7872549
0.78431373 0.78431373 0.78431373
0.78933824 0.78933824 0.78933824
0.78014706 0.78014706 0.78014706
0.79656863 0.79656863 0.79656863
0.81568627 0.81568627 0.81568627
0.36421569 0.36421569 0.36421569
0.36029412 0.36029412 0.36029412
0.36176471 0.36176471 0.36176471
0.3745098 0.3745098 0.3745098
0.3997549 0.3997549 0.3997549
0.44405637 0.44405637 0.44405637
0.49852941 0.49852941 0.49852941
0.55637255 0.55637255 0.55637255
0.59460784 0.59460784 0.59460784
0.36421569 0.36421569 0.36421569
0.36813725 0.36813725 0.36813725
0.37495404 0.37495404 0.37495404
0.38977482 0.38977482 0.38977482
0.41599265 0.41599265 0.41599265
0.45166973 0.45166973 0.45166973
0.50556066 0.50556066 0.50556066
0.56029412 0.56029412 0.56029412
0.60067402 0.60067402 0.60067402
0.38431373 0.38431373 0.38431373
0.38641238 0.38641238 0.38641238
0.39571078 0.39571078 0.39571078
0.4105239 0.4105239 0.4105239
0.43762255 0.43762255 0.43762255
0.47352941 0.47352941 0.47352941
0.5208027 0.5208027 0.5208027
0.57161458 0.57161458 0.57161458
0.61997549 0.61997549 0.61997549
0.44656863 0.44656863 0.44656863
0.44601716 0.44601716 0.44601716
0.44532782 0.44532782 0.44532782
0.44362745 0.44362745 0.44362745
0.47506127 0.47506127 0.47506127
0.50833333 0.50833333 0.50833333
0.54664522 0.54664522 0.54664522
0.59100031 0.59100031 0.59100031
0.64258578 0.64258578 0.64258578
0.52401961 0.52401961 0.52401961
0.52009804 0.52009804 0.52009804
0.5120098 0.5120098 0.5120098
0.49901961 0.49901961 0.49901961
0.51617647 0.51617647 0.51617647
0.54705882 0.54705882 0.54705882
0.58186275 0.58186275 0.58186275
0.62735907 0.62735907 0.62735907
0.675 0.675 0.675
0.59509804 0.59509804 0.59509804
0.59148284 0.59148284 0.59148284
0.58901654 0.58901654 0.58901654
0.57179841 0.57179841 0.57179841
0.57356005 0.57356005 0.57356005
0.59117647 0.59117647 0.59117647
0.62267157 0.62267157 0.62267157
0.66715686 0.66715686 0.66715686
0.70196078 0.70196078 0.70196078
0.66752451 0.66752451 0.66752451
0.66139706 0.66139706 0.66139706
0.65968137 0.65968137 0.65968137
0.64921875 0.64921875 0.64921875
0.64852941 0.64852941 0.64852941
0.65816483 0.65816483 0.65816483
0.67089461 0.67089461 0.67089461
0.7042739 0.7042739 0.7042739
0.71715686 0.71715686 0.71715686
0.73823529 0.73823529 0.73823529
0.73676471 0.73676471 0.73676471
0.73365502 0.73365502 0.73365502
0.72910539 0.72910539 0.72910539
0.72598039 0.72598039 0.72598039
0.72126225 0.72126225 0.72126225
0.72936581 0.72936581 0.72936581
0.7468367 0.7468367 0.7468367
0.75655637 0.75655637 0.75655637
0.8 0.8 0.8
0.8 0.8 0.8
0.80490196 0.80490196 0.80490196
0.79215686 0.79215686 0.79215686
0.79607843 0.79607843 0.79607843
0.79607843 0.79607843 0.79607843
0.80098039 0.80098039 0.80098039
0.80833333 0.80833333 0.80833333
0.82352941 0.82352941 0.82352941
0.45686275 0.45686275 0.45686275
0.45294118 0.45294118 0.45294118
0.45441176 0.45441176 0.45441176
0.46789216 0.46789216 0.46789216
0.4754902 0.4754902 0.4754902
0.4877451 0.4877451 0.4877451
0.5372549 0.5372549 0.5372549
0.59705882 0.59705882 0.59705882
0.64901961 0.64901961 0.64901961
0.45490196 0.45490196 0.45490196
0.45686275 0.45686275 0.45686275
0.46335784 0.46335784 0.46335784
0.47564338 0.47564338 0.47564338
0.48602941 0.48602941 0.48602941
0.49926471 0.49926471 0.49926471
0.54417892 0.54417892 0.54417892
0.59901961 0.59901961 0.59901961
0.65098039 0.65098039 0.65098039
0.46764706 0.46764706 0.46764706
0.47242647 0.47242647 0.47242647
0.47941176 0.47941176 0.47941176
0.49117647 0.49117647 0.49117647
0.49754902 0.49754902 0.49754902
0.51666667 0.51666667 0.51666667
0.55906863 0.55906863 0.55906863
0.6120098 0.6120098 0.6120098
0.6622549 0.6622549 0.6622549
0.48259804 0.48259804 0.48259804
0.50147059 0.50147059 0.50147059
0.5151348 0.5151348 0.5151348
0.51375613 0.51375613 0.51375613
0.52267157 0.52267157 0.52267157
0.54583333 0.54583333 0.54583333
0.58186275 0.58186275 0.58186275
0.62956495 0.62956495 0.62956495
0.675 0.675 0.675
0.55490196 0.55490196 0.55490196
0.55882353 0.55882353 0.55882353
0.55906863 0.55906863 0.55906863
0.5497549 0.5497549 0.5497549
0.56323529 0.56323529 0.56323529
0.57990196 0.57990196 0.57990196
0.61593137 0.61593137 0.61593137
0.65980392 0.65980392 0.65980392
0.70196078 0.70196078 0.70196078
0.62058824 0.62058824 0.62058824
0.62058824 0.62058824 0.62058824
0.62058824 0.62058824 0.62058824
0.61936275 0.61936275 0.61936275
0.61862745 0.61862745 0.61862745
0.62058824 0.62058824 0.62058824
0.65147059 0.65147059 0.65147059
0.69108456 0.69108456 0.69108456
0.72622549 0.72622549 0.72622549
0.68627451 0.68627451 0.68627451
0.68235294 0.68235294 0.68235294
0.68284314 0.68284314 0.68284314
0.68235294 0.68235294 0.68235294
0.68284314 0.68284314 0.68284314
0.68161765 0.68161765 0.68161765
0.69105392 0.69105392 0.69105392
0.72371324 0.72371324 0.72371324
0.74411765 0.74411765 0.74411765
0.75392157 0.75392157 0.75392157
0.75392157 0.75392157 0.75392157
0.75588235 0.75588235 0.75588235
0.75 0.75 0.75
0.74803922 0.74803922 0.74803922
0.74019608 0.74019608 0.74019608
0.74656863 0.74656863 0.74656863
0.76393995 0.76393995 0.76393995
0.775 0.775 0.775
0.80392157 0.80392157 0.80392157
0.80563725 0.80563725 0.80563725
0.80637255 0.80637255 0.80637255
0.79803922 0.79803922 0.79803922
0.80588235 0.80588235 0.80588235
0.79926471 0.79926471 0.79926471
0.8 0.8 0.8
0.8120098 0.8120098 0.8120098
0.81960784 0.81960784 0.81960784
0.54558824 0.54558824 0.54558824
0.5495098 0.5495098 0.5495098
0.55343137 0.55343137 0.55343137
0.57156863 0.57156863 0.57156863
0.58088235 0.58088235 0.58088235
0.57248775 0.57248775 0.57248775
0.58210784 0.58210784 0.58210784
0.63118873 0.63118873 0.63118873
0.67598039 0.67598039 0.67598039
0.53823529 0.53823529 0.53823529
0.5495098 0.5495098 0.5495098
0.55992647 0.55992647 0.55992647
0.57292433 0.57292433 0.57292433
0.58152574 0.58152574 0.58152574
0.57990962 0.57990962 0.57990962
0.58809743 0.58809743 0.58809743
0.6377451 0.6377451 0.6377451
0.68235294 0.68235294 0.68235294
0.55735294 0.55735294 0.55735294
0.56288297 0.56288297 0.56288297
0.56703431 0.56703431 0.56703431
0.57918199 0.57918199 0.57918199
0.59050245 0.59050245 0.59050245
0.59204963 0.59204963 0.59204963
0.60018382 0.60018382 0.60018382
0.64938725 0.64938725 0.64938725
0.68958333 0.68958333 0.68958333
0.57303922 0.57303922 0.57303922
0.57823223 0.57823223 0.57823223
0.58578431 0.58578431 0.58578431
0.59140625 0.59140625 0.59140625
0.60640319 0.60640319 0.60640319
0.61470588 0.61470588 0.61470588
0.6222886 0.6222886 0.6222886
0.66745558 0.66745558 0.66745558
0.70196078 0.70196078 0.70196078
0.60686275 0.60686275 0.60686275
0.6125 0.6125 0.6125
0.61348039 0.61348039 0.61348039
0.61366422 0.61366422 0.61366422
0.62647059 0.62647059 0.62647059
0.64365809 0.64365809 0.64365809
0.65539216 0.65539216 0.65539216
0.69411765 0.69411765 0.69411765
0.72426471 0.72426471 0.72426471
0.64846814 0.64846814 0.64846814
0.65238971 0.65238971 0.65238971
0.65631127 0.65631127 0.65631127
0.65539216 0.65539216 0.65539216
0.66099877 0.66099877 0.66099877
0.66660539 0.66660539 0.66660539
0.67699142 0.67699142 0.67699142
0.70950521 0.70950521 0.70950521
0.73088235 0.73088235 0.73088235
0.70428922 0.70428922 0.70428922
0.70539216 0.70539216 0.70539216
0.70931373 0.70931373 0.70931373
0.70931373 0.70931373 0.70931373
0.70931373 0.70931373 0.70931373
0.70833333 0.70833333 0.70833333
0.71642157 0.71642157 0.71642157
0.7410386 0.7410386 0.7410386
0.76715686 0.76715686 0.76715686
0.77107843 0.77107843 0.77107843
0.77107843 0.77107843 0.77107843
0.77352941 0.77352941 0.77352941
0.77107843 0.77107843 0.77107843
0.76945466 0.76945466 0.76945466
0.76457567 0.76457567 0.76457567
0.76678922 0.76678922 0.76678922
0.78284314 0.78284314 0.78284314
0.79656863 0.79656863 0.79656863
0.81323529 0.81323529 0.81323529
0.81176471 0.81176471 0.81176471
0.81323529 0.81323529 0.81323529
0.81960784 0.81960784 0.81960784
0.82426471 0.82426471 0.82426471
0.81176471 0.81176471 0.81176471
0.81213235 0.81213235 0.81213235
0.8276348 0.8276348 0.8276348
0.82745098 0.82745098 0.82745098
0.63431373 0.63431373 0.63431373
0.63823529 0.63823529 0.63823529
0.64583333 0.64583333 0.64583333
0.65747549 0.65747549 0.65747549
0.66715686 0.66715686 0.66715686
0.66176471 0.66176471 0.66176471
0.66176471 0.66176471 0.66176471
0.66911765 0.66911765 0.66911765
0.69411765 0.69411765 0.69411765
0.63431373 0.63431373 0.63431373
0.64048713 0.64048713 0.64048713
0.64901961 0.64901961 0.64901961
0.66171875 0.66171875 0.66171875
0.66862745 0.66862745 0.66862745
0.67250306 0.67250306 0.67250306
0.67046569 0.67046569 0.67046569
0.68056066 0.68056066 0.68056066
0.70637255 0.70637255 0.70637255
0.64607843 0.64607843 0.64607843
0.64607843 0.64607843 0.64607843
0.65 0.65 0.65
0.66360294 0.66360294 0.66360294
0.67254902 0.67254902 0.67254902
0.68422181 0.68422181 0.68422181
0.69215686 0.69215686 0.69215686
0.70327819 0.70327819 0.70327819
0.72573529 0.72573529 0.72573529
0.65784314 0.65784314 0.65784314
0.65968137 0.65968137 0.65968137
0.66014093 0.66014093 0.66014093
0.67182904 0.67182904 0.67182904
0.68192402 0.68192402 0.68192402
0.69146752 0.69146752 0.69146752
0.70309436 0.70309436 0.70309436
0.71832108 0.71832108 0.71832108
0.74105392 0.74105392 0.74105392
0.67843137 0.67843137 0.67843137
0.68216912 0.68216912 0.68216912
0.68443627 0.68443627 0.68443627
0.69019608 0.69019608 0.69019608
0.69632353 0.69632353 0.69632353
0.70269608 0.70269608 0.70269608
0.71176471 0.71176471 0.71176471
0.72922794 0.72922794 0.72922794
0.75 0.75 0.75
0.70539216 0.70539216 0.70539216
0.70926777 0.70926777 0.70926777
0.70931373 0.70931373 0.70931373
0.70931373 0.70931373 0.70931373
0.71415441 0.71415441 0.71415441
0.71922488 0.71922488 0.71922488
0.72472426 0.72472426 0.72472426
0.74059436 0.74059436 0.74059436
0.76176471 0.76176471 0.76176471
0.72916667 0.72916667 0.72916667
0.73682598 0.73682598 0.73682598
0.73939951 0.73939951 0.73939951
0.73235294 0.73235294 0.73235294
0.73933824 0.73933824 0.73933824
0.74715074 0.74715074 0.74715074
0.75159314 0.75159314 0.75159314
0.76286765 0.76286765 0.76286765
0.78161765 0.78161765 0.78161765
0.78627451 0.78627451 0.78627451
0.79007353 0.79007353 0.79007353
0.78679534 0.78679534 0.78679534
0.78583027 0.78583027 0.78583027
0.78970588 0.78970588 0.78970588
0.79105392 0.79105392 0.79105392
0.79466912 0.79466912 0.79466912
0.80543811 0.80543811 0.80543811
0.81580882 0.81580882 0.81580882
0.8245098 0.8245098 0.8245098
0.82352941 0.82352941 0.82352941
0.81960784 0.81960784 0.81960784
0.82843137 0.82843137 0.82843137
0.83627451 0.83627451 0.83627451
0.83235294 0.83235294 0.83235294
0.82916667 0.82916667 0.82916667
0.83529412 0.83529412 0.83529412
0.83921569 0.83921569 0.83921569
0.72254902 0.72254902 0.72254902
0.72303922 0.72303922 0.72303922
0.72267157 0.72267157 0.72267157
0.73069853 0.73069853 0.73069853
0.73872549 0.73872549 0.73872549
0.74001225 0.74001225 0.74001225
0.74264706 0.74264706 0.74264706
0.75 0.75 0.75
0.75392157 0.75392157 0.75392157
0.72303922 0.72303922 0.72303922
0.72684589 0.72684589 0.72684589
0.73345588 0.73345588 0.73345588
0.73807445 0.73807445 0.73807445
0.74065564 0.74065564 0.74065564
0.74623928 0.74623928 0.74623928
0.74957108 0.74957108 0.74957108
0.75435815 0.75435815 0.75435815
0.75833333 0.75833333 0.75833333
0.7307598 0.7307598 0.7307598
0.73088235 0.73088235 0.73088235
0.73431373 0.73431373 0.73431373
0.7408701 0.7408701 0.7408701
0.74564951 0.74564951 0.74564951
0.75562194 0.75562194 0.75562194
0.76176471 0.76176471 0.76176471
0.76617647 0.76617647 0.76617647
0.77696078 0.77696078 0.77696078
0.73694853 0.73694853 0.73694853
0.73480392 0.73480392 0.73480392
0.73846507 0.73846507 0.73846507
0.74626991 0.74626991 0.74626991
0.75392157 0.75392157 0.75392157
0.75784314 0.75784314 0.75784314
0.76666667 0.76666667 0.76666667
0.77729013 0.77729013 0.77729013
0.78511029 0.78511029 0.78511029
0.74828431 0.74828431 0.74828431
0.7502451 0.7502451 0.7502451
0.75214461 0.75214461 0.75214461
0.75784314 0.75784314 0.75784314
0.76176471 0.76176471 0.76176471
0.76568627 0.76568627 0.76568627
0.77352941 0.77352941 0.77352941
0.7794424 0.7794424 0.7794424
0.79289216 0.79289216 0.79289216
0.7591299 0.7591299 0.7591299
0.76145833 0.76145833 0.76145833
0.76305147 0.76305147 0.76305147
0.76568627 0.76568627 0.76568627
0.76568627 0.76568627 0.76568627
0.77333793 0.77333793 0.77333793
0.78137255 0.78137255 0.78137255
0.78687194 0.78687194 0.78687194
0.79834559 0.79834559 0.79834559
0.7810049 0.7810049 0.7810049
0.7810049 0.7810049 0.7810049
0.7810049 0.7810049 0.7810049
0.77843137 0.77843137 0.77843137
0.78235294 0.78235294 0.78235294
0.78716299 0.78716299 0.78716299
0.79298407 0.79298407 0.79298407
0.80071998 0.80071998 0.80071998
0.8122549 0.8122549 0.8122549
0.80539216 0.80539216 0.80539216
0.80882353 0.80882353 0.80882353
0.80880821 0.80880821 0.80880821
0.80925245 0.80925245 0.80925245
0.82101716 0.82101716 0.82101716
0.81666667 0.81666667 0.81666667
0.81666667 0.81666667 0.81666667
0.82445619 0.82445619 0.82445619
0.83186275 0.83186275 0.83186275
0.83970588 0.83970588 0.83970588
0.83529412 0.83529412 0.83529412
0.83529412 0.83529412 0.83529412
0.84362745 0.84362745 0.84362745
0.84705882 0.84705882 0.84705882
0.84705882 0.84705882 0.84705882
0.84362745 0.84362745 0.84362745
0.84705882 0.84705882 0.84705882
0.85882353 0.85882353 0.85882353
0.79607843 0.79607843 0.79607843
0.8 0.8 0.8
0.78137255 0.78137255 0.78137255
0.79460784 0.79460784 0.79460784
0.80784314 0.80784314 0.80784314
0.80539216 0.80539216 0.80539216
0.81176471 0.81176471 0.81176471
0.82352941 0.82352941 0.82352941
0.82745098 0.82745098 0.82745098
0.79607843 0.79607843 0.79607843
0.7995098 0.7995098 0.7995098
0.79607843 0.79607843 0.79607843
0.8 0.8 0.8
0.8 0.8 0.8
0.81176471 0.81176471 0.81176471
0.81568627 0.81568627 0.81568627
0.81660539 0.81660539 0.81660539
0.81960784 0.81960784 0.81960784
0.81078431 0.81078431 0.81078431
0.8 0.8 0.8
0.79607843 0.79607843 0.79607843
0.80355392 0.80355392 0.80355392
0.80735294 0.80735294 0.80735294
0.81568627 0.81568627 0.81568627
0.81568627 0.81568627 0.81568627
0.81568627 0.81568627 0.81568627
0.81568627 0.81568627 0.81568627
0.79460784 0.79460784 0.79460784
0.8 0.8 0.8
0.8 0.8 0.8
0.80637255 0.80637255 0.80637255
0.81323529 0.81323529 0.81323529
0.81568627 0.81568627 0.81568627
0.82352941 0.82352941 0.82352941
0.82224265 0.82224265 0.82224265
0.82352941 0.82352941 0.82352941
0.80980392 0.80980392 0.80980392
0.80392157 0.80392157 0.80392157
0.8 0.8 0.8
0.80392157 0.80392157 0.80392157
0.80490196 0.80490196 0.80490196
0.81176471 0.81176471 0.81176471
0.82352941 0.82352941 0.82352941
0.82794118 0.82794118 0.82794118
0.83529412 0.83529412 0.83529412
0.81323529 0.81323529 0.81323529
0.80569853 0.80569853 0.80569853
0.80784314 0.80784314 0.80784314
0.81176471 0.81176471 0.81176471
0.80931373 0.80931373 0.80931373
0.81176471 0.81176471 0.81176471
0.81568627 0.81568627 0.81568627
0.82205882 0.82205882 0.82205882
0.82352941 0.82352941 0.82352941
0.82058824 0.82058824 0.82058824
0.81568627 0.81568627 0.81568627
0.81568627 0.81568627 0.81568627
0.82806373 0.82806373 0.82806373
0.82058824 0.82058824 0.82058824
0.81666667 0.81666667 0.81666667
0.81666667 0.81666667 0.81666667
0.81703431 0.81703431 0.81703431
0.82352941 0.82352941 0.82352941
0.83921569 0.83921569 0.83921569
0.83137255 0.83137255 0.83137255
0.82389706 0.82389706 0.82389706
0.83952206 0.83952206 0.83952206
0.83161765 0.83161765 0.83161765
0.83707108 0.83707108 0.83707108
0.83970588 0.83970588 0.83970588
0.83578431 0.83578431 0.83578431
0.83578431 0.83578431 0.83578431
0.8627451 0.8627451 0.8627451
0.83529412 0.83529412 0.83529412
0.83431373 0.83431373 0.83431373
0.86519608 0.86519608 0.86519608
0.85294118 0.85294118 0.85294118
0.86029412 0.86029412 0.86029412
0.85882353 0.85882353 0.85882353
0.85098039 0.85098039 0.85098039
0.85490196 0.85490196 0.85490196
