site/assets/luts/sha256-402b47e6c7f01575867f1e7ddd16500d97d450d386983c30d620a9e705dd948d.cube
# LUTr-Schema-Version: 2
# LUTr-ID: sha256-402b47e6c7f01575867f1e7ddd16500d97d450d386983c30d620a9e705dd948d
# LUTr-Title: fuji ilford hp5 -
# LUTr-Collection: Natron HaldCLUT
# LUTr-Collection-ID: natron-haldclut-presets
# LUTr-Source: https://github.com/NatronGitHub/clut
# LUTr-Retrieved: 2026-07-27
# LUTr-Source-File: submissions/natron-haldclut-presets/negative_new/fuji_ilford_hp5_-.png
# LUTr-Source-Format: HALD-PNG
# LUTr-Source-SHA256: 402b47e6c7f01575867f1e7ddd16500d97d450d386983c30d620a9e705dd948d
# LUTr-License: CC-BY-SA-4.0
# LUTr-License-URL: https://github.com/NatronGitHub/clut#license
# LUTr-License-Basis: repo-license-file
# LUTr-Transform-Class: film-emulation
# LUTr-Tags: creative, film, film-emulation, hald-clut, natron, png, cube
# LUTr-Input-Color-Space: srgb
# LUTr-Input-Gamut: rec709
# LUTr-Input-Transfer: srgb
# LUTr-Output-Color-Space: srgb
# LUTr-Output-Gamut: rec709
# LUTr-Output-Transfer: srgb
# LUTr-Color-Space-Confidence: assumed-display-referred
# LUTr-Domain-Normalized: true
# LUTr-Shaper: none
# LUTr-Original-Grid: 64x64x64
# LUTr-Conversion-Grid: 25x25x25
# LUTr-Conversion-Interpolation: trilinear
# LUTr-Conversion-Method: HALD-PNG LUT image decoded at 16-bit and sampled to 25x25x25 3D CUBE
# LUTr-Conversion-Tool: LUTr scripts/convert-all-to-cube.mjs 2.0.0
# LUTr-Conversion-Date: 2026-07-27
# LUTr-Note: Preserve this metadata and the upstream license notices when redistributing.
TITLE "fuji ilford hp5 -"
LUT_3D_SIZE 25
DOMAIN_MIN 0 0 0
DOMAIN_MAX 1 1 1
0.031372549 0.031372549 0.031372549
0.035294118 0.035294118 0.035294118
0.044117647 0.044117647 0.044117647
0.050980392 0.050980392 0.050980392
0.058823529 0.058823529 0.058823529
0.066666667 0.066666667 0.066666667
0.073529412 0.073529412 0.073529412
0.094607843 0.094607843 0.094607843
0.1254902 0.1254902 0.1254902
0.15245098 0.15245098 0.15245098
0.17941176 0.17941176 0.17941176
0.21029412 0.21029412 0.21029412
0.24117647 0.24117647 0.24117647
0.26764706 0.26764706 0.26764706
0.28823529 0.28823529 0.28823529
0.3127451 0.3127451 0.3127451
0.3372549 0.3372549 0.3372549
0.36421569 0.36421569 0.36421569
0.39411765 0.39411765 0.39411765
0.42205882 0.42205882 0.42205882
0.45294118 0.45294118 0.45294118
0.48382353 0.48382353 0.48382353
0.51470588 0.51470588 0.51470588
0.54558824 0.54558824 0.54558824
0.57254902 0.57254902 0.57254902
0.031372549 0.031372549 0.031372549
0.033823529 0.033823529 0.033823529
0.041666667 0.041666667 0.041666667
0.050490196 0.050490196 0.050490196
0.065196078 0.065196078 0.065196078
0.075980392 0.075980392 0.075980392
0.08627451 0.08627451 0.08627451
0.10343137 0.10343137 0.10343137
0.12941176 0.12941176 0.12941176
0.15637255 0.15637255 0.15637255
0.18578431 0.18578431 0.18578431
0.21292892 0.21292892 0.21292892
0.24117647 0.24117647 0.24117647
0.26764706 0.26764706 0.26764706
0.29178922 0.29178922 0.29178922
0.32058824 0.32058824 0.32058824
0.34607843 0.34607843 0.34607843
0.37113971 0.37113971 0.37113971
0.40085784 0.40085784 0.40085784
0.42843137 0.42843137 0.42843137
0.45931373 0.45931373 0.45931373
0.48988971 0.48988971 0.48988971
0.51862745 0.51862745 0.51862745
0.5495098 0.5495098 0.5495098
0.575 0.575 0.575
0.031372549 0.031372549 0.031372549
0.031004902 0.031004902 0.031004902
0.040441176 0.040441176 0.040441176
0.058823529 0.058823529 0.058823529
0.079901961 0.079901961 0.079901961
0.096568627 0.096568627 0.096568627
0.10686275 0.10686275 0.10686275
0.12046569 0.12046569 0.12046569
0.14313725 0.14313725 0.14313725
0.17107843 0.17107843 0.17107843
0.20098039 0.20098039 0.20098039
0.22536765 0.22536765 0.22536765
0.24607843 0.24607843 0.24607843
0.27009804 0.27009804 0.27009804
0.30318627 0.30318627 0.30318627
0.33088235 0.33088235 0.33088235
0.35784314 0.35784314 0.35784314
0.38235294 0.38235294 0.38235294
0.40857843 0.40857843 0.40857843
0.43872549 0.43872549 0.43872549
0.46715686 0.46715686 0.46715686
0.49656863 0.49656863 0.49656863
0.52745098 0.52745098 0.52745098
0.55796569 0.55796569 0.55796569
0.58137255 0.58137255 0.58137255
0.030882353 0.030882353 0.030882353
0.02745098 0.02745098 0.02745098
0.049387255 0.049387255 0.049387255
0.072977941 0.072977941 0.072977941
0.097058824 0.097058824 0.097058824
0.11323529 0.11323529 0.11323529
0.12647059 0.12647059 0.12647059
0.14313725 0.14313725 0.14313725
0.16764706 0.16764706 0.16764706
0.19852941 0.19852941 0.19852941
0.22806373 0.22806373 0.22806373
0.25245098 0.25245098 0.25245098
0.2752451 0.2752451 0.2752451
0.29411765 0.29411765 0.29411765
0.31764706 0.31764706 0.31764706
0.34491422 0.34491422 0.34491422
0.37156863 0.37156863 0.37156863
0.39479167 0.39479167 0.39479167
0.42107843 0.42107843 0.42107843
0.44901961 0.44901961 0.44901961
0.47598039 0.47598039 0.47598039
0.50686275 0.50686275 0.50686275
0.5377451 0.5377451 0.5377451
0.56470588 0.56470588 0.56470588
0.5877451 0.5877451 0.5877451
0.066666667 0.066666667 0.066666667
0.066666667 0.066666667 0.066666667
0.074509804 0.074509804 0.074509804
0.097058824 0.097058824 0.097058824
0.11470588 0.11470588 0.11470588
0.13039216 0.13039216 0.13039216
0.1495098 0.1495098 0.1495098
0.17156863 0.17156863 0.17156863
0.19607843 0.19607843 0.19607843
0.225 0.225 0.225
0.25539216 0.25539216 0.25539216
0.28112745 0.28112745 0.28112745
0.30196078 0.30196078 0.30196078
0.32034314 0.32034314 0.32034314
0.33921569 0.33921569 0.33921569
0.3625 0.3625 0.3625
0.38431373 0.38431373 0.38431373
0.40808824 0.40808824 0.40808824
0.43235294 0.43235294 0.43235294
0.45931373 0.45931373 0.45931373
0.4872549 0.4872549 0.4872549
0.51715686 0.51715686 0.51715686
0.54803922 0.54803922 0.54803922
0.57818627 0.57818627 0.57818627
0.60196078 0.60196078 0.60196078
0.10392157 0.10392157 0.10392157
0.1036152 0.1036152 0.1036152
0.10036765 0.10036765 0.10036765
0.11329657 0.11329657 0.11329657
0.13431373 0.13431373 0.13431373
0.15539216 0.15539216 0.15539216
0.17855392 0.17855392 0.17855392
0.2004902 0.2004902 0.2004902
0.225 0.225 0.225
0.25196078 0.25196078 0.25196078
0.2814951 0.2814951 0.2814951
0.30588235 0.30588235 0.30588235
0.32647059 0.32647059 0.32647059
0.34313725 0.34313725 0.34313725
0.36372549 0.36372549 0.36372549
0.38431373 0.38431373 0.38431373
0.40490196 0.40490196 0.40490196
0.4254902 0.4254902 0.4254902
0.44607843 0.44607843 0.44607843
0.47052696 0.47052696 0.47052696
0.5004902 0.5004902 0.5004902
0.53137255 0.53137255 0.53137255
0.5622549 0.5622549 0.5622549
0.59313725 0.59313725 0.59313725
0.61666667 0.61666667 0.61666667
0.14215686 0.14215686 0.14215686
0.14117647 0.14117647 0.14117647
0.13406863 0.13406863 0.13406863
0.1375 0.1375 0.1375
0.16029412 0.16029412 0.16029412
0.18370098 0.18370098 0.18370098
0.20686275 0.20686275 0.20686275
0.22892157 0.22892157 0.22892157
0.25196078 0.25196078 0.25196078
0.27928922 0.27928922 0.27928922
0.30661765 0.30661765 0.30661765
0.33039216 0.33039216 0.33039216
0.34852941 0.34852941 0.34852941
0.36752451 0.36752451 0.36752451
0.38431373 0.38431373 0.38431373
0.40490196 0.40490196 0.40490196
0.4254902 0.4254902 0.4254902
0.44607843 0.44607843 0.44607843
0.46666667 0.46666667 0.46666667
0.4872549 0.4872549 0.4872549
0.51617647 0.51617647 0.51617647
0.54460784 0.54460784 0.54460784
0.5754902 0.5754902 0.5754902
0.6067402 0.6067402 0.6067402
0.6372549 0.6372549 0.6372549
0.18235294 0.18235294 0.18235294
0.17990196 0.17990196 0.17990196
0.17781863 0.17781863 0.17781863
0.178125 0.178125 0.178125
0.19411765 0.19411765 0.19411765
0.21323529 0.21323529 0.21323529
0.23382353 0.23382353 0.23382353
0.25833333 0.25833333 0.25833333
0.28284314 0.28284314 0.28284314
0.30735294 0.30735294 0.30735294
0.33186275 0.33186275 0.33186275
0.35275735 0.35275735 0.35275735
0.37156863 0.37156863 0.37156863
0.38823529 0.38823529 0.38823529
0.40882353 0.40882353 0.40882353
0.42640931 0.42640931 0.42640931
0.44607843 0.44607843 0.44607843
0.46666667 0.46666667 0.46666667
0.4872549 0.4872549 0.4872549
0.5091299 0.5091299 0.5091299
0.53823529 0.53823529 0.53823529
0.56666667 0.56666667 0.56666667
0.59607843 0.59607843 0.59607843
0.62696078 0.62696078 0.62696078
0.65245098 0.65245098 0.65245098
0.22352941 0.22352941 0.22352941
0.21960784 0.21960784 0.21960784
0.21960784 0.21960784 0.21960784
0.22303922 0.22303922 0.22303922
0.23333333 0.23333333 0.23333333
0.25147059 0.25147059 0.25147059
0.26862745 0.26862745 0.26862745
0.28529412 0.28529412 0.28529412
0.30980392 0.30980392 0.30980392
0.33431373 0.33431373 0.33431373
0.35490196 0.35490196 0.35490196
0.3754902 0.3754902 0.3754902
0.39411765 0.39411765 0.39411765
0.4127451 0.4127451 0.4127451
0.42941176 0.42941176 0.42941176
0.45 0.45 0.45
0.46666667 0.46666667 0.46666667
0.4872549 0.4872549 0.4872549
0.50784314 0.50784314 0.50784314
0.53186275 0.53186275 0.53186275
0.55882353 0.55882353 0.55882353
0.58970588 0.58970588 0.58970588
0.62058824 0.62058824 0.62058824
0.65 0.65 0.65
0.67058824 0.67058824 0.67058824
0.25833333 0.25833333 0.25833333
0.25741422 0.25741422 0.25741422
0.25686275 0.25686275 0.25686275
0.26029412 0.26029412 0.26029412
0.27328431 0.27328431 0.27328431
0.28890931 0.28890931 0.28890931
0.30343137 0.30343137 0.30343137
0.31709559 0.31709559 0.31709559
0.33431373 0.33431373 0.33431373
0.35882353 0.35882353 0.35882353
0.37941176 0.37941176 0.37941176
0.39871324 0.39871324 0.39871324
0.41666667 0.41666667 0.41666667
0.43333333 0.43333333 0.43333333
0.45281863 0.45281863 0.45281863
0.47058824 0.47058824 0.47058824
0.4872549 0.4872549 0.4872549
0.50784314 0.50784314 0.50784314
0.52904412 0.52904412 0.52904412
0.55508578 0.55508578 0.55508578
0.58333333 0.58333333 0.58333333
0.6127451 0.6127451 0.6127451
0.64362745 0.64362745 0.64362745
0.67058824 0.67058824 0.67058824
0.69117647 0.69117647 0.69117647
0.29313725 0.29313725 0.29313725
0.29411765 0.29411765 0.29411765
0.29705882 0.29705882 0.29705882
0.3004902 0.3004902 0.3004902
0.31078431 0.31078431 0.31078431
0.32107843 0.32107843 0.32107843
0.33137255 0.33137255 0.33137255
0.34276961 0.34276961 0.34276961
0.3627451 0.3627451 0.3627451
0.38333333 0.38333333 0.38333333
0.40392157 0.40392157 0.40392157
0.42058824 0.42058824 0.42058824
0.4377451 0.4377451 0.4377451
0.45735294 0.45735294 0.45735294
0.4745098 0.4745098 0.4745098
0.49117647 0.49117647 0.49117647
0.50784314 0.50784314 0.50784314
0.52843137 0.52843137 0.52843137
0.55318627 0.55318627 0.55318627
0.58088235 0.58088235 0.58088235
0.60784314 0.60784314 0.60784314
0.63578431 0.63578431 0.63578431
0.66568627 0.66568627 0.66568627
0.69154412 0.69154412 0.69154412
0.71176471 0.71176471 0.71176471
0.32794118 0.32794118 0.32794118
0.33008578 0.33008578 0.33008578
0.33186275 0.33186275 0.33186275
0.33529412 0.33529412 0.33529412
0.34166667 0.34166667 0.34166667
0.35196078 0.35196078 0.35196078
0.3622549 0.3622549 0.3622549
0.37254902 0.37254902 0.37254902
0.3872549 0.3872549 0.3872549
0.40784314 0.40784314 0.40784314
0.4245098 0.4245098 0.4245098
0.44166667 0.44166667 0.44166667
0.45980392 0.45980392 0.45980392
0.47794118 0.47794118 0.47794118
0.49509804 0.49509804 0.49509804
0.51176471 0.51176471 0.51176471
0.53235294 0.53235294 0.53235294
0.55294118 0.55294118 0.55294118
0.57830882 0.57830882 0.57830882
0.60496324 0.60496324 0.60496324
0.63235294 0.63235294 0.63235294
0.65931373 0.65931373 0.65931373
0.68982843 0.68982843 0.68982843
0.7153799 0.7153799 0.7153799
0.73235294 0.73235294 0.73235294
0.36666667 0.36666667 0.36666667
0.36470588 0.36470588 0.36470588
0.36470588 0.36470588 0.36470588
0.36642157 0.36642157 0.36642157
0.36960784 0.36960784 0.36960784
0.37892157 0.37892157 0.37892157
0.38921569 0.38921569 0.38921569
0.3995098 0.3995098 0.3995098
0.41372549 0.41372549 0.41372549
0.42990196 0.42990196 0.42990196
0.44803922 0.44803922 0.44803922
0.46568627 0.46568627 0.46568627
0.48235294 0.48235294 0.48235294
0.49901961 0.49901961 0.49901961
0.51568627 0.51568627 0.51568627
0.53235294 0.53235294 0.53235294
0.55294118 0.55294118 0.55294118
0.57671569 0.57671569 0.57671569
0.60294118 0.60294118 0.60294118
0.63014706 0.63014706 0.63014706
0.65784314 0.65784314 0.65784314
0.68553922 0.68553922 0.68553922
0.71176471 0.71176471 0.71176471
0.73627451 0.73627451 0.73627451
0.75294118 0.75294118 0.75294118
0.40147059 0.40147059 0.40147059
0.39901961 0.39901961 0.39901961
0.39754902 0.39754902 0.39754902
0.39754902 0.39754902 0.39754902
0.40147059 0.40147059 0.40147059
0.40582108 0.40582108 0.40582108
0.41568627 0.41568627 0.41568627
0.42598039 0.42598039 0.42598039
0.44019608 0.44019608 0.44019608
0.453125 0.453125 0.453125
0.46960784 0.46960784 0.46960784
0.48633578 0.48633578 0.48633578
0.50294118 0.50294118 0.50294118
0.51960784 0.51960784 0.51960784
0.5372549 0.5372549 0.5372549
0.55686275 0.55686275 0.55686275
0.57745098 0.57745098 0.57745098
0.60067402 0.60067402 0.60067402
0.62745098 0.62745098 0.62745098
0.65447304 0.65447304 0.65447304
0.68137255 0.68137255 0.68137255
0.70784314 0.70784314 0.70784314
0.73235294 0.73235294 0.73235294
0.75667892 0.75667892 0.75667892
0.77303922 0.77303922 0.77303922
0.43235294 0.43235294 0.43235294
0.43235294 0.43235294 0.43235294
0.43137255 0.43137255 0.43137255
0.43235294 0.43235294 0.43235294
0.43235294 0.43235294 0.43235294
0.43627451 0.43627451 0.43627451
0.43946078 0.43946078 0.43946078
0.4495098 0.4495098 0.4495098
0.46078431 0.46078431 0.46078431
0.47855392 0.47855392 0.47855392
0.49387255 0.49387255 0.49387255
0.50992647 0.50992647 0.50992647
0.5254902 0.5254902 0.5254902
0.54276961 0.54276961 0.54276961
0.56004902 0.56004902 0.56004902
0.57745098 0.57745098 0.57745098
0.60098039 0.60098039 0.60098039
0.625 0.625 0.625
0.65098039 0.65098039 0.65098039
0.6754902 0.6754902 0.6754902
0.70196078 0.70196078 0.70196078
0.72843137 0.72843137 0.72843137
0.75220588 0.75220588 0.75220588
0.77352941 0.77352941 0.77352941
0.7872549 0.7872549 0.7872549
0.46323529 0.46323529 0.46323529
0.46323529 0.46323529 0.46323529
0.46470588 0.46470588 0.46470588
0.46685049 0.46685049 0.46685049
0.46715686 0.46715686 0.46715686
0.46715686 0.46715686 0.46715686
0.46715686 0.46715686 0.46715686
0.47107843 0.47107843 0.47107843
0.48529412 0.48529412 0.48529412
0.50251225 0.50251225 0.50251225
0.51801471 0.51801471 0.51801471
0.53314951 0.53314951 0.53314951
0.54877451 0.54877451 0.54877451
0.56470588 0.56470588 0.56470588
0.58137255 0.58137255 0.58137255
0.60196078 0.60196078 0.60196078
0.62254902 0.62254902 0.62254902
0.64705882 0.64705882 0.64705882
0.67156863 0.67156863 0.67156863
0.69607843 0.69607843 0.69607843
0.72058824 0.72058824 0.72058824
0.74540441 0.74540441 0.74540441
0.76960784 0.76960784 0.76960784
0.78964461 0.78964461 0.78964461
0.80294118 0.80294118 0.80294118
0.49803922 0.49803922 0.49803922
0.50196078 0.50196078 0.50196078
0.50196078 0.50196078 0.50196078
0.50196078 0.50196078 0.50196078
0.50196078 0.50196078 0.50196078
0.50588235 0.50588235 0.50588235
0.50196078 0.50196078 0.50196078
0.50196078 0.50196078 0.50196078
0.51372549 0.51372549 0.51372549
0.53039216 0.53039216 0.53039216
0.54607843 0.54607843 0.54607843
0.55980392 0.55980392 0.55980392
0.57254902 0.57254902 0.57254902
0.58529412 0.58529412 0.58529412
0.60196078 0.60196078 0.60196078
0.62254902 0.62254902 0.62254902
0.64705882 0.64705882 0.64705882
0.67009804 0.67009804 0.67009804
0.69215686 0.69215686 0.69215686
0.71617647 0.71617647 0.71617647
0.73921569 0.73921569 0.73921569
0.7622549 0.7622549 0.7622549
0.78627451 0.78627451 0.78627451
0.80686275 0.80686275 0.80686275
0.81960784 0.81960784 0.81960784
0.54313725 0.54313725 0.54313725
0.54466912 0.54466912 0.54466912
0.54558824 0.54558824 0.54558824
0.54558824 0.54558824 0.54558824
0.54705882 0.54705882 0.54705882
0.54705882 0.54705882 0.54705882
0.54705882 0.54705882 0.54705882
0.54705882 0.54705882 0.54705882
0.55098039 0.55098039 0.55098039
0.56427696 0.56427696 0.56427696
0.57696078 0.57696078 0.57696078
0.59117647 0.59117647 0.59117647
0.60147059 0.60147059 0.60147059
0.61176471 0.61176471 0.61176471
0.62316176 0.62316176 0.62316176
0.64460784 0.64460784 0.64460784
0.66764706 0.66764706 0.66764706
0.68823529 0.68823529 0.68823529
0.7127451 0.7127451 0.7127451
0.73333333 0.73333333 0.73333333
0.75784314 0.75784314 0.75784314
0.78020833 0.78020833 0.78020833
0.80294118 0.80294118 0.80294118
0.82352941 0.82352941 0.82352941
0.83627451 0.83627451 0.83627451
0.58823529 0.58823529 0.58823529
0.58823529 0.58823529 0.58823529
0.58848039 0.58848039 0.58848039
0.58921569 0.58921569 0.58921569
0.59068627 0.59068627 0.59068627
0.59215686 0.59215686 0.59215686
0.59215686 0.59215686 0.59215686
0.59215686 0.59215686 0.59215686
0.59215686 0.59215686 0.59215686
0.59754902 0.59754902 0.59754902
0.60882353 0.60882353 0.60882353
0.62205882 0.62205882 0.62205882
0.63333333 0.63333333 0.63333333
0.64656863 0.64656863 0.64656863
0.65784314 0.65784314 0.65784314
0.67254902 0.67254902 0.67254902
0.69215686 0.69215686 0.69215686
0.7127451 0.7127451 0.7127451
0.73333333 0.73333333 0.73333333
0.75490196 0.75490196 0.75490196
0.77843137 0.77843137 0.77843137
0.79901961 0.79901961 0.79901961
0.81960784 0.81960784 0.81960784
0.84019608 0.84019608 0.84019608
0.85294118 0.85294118 0.85294118
0.63284314 0.63284314 0.63284314
0.63314951 0.63314951 0.63314951
0.63333333 0.63333333 0.63333333
0.63333333 0.63333333 0.63333333
0.63676471 0.63676471 0.63676471
0.63676471 0.63676471 0.63676471
0.63676471 0.63676471 0.63676471
0.63333333 0.63333333 0.63333333
0.63333333 0.63333333 0.63333333
0.63333333 0.63333333 0.63333333
0.63970588 0.63970588 0.63970588
0.65594363 0.65594363 0.65594363
0.66887255 0.66887255 0.66887255
0.68180147 0.68180147 0.68180147
0.69509804 0.69509804 0.69509804
0.70716912 0.70716912 0.70716912
0.72009804 0.72009804 0.72009804
0.73854167 0.73854167 0.73854167
0.75784314 0.75784314 0.75784314
0.77843137 0.77843137 0.77843137
0.80269608 0.80269608 0.80269608
0.82346814 0.82346814 0.82346814
0.84105392 0.84105392 0.84105392
0.85931373 0.85931373 0.85931373
0.87352941 0.87352941 0.87352941
0.67647059 0.67647059 0.67647059
0.67843137 0.67843137 0.67843137
0.67843137 0.67843137 0.67843137
0.68039216 0.68039216 0.68039216
0.68235294 0.68235294 0.68235294
0.68235294 0.68235294 0.68235294
0.68039216 0.68039216 0.68039216
0.67965686 0.67965686 0.67965686
0.67843137 0.67843137 0.67843137
0.67647059 0.67647059 0.67647059
0.68088235 0.68088235 0.68088235
0.69142157 0.69142157 0.69142157
0.70490196 0.70490196 0.70490196
0.71838235 0.71838235 0.71838235
0.73235294 0.73235294 0.73235294
0.74338235 0.74338235 0.74338235
0.75686275 0.75686275 0.75686275
0.77156863 0.77156863 0.77156863
0.78823529 0.78823529 0.78823529
0.80539216 0.80539216 0.80539216
0.82745098 0.82745098 0.82745098
0.8497549 0.8497549 0.8497549
0.86519608 0.86519608 0.86519608
0.87990196 0.87990196 0.87990196
0.89019608 0.89019608 0.89019608
0.72352941 0.72352941 0.72352941
0.72383578 0.72383578 0.72383578
0.72401961 0.72401961 0.72401961
0.72745098 0.72745098 0.72745098
0.72794118 0.72794118 0.72794118
0.72794118 0.72794118 0.72794118
0.72794118 0.72794118 0.72794118
0.72745098 0.72745098 0.72745098
0.72745098 0.72745098 0.72745098
0.72794118 0.72794118 0.72794118
0.72892157 0.72892157 0.72892157
0.7348652 0.7348652 0.7348652
0.74509804 0.74509804 0.74509804
0.75582108 0.75582108 0.75582108
0.76948529 0.76948529 0.76948529
0.77990196 0.77990196 0.77990196
0.79362745 0.79362745 0.79362745
0.80655637 0.80655637 0.80655637
0.82205882 0.82205882 0.82205882
0.83235294 0.83235294 0.83235294
0.85220588 0.85220588 0.85220588
0.87297794 0.87297794 0.87297794
0.89019608 0.89019608 0.89019608
0.9004902 0.9004902 0.9004902
0.90637255 0.90637255 0.90637255
0.76862745 0.76862745 0.76862745
0.77156863 0.77156863 0.77156863
0.77181373 0.77181373 0.77181373
0.77254902 0.77254902 0.77254902
0.7754902 0.7754902 0.7754902
0.7754902 0.7754902 0.7754902
0.7754902 0.7754902 0.7754902
0.77365196 0.77365196 0.77365196
0.7754902 0.7754902 0.7754902
0.77610294 0.77610294 0.77610294
0.77965686 0.77965686 0.77965686
0.78333333 0.78333333 0.78333333
0.7877451 0.7877451 0.7877451
0.79656863 0.79656863 0.79656863
0.80686275 0.80686275 0.80686275
0.81715686 0.81715686 0.81715686
0.82843137 0.82843137 0.82843137
0.84166667 0.84166667 0.84166667
0.85294118 0.85294118 0.85294118
0.85980392 0.85980392 0.85980392
0.87647059 0.87647059 0.87647059
0.89963235 0.89963235 0.89963235
0.91078431 0.91078431 0.91078431
0.91776961 0.91776961 0.91776961
0.91960784 0.91960784 0.91960784
0.81519608 0.81519608 0.81519608
0.81764706 0.81764706 0.81764706
0.81911765 0.81911765 0.81911765
0.81911765 0.81911765 0.81911765
0.82230392 0.82230392 0.82230392
0.82303922 0.82303922 0.82303922
0.82193627 0.82193627 0.82193627
0.82003676 0.82003676 0.82003676
0.82303922 0.82303922 0.82303922
0.82640931 0.82640931 0.82640931
0.82941176 0.82941176 0.82941176
0.82941176 0.82941176 0.82941176
0.83259804 0.83259804 0.83259804
0.83596814 0.83596814 0.83596814
0.84411765 0.84411765 0.84411765
0.85386029 0.85386029 0.85386029
0.86323529 0.86323529 0.86323529
0.875 0.875 0.875
0.88676471 0.88676471 0.88676471
0.89019608 0.89019608 0.89019608
0.90367647 0.90367647 0.90367647
0.92285539 0.92285539 0.92285539
0.93088235 0.93088235 0.93088235
0.93088235 0.93088235 0.93088235
0.93088235 0.93088235 0.93088235
0.85098039 0.85098039 0.85098039
0.85490196 0.85490196 0.85490196
0.85882353 0.85882353 0.85882353
0.85882353 0.85882353 0.85882353
0.86078431 0.86078431 0.86078431
0.87009804 0.87009804 0.87009804
0.85980392 0.85980392 0.85980392
0.85882353 0.85882353 0.85882353
0.8627451 0.8627451 0.8627451
0.86666667 0.86666667 0.86666667
0.8627451 0.8627451 0.8627451
0.8627451 0.8627451 0.8627451
0.8627451 0.8627451 0.8627451
0.86666667 0.86666667 0.86666667
0.87352941 0.87352941 0.87352941
0.88235294 0.88235294 0.88235294
0.89019608 0.89019608 0.89019608
0.9004902 0.9004902 0.9004902
0.90980392 0.90980392 0.90980392
0.91372549 0.91372549 0.91372549
0.92745098 0.92745098 0.92745098
0.94117647 0.94117647 0.94117647
0.94509804 0.94509804 0.94509804
0.94117647 0.94117647 0.94117647
0.94117647 0.94117647 0.94117647
0.035294118 0.035294118 0.035294118
0.038664216 0.038664216 0.038664216
0.043504902 0.043504902 0.043504902
0.050490196 0.050490196 0.050490196
0.06004902 0.06004902 0.06004902
0.065379902 0.065379902 0.065379902
0.069607843 0.069607843 0.069607843
0.091237745 0.091237745 0.091237745
0.1254902 0.1254902 0.1254902
0.15091912 0.15091912 0.15091912
0.17659314 0.17659314 0.17659314
0.20784314 0.20784314 0.20784314
0.24117647 0.24117647 0.24117647
0.27156863 0.27156863 0.27156863
0.29215686 0.29215686 0.29215686
0.3127451 0.3127451 0.3127451
0.3372549 0.3372549 0.3372549
0.36421569 0.36421569 0.36421569
0.39411765 0.39411765 0.39411765
0.42205882 0.42205882 0.42205882
0.45294118 0.45294118 0.45294118
0.48382353 0.48382353 0.48382353
0.51470588 0.51470588 0.51470588
0.54558824 0.54558824 0.54558824
0.57254902 0.57254902 0.57254902
0.035294118 0.035294118 0.035294118
0.038089767 0.038089767 0.038089767
0.044117647 0.044117647 0.044117647
0.052941176 0.052941176 0.052941176
0.068382353 0.068382353 0.068382353
0.07678462 0.07678462 0.07678462
0.08627451 0.08627451 0.08627451
0.10343137 0.10343137 0.10343137
0.12941176 0.12941176 0.12941176
0.15882353 0.15882353 0.15882353
0.18693321 0.18693321 0.18693321
0.21446078 0.21446078 0.21446078
0.24270833 0.24270833 0.24270833
0.27127757 0.27127757 0.27127757
0.29667586 0.29667586 0.29667586
0.323269 0.323269 0.323269
0.34754902 0.34754902 0.34754902
0.37205882 0.37205882 0.37205882
0.40071998 0.40071998 0.40071998
0.42843137 0.42843137 0.42843137
0.45931373 0.45931373 0.45931373
0.49019608 0.49019608 0.49019608
0.5192402 0.5192402 0.5192402
0.5495098 0.5495098 0.5495098
0.57647059 0.57647059 0.57647059
0.035294118 0.035294118 0.035294118
0.03682598 0.03682598 0.03682598
0.045435049 0.045435049 0.045435049
0.062745098 0.062745098 0.062745098
0.081311275 0.081311275 0.081311275
0.096568627 0.096568627 0.096568627
0.10931373 0.10931373 0.10931373
0.12130821 0.12130821 0.12130821
0.14313725 0.14313725 0.14313725
0.17463235 0.17463235 0.17463235
0.20735294 0.20735294 0.20735294
0.23435968 0.23435968 0.23435968
