site/assets/luts/sha256-3bcef7bc32404876a4469119b6714b8ba936fa5357e81b80d23a6ea2acfe5ecd.cube
# LUTr-Schema-Version: 2
# LUTr-ID: sha256-3bcef7bc32404876a4469119b6714b8ba936fa5357e81b80d23a6ea2acfe5ecd
# LUTr-Title: blue mono
# LUTr-Collection: Natron HaldCLUT
# LUTr-Collection-ID: natron-haldclut-presets
# LUTr-Source: https://github.com/NatronGitHub/clut
# LUTr-Retrieved: 2026-07-27
# LUTr-Source-File: submissions/natron-haldclut-presets/various/blue_mono.png
# LUTr-Source-Format: HALD-PNG
# LUTr-Source-SHA256: 3bcef7bc32404876a4469119b6714b8ba936fa5357e81b80d23a6ea2acfe5ecd
# LUTr-License: CC-BY-SA-4.0
# LUTr-License-URL: https://github.com/NatronGitHub/clut#license
# LUTr-License-Basis: repo-license-file
# LUTr-Transform-Class: film-emulation
# LUTr-Tags: creative, film, film-emulation, hald-clut, natron, png, black-and-white, cool, cube
# LUTr-Input-Color-Space: srgb
# LUTr-Input-Gamut: rec709
# LUTr-Input-Transfer: srgb
# LUTr-Output-Color-Space: srgb
# LUTr-Output-Gamut: rec709
# LUTr-Output-Transfer: srgb
# LUTr-Color-Space-Confidence: assumed-display-referred
# LUTr-Domain-Normalized: true
# LUTr-Shaper: none
# LUTr-Original-Grid: 64x64x64
# LUTr-Conversion-Grid: 25x25x25
# LUTr-Conversion-Interpolation: trilinear
# LUTr-Conversion-Method: HALD-PNG LUT image decoded at 16-bit and sampled to 25x25x25 3D CUBE
# LUTr-Conversion-Tool: LUTr scripts/convert-all-to-cube.mjs 2.0.0
# LUTr-Conversion-Date: 2026-07-27
# LUTr-Note: Preserve this metadata and the upstream license notices when redistributing.
TITLE "blue mono"
LUT_3D_SIZE 5
DOMAIN_MIN 0 0 0
DOMAIN_MAX 1 1 1
0.023529412 0.035294118 0.10980392
0.085294118 0.13921569 0.36470588
0.17254902 0.26666667 0.5745098
0.27647059 0.41470588 0.75490196
0.44313725 0.6627451 0.90196078
0.035294118 0.047058824 0.13627451
0.093137255 0.14632353 0.37965686
0.1877451 0.28431373 0.59803922
0.30392157 0.45392157 0.77132353
0.46568627 0.7 0.9127451
0.043137255 0.064705882 0.18235294
0.10098039 0.1627451 0.40588235
0.20686275 0.30490196 0.63333333
0.31078431 0.46470588 0.79656863
0.48235294 0.71960784 0.91960784
0.047058824 0.070588235 0.19803922
0.10563725 0.1754902 0.43529412
0.21568627 0.32745098 0.65686275
0.34338235 0.50759804 0.81862745
0.51372549 0.76176471 0.9372549
0.047058824 0.074509804 0.20392157
0.11960784 0.18921569 0.45882353
0.22352941 0.3372549 0.66862745
0.35196078 0.52254902 0.82647059
0.50980392 0.75686275 0.93333333
0.035294118 0.057843137 0.15588235
0.093137255 0.14705882 0.38112745
0.18333333 0.28039216 0.60098039
0.29828431 0.44485294 0.78529412
0.45882353 0.69313725 0.91372549
0.039215686 0.058823529 0.16666667
0.10091912 0.16158088 0.40367647
0.19583333 0.30294118 0.62769608
0.31568627 0.47052696 0.79338235
0.48039216 0.71544118 0.92058824
0.044607843 0.066666667 0.19362745
0.10784314 0.17352941 0.43480392
0.21151961 0.32230392 0.65245098
0.31960784 0.47610294 0.8004902
0.50784314 0.75392157 0.93480392
0.054901961 0.082352941 0.22745098
0.11960784 0.19019608 0.45882353
0.22585784 0.33958333 0.67058824
0.33995098 0.50098039 0.82291667
0.50882353 0.75661765 0.9372549
0.061764706 0.093137255 0.26862745
0.12843137 0.20563725 0.48553922
0.24215686 0.3622549 0.6877451
0.36593137 0.54411765 0.83651961
0.54117647 0.80294118 0.95686275
0.037254902 0.052941176 0.15490196
0.10098039 0.16470588 0.41176471
0.20686275 0.30294118 0.62941176
0.32352941 0.47352941 0.80686275
0.48431373 0.72352941 0.92156863
0.047058824 0.070098039 0.19558824
0.10882353 0.17561275 0.43039216
0.21176471 0.325 0.65269608
0.33137255 0.48995098 0.81764706
0.49803922 0.74117647 0.92941176
0.053921569 0.073529412 0.21764706
0.12279412 0.19264706 0.46985294
0.2245098 0.34264706 0.6745098
0.34705882 0.52156863 0.83014706
0.51764706 0.76862745 0.94117647
0.058823529 0.090196078 0.25294118
0.13823529 0.21568627 0.50098039
0.24068627 0.36102941 0.69754902
0.37242647 0.55980392 0.84129902
0.55294118 0.81911765 0.96078431
0.058823529 0.094117647 0.26078431
0.13921569 0.21764706 0.50637255
0.25588235 0.37941176 0.71862745
0.38529412 0.575 0.86078431
0.56666667 0.83529412 0.97058824
0.050980392 0.070588235 0.2
0.10563725 0.17843137 0.43602941
0.22205882 0.33333333 0.66323529
0.32352941 0.46887255 0.81004902
0.49901961 0.73039216 0.93333333
0.050980392 0.078431373 0.22034314
0.1245098 0.19411765 0.4620098
0.22941176 0.34656863 0.67647059
0.34877451 0.51004902 0.82941176
0.51691176 0.76470588 0.94436275
0.056372549 0.08627451 0.23872549
0.13308824 0.21372549 0.49852941
0.23921569 0.36495098 0.69362745
0.37156863 0.55551471 0.84362745
0.54362745 0.80686275 0.95882353
0.070588235 0.11397059 0.30392157
0.14313725 0.22677696 0.52199755
0.24987745 0.38247549 0.71666667
0.39509804 0.59313725 0.86305147
0.55686275 0.82352941 0.96470588
0.06372549 0.11764706 0.30392157
0.15882353 0.24436275 0.54534314
0.2627451 0.39460784 0.73137255
0.40073529 0.60196078 0.87034314
0.58529412 0.85980392 0.97745098
0.054901961 0.082352941 0.22352941
0.11960784 0.18921569 0.45392157
0.2254902 0.3372549 0.67254902
0.35196078 0.53039216 0.82941176
0.5254902 0.78823529 0.95294118
0.054901961 0.08627451 0.24117647
0.13455882 0.20196078 0.50122549
0.23480392 0.35098039 0.68235294
0.35882353 0.5372549 0.83333333
0.5372549 0.80686275 0.95980392
0.066666667 0.098039216 0.27647059
0.1495098 0.22745098 0.5254902
0.25098039 0.3745098 0.70784314
0.37941176 0.56764706 0.86078431
0.5627451 0.83529412 0.97058824
0.070588235 0.11372549 0.30686275
0.14803922 0.23406863 0.53504902
0.26323529 0.39264706 0.7377451
0.41568627 0.62132353 0.87647059
0.57647059 0.85392157 0.97647059
0.078431373 0.12941176 0.3372549
0.16666667 0.25588235 0.56862745
0.28235294 0.41764706 0.74509804
0.43431373 0.65490196 0.89215686
0.60784314 0.89019608 0.99215686
