site/assets/luts/sha256-1f6bcecb26484be2cf8689111da4038ce1a1b65201028e57bc4fde15c563ca63.cube
# LUTr-Schema-Version: 2
# LUTr-ID: sha256-1f6bcecb26484be2cf8689111da4038ce1a1b65201028e57bc4fde15c563ca63
# LUTr-Title: kodak portra 160 +
# LUTr-Collection: Natron HaldCLUT
# LUTr-Collection-ID: natron-haldclut-presets
# LUTr-Source: https://github.com/NatronGitHub/clut
# LUTr-Retrieved: 2026-07-27
# LUTr-Source-File: submissions/natron-haldclut-presets/negative_new/kodak_portra_160_+.png
# LUTr-Source-Format: HALD-PNG
# LUTr-Source-SHA256: 1f6bcecb26484be2cf8689111da4038ce1a1b65201028e57bc4fde15c563ca63
# LUTr-License: CC-BY-SA-4.0
# LUTr-License-URL: https://github.com/NatronGitHub/clut#license
# LUTr-License-Basis: repo-license-file
# LUTr-Transform-Class: film-emulation
# LUTr-Tags: creative, film, film-emulation, hald-clut, natron, png, cube
# LUTr-Input-Color-Space: srgb
# LUTr-Input-Gamut: rec709
# LUTr-Input-Transfer: srgb
# LUTr-Output-Color-Space: srgb
# LUTr-Output-Gamut: rec709
# LUTr-Output-Transfer: srgb
# LUTr-Color-Space-Confidence: assumed-display-referred
# LUTr-Domain-Normalized: true
# LUTr-Shaper: none
# LUTr-Original-Grid: 64x64x64
# LUTr-Conversion-Grid: 25x25x25
# LUTr-Conversion-Interpolation: trilinear
# LUTr-Conversion-Method: HALD-PNG LUT image decoded at 16-bit and sampled to 25x25x25 3D CUBE
# LUTr-Conversion-Tool: LUTr scripts/convert-all-to-cube.mjs 2.0.0
# LUTr-Conversion-Date: 2026-07-27
# LUTr-Note: Preserve this metadata and the upstream license notices when redistributing.
TITLE "kodak portra 160 +"
LUT_3D_SIZE 25
DOMAIN_MIN 0 0 0
DOMAIN_MAX 1 1 1
0.02745098 0.054901961 0.043137255
0.044117647 0.050980392 0.053431373
0.064705882 0.046078431 0.06372549
0.092647059 0.043137255 0.059803922
0.12941176 0.039215686 0.049019608
0.1627451 0.034803922 0.03872549
0.21372549 0.028431373 0.038235294
0.26764706 0.023529412 0.048529412
0.3254902 0.015686275 0.058823529
0.38333333 0.0078431373 0.05245098
0.44509804 0.0078431373 0.033333333
0.50686275 0.0039215686 0.016666667
0.56470588 0 0.0078431373
0.62647059 0 0.0078431373
0.68823529 0 0.0049019608
0.73921569 0 0
0.77647059 0 0.0039215686
0.81127451 0 0.0039215686
0.84705882 0 0.0039215686
0.88431373 0 0.00049019608
0.91960784 0.0019607843 0
0.9504902 0.0078431373 0
0.97843137 0.017647059 0
0.98970588 0.080882353 0
0.99607843 0.14117647 0
0.02745098 0.054901961 0.040686275
0.046568627 0.053431373 0.049509804
0.071446078 0.056862745 0.056985294
0.098713235 0.059803922 0.059313725
0.13137255 0.058333333 0.052205882
0.16666667 0.058333333 0.03872549
0.21470588 0.055392157 0.03247549
0.27009804 0.049019608 0.039767157
0.3254902 0.03872549 0.048529412
0.38633578 0.02689951 0.042156863
0.44693627 0.013235294 0.031495098
0.50686275 0.0042279412 0.016176471
0.56593137 0 0.0078431373
0.62647059 0.00030637255 0.0078431373
0.68529412 0.0006127451 0.0049019608
0.73829657 0 0
0.77401961 0 0.0039215686
0.81035539 0 0.0039215686
0.84705882 0 0.0039215686
0.88480392 0 0.0026348039
0.91960784 0.0019607843 0
0.94754902 0.021875 0
0.96813725 0.053921569 0
0.98817402 0.093688725 0
0.99607843 0.14754902 0
0.026470588 0.068627451 0.038235294
0.047671569 0.073161765 0.045588235
0.071568627 0.080637255 0.056127451
0.095710784 0.085294118 0.06752451
0.12941176 0.089215686 0.058823529
0.17058824 0.089215686 0.037745098
0.21642157 0.089215686 0.023529412
0.27156863 0.083823529 0.029779412
0.33039216 0.073529412 0.029411765
0.39154412 0.059681373 0.025857843
0.45 0.041421569 0.017647059
0.51176471 0.021568627 0.010906863
0.56911765 0.012745098 0.0078431373
0.62732843 0.014338235 0.0078431373
0.68431373 0.0071078431 0.0056372549
0.73529412 0.00036764706 0.0039215686
0.77254902 0.0058823529 0.0039215686
0.80980392 0.014215686 0.0067401961
0.84705882 0.019852941 0.0078431373
0.88431373 0.020588235 0.0040441176
0.91960784 0.026470588 0.00049019608
0.94215686 0.057352941 0
0.9627451 0.091911765 0
0.98235294 0.12708333 0
1 0.16372549 0
0.020098039 0.089215686 0.027941176
0.040686275 0.099019608 0.038235294
0.064828431 0.10845588 0.05245098
0.085784314 0.11574755 0.059803922
0.12769608 0.12009804 0.049754902
0.1745098 0.12058824 0.030882353
0.21862745 0.12365196 0.013235294
0.27530637 0.11470588 0.012745098
0.33676471 0.10784314 0.016176471
0.39852941 0.10490196 0.015870098
0.46029412 0.094117647 0.012132353
0.52205882 0.079901961 0.0083333333
0.57622549 0.073284314 0.0078431373
0.63339461 0.067156863 0.01127451
0.68872549 0.056862745 0.0078431373
0.73400735 0.047732843 0.0039215686
0.77254902 0.05245098 0.0039215686
0.80980392 0.062745098 0.0078431373
0.84607843 0.07254902 0.0078431373
0.88431373 0.078921569 0.0044117647
0.91617647 0.081862745 0.0039215686
0.94215686 0.10882353 0.0034313725
0.95894608 0.14007353 0.0034313725
0.98284314 0.17107843 0.0021446078
0.99607843 0.19068627 0
0.019607843 0.13333333 0.02745098
0.032352941 0.13455882 0.034313725
0.051470588 0.1377451 0.037254902
0.075490196 0.14289216 0.042647059
0.11764706 0.14901961 0.034313725
0.16887255 0.15343137 0.02254902
0.21666667 0.15686275 0.0034313725
0.27941176 0.15882353 0.0046568627
0.34117647 0.15882353 0.0078431373
0.40686275 0.15563725 0.0098039216
0.46862745 0.15196078 0.0078431373
0.52843137 0.14166667 0.0078431373
0.58431373 0.13529412 0.0078431373
0.63995098 0.12892157 0.0078431373
0.69019608 0.12009804 0.0049019608
0.73137255 0.11764706 0.0039215686
0.76862745 0.11960784 0.0039215686
0.80980392 0.12671569 0.0051470588
0.84607843 0.13431373 0.0078431373
0.88088235 0.13897059 0.0078431373
0.91568627 0.14313725 0.0078431373
0.94411765 0.1620098 0.0058823529
0.96470588 0.18627451 0.0039215686
0.98259804 0.21004902 0.0039215686
0.99019608 0.22156863 0.0039215686
0.019607843 0.17843137 0.023529412
0.029901961 0.17598039 0.024816176
0.045098039 0.17095588 0.023406863
0.065196078 0.17015931 0.022610294
0.11127451 0.18210784 0.024754902
0.15925245 0.19411765 0.019117647
0.21029412 0.20098039 0.011887255
0.26862745 0.20606618 0.0042279412
0.33676471 0.20637255 0.0078431373
0.40882353 0.20637255 0.0039215686
0.47610294 0.20637255 0.0034313725
0.534375 0.1995098 0.0034313725
0.59019608 0.19509804 0.0039215686
0.64552696 0.19117647 0.0039215686
0.68982843 0.1877451 0.0039215686
0.72745098 0.18596814 0.0039215686
0.76862745 0.1872549 0.0039215686
0.80588235 0.19148284 0.0039215686
0.84607843 0.19595588 0.0039215686
0.88088235 0.19859069 0.0039215686
0.91568627 0.20073529 0.0078431373
0.9466299 0.21035539 0.0078431373
0.97193627 0.22745098 0.0039215686
0.98186275 0.24626225 0.0039215686
0.98431373 0.25245098 0.0039215686
0.016666667 0.22352941 0.020588235
0.02879902 0.22071078 0.020588235
0.044117647 0.21789216 0.019607843
0.065563725 0.21470588 0.01875
0.10637255 0.22156863 0.019607843
0.15502451 0.23492647 0.019607843
0.20392157 0.24607843 0.018627451
0.25686275 0.25208333 0.0078431373
0.32647059 0.25392157 0.0039215686
0.39852941 0.25490196 0.0020833333
0.46666667 0.25784314 0
0.53137255 0.25784314 0
0.5872549 0.25686275 0.0024509804
0.64166667 0.25294118 0.0039215686
0.68627451 0.25294118 0.0039215686
0.72745098 0.24901961 0.0039215686
0.76470588 0.25196078 0.0039215686
0.80404412 0.25539216 0.0039215686
0.84313725 0.25686275 0.00098039216
0.88051471 0.25392157 0.0039215686
0.91372549 0.25392157 0.006372549
0.94656863 0.25833333 0.0073529412
0.97156863 0.27181373 0.0039215686
0.98039216 0.28321078 0.0039215686
0.98039216 0.2872549 0.0039215686
0.010294118 0.26470588 0.014215686
0.024509804 0.26525735 0.017218137
0.045465686 0.26617647 0.019607843
0.070894608 0.26617647 0.019607843
0.10196078 0.26666667 0.020833333
0.14969363 0.27696078 0.019607843
0.19901961 0.29056373 0.019607843
0.24901961 0.29754902 0.010294118
0.3122549 0.30147059 0.0024509804
0.38339461 0.30484069 0
0.45428922 0.30637255 0
0.52322304 0.31060049 0
0.58088235 0.31323529 0
0.63235294 0.31078431 0
0.68382353 0.31078431 0
0.72745098 0.31078431 0
0.76470588 0.31078431 0.0024509804
0.80196078 0.31323529 0.00091911765
0.83884804 0.31041667 0
0.87647059 0.30716912 0.0034313725
0.91176471 0.30539216 0.0039215686
0.94656863 0.30716912 0.0039215686
0.97156863 0.32009804 0.0039215686
0.97738971 0.32745098 0.0039215686
0.97892157 0.32745098 0.0039215686
0.0039215686 0.30980392 0.0039215686
0.024509804 0.30980392 0.010294118
0.046078431 0.31372549 0.016666667
0.073039216 0.31372549 0.019607843
0.1 0.30980392 0.019607843
0.14705882 0.31862745 0.019607843
0.19509804 0.33235294 0.015686275
0.24509804 0.34117647 0.006372549
0.30196078 0.34901961 0
0.36764706 0.35294118 0
0.43823529 0.35784314 0
0.51029412 0.36421569 0
0.57058824 0.36862745 0
0.62254902 0.36862745 0
0.67745098 0.36862745 0
0.72745098 0.36862745 0
0.76470588 0.36862745 0
0.7995098 0.36862745 0
0.83431373 0.36470588 0.0039215686
0.87254902 0.36078431 0.0039215686
0.90980392 0.36078431 0.0039215686
0.94705882 0.36127451 0.0039215686
0.97156863 0.36862745 0.0039215686
0.97647059 0.37254902 0.0039215686
0.97647059 0.36862745 0.0039215686
0.0024509804 0.35343137 0.0024509804
0.0087622549 0.35827206 0.006372549
0.028431373 0.36164216 0.014215686
0.052634804 0.36127451 0.015870098
0.089705882 0.36127451 0.015686275
0.14362745 0.36323529 0.013235294
0.19509804 0.37352941 0.012132353
0.24656863 0.37990196 0.0048406863
0.29803922 0.39019608 0
0.35680147 0.4004902 0
0.42340686 0.4064951 0
0.49362745 0.41568627 0
0.55661765 0.42279412 0
0.60931373 0.42401961 0
0.66617647 0.42218137 0
0.72310049 0.42009804 0
0.7622549 0.42009804 0
0.79558824 0.42009804 0
0.8307598 0.41801471 0.0039215686
0.86862745 0.41617647 0.0039215686
0.90661765 0.41617647 0.0012254902
0.94460784 0.41648284 0
0.97365196 0.42009804 0
0.97401961 0.41525735 0.0039215686
0.97401961 0.41372549 0.0039215686
0.0039215686 0.4 0.0078431373
0.0039215686 0.40281863 0.0078431373
0.0085784314 0.40416667 0.0078431373
0.027941176 0.40784314 0.010784314
0.076470588 0.40784314 0.010784314
0.13627451 0.40882353 0.0078431373
0.19485294 0.41176471 0.0068627451
0.24656863 0.41715686 0.0024509804
0.29901961 0.43137255 0
0.35343137 0.44166667 0
0.40882353 0.45196078 0
0.47352941 0.4622549 0
0.53676471 0.46813725 0
0.5939951 0.46666667 0.00098039216
0.65122549 0.46764706 0
0.70343137 0.46764706 0
0.75098039 0.47058824 0
0.78921569 0.47095588 0.0024509804
0.82573529 0.46764706 0.0039215686
0.86372549 0.46666667 0.0039215686
0.90196078 0.46372549 0.0019607843
0.94178922 0.46629902 0
0.97132353 0.4629902 0
0.97647059 0.45980392 0.0014705882
0.97647059 0.45882353 0.0039215686
0.0039215686 0.44509804 0.0078431373
0.0039215686 0.44883578 0.0078431373
0.0039215686 0.44901961 0.0068627451
0.0047794118 0.44901961 0.00091911765
0.066666667 0.45269608 0.0022058824
0.13235294 0.45294118 0.00049019608
0.19117647 0.45294118 0.00049019608
0.24656863 0.45833333 0
0.29852941 0.46519608 0.0034313725
0.35343137 0.4754902 0.0039215686
0.40490196 0.48578431 0.0037990196
0.46072304 0.49607843 0.0034313725
0.52205882 0.50588235 0.0039215686
0.58033088 0.50833333 0.0039215686
0.63480392 0.51176471 0
0.68498775 0.51519608 0
0.73382353 0.51568627 0.0034313725
0.77892157 0.51911765 0.0039215686
0.81960784 0.51519608 0.0039215686
0.85735294 0.51219363 0.0039215686
0.89803922 0.51151961 0
0.9348652 0.51127451 0
0.96703431 0.50784314 0
0.97990196 0.50606618 0.0014705882
0.97990196 0.50392157 0.0039215686
0.0039215686 0.49019608 0.0078431373
0.0078431373 0.49338235 0.011764706
0.013235294 0.49411765 0.0098039216
0.039460784 0.49019608 0.0080882353
0.083333333 0.49019608 0.0049019608
0.14215686 0.49019608 0.0039215686
0.20392157 0.49019608 0.0024509804
0.25098039 0.49289216 0
0.29803922 0.49607843 0
0.34754902 0.50514706 0.0039215686
0.39901961 0.5127451 0.0039215686
0.45441176 0.52303922 0.0039215686
0.51176471 0.53627451 0.0039215686
0.56544118 0.54730392 0.0039215686
0.62058824 0.55294118 0
0.66936275 0.55686275 0
0.71960784 0.56078431 0.0039215686
0.76985294 0.5620098 0.0039215686
0.81372549 0.56078431 0.0039215686
0.85294118 0.55882353 0.0039215686
0.89117647 0.55686275 0.0029411765
0.92720588 0.55661765 0
0.96176471 0.55490196 0
0.98308824 0.55294118 0
0.98627451 0.55098039 0.0019607843
0.0039215686 0.53137255 0.0039215686
0.013541667 0.53529412 0.0078431373
0.043627451 0.53394608 0.011764706
0.075 0.53094363 0.012254902
0.11151961 0.52745098 0.01004902
0.15680147 0.52745098 0.0073529412
0.21384804 0.53002451 0.0039215686
0.26078431 0.53088235 0.0039215686
0.30196078 0.53137255 0.0039215686
0.34313725 0.53480392 0.00018382353
0.39264706 0.53970588 0
0.44754902 0.55300245 0.0039215686
0.50171569 0.56421569 0.006127451
0.55490196 0.57843137 0.0043504902
0.60637255 0.58872549 0.0039215686
0.65784314 0.59381127 0.0039215686
0.70931373 0.59803922 0.0044117647
0.76078431 0.60410539 0.0041053922
0.80784314 0.60588235 0.0039215686
0.84859069 0.60588235 0.0039215686
0.88602941 0.60588235 0.0039215686
0.92261029 0.60245098 0.00042892157
0.95784314 0.60208333 0
0.98988971 0.59852941 0
0.99264706 0.59852941 0
0.0068627451 0.57254902 0
0.038235294 0.57254902 0.006372549
0.075245098 0.57181373 0.011764706
0.10931373 0.56862745 0.015686275
0.14411765 0.56568627 0.011764706
0.17904412 0.56470588 0.0078431373
0.22156863 0.56176471 0.0039215686
0.26470588 0.56286765 0.0039215686
0.30588235 0.56568627 0.0039215686
0.34607843 0.56862745 0.0039215686
0.3875 0.56985294 0
0.4377451 0.58051471 0.0039215686
0.49313725 0.59166667 0.0098039216
0.54754902 0.60281863 0.0078431373
0.59901961 0.61568627 0.0078431373
0.6504902 0.62303922 0.0089460784
0.70196078 0.63235294 0.010784314
0.75441176 0.63872549 0.010784314
0.80098039 0.64705882 0.0068627451
0.84215686 0.64705882 0.0068627451
0.87941176 0.65098039 0.0068627451
0.91666667 0.65 0.0039215686
0.95465686 0.64705882 0.0031862745
0.99227941 0.64497549 0
1 0.64607843 0
0.069117647 0.60980392 0.0039215686
0.095159314 0.60980392 0.010294118
0.12058824 0.60772059 0.013848039
0.14430147 0.60441176 0.012254902
0.17107843 0.60122549 0.011029412
0.20588235 0.60018382 0.0078431373
0.23860294 0.59693627 0.0089460784
0.27401961 0.59656863 0.0078431373
0.31519608 0.59656863 0.0078431373
0.35637255 0.6004902 0.0048406863
0.39754902 0.6004902 0.0039215686
0.4408701 0.60784314 0.0073529412
0.49215686 0.61813725 0.0078431373
0.53952206 0.62873775 0.0076593137
0.58970588 0.64117647 0.0039215686
0.64117647 0.64846814 0.0078431373
0.69117647 0.65784314 0.011764706
0.73872549 0.66476716 0.016605392
0.78566176 0.67389706 0.016789216
0.82794118 0.67873775 0.015686275
0.87034314 0.68676471 0.0125
0.90998775 0.68676471 0.011458333
0.94754902 0.68676471 0.0078431373
0.98094363 0.68431373 0.0039215686
0.99460784 0.68431373 0.0039215686
0.12941176 0.64705882 0.0039215686
0.15 0.64460784 0.010294118
0.16960784 0.64313725 0.015686275
0.18382353 0.63921569 0.015686275
0.20392157 0.63529412 0.0078431373
0.22941176 0.63529412 0.0039215686
0.26372549 0.63529412 0.010784314
0.29068627 0.63137255 0.010294118
0.3254902 0.62745098 0.0039215686
0.36666667 0.62990196 0.0039215686
0.40784314 0.63235294 0.0078431373
0.44509804 0.63872549 0.0044117647
0.49215686 0.64509804 0.0078431373
0.53921569 0.65539216 0.0078431373
0.58039216 0.66568627 0.00098039216
0.62696078 0.6745098 0.0078431373
0.6745098 0.68235294 0.015686275
0.72205882 0.69019608 0.018137255
0.76862745 0.69901961 0.019607843
0.81323529 0.70539216 0.019607843
0.85882353 0.71960784 0.017647059
0.9 0.7254902 0.011764706
0.93823529 0.7254902 0.0088235294
0.96764706 0.7254902 0.0078431373
0.98431373 0.7254902 0.0039215686
0.1872549 0.68186275 0.035784314
0.19901961 0.68094363 0.039705882
0.21531863 0.67977941 0.043627451
0.23106618 0.67647059 0.037745098
0.24436275 0.67328431 0.026715686
0.25833333 0.67224265 0.017218137
0.28676471 0.6689951 0.028431373
0.3122549 0.66470588 0.02310049
0.33186275 0.65833333 0
0.37640931 0.6622549 0.010355392
0.41813725 0.66617647 0.02120098
0.45588235 0.67009804 0.013235294
0.49338235 0.67598039 0.0026960784
0.53529412 0.68627451 0.0044117647
0.58039216 0.69301471 0.016789216
0.62156863 0.69993873 0.024509804
0.66421569 0.70686275 0.020588235
0.70839461 0.71715686 0.015686275
0.75441176 0.72598039 0.017769608
0.79705882 0.7341299 0.029411765
0.84534314 0.74730392 0.025980392
0.89362745 0.7627451 0.011458333
0.93039216 0.7627451 0.0078431373
0.96366422 0.7627451 0.006372549
0.98823529 0.7627451 0.0039215686
0.24901961 0.71764706 0.096078431
0.25477941 0.71703431 0.096078431
0.26446078 0.71593137 0.096078431
0.27757353 0.71372549 0.093504902
0.29068627 0.71323529 0.093137255
0.30294118 0.70980392 0.092156863
0.32352941 0.70514706 0.076715686
0.34375 0.6995098 0.060171569
0.36372549 0.69411765 0.049019608
0.39252451 0.69595588 0.054411765
0.43235294 0.69803922 0.056862745
0.46973039 0.70441176 0.047671569
0.50539216 0.70882353 0.030392157
0.54117647 0.71323529 0.030269608
0.58137255 0.72058824 0.043137255
0.62254902 0.72843137 0.051348039
0.66372549 0.73627451 0.051960784
0.70490196 0.74595588 0.046568627
0.74509804 0.75196078 0.05
0.78884804 0.75968137 0.060294118
0.83676471 0.77303922 0.056862745
0.8872549 0.79068627 0.047794118
0.9254902 0.79803922 0.053431373
0.95845588 0.79901961 0.025367647
0.99313725 0.8 0
0.29607843 0.75147059 0.13578431
0.30245098 0.75147059 0.13792892
0.30882353 0.75012255 0.14313725
0.315625 0.74754902 0.13621324
0.32598039 0.74754902 0.12843137
0.34019608 0.7466299 0.12444853
0.35735294 0.73970588 0.11323529
0.37794118 0.73400735 0.11109069
0.39852941 0.73137255 0.10735294
0.41911765 0.72794118 0.10765931
0.45 0.73186275 0.11029412
0.4872549 0.73529412 0.093137255
0.51911765 0.73970588 0.085539216
0.55441176 0.74411765 0.091176471
0.59558824 0.75147059 0.094607843
0.63284314 0.75931373 0.10471814
0.67058824 0.76715686 0.11078431
0.7091299 0.7713848 0.11078431
0.74509804 0.77647059 0.11519608
0.78927696 0.78627451 0.1254902
0.83357843 0.79705882 0.12230392
0.87696078 0.81127451 0.13823529
0.91813725 0.82156863 0.15637255
0.95716912 0.82990196 0.14117647
0.97401961 0.83039216 0.10637255
0.34117647 0.78627451 0.17058824
0.34509804 0.78235294 0.17573529
0.3495098 0.78137255 0.18039216
0.35637255 0.77843137 0.17303922
0.36470588 0.77843137 0.1627451
0.3752451 0.77818627 0.15318627
0.39215686 0.77303922 0.15784314
0.41004902 0.76985294 0.15955882
0.42941176 0.76666667 0.1627451
0.45 0.76470588 0.15441176
0.47352941 0.76519608 0.14803922
0.50833333 0.76838235 0.1377451
0.53627451 0.77156863 0.14411765
0.57034314 0.775 0.15098039
0.60637255 0.78235294 0.14901961
0.64558824 0.79019608 0.15637255
0.68039216 0.79411765 0.1627451
0.71519608 0.79926471 0.17181373
0.7504902 0.80441176 0.18088235
0.79019608 0.81151961 0.1877451
0.82941176 0.82156863 0.19509804
0.87058824 0.83382353 0.20833333
0.91323529 0.84607843 0.22254902
0.94926471 0.85759804 0.23137255
0.95686275 0.85882353 0.2254902
0.39509804 0.82156863 0.23039216
0.39509804 0.81893382 0.23088235
0.39987745 0.81629902 0.23431373
0.40588235 0.81372549 0.22745098
0.4125 0.81372549 0.21862745
0.42604167 0.81372549 0.21862745
0.43676471 0.81078431 0.21862745
0.45098039 0.80618873 0.21911765
0.46519608 0.80196078 0.21470588
0.48314951 0.80196078 0.20067402
0.50281863 0.80196078 0.18970588
0.52984069 0.80496324 0.18278186
0.56029412 0.80563725 0.19068627
0.59117647 0.81023284 0.19859069
0.62512255 0.81629902 0.20196078
0.65686275 0.82156863 0.20490196
0.69117647 0.8254902 0.21862745
0.72579657 0.82941176 0.22892157
0.76041667 0.83419118 0.23921569
0.79509804 0.84068627 0.2495098
0.82769608 0.84656863 0.25588235
0.86862745 0.86035539 0.27009804
0.90980392 0.87365196 0.28431373
0.94411765 0.88351716 0.29705882
0.95686275 0.8872549 0.29362745
0.45294118 0.85882353 0.29607843
0.45355392 0.85882353 0.29901961
0.45686275 0.85490196 0.29607843
0.46164216 0.85110294 0.29142157
0.46764706 0.85098039 0.2872549
0.47794118 0.85196078 0.2872549
0.48823529 0.85416667 0.2872549
0.50355392 0.85061275 0.28823529
0.50980392 0.84313725 0.28039216
0.53088235 0.84313725 0.27242647
0.54681373 0.84313725 0.25784314
0.56764706 0.84313725 0.25098039
0.59411765 0.84313725 0.25392157
0.62598039 0.84754902 0.26421569
0.65686275 0.85416667 0.27058824
0.68443627 0.85919118 0.27696078
0.71176471 0.8627451 0.2872549
0.7432598 0.86727941 0.29754902
0.77745098 0.87156863 0.30490196
0.80833333 0.87536765 0.31421569
0.83627451 0.88088235 0.32156863
0.87156863 0.88786765 0.33492647
0.91053922 0.90196078 0.3497549
0.94056373 0.90894608 0.36029412
0.95686275 0.91470588 0.3627451
0.51078431 0.9 0.36176471
0.51231618 0.89754902 0.36323529
0.51470588 0.89571078 0.36115196
0.51715686 0.89215686 0.35802696
0.52303922 0.89215686 0.35857843
0.53333333 0.89264706 0.35539216
0.54362745 0.89607843 0.35833333
0.5557598 0.89515931 0.35876225
0.5495098 0.875 0.33284314
0.58235294 0.88970588 0.34993873
0.59865196 0.88970588 0.34117647
0.61452206 0.88823529 0.33743873
0.63995098 0.88823529 0.33848039
0.66421569 0.88823529 0.33970588
0.68664216 0.89007353 0.34264706
0.71323529 0.89515931 0.34901961
0.7377451 0.9 0.35539216
0.76715686 0.90545343 0.36568627
0.79620098 0.91176471 0.37561275
0.825 0.91519608 0.38235294
0.85441176 0.91887255 0.39191176
0.88137255 0.92254902 0.40147059
0.91115196 0.92892157 0.41176471
0.94019608 0.93529412 0.42058824
0.96078431 0.94166667 0.42843137
0.56078431 0.93333333 0.41960784
0.56470588 0.93480392 0.42107843
0.56078431 0.92843137 0.41568627
0.56078431 0.9254902 0.41176471
0.56666667 0.92156863 0.41176471
0.57696078 0.9254902 0.41176471
0.59019608 0.93235294 0.41568627
0.60343137 0.93676471 0.42009804
0.57647059 0.89803922 0.36862745
0.63186275 0.93284314 0.42009804
0.64411765 0.92941176 0.41470588
0.65784314 0.92941176 0.41176471
0.67254902 0.92352941 0.40588235
0.69117647 0.92156863 0.40392157
0.71470588 0.9245098 0.41078431
0.74019608 0.92941176 0.41960784
0.76470588 0.93333333 0.41960784
0.7877451 0.93578431 0.42598039
0.81470588 0.94607843 0.4372549
0.84215686 0.94901961 0.44313725
0.86470588 0.94509804 0.44509804
0.89117647 0.94901961 0.45098039
0.91470588 0.95196078 0.45784314
0.94166667 0.95833333 0.46813725
0.96470588 0.96470588 0.4745098
0.02745098 0.054901961 0.045588235
0.044117647 0.050980392 0.055882353
0.060784314 0.044240196 0.067279412
0.092156863 0.043137255 0.063235294
0.12745098 0.040441176 0.052205882
0.16305147 0.033946078 0.043933824
0.21372549 0.030514706 0.044607843
0.26764706 0.025980392 0.050980392
0.3254902 0.011764706 0.058823529
0.38333333 0.0044730392 0.053921569
0.44571078 0.006004902 0.037867647
0.50716912 0.0042279412 0.02254902
0.56715686 0.0012254902 0.016666667
0.62647059 0 0.014215686
0.68639706 0 0.01127451
0.73829657 0 0.0024509804
0.77401961 0 0.0039215686
0.81127451 0 0.0072916667
0.84705882 0 0.0057598039
0.88480392 0 0.0026348039
0.91960784 0 0
0.95294118 0.0041053922 0
0.98137255 0.014093137 0
0.99215686 0.069669118 0
0.99607843 0.12058824 0
0.02745098 0.054901961 0.041666667
0.044692096 0.053431373 0.052305453
0.067938113 0.059114583 0.062668505
0.09564951 0.062140012 0.064575674
0.1296875 0.059528186 0.057077206
0.16685815 0.058448223 0.045335478
0.21470588 0.05814951 0.040808824
0.27009804 0.052251838 0.044607843
0.3254902 0.03627451 0.049448529
0.38578431 0.024165135 0.045159314
0.44901961 0.013235294 0.033946078
0.50942862 0.0031173407 0.018696385
0.56862745 0 0.011979167
0.62727482 0.0025658701 0.014215686
0.68468137 0.00038296569 0.0084558824
0.73678768 0 0.00091911765
0.77254902 0 0.0039215686
0.80980392 0 0.0067172181
0.84705882 0 0.0057598039
0.88480392 0 0.00049019608
0.92037377 0 0
0.94785539 0.018068321 0
0.97205882 0.04754902 0
0.99028033 0.083739277 0
0.99607843 0.12604167 0
0.023529412 0.06875 0.042279412
0.045955882 0.075229779 0.051271446
0.069362745 0.082107843 0.062346814
0.095710784 0.085217525 0.071308211
0.12941176 0.088909314 0.060906863
0.17147672 0.089568015 0.046966912
0.21862745 0.090379902 0.04286152
0.27156863 0.085585172 0.039215686
0.32977941 0.074509804 0.036764706
0.39154412 0.063526348 0.033072917
0.45220588 0.043014706 0.024019608
0.51176471 0.017876838 0.011014093
0.57052696 0.009375 0.010294118
0.62679228 0.01182598 0.013679534
0.68247549 0.0069546569 0.0076286765
0.73506434 0.00036764706 0.0039215686
0.77254902 0.0058823529 0.0039215686
0.80980392 0.013602941 0.0078431373
