site/assets/luts/sha256-208b8176ebd73a30804d3737854041ead279c3b7f771deaab676f73afb9650a1.cube
# LUTr-Schema-Version: 2
# LUTr-ID: sha256-208b8176ebd73a30804d3737854041ead279c3b7f771deaab676f73afb9650a1
# LUTr-Title: polaroid 665 -
# LUTr-Collection: Natron HaldCLUT
# LUTr-Collection-ID: natron-haldclut-presets
# LUTr-Source: https://github.com/NatronGitHub/clut
# LUTr-Retrieved: 2026-07-27
# LUTr-Source-File: submissions/natron-haldclut-presets/instant_pro/polaroid_665_-.png
# LUTr-Source-Format: HALD-PNG
# LUTr-Source-SHA256: 208b8176ebd73a30804d3737854041ead279c3b7f771deaab676f73afb9650a1
# LUTr-License: CC-BY-SA-4.0
# LUTr-License-URL: https://github.com/NatronGitHub/clut#license
# LUTr-License-Basis: repo-license-file
# LUTr-Transform-Class: film-emulation
# LUTr-Tags: creative, film, film-emulation, hald-clut, natron, png, cube
# LUTr-Input-Color-Space: srgb
# LUTr-Input-Gamut: rec709
# LUTr-Input-Transfer: srgb
# LUTr-Output-Color-Space: srgb
# LUTr-Output-Gamut: rec709
# LUTr-Output-Transfer: srgb
# LUTr-Color-Space-Confidence: assumed-display-referred
# LUTr-Domain-Normalized: true
# LUTr-Shaper: none
# LUTr-Original-Grid: 64x64x64
# LUTr-Conversion-Grid: 25x25x25
# LUTr-Conversion-Interpolation: trilinear
# LUTr-Conversion-Method: HALD-PNG LUT image decoded at 16-bit and sampled to 25x25x25 3D CUBE
# LUTr-Conversion-Tool: LUTr scripts/convert-all-to-cube.mjs 2.0.0
# LUTr-Conversion-Date: 2026-07-27
# LUTr-Note: Preserve this metadata and the upstream license notices when redistributing.
TITLE "polaroid 665 -"
LUT_3D_SIZE 5
DOMAIN_MIN 0 0 0
DOMAIN_MAX 1 1 1
0.066666667 0.066666667 0.066666667
0.074509804 0.074509804 0.074509804
0.20588235 0.20588235 0.20588235
0.35392157 0.35392157 0.35392157
0.4745098 0.4745098 0.4745098
0.18137255 0.18137255 0.18137255
0.16348039 0.16348039 0.16348039
0.27892157 0.27892157 0.27892157
0.38431373 0.38431373 0.38431373
0.50392157 0.50392157 0.50392157
0.34705882 0.34705882 0.34705882
0.34705882 0.34705882 0.34705882
0.3754902 0.3754902 0.3754902
0.45882353 0.45882353 0.45882353
0.61960784 0.61960784 0.61960784
0.55294118 0.55294118 0.55294118
0.55686275 0.55686275 0.55686275
0.57058824 0.57058824 0.57058824
0.57745098 0.57745098 0.57745098
0.71568627 0.71568627 0.71568627
0.82352941 0.82352941 0.82352941
0.81862745 0.81862745 0.81862745
0.83529412 0.83529412 0.83529412
0.84705882 0.84705882 0.84705882
0.85882353 0.85882353 0.85882353
0.18529412 0.18529412 0.18529412
0.20465686 0.20465686 0.20465686
0.29264706 0.29264706 0.29264706
0.39215686 0.39215686 0.39215686
0.49607843 0.49607843 0.49607843
0.22254902 0.22254902 0.22254902
0.27224265 0.27224265 0.27224265
0.34252451 0.34252451 0.34252451
0.42426471 0.42426471 0.42426471
0.55122549 0.55122549 0.55122549
0.3877451 0.3877451 0.3877451
0.40012255 0.40012255 0.40012255
0.42647059 0.42647059 0.42647059
0.49705882 0.49705882 0.49705882
0.65637255 0.65637255 0.65637255
0.58333333 0.58333333 0.58333333
0.58670343 0.58670343 0.58670343
0.59264706 0.59264706 0.59264706
0.61102941 0.61102941 0.61102941
0.7 0.7 0.7
0.82352941 0.82352941 0.82352941
0.83946078 0.83946078 0.83946078
0.85196078 0.85196078 0.85196078
0.86495098 0.86495098 0.86495098
0.88137255 0.88137255 0.88137255
0.37058824 0.37058824 0.37058824
0.39166667 0.39166667 0.39166667
0.40196078 0.40196078 0.40196078
0.48284314 0.48284314 0.48284314
0.63333333 0.63333333 0.63333333
0.41862745 0.41862745 0.41862745
0.42757353 0.42757353 0.42757353
0.44191176 0.44191176 0.44191176
0.51862745 0.51862745 0.51862745
0.65 0.65 0.65
0.43529412 0.43529412 0.43529412
0.46740196 0.46740196 0.46740196
0.52745098 0.52745098 0.52745098
0.59264706 0.59264706 0.59264706
0.70784314 0.70784314 0.70784314
0.63480392 0.63480392 0.63480392
0.64019608 0.64019608 0.64019608
0.67794118 0.67794118 0.67794118
0.69497549 0.69497549 0.69497549
0.79411765 0.79411765 0.79411765
0.84705882 0.84705882 0.84705882
0.85882353 0.85882353 0.85882353
0.86862745 0.86862745 0.86862745
0.88823529 0.88823529 0.88823529
0.90196078 0.90196078 0.90196078
0.61666667 0.61666667 0.61666667
0.63235294 0.63235294 0.63235294
0.63235294 0.63235294 0.63235294
0.64705882 0.64705882 0.64705882
0.7372549 0.7372549 0.7372549
0.65882353 0.65882353 0.65882353
0.64632353 0.64632353 0.64632353
0.65882353 0.65882353 0.65882353
0.67426471 0.67426471 0.67426471
0.75392157 0.75392157 0.75392157
0.68235294 0.68235294 0.68235294
0.69411765 0.69411765 0.69411765
0.71470588 0.71470588 0.71470588
0.72647059 0.72647059 0.72647059
0.80784314 0.80784314 0.80784314
0.69093137 0.69093137 0.69093137
0.70251225 0.70251225 0.70251225
0.75465686 0.75465686 0.75465686
0.79681373 0.79681373 0.79681373
0.84583333 0.84583333 0.84583333
0.87156863 0.87156863 0.87156863
0.86176471 0.86176471 0.86176471
0.89607843 0.89607843 0.89607843
0.92254902 0.92254902 0.92254902
0.92156863 0.92156863 0.92156863
0.86666667 0.86666667 0.86666667
0.86372549 0.86372549 0.86372549
0.85686275 0.85686275 0.85686275
0.85784314 0.85784314 0.85784314
0.89803922 0.89803922 0.89803922
0.88137255 0.88137255 0.88137255
0.87843137 0.87843137 0.87843137
0.85735294 0.85735294 0.85735294
0.88627451 0.88627451 0.88627451
0.89901961 0.89901961 0.89901961
0.88627451 0.88627451 0.88627451
0.88284314 0.88284314 0.88284314
0.90196078 0.90196078 0.90196078
0.90392157 0.90392157 0.90392157
0.90588235 0.90588235 0.90588235
0.90294118 0.90294118 0.90294118
0.90980392 0.90980392 0.90980392
0.92352941 0.92352941 0.92352941
0.93333333 0.93333333 0.93333333
0.9372549 0.9372549 0.9372549
0.91372549 0.91372549 0.91372549
0.92843137 0.92843137 0.92843137
0.94509804 0.94509804 0.94509804
0.95294118 0.95294118 0.95294118
0.97647059 0.97647059 0.97647059
