site/assets/luts/sha256-09958e9fd017f75b4847c0c6b0271a2b78e7a3ce698303309e9a63586b6a59e7.cube
# LUTr-Schema-Version: 2
# LUTr-ID: sha256-09958e9fd017f75b4847c0c6b0271a2b78e7a3ce698303309e9a63586b6a59e7
# LUTr-Title: fuji3510 constlmap
# LUTr-Collection: Natron HaldCLUT
# LUTr-Collection-ID: natron-haldclut-presets
# LUTr-Source: https://github.com/NatronGitHub/clut
# LUTr-Retrieved: 2026-07-27
# LUTr-Source-File: submissions/natron-haldclut-presets/print/fuji3510_constlmap.png
# LUTr-Source-Format: HALD-PNG
# LUTr-Source-SHA256: 09958e9fd017f75b4847c0c6b0271a2b78e7a3ce698303309e9a63586b6a59e7
# LUTr-License: CC-BY-SA-4.0
# LUTr-License-URL: https://github.com/NatronGitHub/clut#license
# LUTr-License-Basis: repo-license-file
# LUTr-Transform-Class: film-emulation
# LUTr-Tags: creative, film, film-emulation, hald-clut, natron, png, cube
# LUTr-Input-Color-Space: srgb
# LUTr-Input-Gamut: rec709
# LUTr-Input-Transfer: srgb
# LUTr-Output-Color-Space: srgb
# LUTr-Output-Gamut: rec709
# LUTr-Output-Transfer: srgb
# LUTr-Color-Space-Confidence: assumed-display-referred
# LUTr-Domain-Normalized: true
# LUTr-Shaper: none
# LUTr-Original-Grid: 64x64x64
# LUTr-Conversion-Grid: 25x25x25
# LUTr-Conversion-Interpolation: trilinear
# LUTr-Conversion-Method: HALD-PNG LUT image decoded at 16-bit and sampled to 25x25x25 3D CUBE
# LUTr-Conversion-Tool: LUTr scripts/convert-all-to-cube.mjs 2.0.0
# LUTr-Conversion-Date: 2026-07-27
# LUTr-Note: Preserve this metadata and the upstream license notices when redistributing.
TITLE "fuji3510 constlmap"
LUT_3D_SIZE 25
DOMAIN_MIN 0 0 0
DOMAIN_MAX 1 1 1
0.0078431373 0.0039215686 0.0039215686
0.018137255 0.014215686 0.011764706
0.028431373 0.029411765 0.020588235
0.031372549 0.027941176 0.019607843
0.035294118 0.021568627 0.015686275
0.044607843 0.020098039 0.015686275
0.07254902 0.030392157 0.018627451
0.097058824 0.035294118 0.019607843
0.12156863 0.039215686 0.019607843
0.1754902 0.049509804 0.017156863
0.2245098 0.059803922 0.015686275
0.27254902 0.070098039 0.011764706
0.31764706 0.076470588 0.0078431373
0.34656863 0.078431373 0.0039215686
0.37058824 0.078431373 0.0039215686
0.39411765 0.075980392 0.0014705882
0.43137255 0.082352941 0.0078431373
0.46666667 0.090196078 0.010294118
0.47058824 0.08627451 0.012745098
0.48137255 0.08627451 0.015686275
0.50196078 0.090196078 0.01372549
0.52696078 0.094607843 0.011764706
0.53333333 0.098039216 0.011764706
0.52941176 0.094117647 0.011764706
0.52941176 0.094117647 0.011764706
0.015686275 0.014215686 0.010294118
0.019056373 0.020588235 0.015134804
0.028431373 0.03125 0.020588235
0.031372549 0.030085784 0.019607843
0.036519608 0.027941176 0.018137255
0.050490196 0.032536765 0.019914216
0.075490196 0.040686275 0.023161765
0.10006127 0.045588235 0.025980392
0.12941176 0.049509804 0.025980392
0.17941176 0.059803922 0.019607843
0.23026961 0.066176471 0.01752451
0.27628676 0.076470588 0.01439951
0.32009804 0.080882353 0.0090686275
0.35863971 0.084803922 0.0039215686
0.38835784 0.086642157 0.0039215686
0.41660539 0.091727941 0.0039215686
0.44803922 0.095098039 0.0078431373
0.47640931 0.096568627 0.011764706
0.48884804 0.098406863 0.015686275
0.50490196 0.098713235 0.015686275
0.51862745 0.1004902 0.01372549
0.53939951 0.10226716 0.011764706
0.54607843 0.10441176 0.011764706
0.55 0.10441176 0.011764706
0.55392157 0.10441176 0.011764706
0.020588235 0.025490196 0.016666667
0.023529412 0.028431373 0.019607843
0.028431373 0.035294118 0.023529412
0.034803922 0.03627451 0.023529412
0.039705882 0.042156863 0.024019608
0.055882353 0.048039216 0.02745098
0.077205882 0.051960784 0.028431373
0.10306373 0.055882353 0.031372549
0.1372549 0.06372549 0.028431373
0.18872549 0.070098039 0.023897059
0.2370098 0.076470588 0.019607843
0.28125 0.082843137 0.015808824
0.3254902 0.089215686 0.014215686
0.36629902 0.095098039 0.0087009804
0.40171569 0.10196078 0.0078431373
0.43737745 0.10723039 0.0078431373
0.46764706 0.11078431 0.0088235294
0.49387255 0.11176471 0.011764706
0.5127451 0.11004902 0.015686275
0.52990196 0.11041667 0.015686275
0.54264706 0.11176471 0.012745098
0.55870098 0.11176471 0.011764706
0.56568627 0.11470588 0.011764706
0.57267157 0.11678922 0.011764706
0.57843137 0.11862745 0.011764706
0.02745098 0.03872549 0.023039216
0.02745098 0.03872549 0.023039216
0.028431373 0.042647059 0.024387255
0.034803922 0.049571078 0.027389706
0.041176471 0.056127451 0.030882353
0.059803922 0.06182598 0.031801471
0.082965686 0.065686275 0.034803922
0.10618873 0.069607843 0.035294118
0.14117647 0.073529412 0.034803922
0.19479167 0.081678922 0.027144608
0.24362745 0.089338235 0.02254902
0.2877451 0.093566176 0.019607843
0.32941176 0.099264706 0.015686275
0.37009804 0.10582108 0.015196078
0.41127451 0.11568627 0.012622549
0.45098039 0.1223652 0.011764706
0.48186275 0.12843137 0.011764706
0.50245098 0.12843137 0.015502451
0.52303922 0.12843137 0.015686275
0.54019608 0.12843137 0.016115196
0.55612745 0.12867647 0.015686275
0.56862745 0.13235294 0.015625
0.57892157 0.13627451 0.015686275
0.58903186 0.13756127 0.015686275
0.59166667 0.13970588 0.015196078
0.023529412 0.058823529 0.033333333
0.023529412 0.058823529 0.032107843
0.024019608 0.058823529 0.031372549
0.025490196 0.064215686 0.033088235
0.039215686 0.069607843 0.035294118
0.060294118 0.076715686 0.037254902
0.087254902 0.080392157 0.03872549
0.11151961 0.083088235 0.039215686
0.14705882 0.088235294 0.037254902
0.2004902 0.096568627 0.030147059
0.25147059 0.10441176 0.023529412
0.2997549 0.11323529 0.019607843
0.35098039 0.12156863 0.015686275
0.39411765 0.13137255 0.015686275
0.43333333 0.13529412 0.015686275
0.46715686 0.13995098 0.01372549
0.49411765 0.14313725 0.015686275
0.51862745 0.14509804 0.015686275
0.53872549 0.14509804 0.017647059
0.55612745 0.14705882 0.019362745
0.57058824 0.15196078 0.019607843
0.58333333 0.15514706 0.017647059
0.59362745 0.15882353 0.019607843
0.5995098 0.1627451 0.024264706
0.60588235 0.16470588 0.025490196
0.019607843 0.079901961 0.039705882
0.019117647 0.079411765 0.039705882
0.019117647 0.078431373 0.039583333
0.018688725 0.078492647 0.035784314
0.037254902 0.083088235 0.039215686
0.060294118 0.090747549 0.039705882
0.088235294 0.09497549 0.043137255
0.11813725 0.098713235 0.043137255
0.15392157 0.10294118 0.039215686
0.21176471 0.11372549 0.032352941
0.26960784 0.12757353 0.022058824
0.32751225 0.13823529 0.012193627
0.37573529 0.15220588 0.011764706
0.41862745 0.1622549 0.015686275
0.45723039 0.16617647 0.015686275
0.49344363 0.16617647 0.011764706
0.52303922 0.16568627 0.01127451
0.54754902 0.16568627 0.01127451
0.5685049 0.16703431 0.01127451
0.58480392 0.17696078 0.011703431
0.59509804 0.18186275 0.015196078
0.60539216 0.18578431 0.016115196
0.61311275 0.18872549 0.019485294
0.62077206 0.18970588 0.023223039
0.625 0.19362745 0.026960784
0.015686275 0.10392157 0.052941176
0.015686275 0.10294118 0.05
0.012745098 0.1 0.049754902
0.012745098 0.1 0.046078431
0.028921569 0.10539216 0.046078431
0.053063725 0.11176471 0.046078431
0.080637255 0.11789216 0.047058824
0.11421569 0.12365196 0.045588235
0.16764706 0.13333333 0.03627451
0.23235294 0.14129902 0.025
0.29411765 0.15490196 0.013970588
0.35147059 0.16605392 0.0079656863
0.39803922 0.17941176 0.011764706
0.43921569 0.19056373 0.015686275
0.48039216 0.19705882 0.015686275
0.51617647 0.19705882 0.014215686
0.54705882 0.19607843 0.0078431373
0.57696078 0.19129902 0.0039215686
0.60196078 0.19117647 0.0017156863
0.6122549 0.20404412 0.0074754902
0.61960784 0.2127451 0.0088235294
0.62990196 0.21666667 0.011764706
0.64019608 0.21960784 0.012745098
0.6495098 0.22205882 0.016666667
0.65294118 0.22843137 0.020588235
0.011764706 0.12990196 0.064215686
0.011764706 0.12843137 0.064215686
0.010294118 0.12843137 0.061397059
0.0065563725 0.12843137 0.056862745
0.010294118 0.12794118 0.053921569
0.039215686 0.13823529 0.05245098
0.073039216 0.14669118 0.051348039
0.11176471 0.15582108 0.041666667
0.17254902 0.16666667 0.031372549
0.24607843 0.17696078 0.021078431
0.31531863 0.18333333 0.0068627451
0.36942402 0.19577206 0.0052083333
0.41666667 0.20906863 0.0098039216
0.45980392 0.22058824 0.015686275
0.50098039 0.22757353 0.016789216
0.53676471 0.23039216 0.015686275
0.56764706 0.22794118 0.011764706
0.59852941 0.22941176 0.0093137255
0.6245098 0.23370098 0.011397059
0.63921569 0.24068627 0.013235294
0.64485294 0.24362745 0.0071078431
0.65098039 0.24626225 0.0042279412
0.66470588 0.2504902 0.0074754902
0.675 0.25778186 0.010294118
0.68284314 0.26323529 0.014215686
0.0078431373 0.15294118 0.078431373
0.0078431373 0.15294118 0.075980392
0.0078431373 0.15686275 0.074509804
0.0039215686 0.15686275 0.070588235
0.0058823529 0.16078431 0.070588235
0.025490196 0.16519608 0.066176471
0.066666667 0.17941176 0.049019608
0.10931373 0.18970588 0.037745098
0.17647059 0.2 0.02745098
0.25098039 0.21421569 0.017156863
0.3245098 0.22843137 0.0078431373
0.38578431 0.23872549 0.0078431373
0.43333333 0.24705882 0.011764706
0.47647059 0.25147059 0.015686275
0.51764706 0.25490196 0.018627451
0.55343137 0.25882353 0.018137255
0.58823529 0.2627451 0.015686275
0.61911765 0.27303922 0.019607843
0.64509804 0.27843137 0.023529412
0.6627451 0.28186275 0.024019608
0.66862745 0.27843137 0.011764706
0.67156863 0.275 0
0.68529412 0.28921569 0.0039215686
0.69558824 0.29558824 0.0078431373
0.70196078 0.30196078 0.0078431373
0.0053921569 0.17745098 0.08872549
0.0039215686 0.17990196 0.08872549
0.006372549 0.18664216 0.08872549
0.0042279412 0.19019608 0.087254902
0.0031862745 0.19289216 0.084803922
0.017647059 0.19871324 0.073529412
0.058823529 0.20919118 0.049632353
0.10294118 0.21813725 0.032904412
0.17892157 0.2372549 0.023529412
0.25735294 0.25484069 0.018688725
0.33541667 0.27414216 0.010784314
0.3995098 0.28627451 0.0078431373
0.44681373 0.29338235 0.011764706
0.49313725 0.29607843 0.015686275
0.53431373 0.29607843 0.018627451
0.57401961 0.29852941 0.019607843
0.61127451 0.31029412 0.019607843
0.64362745 0.32058824 0.022058824
0.66960784 0.32634804 0.024509804
0.68676471 0.32959559 0.026164216
0.69240196 0.32990196 0.016176471
0.69981618 0.33284314 0.0098039216
0.7122549 0.34068627 0.0039215686
0.7216299 0.34705882 0.0078431373
0.725 0.3495098 0.0078431373
0.0049019608 0.20784314 0.10294118
0.0078431373 0.21360294 0.10294118
0.0080882353 0.22279412 0.10392157
0.0088235294 0.22732843 0.10306373
0.0078431373 0.23137255 0.099509804
0.025 0.23958333 0.082352941
0.054166667 0.24607843 0.059558824
0.098161765 0.2560049 0.035784314
0.18529412 0.27941176 0.023529412
0.26764706 0.3 0.016789216
0.34681373 0.31887255 0.01004902
0.41029412 0.33284314 0.0077205882
0.4627451 0.34019608 0.01127451
0.51115196 0.34620098 0.015686275
0.55808824 0.35 0.019607843
0.60098039 0.35539216 0.019607843
0.64117647 0.36568627 0.020588235
0.67181373 0.37205882 0.019607843
0.68995098 0.37352941 0.025245098
0.70343137 0.37610294 0.031004902
0.72254902 0.38235294 0.024509804
0.72794118 0.38578431 0.016176471
0.73897059 0.39607843 0.0095588235
0.74852941 0.40134804 0.0078431373
0.75196078 0.40490196 0.0078431373
0.01127451 0.24901961 0.12058824
0.01127451 0.25147059 0.12058824
0.011764706 0.25698529 0.11715686
0.011764706 0.26427696 0.11715686
0.011764706 0.27058824 0.11127451
0.0098039216 0.27696078 0.10042892
0.025735294 0.28345588 0.083333333
0.086764706 0.3026348 0.044607843
0.18088235 0.32696078 0.020098039
0.27665441 0.34754902 0.013235294
0.35931373 0.36335784 0.0042892157
0.42359069 0.37702206 0.0039215686
0.48137255 0.39166667 0.0080882353
0.534375 0.39761029 0.016115196
0.58235294 0.40441176 0.019607843
0.6245098 0.41078431 0.023223039
0.66568627 0.42058824 0.023529412
0.69785539 0.425 0.023529412
0.70980392 0.42022059 0.028308824
0.72052696 0.41464461 0.034375
0.73431373 0.41985294 0.031127451
0.74852941 0.43425245 0.023039216
0.7627451 0.44754902 0.012745098
0.77285539 0.45392157 0.0078431373
0.7754902 0.45637255 0.0078431373
0.015686275 0.28627451 0.13529412
0.014460784 0.2875 0.13529412
0.013235294 0.29215686 0.13480392
0.0098039216 0.29558824 0.13137255
0.0088235294 0.30196078 0.1254902
0.0034313725 0.31176471 0.11519608
0.0029411765 0.32009804 0.10196078
0.077205882 0.34411765 0.049264706
0.17058824 0.36862745 0.0098039216
0.27107843 0.39191176 0.0073529412
0.36323529 0.40735294 0.0014705882
0.4377451 0.42622549 0
0.49901961 0.43921569 0.0058823529
0.55147059 0.44534314 0.016176471
0.5995098 0.44852941 0.02254902
0.64191176 0.45833333 0.023529412
0.68431373 0.46862745 0.023529412
0.72107843 0.47647059 0.02745098
0.7377451 0.47352941 0.029901961
0.74264706 0.46323529 0.03504902
0.75392157 0.46960784 0.032352941
0.76960784 0.48504902 0.023039216
0.78333333 0.49901961 0.015686275
0.79362745 0.50465686 0.0078431373
0.8 0.50784314 0.0078431373
0.019607843 0.32352941 0.15
0.017463235 0.32352941 0.15
0.011764706 0.32352941 0.14595588
0.0074142157 0.32653186 0.14258578
0.0039215686 0.33284314 0.13970588
0.0039215686 0.34319853 0.12892157
0.0098039216 0.36041667 0.10931373
0.073529412 0.38676471 0.05502451
0.15735294 0.41372549 0.01127451
0.2658701 0.43823529 0.0073529412
0.36176471 0.45539216 0
0.44362745 0.47297794 0
0.51862745 0.49093137 0.0019607843
0.5716299 0.4966299 0.012254902
0.62009804 0.5 0.02254902
0.6622549 0.50980392 0.023529412
0.70343137 0.52009804 0.02745098
0.74166667 0.52647059 0.02745098
0.76678922 0.5310049 0.026838235
0.77745098 0.52886029 0.022610294
0.7879902 0.53284314 0.018872549
0.7971201 0.54019608 0.015196078
0.80526961 0.54754902 0.015196078
0.81421569 0.55147059 0.0078431373
0.81666667 0.55490196 0.0078431373
0.02254902 0.35784314 0.16372549
0.019607843 0.35968137 0.16372549
0.014705882 0.35784314 0.15980392
0.0069852941 0.35784314 0.15588235
0.00049019608 0.36127451 0.15
0.0039215686 0.37843137 0.13958333
0.006127451 0.39583333 0.12254902
0.074509804 0.425 0.076593137
0.16078431 0.45196078 0.024509804
0.26311275 0.47941176 0.0053921569
0.3625 0.50318627 0.0029411765
0.45735294 0.52745098 0
0.53823529 0.54607843 0.0024509804
0.59301471 0.55232843 0.012254902
0.64779412 0.55808824 0.02254902
0.68921569 0.56311275 0.02745098
0.72745098 0.57156863 0.02745098
0.7622549 0.57610294 0.025612745
0.78602941 0.58431373 0.015686275
0.80882353 0.59117647 0.0079656863
0.81372549 0.59264706 0.0049019608
0.81813725 0.59166667 0.0087009804
0.82843137 0.59828431 0.011029412
0.84019608 0.60625 0.013602941
0.8372549 0.60686275 0.0049019608
0.019607843 0.3872549 0.17401961
0.018688725 0.3872549 0.17401961
0.011764706 0.3872549 0.17009804
0.0056985294 0.3872549 0.16617647
0.0046568627 0.39338235 0.16029412
0.0036151961 0.41323529 0.14822304
0 0.43137255 0.13578431
0.071568627 0.4588848 0.087316176
0.15931373 0.48676471 0.024509804
0.26954657 0.51764706 0.0078431373
0.38370098 0.54607843 0.0039215686
0.47107843 0.56960784 0.0017769608
0.55122549 0.59142157 0.0026960784
0.61372549 0.60392157 0.014031863
0.67365196 0.61421569 0.026470588
0.71862745 0.61911765 0.028370098
0.7504902 0.62156863 0.02745098
0.77800245 0.62310049 0.021078431
0.80379902 0.63039216 0.017156863
0.82420343 0.6372549 0.013419118
0.82965686 0.63872549 0.0080882353
0.83658088 0.6377451 0.0037377451
0.85588235 0.65098039 0.019485294
0.86084559 0.65686275 0.018688725
0.85539216 0.65686275 0.0029411765
0.015686275 0.41176471 0.18039216
0.015686275 0.41176471 0.18039216
0.011764706 0.4127451 0.18039216
0.0078431373 0.41568627 0.17647059
0.0098039216 0.4254902 0.16666667
0.0039215686 0.44362745 0.15637255
0 0.46078431 0.14607843
0.057352941 0.48921569 0.086764706
0.15294118 0.51764706 0.0039215686
0.28676471 0.55490196 0.0078431373
0.40490196 0.58627451 0.0078431373
0.49019608 0.60343137 0.0044117647
0.5627451 0.62352941 0.0058823529
0.63431373 0.64754902 0.016176471
0.69607843 0.66176471 0.026470588
0.7377451 0.66519608 0.02745098
0.76470588 0.65882353 0.023529412
0.79166667 0.66127451 0.023529412
0.81862745 0.67254902 0.024509804
0.84215686 0.68186275 0.031372549
0.85490196 0.68235294 0.025490196
0.86323529 0.68235294 0.024019608
0.87647059 0.68921569 0.034313725
0.88480392 0.69803922 0.033823529
0.87843137 0.69411765 0.02745098
0.018137255 0.42598039 0.18823529
0.015686275 0.42990196 0.18823529
0.014583333 0.43627451 0.18786765
0.017830882 0.44019608 0.18302696
0.016176471 0.45 0.17573529
0.0099877451 0.46470588 0.16243873
0.0087009804 0.48321078 0.14411765
0.069178922 0.51372549 0.081311275
0.15931373 0.54215686 0.0039215686
0.29368873 0.5778799 0.0069240196
0.4127451 0.60833333 0.0078431373
0.49675245 0.62745098 0.0053921569
0.57303922 0.64803922 0.0078431373
0.64215686 0.67254902 0.013235294
0.70281863 0.69019608 0.017156863
0.74803922 0.69754902 0.023529412
0.775 0.69607843 0.023529412
0.80588235 0.7 0.023529412
0.83676471 0.7127451 0.034803922
0.86617647 0.72303922 0.045098039
0.88578431 0.72745098 0.048039216
0.89117647 0.72322304 0.044117647
0.89803922 0.72585784 0.048529412
0.90686275 0.734375 0.051960784
0.90294118 0.72892157 0.048039216
0.019607843 0.43235294 0.19215686
0.019607843 0.43982843 0.19215686
0.021323529 0.44901961 0.18921569
0.023529412 0.45588235 0.18823529
0.021568627 0.46813725 0.18235294
0.015196078 0.48529412 0.16421569
0.018382353 0.50588235 0.13946078
0.082843137 0.53186275 0.070710784
0.17352941 0.56176471 0.011764706
0.2942402 0.59362745 0.006004902
0.4129902 0.62426471 0.0036764706
0.50196078 0.64803922 0.0037990196
0.5754902 0.67156863 0.0078431373
0.64607843 0.69215686 0.010906863
0.70784314 0.71053922 0.011764706
0.75735294 0.72291667 0.019607843
0.78529412 0.72647059 0.020588235
0.81617647 0.73284314 0.030882353
0.84705882 0.73995098 0.045098039
0.87794118 0.74693627 0.055392157
0.9004902 0.75245098 0.059803922
0.90992647 0.75392157 0.059803922
0.91372549 0.75392157 0.062745098
0.91764706 0.75784314 0.06372549
0.91862745 0.75784314 0.06372549
0.023529412 0.44264706 0.19607843
0.023529412 0.44901961 0.19607843
0.026960784 0.45539216 0.19215686
0.027389706 0.46568627 0.19172794
0.021568627 0.48357843 0.18235294
0.015196078 0.50245098 0.16464461
0.023529412 0.52561275 0.13468137
0.099509804 0.55116422 0.062928922
0.1877451 0.57941176 0.011764706
0.30490196 0.61029412 0.0078431373
0.41715686 0.64031863 0.0025735294
0.50539216 0.66427696 0.0034313725
0.57843137 0.68578431 0.0078431373
0.64607843 0.70245098 0.011764706
0.70526961 0.7192402 0.015563725
0.75863971 0.73431373 0.021078431
0.79558824 0.74068627 0.030882353
0.8286152 0.74834559 0.043321078
0.85735294 0.75343137 0.055392157
0.88431373 0.76023284 0.065686275
0.90392157 0.76593137 0.070098039
0.91029412 0.76813725 0.070098039
0.91629902 0.76776961 0.070098039
0.91893382 0.76813725 0.070588235
0.92156863 0.77156863 0.070588235
0.023529412 0.45098039 0.20196078
0.028676471 0.45539216 0.19754902
0.033333333 0.45980392 0.19215686
0.031617647 0.4754902 0.18872549
0.023529412 0.49607843 0.17843137
0.019607843 0.51862745 0.16372549
0.040686275 0.54264706 0.12843137
0.11617647 0.56911765 0.055147059
0.20588235 0.59607843 0.01372549
0.3127451 0.62181373 0.0093137255
0.41960784 0.6495098 0.0039215686
0.51176471 0.67156863 0.0039215686
0.58529412 0.69215686 0.0058823529
0.6497549 0.7127451 0.012009804
0.70490196 0.72941176 0.015686275
0.75490196 0.74068627 0.021813725
0.79607843 0.75098039 0.037254902
0.8372549 0.76127451 0.053921569
0.86813725 0.76862745 0.064705882
0.89117647 0.77230392 0.070343137
0.90490196 0.77647059 0.075490196
0.9120098 0.77843137 0.078186275
0.91764706 0.78039216 0.076470588
0.92156863 0.78235294 0.076470588
0.92156863 0.78235294 0.078431373
0.019117647 0.46372549 0.2122549
0.025980392 0.46715686 0.20588235
0.035784314 0.46776961 0.19558824
0.035723039 0.48584559 0.18878676
0.035784314 0.51029412 0.17843137
0.040196078 0.53235294 0.16378676
0.058823529 0.55845588 0.11127451
0.13578431 0.58529412 0.050980392
0.23235294 0.6122549 0.023529412
0.33314951 0.6372549 0.013541667
0.42598039 0.66053922 0.0068627451
0.51519608 0.67892157 0.00091911765
0.59117647 0.70490196 0.010294118
0.65931373 0.72751225 0.016666667
0.72071078 0.74803922 0.023897059
0.7754902 0.7596201 0.031188725
0.8127451 0.76960784 0.04754902
0.85306373 0.77953431 0.062561275
0.87389706 0.77830882 0.067647059
0.8971201 0.78431373 0.074509804
0.90857843 0.7872549 0.080882353
0.91556373 0.79007353 0.083272059
0.92107843 0.79264706 0.082843137
0.92647059 0.79313725 0.082843137
0.92647059 0.79656863 0.082843137
0.012745098 0.47745098 0.2254902
0.019117647 0.48039216 0.21617647
0.025490196 0.49240196 0.20269608
0.032352941 0.51335784 0.19914216
0.045098039 0.5254902 0.17990196
0.054289216 0.55036765 0.16458333
0.060539216 0.57279412 0.096568627
0.15281863 0.59742647 0.040318627
0.25588235 0.62941176 0.023529412
0.36752451 0.65747549 0.013848039
0.46593137 0.68602941 0.0075980392
0.54656863 0.70980392 0.0068627451
0.61470588 0.73039216 0.017156863
0.68333333 0.75196078 0.026593137
0.74509804 0.76960784 0.031127451
0.8 0.78382353 0.043627451
0.83333333 0.79019608 0.057843137
0.86066176 0.79080882 0.06752451
0.88553922 0.79338235 0.073529412
0.9004902 0.79203431 0.077941176
0.91176471 0.79558824 0.083823529
0.92193627 0.79901961 0.089215686
0.93137255 0.80196078 0.089215686
0.94926471 0.81188725 0.093137255
0.95 0.81078431 0.093137255
0.0024509804 0.48921569 0.23676471
0.0088235294 0.50196078 0.22346814
0.015196078 0.51973039 0.20588235
0.021568627 0.53707108 0.18529412
0.032598039 0.55710784 0.18063725
0.070894608 0.57120098 0.14987745
0.091666667 0.59901961 0.10404412
0.18229167 0.62653186 0.034987745
0.30686275 0.65147059 0.014215686
0.41170343 0.68088235 0.0069240196
0.50147059 0.71078431 0.0078431373
0.57352941 0.73529412 0.0080269608
0.64215686 0.75661765 0.01495098
0.70392157 0.77598039 0.026164216
0.76568627 0.79019608 0.038235294
0.82297794 0.80588235 0.052389706
0.85784314 0.81078431 0.069607843
0.88235294 0.8098652 0.078982843
0.89509804 0.80012255 0.078431373
0.90508578 0.79558824 0.081862745
0.91960784 0.80073529 0.088970588
0.92990196 0.80539216 0.094117647
0.94276961 0.81115196 0.095588235
0.96164216 0.82107843 0.098039216
0.96617647 0.82107843 0.095588235
0 0.49411765 0.23921569
0.006372549 0.51078431 0.22647059
0.012745098 0.52745098 0.20980392
0.019117647 0.54460784 0.18921569
0.033333333 0.5627451 0.16078431
0.089215686 0.59754902 0.10686275
0.15784314 0.63137255 0.031372549
0.22058824 0.6627451 0.025490196
0.37254902 0.67843137 0
0.44852941 0.70147059 0.0024509804
0.52058824 0.72843137 0.0078431373
0.59264706 0.75539216 0.0078431373
0.65882353 0.77647059 0.0058823529
0.72058824 0.78921569 0.024509804
0.77843137 0.80588235 0.042156863
0.83872549 0.82107843 0.059313725
0.88235294 0.83137255 0.08627451
0.89411765 0.81862745 0.083823529
0.89509804 0.80294118 0.078431373
0.90539216 0.79607843 0.081862745
0.92156863 0.80196078 0.090196078
0.93431373 0.80833333 0.094607843
0.95098039 0.81862745 0.098039216
0.96617647 0.825 0.098039216
0.98039216 0.83137255 0.098039216
0.010294118 0.0024509804 0.0088235294
0.018137255 0.014215686 0.013296569
0.028431373 0.029411765 0.022426471
0.031372549 0.027941176 0.019914216
0.035294118 0.021568627 0.016176471
0.044607843 0.020098039 0.015686275
0.069730392 0.030392157 0.019240196
0.094607843 0.036764706 0.022610294
0.12941176 0.043137255 0.023529412
0.17941176 0.050428922 0.017156863
0.23026961 0.059191176 0.014705882
0.27647059 0.066360294 0.011764706
0.32009804 0.076470588 0.0058823529
0.35863971 0.082659314 0.0014705882
0.38835784 0.082965686 0.0039215686
0.41323529 0.080882353 0.0039215686
0.44166667 0.084803922 0.0078431373
0.46819853 0.08682598 0.010294118
0.48137255 0.083455882 0.012745098
0.49822304 0.083639706 0.012254902
0.51348039 0.088235294 0.010539216
0.53039216 0.090379902 0.0078431373
0.55061275 0.099264706 0.0089460784
0.55545343 0.099571078 0.011764706
0.55 0.087745098 0.011764706
0.015134804 0.014215686 0.012745098
0.020013787 0.020588235 0.016436887
0.028431373 0.03125 0.022426471
0.031372549 0.029281556 0.019914216
0.036519608 0.027205882 0.019056373
0.050490196 0.032536765 0.021254596
0.073238358 0.037745098 0.023161765
0.10006127 0.044630821 0.025980392
0.13278186 0.049509804 0.025980392
0.18425245 0.056778493 0.020182292
0.23443627 0.065563725 0.015686275
0.27880668 0.07120864 0.011879596
0.31887255 0.078431373 0.0063419118
