site/assets/luts/sha256-3c266d163bc5c99fd9cfbfe79b8c25b05ecccd5ce35c3745a77d1c0350799509.cube
# LUTr-Schema-Version: 2
# LUTr-ID: sha256-3c266d163bc5c99fd9cfbfe79b8c25b05ecccd5ce35c3745a77d1c0350799509
# LUTr-Title: kodak t-max 100
# LUTr-Collection: Natron HaldCLUT
# LUTr-Collection-ID: natron-haldclut-presets
# LUTr-Source: https://github.com/NatronGitHub/clut
# LUTr-Retrieved: 2026-07-27
# LUTr-Source-File: submissions/natron-haldclut-presets/bw/kodak_t-max_100.png
# LUTr-Source-Format: HALD-PNG
# LUTr-Source-SHA256: 3c266d163bc5c99fd9cfbfe79b8c25b05ecccd5ce35c3745a77d1c0350799509
# LUTr-License: CC-BY-SA-4.0
# LUTr-License-URL: https://github.com/NatronGitHub/clut#license
# LUTr-License-Basis: repo-license-file
# LUTr-Transform-Class: film-emulation
# LUTr-Tags: creative, film, film-emulation, hald-clut, natron, png, cube
# LUTr-Input-Color-Space: srgb
# LUTr-Input-Gamut: rec709
# LUTr-Input-Transfer: srgb
# LUTr-Output-Color-Space: srgb
# LUTr-Output-Gamut: rec709
# LUTr-Output-Transfer: srgb
# LUTr-Color-Space-Confidence: assumed-display-referred
# LUTr-Domain-Normalized: true
# LUTr-Shaper: none
# LUTr-Original-Grid: 64x64x64
# LUTr-Conversion-Grid: 25x25x25
# LUTr-Conversion-Interpolation: trilinear
# LUTr-Conversion-Method: HALD-PNG LUT image decoded at 16-bit and sampled to 25x25x25 3D CUBE
# LUTr-Conversion-Tool: LUTr scripts/convert-all-to-cube.mjs 2.0.0
# LUTr-Conversion-Date: 2026-07-27
# LUTr-Note: Preserve this metadata and the upstream license notices when redistributing.
TITLE "kodak t-max 100"
LUT_3D_SIZE 5
DOMAIN_MIN 0 0 0
DOMAIN_MAX 1 1 1
0.0039215686 0.0039215686 0.0039215686
0.024509804 0.024509804 0.024509804
0.050980392 0.050980392 0.050980392
0.15784314 0.15784314 0.15784314
0.20392157 0.20392157 0.20392157
0.15392157 0.15392157 0.15392157
0.15882353 0.15882353 0.15882353
0.2 0.2 0.2
0.28529412 0.28529412 0.28529412
0.3627451 0.3627451 0.3627451
0.34901961 0.34901961 0.34901961
0.36617647 0.36617647 0.36617647
0.39313725 0.39313725 0.39313725
0.43431373 0.43431373 0.43431373
0.50196078 0.50196078 0.50196078
0.58823529 0.58823529 0.58823529
0.59607843 0.59607843 0.59607843
0.60588235 0.60588235 0.60588235
0.64240196 0.64240196 0.64240196
0.68137255 0.68137255 0.68137255
0.81176471 0.81176471 0.81176471
0.81078431 0.81078431 0.81078431
0.84313725 0.84313725 0.84313725
0.85098039 0.85098039 0.85098039
0.89803922 0.89803922 0.89803922
0.033333333 0.033333333 0.033333333
0.081372549 0.081372549 0.081372549
0.11862745 0.11862745 0.11862745
0.20392157 0.20392157 0.20392157
0.3372549 0.3372549 0.3372549
0.19313725 0.19313725 0.19313725
0.20392157 0.20392157 0.20392157
0.24215686 0.24215686 0.24215686
0.31666667 0.31666667 0.31666667
0.40098039 0.40098039 0.40098039
0.36862745 0.36862745 0.36862745
0.38872549 0.38872549 0.38872549
0.41813725 0.41813725 0.41813725
0.46470588 0.46470588 0.46470588
0.53970588 0.53970588 0.53970588
0.60392157 0.60392157 0.60392157
0.61452206 0.61452206 0.61452206
0.62647059 0.62647059 0.62647059
0.6533701 0.6533701 0.6533701
0.69926471 0.69926471 0.69926471
0.85 0.85 0.85
0.83333333 0.83333333 0.83333333
0.8504902 0.8504902 0.8504902
0.85980392 0.85980392 0.85980392
0.87352941 0.87352941 0.87352941
0.11372549 0.11372549 0.11372549
0.14901961 0.14901961 0.14901961
0.1872549 0.1872549 0.1872549
0.24313725 0.24313725 0.24313725
0.36666667 0.36666667 0.36666667
0.25833333 0.25833333 0.25833333
0.27438725 0.27438725 0.27438725
0.30392157 0.30392157 0.30392157
0.37781863 0.37781863 0.37781863
0.43921569 0.43921569 0.43921569
0.42941176 0.42941176 0.42941176
0.44705882 0.44705882 0.44705882
0.47156863 0.47156863 0.47156863
0.52843137 0.52843137 0.52843137
0.59705882 0.59705882 0.59705882
0.64901961 0.64901961 0.64901961
0.64497549 0.64497549 0.64497549
0.66715686 0.66715686 0.66715686
0.6995098 0.6995098 0.6995098
0.74019608 0.74019608 0.74019608
0.86666667 0.86666667 0.86666667
0.86519608 0.86519608 0.86519608
0.85686275 0.85686275 0.85686275
0.875 0.875 0.875
0.90980392 0.90980392 0.90980392
0.21078431 0.21078431 0.21078431
0.23210784 0.23210784 0.23210784
0.28823529 0.28823529 0.28823529
0.35122549 0.35122549 0.35122549
0.49411765 0.49411765 0.49411765
0.35588235 0.35588235 0.35588235
0.36856618 0.36856618 0.36856618
0.40232843 0.40232843 0.40232843
0.46372549 0.46372549 0.46372549
0.55220588 0.55220588 0.55220588
0.51372549 0.51372549 0.51372549
0.52928922 0.52928922 0.52928922
0.54852941 0.54852941 0.54852941
0.59411765 0.59411765 0.59411765
0.65392157 0.65392157 0.65392157
0.70588235 0.70588235 0.70588235
0.71740196 0.71740196 0.71740196
0.7254902 0.7254902 0.7254902
0.74607843 0.74607843 0.74607843
0.77254902 0.77254902 0.77254902
0.87156863 0.87156863 0.87156863
0.89093137 0.89093137 0.89093137
0.89509804 0.89509804 0.89509804
0.92352941 0.92352941 0.92352941
0.9254902 0.9254902 0.9254902
0.38431373 0.38431373 0.38431373
0.38039216 0.38039216 0.38039216
0.40392157 0.40392157 0.40392157
0.47647059 0.47647059 0.47647059
0.57647059 0.57647059 0.57647059
0.48039216 0.48039216 0.48039216
0.49534314 0.49534314 0.49534314
0.52303922 0.52303922 0.52303922
0.5754902 0.5754902 0.5754902
0.61372549 0.61372549 0.61372549
0.61960784 0.61960784 0.61960784
0.63088235 0.63088235 0.63088235
0.64803922 0.64803922 0.64803922
0.65588235 0.65588235 0.65588235
0.71960784 0.71960784 0.71960784
0.7745098 0.7745098 0.7745098
0.77941176 0.77941176 0.77941176
0.79411765 0.79411765 0.79411765
0.81544118 0.81544118 0.81544118
0.8254902 0.8254902 0.8254902
0.9254902 0.9254902 0.9254902
0.94803922 0.94803922 0.94803922
0.93333333 0.93333333 0.93333333
0.9372549 0.9372549 0.9372549
0.97254902 0.97254902 0.97254902
