site/assets/luts/sha256-88c42e6b16a07be90360cc33baca006649f9cd538815efb8b54715c77c264bcc.cube
# LUTr-Schema-Version: 2
# LUTr-ID: sha256-88c42e6b16a07be90360cc33baca006649f9cd538815efb8b54715c77c264bcc
# LUTr-Title: kodak portra 160 nc -
# LUTr-Collection: Natron HaldCLUT
# LUTr-Collection-ID: natron-haldclut-presets
# LUTr-Source: https://github.com/NatronGitHub/clut
# LUTr-Retrieved: 2026-07-27
# LUTr-Source-File: submissions/natron-haldclut-presets/negative_old/kodak_portra_160_nc_-.png
# LUTr-Source-Format: HALD-PNG
# LUTr-Source-SHA256: 88c42e6b16a07be90360cc33baca006649f9cd538815efb8b54715c77c264bcc
# LUTr-License: CC-BY-SA-4.0
# LUTr-License-URL: https://github.com/NatronGitHub/clut#license
# LUTr-License-Basis: repo-license-file
# LUTr-Transform-Class: film-emulation
# LUTr-Tags: creative, film, film-emulation, hald-clut, natron, png, cube
# LUTr-Input-Color-Space: srgb
# LUTr-Input-Gamut: rec709
# LUTr-Input-Transfer: srgb
# LUTr-Output-Color-Space: srgb
# LUTr-Output-Gamut: rec709
# LUTr-Output-Transfer: srgb
# LUTr-Color-Space-Confidence: assumed-display-referred
# LUTr-Domain-Normalized: true
# LUTr-Shaper: none
# LUTr-Original-Grid: 64x64x64
# LUTr-Conversion-Grid: 25x25x25
# LUTr-Conversion-Interpolation: trilinear
# LUTr-Conversion-Method: HALD-PNG LUT image decoded at 16-bit and sampled to 25x25x25 3D CUBE
# LUTr-Conversion-Tool: LUTr scripts/convert-all-to-cube.mjs 2.0.0
# LUTr-Conversion-Date: 2026-07-27
# LUTr-Note: Preserve this metadata and the upstream license notices when redistributing.
TITLE "kodak portra 160 nc -"
LUT_3D_SIZE 5
DOMAIN_MIN 0 0 0
DOMAIN_MAX 1 1 1
0.0039215686 0 0.0039215686
0.18039216 0.030392157 0.011764706
0.51372549 0.033333333 0.021568627
0.77254902 0.1127451 0.0039215686
0.99215686 0.23529412 0.031372549
0 0.21470588 0.061764706
0.15465686 0.26470588 0.026470588
0.55 0.26323529 0.0078431373
0.7997549 0.27843137 0.0039215686
0.97647059 0.33137255 0.02745098
0 0.48823529 0.21764706
0.010294118 0.50147059 0.21862745
0.49509804 0.56568627 0.10294118
0.81568627 0.55441176 0.0093137255
0.97058824 0.52745098 0.021568627
0.010784314 0.72058824 0.40098039
0.19117647 0.71372549 0.40882353
0.4127451 0.73578431 0.38529412
0.73137255 0.78014706 0.26764706
0.98333333 0.8 0.23137255
0.56078431 0.92156863 0.69411765
0.59117647 0.9254902 0.70490196
0.65098039 0.92941176 0.70588235
0.75490196 0.95294118 0.68921569
0.89019608 0.97647059 0.65490196
0.011764706 0.023529412 0.22156863
0.21004902 0.017892157 0.21078431
0.52745098 0.023529412 0.2004902
0.76862745 0.18627451 0.23235294
0.97647059 0.28235294 0.24705882
0.0075980392 0.24901961 0.2497549
0.23455882 0.26433824 0.26078431
0.54546569 0.27291667 0.24411765
0.7841299 0.31838235 0.24332108
0.97352941 0.37352941 0.26568627
0.20784314 0.52058824 0.37352941
0.26017157 0.51911765 0.36409314
0.52941176 0.56421569 0.31470588
0.81078431 0.55098039 0.27156863
0.98627451 0.55686275 0.28627451
0.27083333 0.7245098 0.48627451
0.33474265 0.72377451 0.48333333
0.45686275 0.73431373 0.4685049
0.74509804 0.78278186 0.40710784
0.98627451 0.80392157 0.36372549
0.59901961 0.9254902 0.7245098
0.61764706 0.93235294 0.72843137
0.64803922 0.91764706 0.71078431
0.7627451 0.95392157 0.71740196
0.90784314 0.97156863 0.66470588
0.0078431373 0.10392157 0.5372549
0.2627451 0.125 0.53480392
0.57843137 0.20392157 0.5372549
0.79901961 0.25 0.49558824
0.95098039 0.28235294 0.46470588
0.046078431 0.30686275 0.54901961
0.2942402 0.31752451 0.54901961
0.58235294 0.36715686 0.55269608
0.80343137 0.37352941 0.51789216
0.97254902 0.37892157 0.48480392
0.23431373 0.54803922 0.55588235
0.36911765 0.55294118 0.57352941
0.57107843 0.56960784 0.58137255
0.79117647 0.56397059 0.54264706
0.97352941 0.57058824 0.52352941
0.49117647 0.74754902 0.64509804
0.53627451 0.75110294 0.65625
0.58039216 0.74803922 0.63553922
0.76911765 0.78333333 0.61715686
0.96568627 0.78480392 0.57843137
0.67647059 0.93529412 0.79607843
0.67843137 0.92990196 0.78676471
0.69607843 0.92058824 0.77254902
0.78431373 0.94509804 0.77794118
0.93333333 0.98627451 0.76078431
0.20784314 0.24705882 0.78137255
0.38039216 0.26078431 0.79044118
0.6245098 0.34803922 0.7877451
0.83063725 0.39313725 0.77965686
0.96666667 0.45882353 0.74901961
0.2627451 0.38161765 0.7872549
0.41078431 0.39509804 0.79234069
0.63284314 0.44411765 0.79117647
0.8372549 0.49730392 0.7872549
0.97058824 0.54411765 0.76862745
0.20588235 0.56568627 0.77156863
0.36482843 0.5754902 0.77941176
0.60808824 0.60490196 0.79117647
0.82181373 0.64840686 0.79803922
0.95294118 0.64509804 0.76372549
0.47058824 0.76764706 0.77941176
0.53357843 0.77156863 0.78988971
0.64901961 0.76764706 0.79754902
0.80612745 0.79252451 0.80943627
0.93823529 0.7872549 0.78112745
0.71568627 0.94411765 0.87058824
0.73357843 0.94632353 0.87181373
0.77843137 0.94803922 0.8754902
0.82941176 0.95294118 0.87254902
0.93333333 0.97352941 0.86078431
0.54117647 0.4745098 0.97254902
0.58627451 0.48235294 0.96078431
0.72941176 0.51960784 0.95490196
0.88431373 0.60392157 0.95588235
0.98039216 0.65490196 0.95294118
0.55588235 0.54705882 0.97156863
0.60098039 0.55318627 0.9629902
0.72352941 0.57107843 0.94705882
0.88333333 0.64607843 0.95196078
0.9745098 0.67941176 0.94313725
0.49019608 0.64509804 0.93529412
0.58039216 0.6627451 0.95686275
0.72352941 0.68823529 0.96470588
0.875 0.73235294 0.9622549
0.97843137 0.76470588 0.95686275
0.53235294 0.81372549 0.95686275
0.56568627 0.80980392 0.95906863
0.68676471 0.80686275 0.95539216
0.84436275 0.82867647 0.96470588
0.97254902 0.86862745 0.96862745
0.67058824 0.93333333 0.96470588
0.72647059 0.9745098 0.97352941
0.76862745 0.95490196 0.95490196
0.86764706 0.9627451 0.96764706
0.99215686 0.99215686 0.99215686
