site/assets/luts/sha256-9ecd8ca358c9ef042e44dc9afe8a1d173fc4aa8109e295cfc7f02b127aa8f09a.cube
# LUTr-Schema-Version: 2
# LUTr-ID: sha256-9ecd8ca358c9ef042e44dc9afe8a1d173fc4aa8109e295cfc7f02b127aa8f09a
# LUTr-Title: ilford delta 100
# LUTr-Collection: Natron HaldCLUT
# LUTr-Collection-ID: natron-haldclut-presets
# LUTr-Source: https://github.com/NatronGitHub/clut
# LUTr-Retrieved: 2026-07-27
# LUTr-Source-File: submissions/natron-haldclut-presets/bw/ilford_delta_100.png
# LUTr-Source-Format: HALD-PNG
# LUTr-Source-SHA256: 9ecd8ca358c9ef042e44dc9afe8a1d173fc4aa8109e295cfc7f02b127aa8f09a
# LUTr-License: CC-BY-SA-4.0
# LUTr-License-URL: https://github.com/NatronGitHub/clut#license
# LUTr-License-Basis: repo-license-file
# LUTr-Transform-Class: film-emulation
# LUTr-Tags: creative, film, film-emulation, hald-clut, natron, png, cube
# LUTr-Input-Color-Space: srgb
# LUTr-Input-Gamut: rec709
# LUTr-Input-Transfer: srgb
# LUTr-Output-Color-Space: srgb
# LUTr-Output-Gamut: rec709
# LUTr-Output-Transfer: srgb
# LUTr-Color-Space-Confidence: assumed-display-referred
# LUTr-Domain-Normalized: true
# LUTr-Shaper: none
# LUTr-Original-Grid: 64x64x64
# LUTr-Conversion-Grid: 25x25x25
# LUTr-Conversion-Interpolation: trilinear
# LUTr-Conversion-Method: HALD-PNG LUT image decoded at 16-bit and sampled to 25x25x25 3D CUBE
# LUTr-Conversion-Tool: LUTr scripts/convert-all-to-cube.mjs 2.0.0
# LUTr-Conversion-Date: 2026-07-27
# LUTr-Note: Preserve this metadata and the upstream license notices when redistributing.
TITLE "ilford delta 100"
LUT_3D_SIZE 25
DOMAIN_MIN 0 0 0
DOMAIN_MAX 1 1 1
0.019607843 0.019607843 0.019607843
0.019607843 0.019607843 0.019607843
0.015686275 0.015686275 0.015686275
0.011764706 0.011764706 0.011764706
0.0019607843 0.0019607843 0.0019607843
0.012254902 0.012254902 0.012254902
0.019607843 0.019607843 0.019607843
0.025 0.025 0.025
0.035294118 0.035294118 0.035294118
0.049509804 0.049509804 0.049509804
0.054901961 0.054901961 0.054901961
0.050980392 0.050980392 0.050980392
0.043137255 0.043137255 0.043137255
0.034803922 0.034803922 0.034803922
0.033333333 0.033333333 0.033333333
0.05 0.05 0.05
0.062745098 0.062745098 0.062745098
0.073039216 0.073039216 0.073039216
0.078431373 0.078431373 0.078431373
0.078431373 0.078431373 0.078431373
0.098039216 0.098039216 0.098039216
0.12058824 0.12058824 0.12058824
0.15490196 0.15490196 0.15490196
0.14019608 0.14019608 0.14019608
0.14901961 0.14901961 0.14901961
0.03627451 0.03627451 0.03627451
0.03627451 0.03627451 0.03627451
0.032352941 0.032352941 0.032352941
0.030882353 0.030882353 0.030882353
0.030882353 0.030882353 0.030882353
0.035294118 0.035294118 0.035294118
0.042647059 0.042647059 0.042647059
0.048039216 0.048039216 0.048039216
0.054411765 0.054411765 0.054411765
0.062254902 0.062254902 0.062254902
0.070955882 0.070955882 0.070955882
0.064215686 0.064215686 0.064215686
0.059803922 0.059803922 0.059803922
0.058639706 0.058639706 0.058639706
0.067647059 0.067647059 0.067647059
0.077941176 0.077941176 0.077941176
0.089705882 0.089705882 0.089705882
0.099080882 0.099080882 0.099080882
0.1060049 0.1060049 0.1060049
0.11488971 0.11488971 0.11488971
0.14828431 0.14828431 0.14828431
0.15245098 0.15245098 0.15245098
0.17696078 0.17696078 0.17696078
0.18627451 0.18627451 0.18627451
0.19264706 0.19264706 0.19264706
0.060784314 0.060784314 0.060784314
0.058946078 0.058946078 0.058946078
0.057843137 0.057843137 0.057843137
0.060416667 0.060416667 0.060416667
0.060784314 0.060784314 0.060784314
0.065686275 0.065686275 0.065686275
0.07254902 0.07254902 0.07254902
0.07745098 0.07745098 0.07745098
0.081372549 0.081372549 0.081372549
0.085294118 0.085294118 0.085294118
0.092156863 0.092156863 0.092156863
0.089215686 0.089215686 0.089215686
0.089705882 0.089705882 0.089705882
0.094607843 0.094607843 0.094607843
0.10416667 0.10416667 0.10416667
0.11421569 0.11421569 0.11421569
0.1254902 0.1254902 0.1254902
0.13517157 0.13517157 0.13517157
0.14215686 0.14215686 0.14215686
0.15723039 0.15723039 0.15723039
0.19019608 0.19019608 0.19019608
0.1939951 0.1939951 0.1939951
0.21470588 0.21470588 0.21470588
0.23321078 0.23321078 0.23321078
0.24411765 0.24411765 0.24411765
0.081372549 0.081372549 0.081372549
0.081372549 0.081372549 0.081372549
0.082230392 0.082230392 0.082230392
0.085294118 0.085294118 0.085294118
0.08872549 0.08872549 0.08872549
0.093137255 0.093137255 0.093137255
0.1004902 0.1004902 0.1004902
0.10588235 0.10588235 0.10588235
0.1122549 0.1122549 0.1122549
0.11470588 0.11470588 0.11470588
0.11666667 0.11666667 0.11666667
0.12009804 0.12009804 0.12009804
0.12573529 0.12573529 0.12573529
0.13186275 0.13186275 0.13186275
0.14215686 0.14215686 0.14215686
0.15245098 0.15245098 0.15245098
0.1627451 0.1627451 0.1627451
0.17303922 0.17303922 0.17303922
0.18333333 0.18333333 0.18333333
0.20098039 0.20098039 0.20098039
0.22745098 0.22745098 0.22745098
0.23823529 0.23823529 0.23823529
0.25882353 0.25882353 0.25882353
0.27941176 0.27941176 0.27941176
0.29558824 0.29558824 0.29558824
0.10196078 0.10196078 0.10196078
0.10196078 0.10196078 0.10196078
0.10196078 0.10196078 0.10196078
0.10931373 0.10931373 0.10931373
0.11176471 0.11176471 0.11176471
0.12009804 0.12009804 0.12009804
0.13039216 0.13039216 0.13039216
0.13676471 0.13676471 0.13676471
0.14313725 0.14313725 0.14313725
0.14632353 0.14632353 0.14632353
0.1495098 0.1495098 0.1495098
0.15465686 0.15465686 0.15465686
0.16176471 0.16176471 0.16176471
0.16911765 0.16911765 0.16911765
0.17941176 0.17941176 0.17941176
0.1877451 0.1877451 0.1877451
0.19803922 0.19803922 0.19803922
0.20833333 0.20833333 0.20833333
0.22303922 0.22303922 0.22303922
0.24215686 0.24215686 0.24215686
0.2627451 0.2627451 0.2627451
0.28137255 0.28137255 0.28137255
0.30392157 0.30392157 0.30392157
0.32647059 0.32647059 0.32647059
0.34509804 0.34509804 0.34509804
0.12254902 0.12254902 0.12254902
0.12254902 0.12254902 0.12254902
0.12254902 0.12254902 0.12254902
0.12647059 0.12647059 0.12647059
0.13627451 0.13627451 0.13627451
0.14705882 0.14705882 0.14705882
0.15735294 0.15735294 0.15735294
0.16764706 0.16764706 0.16764706
0.17401961 0.17401961 0.17401961
0.17824755 0.17824755 0.17824755
0.18590686 0.18590686 0.18590686
0.1901348 0.1901348 0.1901348
0.1995098 0.1995098 0.1995098
0.20637255 0.20637255 0.20637255
0.21617647 0.21617647 0.21617647
0.22303922 0.22303922 0.22303922
0.23284314 0.23284314 0.23284314
0.24313725 0.24313725 0.24313725
0.25821078 0.25821078 0.25821078
0.27843137 0.27843137 0.27843137
0.29558824 0.29558824 0.29558824
0.31960784 0.31960784 0.31960784
0.34056373 0.34056373 0.34056373
0.36256127 0.36256127 0.36256127
0.38137255 0.38137255 0.38137255
0.14607843 0.14607843 0.14607843
0.14607843 0.14607843 0.14607843
0.14313725 0.14313725 0.14313725
0.15306373 0.15306373 0.15306373
0.16372549 0.16372549 0.16372549
0.17794118 0.17794118 0.17794118
0.18823529 0.18823529 0.18823529
0.19852941 0.19852941 0.19852941
0.20784314 0.20784314 0.20784314
0.2127451 0.2127451 0.2127451
0.21764706 0.21764706 0.21764706
0.22696078 0.22696078 0.22696078
0.23431373 0.23431373 0.23431373
0.24362745 0.24362745 0.24362745
0.25098039 0.25098039 0.25098039
0.25919118 0.25919118 0.25919118
0.26764706 0.26764706 0.26764706
0.27696078 0.27696078 0.27696078
0.28823529 0.28823529 0.28823529
0.30330882 0.30330882 0.30330882
0.32254902 0.32254902 0.32254902
0.34411765 0.34411765 0.34411765
0.36470588 0.36470588 0.36470588
0.38529412 0.38529412 0.38529412
0.40196078 0.40196078 0.40196078
0.18627451 0.18627451 0.18627451
0.18627451 0.18627451 0.18627451
0.18664216 0.18664216 0.18664216
0.19148284 0.19148284 0.19148284
0.20073529 0.20073529 0.20073529
0.2127451 0.2127451 0.2127451
0.22303922 0.22303922 0.22303922
0.23033088 0.23033088 0.23033088
0.23970588 0.23970588 0.23970588
0.24362745 0.24362745 0.24362745
0.25245098 0.25245098 0.25245098
0.2627451 0.2627451 0.2627451
0.27058824 0.27058824 0.27058824
0.27910539 0.27910539 0.27910539
0.28615196 0.28615196 0.28615196
0.29307598 0.29307598 0.29307598
0.30245098 0.30245098 0.30245098
0.31029412 0.31029412 0.31029412
0.32120098 0.32120098 0.32120098
0.3346201 0.3346201 0.3346201
0.3495098 0.3495098 0.3495098
0.36617647 0.36617647 0.36617647
0.38566176 0.38566176 0.38566176
0.40588235 0.40588235 0.40588235
0.42254902 0.42254902 0.42254902
0.23137255 0.23137255 0.23137255
0.23137255 0.23137255 0.23137255
0.23529412 0.23529412 0.23529412
0.23872549 0.23872549 0.23872549
0.24705882 0.24705882 0.24705882
0.25539216 0.25539216 0.25539216
0.26176471 0.26176471 0.26176471
0.26421569 0.26421569 0.26421569
0.26666667 0.26666667 0.26666667
0.2745098 0.2745098 0.2745098
0.28431373 0.28431373 0.28431373
0.29754902 0.29754902 0.29754902
0.30588235 0.30588235 0.30588235
0.31421569 0.31421569 0.31421569
0.32058824 0.32058824 0.32058824
0.32941176 0.32941176 0.32941176
0.3372549 0.3372549 0.3372549
0.34362745 0.34362745 0.34362745
0.35490196 0.35490196 0.35490196
0.36813725 0.36813725 0.36813725
0.38235294 0.38235294 0.38235294
0.39656863 0.39656863 0.39656863
0.41372549 0.41372549 0.41372549
0.43039216 0.43039216 0.43039216
0.44705882 0.44705882 0.44705882
0.27892157 0.27892157 0.27892157
0.27892157 0.27892157 0.27892157
0.2810049 0.2810049 0.2810049
0.28645833 0.28645833 0.28645833
0.29411765 0.29411765 0.29411765
0.3004902 0.3004902 0.3004902
0.3057598 0.3057598 0.3057598
0.30784314 0.30784314 0.30784314
0.30784314 0.30784314 0.30784314
0.30729167 0.30729167 0.30729167
0.32058824 0.32058824 0.32058824
0.33235294 0.33235294 0.33235294
0.34117647 0.34117647 0.34117647
0.34883578 0.34883578 0.34883578
0.3560049 0.3560049 0.3560049
0.36329657 0.36329657 0.36329657
0.37058824 0.37058824 0.37058824
0.38088235 0.38088235 0.38088235
0.39117647 0.39117647 0.39117647
0.40294118 0.40294118 0.40294118
0.41642157 0.41642157 0.41642157
0.43008578 0.43008578 0.43008578
0.44460784 0.44460784 0.44460784
0.45980392 0.45980392 0.45980392
0.47401961 0.47401961 0.47401961
0.3254902 0.3254902 0.3254902
0.3254902 0.3254902 0.3254902
0.32965686 0.32965686 0.32965686
0.33419118 0.33419118 0.33419118
0.34166667 0.34166667 0.34166667
0.34644608 0.34644608 0.34644608
0.35220588 0.35220588 0.35220588
0.35294118 0.35294118 0.35294118
0.35294118 0.35294118 0.35294118
0.35294118 0.35294118 0.35294118
0.35784314 0.35784314 0.35784314
0.36813725 0.36813725 0.36813725
0.37745098 0.37745098 0.37745098
0.38468137 0.38468137 0.38468137
0.39191176 0.39191176 0.39191176
0.39938725 0.39938725 0.39938725
0.40686275 0.40686275 0.40686275
0.41421569 0.41421569 0.41421569
0.42745098 0.42745098 0.42745098
0.43860294 0.43860294 0.43860294
0.45196078 0.45196078 0.45196078
0.46360294 0.46360294 0.46360294
0.47647059 0.47647059 0.47647059
0.49068627 0.49068627 0.49068627
0.5 0.5 0.5
0.37058824 0.37058824 0.37058824
0.37058824 0.37058824 0.37058824
0.37536765 0.37536765 0.37536765
0.38143382 0.38143382 0.38143382
0.3879902 0.3879902 0.3879902
0.39368873 0.39368873 0.39368873
0.39411765 0.39411765 0.39411765
0.39411765 0.39411765 0.39411765
0.39411765 0.39411765 0.39411765
0.39656863 0.39656863 0.39656863
0.39901961 0.39901961 0.39901961
0.40588235 0.40588235 0.40588235
0.41397059 0.41397059 0.41397059
0.4216299 0.4216299 0.4216299
0.42855392 0.42855392 0.42855392
0.43511029 0.43511029 0.43511029
0.44166667 0.44166667 0.44166667
0.45147059 0.45147059 0.45147059
0.4622549 0.4622549 0.4622549
0.47555147 0.47555147 0.47555147
0.48651961 0.48651961 0.48651961
0.49705882 0.49705882 0.49705882
0.50735294 0.50735294 0.50735294
0.51764706 0.51764706 0.51764706
0.52401961 0.52401961 0.52401961
0.41568627 0.41568627 0.41568627
0.41568627 0.41568627 0.41568627
0.42058824 0.42058824 0.42058824
0.42720588 0.42720588 0.42720588
0.43137255 0.43137255 0.43137255
0.43357843 0.43357843 0.43357843
0.43529412 0.43529412 0.43529412
0.43529412 0.43529412 0.43529412
0.43529412 0.43529412 0.43529412
0.43848039 0.43848039 0.43848039
0.44019608 0.44019608 0.44019608
0.44656863 0.44656863 0.44656863
0.45 0.45 0.45
0.45710784 0.45710784 0.45710784
0.46421569 0.46421569 0.46421569
0.47132353 0.47132353 0.47132353
0.47843137 0.47843137 0.47843137
0.48872549 0.48872549 0.48872549
0.49901961 0.49901961 0.49901961
0.50759804 0.50759804 0.50759804
0.51764706 0.51764706 0.51764706
0.52794118 0.52794118 0.52794118
0.53627451 0.53627451 0.53627451
0.54387255 0.54387255 0.54387255
0.54901961 0.54901961 0.54901961
0.45735294 0.45735294 0.45735294
0.46109069 0.46109069 0.46109069
0.46470588 0.46470588 0.46470588
0.46862745 0.46862745 0.46862745
0.47230392 0.47230392 0.47230392
0.47254902 0.47254902 0.47254902
0.47254902 0.47254902 0.47254902
0.47383578 0.47383578 0.47383578
0.47647059 0.47647059 0.47647059
0.47647059 0.47647059 0.47647059
0.48039216 0.48039216 0.48039216
0.48431373 0.48431373 0.48431373
0.48823529 0.48823529 0.48823529
0.49564951 0.49564951 0.49564951
0.49987745 0.49987745 0.49987745
0.50753676 0.50753676 0.50753676
0.51519608 0.51519608 0.51519608
0.5254902 0.5254902 0.5254902
0.53186275 0.53186275 0.53186275
0.54215686 0.54215686 0.54215686
0.54852941 0.54852941 0.54852941
0.55490196 0.55490196 0.55490196
0.56482843 0.56482843 0.56482843
0.5713848 0.5713848 0.5713848
0.57745098 0.57745098 0.57745098
0.50490196 0.50490196 0.50490196
0.50588235 0.50588235 0.50588235
0.50588235 0.50588235 0.50588235
0.5067402 0.5067402 0.5067402
0.50980392 0.50980392 0.50980392
0.51078431 0.51078431 0.51078431
0.51078431 0.51078431 0.51078431
0.51372549 0.51372549 0.51372549
0.51372549 0.51372549 0.51372549
0.51654412 0.51654412 0.51654412
0.51936275 0.51936275 0.51936275
0.52242647 0.52242647 0.52242647
0.52794118 0.52794118 0.52794118
0.53345588 0.53345588 0.53345588
0.5379902 0.5379902 0.5379902
0.5432598 0.5432598 0.5432598
0.55 0.55 0.55
0.55637255 0.55637255 0.55637255
0.5627451 0.5627451 0.5627451
0.56960784 0.56960784 0.56960784
0.57745098 0.57745098 0.57745098
0.58541667 0.58541667 0.58541667
0.59215686 0.59215686 0.59215686
0.59852941 0.59852941 0.59852941
0.60490196 0.60490196 0.60490196
0.54313725 0.54313725 0.54313725
0.54313725 0.54313725 0.54313725
0.54313725 0.54313725 0.54313725
0.54558824 0.54558824 0.54558824
0.54705882 0.54705882 0.54705882
0.5495098 0.5495098 0.5495098
0.55061275 0.55061275 0.55061275
0.55098039 0.55098039 0.55098039
0.55098039 0.55098039 0.55098039
0.55490196 0.55490196 0.55490196
0.55772059 0.55772059 0.55772059
0.56096814 0.56096814 0.56096814
0.56593137 0.56593137 0.56593137
0.56930147 0.56930147 0.56930147
0.57414216 0.57414216 0.57414216
0.57843137 0.57843137 0.57843137
0.58480392 0.58480392 0.58480392
0.58872549 0.58872549 0.58872549
0.59362745 0.59362745 0.59362745
0.6 0.6 0.6
0.60637255 0.60637255 0.60637255
0.6127451 0.6127451 0.6127451
0.61973039 0.61973039 0.61973039
0.62702206 0.62702206 0.62702206
0.63186275 0.63186275 0.63186275
0.58039216 0.58039216 0.58039216
0.58039216 0.58039216 0.58039216
0.58039216 0.58039216 0.58039216
0.58382353 0.58382353 0.58382353
0.58431373 0.58431373 0.58431373
0.58480392 0.58480392 0.58480392
0.58823529 0.58823529 0.58823529
0.58823529 0.58823529 0.58823529
0.58823529 0.58823529 0.58823529
0.59215686 0.59215686 0.59215686
0.59313725 0.59313725 0.59313725
0.59607843 0.59607843 0.59607843
0.6 0.6 0.6
0.60392157 0.60392157 0.60392157
0.60784314 0.60784314 0.60784314
0.61176471 0.61176471 0.61176471
0.61568627 0.61568627 0.61568627
0.61960784 0.61960784 0.61960784
0.6245098 0.6245098 0.6245098
0.63088235 0.63088235 0.63088235
0.63529412 0.63529412 0.63529412
0.64313725 0.64313725 0.64313725
0.65 0.65 0.65
0.65637255 0.65637255 0.65637255
0.6627451 0.6627451 0.6627451
0.61764706 0.61764706 0.61764706
0.61519608 0.61519608 0.61519608
0.61764706 0.61764706 0.61764706
0.61893382 0.61893382 0.61893382
0.62034314 0.62034314 0.62034314
0.62175245 0.62175245 0.62175245
0.62303922 0.62303922 0.62303922
0.62303922 0.62303922 0.62303922
0.6254902 0.6254902 0.6254902
0.62696078 0.62696078 0.62696078
0.62757353 0.62757353 0.62757353
0.63088235 0.63088235 0.63088235
0.63406863 0.63406863 0.63406863
0.63529412 0.63529412 0.63529412
0.63872549 0.63872549 0.63872549
0.64264706 0.64264706 0.64264706
0.64656863 0.64656863 0.64656863
0.65294118 0.65294118 0.65294118
0.65833333 0.65833333 0.65833333
0.66176471 0.66176471 0.66176471
0.66813725 0.66813725 0.66813725
0.67401961 0.67401961 0.67401961
0.68088235 0.68088235 0.68088235
0.68578431 0.68578431 0.68578431
0.68970588 0.68970588 0.68970588
0.65490196 0.65490196 0.65490196
0.65490196 0.65490196 0.65490196
0.65490196 0.65490196 0.65490196
0.65490196 0.65490196 0.65490196
0.65784314 0.65784314 0.65784314
0.65784314 0.65784314 0.65784314
0.65784314 0.65784314 0.65784314
0.65784314 0.65784314 0.65784314
0.65882353 0.65882353 0.65882353
0.66176471 0.66176471 0.66176471
0.6627451 0.6627451 0.6627451
0.66568627 0.66568627 0.66568627
0.66813725 0.66813725 0.66813725
0.66973039 0.66973039 0.66973039
0.67352941 0.67352941 0.67352941
0.675 0.675 0.675
0.68137255 0.68137255 0.68137255
0.68529412 0.68529412 0.68529412
0.68921569 0.68921569 0.68921569
0.69313725 0.69313725 0.69313725
0.6995098 0.6995098 0.6995098
0.70539216 0.70539216 0.70539216
0.71176471 0.71176471 0.71176471
0.71666667 0.71666667 0.71666667
0.71960784 0.71960784 0.71960784
0.69215686 0.69215686 0.69215686
0.69215686 0.69215686 0.69215686
0.69215686 0.69215686 0.69215686
0.69215686 0.69215686 0.69215686
0.69264706 0.69264706 0.69264706
0.69264706 0.69264706 0.69264706
0.69264706 0.69264706 0.69264706
0.69264706 0.69264706 0.69264706
0.69607843 0.69607843 0.69607843
0.6963848 0.6963848 0.6963848
0.69742647 0.69742647 0.69742647
0.70042892 0.70042892 0.70042892
0.70220588 0.70220588 0.70220588
0.70441176 0.70441176 0.70441176
0.70441176 0.70441176 0.70441176
0.70833333 0.70833333 0.70833333
0.7122549 0.7122549 0.7122549
0.71862745 0.71862745 0.71862745
0.72365196 0.72365196 0.72365196
0.72745098 0.72745098 0.72745098
0.73186275 0.73186275 0.73186275
0.73627451 0.73627451 0.73627451
0.74264706 0.74264706 0.74264706
0.74381127 0.74381127 0.74381127
0.74754902 0.74754902 0.74754902
0.72941176 0.72941176 0.72941176
0.72941176 0.72941176 0.72941176
0.72941176 0.72941176 0.72941176
0.72941176 0.72941176 0.72941176
0.72941176 0.72941176 0.72941176
0.72745098 0.72745098 0.72745098
0.72745098 0.72745098 0.72745098
0.72745098 0.72745098 0.72745098
0.72941176 0.72941176 0.72941176
0.73137255 0.73137255 0.73137255
0.73333333 0.73333333 0.73333333
0.73529412 0.73529412 0.73529412
0.73627451 0.73627451 0.73627451
0.7375 0.7375 0.7375
0.73921569 0.73921569 0.73921569
0.74068627 0.74068627 0.74068627
0.74705882 0.74705882 0.74705882
0.75220588 0.75220588 0.75220588
0.75490196 0.75490196 0.75490196
0.75808824 0.75808824 0.75808824
0.76568627 0.76568627 0.76568627
0.77058824 0.77058824 0.77058824
0.77352941 0.77352941 0.77352941
0.7745098 0.7745098 0.7745098
0.7745098 0.7745098 0.7745098
0.76666667 0.76666667 0.76666667
0.76617647 0.76617647 0.76617647
0.76617647 0.76617647 0.76617647
0.76617647 0.76617647 0.76617647
0.7627451 0.7627451 0.7627451
0.7622549 0.7622549 0.7622549
0.7622549 0.7622549 0.7622549
0.7627451 0.7627451 0.7627451
0.76617647 0.76617647 0.76617647
0.76666667 0.76666667 0.76666667
0.77009804 0.77009804 0.77009804
0.77052696 0.77052696 0.77052696
0.77058824 0.77058824 0.77058824
0.77058824 0.77058824 0.77058824
0.77401961 0.77401961 0.77401961
0.77420343 0.77420343 0.77420343
0.77843137 0.77843137 0.77843137
0.78609069 0.78609069 0.78609069
0.78872549 0.78872549 0.78872549
0.78866422 0.78866422 0.78866422
0.79779412 0.79779412 0.79779412
0.80147059 0.80147059 0.80147059
0.80147059 0.80147059 0.80147059
0.80147059 0.80147059 0.80147059
0.80147059 0.80147059 0.80147059
0.80392157 0.80392157 0.80392157
0.80098039 0.80098039 0.80098039
0.80098039 0.80098039 0.80098039
0.80012255 0.80012255 0.80012255
0.79705882 0.79705882 0.79705882
0.79705882 0.79705882 0.79705882
0.79705882 0.79705882 0.79705882
0.79705882 0.79705882 0.79705882
0.80098039 0.80098039 0.80098039
0.80281863 0.80281863 0.80281863
0.80490196 0.80490196 0.80490196
0.80490196 0.80490196 0.80490196
0.80784314 0.80784314 0.80784314
0.80784314 0.80784314 0.80784314
0.80784314 0.80784314 0.80784314
0.80882353 0.80882353 0.80882353
0.8127451 0.8127451 0.8127451
0.82022059 0.82022059 0.82022059
0.81960784 0.81960784 0.81960784
0.81875 0.81875 0.81875
0.83235294 0.83235294 0.83235294
0.83235294 0.83235294 0.83235294
0.83235294 0.83235294 0.83235294
0.82941176 0.82941176 0.82941176
0.82843137 0.82843137 0.82843137
0.83970588 0.83970588 0.83970588
0.83817402 0.83817402 0.83817402
0.83480392 0.83480392 0.83480392
0.83186275 0.83186275 0.83186275
0.82794118 0.82794118 0.82794118
0.82794118 0.82794118 0.82794118
0.82794118 0.82794118 0.82794118
0.82886029 0.82886029 0.82886029
0.83186275 0.83186275 0.83186275
0.83578431 0.83578431 0.83578431
0.83970588 0.83970588 0.83970588
0.84117647 0.84117647 0.84117647
0.84362745 0.84362745 0.84362745
0.84117647 0.84117647 0.84117647
0.84117647 0.84117647 0.84117647
0.84362745 0.84362745 0.84362745
0.84754902 0.84754902 0.84754902
0.85392157 0.85392157 0.85392157
0.85245098 0.85245098 0.85245098
0.84362745 0.84362745 0.84362745
0.86323529 0.86323529 0.86323529
0.86305147 0.86305147 0.86305147
0.85821078 0.85821078 0.85821078
0.85484069 0.85484069 0.85484069
0.85392157 0.85392157 0.85392157
0.8745098 0.8745098 0.8745098
0.86421569 0.86421569 0.86421569
0.85882353 0.85882353 0.85882353
0.85490196 0.85490196 0.85490196
0.85098039 0.85098039 0.85098039
0.85098039 0.85098039 0.85098039
0.85098039 0.85098039 0.85098039
0.85098039 0.85098039 0.85098039
0.85490196 0.85490196 0.85490196
0.85882353 0.85882353 0.85882353
0.86372549 0.86372549 0.86372549
0.87009804 0.87009804 0.87009804
0.87647059 0.87647059 0.87647059
0.87058824 0.87058824 0.87058824
0.87058824 0.87058824 0.87058824
0.87058824 0.87058824 0.87058824
0.8745098 0.8745098 0.8745098
0.88088235 0.88088235 0.88088235
0.88431373 0.88431373 0.88431373
0.86323529 0.86323529 0.86323529
0.88823529 0.88823529 0.88823529
0.88186275 0.88186275 0.88186275
0.87843137 0.87843137 0.87843137
0.8745098 0.8745098 0.8745098
0.8745098 0.8745098 0.8745098
0.029901961 0.029901961 0.029901961
0.026531863 0.026531863 0.026531863
0.025 0.025 0.025
0.018627451 0.018627451 0.018627451
0.016666667 0.016666667 0.016666667
0.023161765 0.023161765 0.023161765
0.02120098 0.02120098 0.02120098
0.023468137 0.023468137 0.023468137
0.035294118 0.035294118 0.035294118
0.047977941 0.047977941 0.047977941
0.053063725 0.053063725 0.053063725
0.052757353 0.052757353 0.052757353
0.047058824 0.047058824 0.047058824
0.044607843 0.044607843 0.044607843
0.054901961 0.054901961 0.054901961
0.065747549 0.065747549 0.065747549
0.079411765 0.079411765 0.079411765
0.08817402 0.08817402 0.08817402
0.093259804 0.093259804 0.093259804
0.10098039 0.10098039 0.10098039
0.13676471 0.13676471 0.13676471
0.13841912 0.13841912 0.13841912
0.16421569 0.16421569 0.16421569
0.17352941 0.17352941 0.17352941
0.17990196 0.17990196 0.17990196
0.045036765 0.045036765 0.045036765
0.042647059 0.042647059 0.042647059
0.039414828 0.039414828 0.039414828
0.037438725 0.037438725 0.037438725
0.037254902 0.037254902 0.037254902
0.042463235 0.042463235 0.042463235
0.043014706 0.043014706 0.043014706
0.047120098 0.047120098 0.047120098
0.053492647 0.053492647 0.053492647
0.062254902 0.062254902 0.062254902
0.068397672 0.068397672 0.068397672
0.069362745 0.069362745 0.069362745
0.065716912 0.065716912 0.065716912
0.067823223 0.067823223 0.067823223
0.075490196 0.075490196 0.075490196
0.089131434 0.089131434 0.089131434
0.10245098 0.10245098 0.10245098
0.11178768 0.11178768 0.11178768
0.11888787 0.11888787 0.11888787
0.12774969 0.12774969 0.12774969
0.16295956 0.16295956 0.16295956
0.16488971 0.16488971 0.16488971
0.18627451 0.18627451 0.18627451
0.199303 0.199303 0.199303
0.20778186 0.20778186 0.20778186
0.067156863 0.067156863 0.067156863
0.066007966 0.066007966 0.066007966
0.064215686 0.064215686 0.064215686
0.067110907 0.067110907 0.067110907
0.065686275 0.065686275 0.065686275
0.068458946 0.068458946 0.068458946
0.072273284 0.072273284 0.072273284
0.07745098 0.07745098 0.07745098
0.081372549 0.081372549 0.081372549
