site/assets/luts/sha256-83e90d273b882b8d2b8823a72080c2027326782c3a990c8841886ff728e902cc.cube
# LUTr-Schema-Version: 2
# LUTr-ID: sha256-83e90d273b882b8d2b8823a72080c2027326782c3a990c8841886ff728e902cc
# LUTr-Title: polaroid 669 --
# LUTr-Collection: Natron HaldCLUT
# LUTr-Collection-ID: natron-haldclut-presets
# LUTr-Source: https://github.com/NatronGitHub/clut
# LUTr-Retrieved: 2026-07-27
# LUTr-Source-File: submissions/natron-haldclut-presets/instant_pro/polaroid_669_--.png
# LUTr-Source-Format: HALD-PNG
# LUTr-Source-SHA256: 83e90d273b882b8d2b8823a72080c2027326782c3a990c8841886ff728e902cc
# LUTr-License: CC-BY-SA-4.0
# LUTr-License-URL: https://github.com/NatronGitHub/clut#license
# LUTr-License-Basis: repo-license-file
# LUTr-Transform-Class: film-emulation
# LUTr-Tags: creative, film, film-emulation, hald-clut, natron, png, cube
# LUTr-Input-Color-Space: srgb
# LUTr-Input-Gamut: rec709
# LUTr-Input-Transfer: srgb
# LUTr-Output-Color-Space: srgb
# LUTr-Output-Gamut: rec709
# LUTr-Output-Transfer: srgb
# LUTr-Color-Space-Confidence: assumed-display-referred
# LUTr-Domain-Normalized: true
# LUTr-Shaper: none
# LUTr-Original-Grid: 64x64x64
# LUTr-Conversion-Grid: 25x25x25
# LUTr-Conversion-Interpolation: trilinear
# LUTr-Conversion-Method: HALD-PNG LUT image decoded at 16-bit and sampled to 25x25x25 3D CUBE
# LUTr-Conversion-Tool: LUTr scripts/convert-all-to-cube.mjs 2.0.0
# LUTr-Conversion-Date: 2026-07-27
# LUTr-Note: Preserve this metadata and the upstream license notices when redistributing.
TITLE "polaroid 669 --"
LUT_3D_SIZE 5
DOMAIN_MIN 0 0 0
DOMAIN_MAX 1 1 1
0 0.0039215686 0
0.15784314 0.040196078 0.05
0.4372549 0.01372549 0.031372549
0.74215686 0.0029411765 0.057843137
0.98823529 0.18823529 0.10196078
0.0049019608 0.20098039 0.046078431
0.16372549 0.21960784 0.016911765
0.48382353 0.24068627 0.055392157
0.77156863 0.25392157 0.073039216
0.98823529 0.32941176 0.13333333
0 0.41568627 0.043137255
0.13235294 0.41666667 0.05
0.43529412 0.43529412 0.0029411765
0.74607843 0.49215686 0.031372549
0.98431373 0.57647059 0.17254902
0.029411765 0.65098039 0.010784314
0.1872549 0.63627451 0.018872549
0.42745098 0.64509804 0.0039215686
0.6752451 0.66691176 0.0039215686
0.92941176 0.74019608 0.010784314
0.41176471 0.95294118 0.21960784
0.46960784 0.95392157 0.21372549
0.58039216 0.93333333 0.16862745
0.79313725 0.96176471 0.18529412
0.98039216 0.98039216 0.17254902
0 0.081372549 0.19117647
0.15980392 0.10196078 0.21544118
0.4622549 0.098039216 0.22892157
0.74509804 0.044362745 0.2245098
0.97745098 0.15294118 0.23627451
0 0.24705882 0.22279412
0.19859069 0.25765931 0.24270833
0.51617647 0.26666667 0.25833333
0.76427696 0.25980392 0.24240196
0.98431373 0.31936275 0.25882353
0.0024509804 0.48627451 0.22745098
0.20085784 0.46764706 0.23235294
0.47352941 0.46764706 0.20245098
0.76862745 0.51470588 0.23823529
0.96715686 0.56372549 0.3
0.010784314 0.68431373 0.17941176
0.21053922 0.67616422 0.17469363
0.42046569 0.64852941 0.14019608
0.68602941 0.67916667 0.0375
0.92941176 0.74411765 0.097058824
0.40294118 0.95784314 0.31176471
0.45367647 0.95196078 0.30588235
0.58284314 0.94901961 0.29068627
0.78406863 0.95980392 0.26887255
0.9754902 0.97843137 0.23921569
0 0.18039216 0.50588235
0.029901961 0.18676471 0.51862745
0.54803922 0.24117647 0.56960784
0.79362745 0.27941176 0.56519608
0.98627451 0.29607843 0.53921569
0 0.35392157 0.5122549
0.11642157 0.34313725 0.5442402
0.57647059 0.37352941 0.58259804
0.80245098 0.4060049 0.57512255
0.97156863 0.37352941 0.53627451
0.0098039216 0.57843137 0.53333333
0.20980392 0.57696078 0.54705882
0.56372549 0.58235294 0.57205882
0.78897059 0.56446078 0.54803922
0.9745098 0.55392157 0.52156863
0.015196078 0.78088235 0.48872549
0.21213235 0.77193627 0.48394608
0.47132353 0.72965686 0.45637255
0.71470588 0.72254902 0.40514706
0.95245098 0.78333333 0.51029412
0.3627451 0.96078431 0.5254902
0.4245098 0.95980392 0.51813725
0.56666667 0.96470588 0.49901961
0.75882353 0.95735294 0.46911765
0.96862745 0.98039216 0.4745098
0 0.35 0.80392157
0 0.33651961 0.80784314
0.54019608 0.39264706 0.82647059
0.82573529 0.4872549 0.83333333
0.95196078 0.57843137 0.83039216
0.0056372549 0.48210784 0.79534314
0.029534314 0.4620098 0.81004902
0.56029412 0.49803922 0.82647059
0.81770833 0.5776348 0.83333333
0.93529412 0.64436275 0.84117647
0.023039216 0.67009804 0.77205882
0.22046569 0.66188725 0.77794118
0.55612745 0.66911765 0.80612745
0.79938725 0.72022059 0.83210784
0.9127451 0.75490196 0.83823529
0.14387255 0.83431373 0.78333333
0.32340686 0.83529412 0.79172794
0.56813725 0.8375 0.79901961
0.76862745 0.83118873 0.80802696
0.92843137 0.85563725 0.82818627
0.45392157 0.97647059 0.78823529
0.50465686 0.98823529 0.79289216
0.60245098 0.97598039 0.78186275
0.75294118 0.96642157 0.75392157
0.94705882 0.98431373 0.73823529
0.28627451 0.61568627 0.97647059
0.38333333 0.60882353 0.97745098
0.60784314 0.6372549 0.96862745
0.81862745 0.71862745 0.96764706
0.9372549 0.78823529 0.96862745
0.37843137 0.68823529 0.96862745
0.45563725 0.68112745 0.97328431
0.62352941 0.68921569 0.96862745
0.82181373 0.76470588 0.96862745
0.93333333 0.81568627 0.96862745
0.48431373 0.81372549 0.96078431
0.50294118 0.78823529 0.94460784
0.64215686 0.79215686 0.96470588
0.81617647 0.82794118 0.96862745
0.9254902 0.85294118 0.95686275
0.41862745 0.91176471 0.95392157
0.46862745 0.90784314 0.95073529
0.60245098 0.89313725 0.94166667
0.80686275 0.90857843 0.96495098
0.90490196 0.93039216 0.96764706
0.62352941 1 0.97254902
0.60196078 0.9872549 0.94607843
0.69411765 0.98235294 0.96470588
0.82156863 0.99313725 0.97843137
0.92156863 0.99607843 0.99215686
