site/assets/luts/sha256-2cdb5234f7ef4c28c53185aa020260a145e3b302a03965e92add6e0f797f78d5.cube
# LUTr-Schema-Version: 2
# LUTr-ID: sha256-2cdb5234f7ef4c28c53185aa020260a145e3b302a03965e92add6e0f797f78d5
# LUTr-Title: kodak portra 400 +
# LUTr-Collection: Natron HaldCLUT
# LUTr-Collection-ID: natron-haldclut-presets
# LUTr-Source: https://github.com/NatronGitHub/clut
# LUTr-Retrieved: 2026-07-27
# LUTr-Source-File: submissions/natron-haldclut-presets/negative_new/kodak_portra_400_+.png
# LUTr-Source-Format: HALD-PNG
# LUTr-Source-SHA256: 2cdb5234f7ef4c28c53185aa020260a145e3b302a03965e92add6e0f797f78d5
# LUTr-License: CC-BY-SA-4.0
# LUTr-License-URL: https://github.com/NatronGitHub/clut#license
# LUTr-License-Basis: repo-license-file
# LUTr-Transform-Class: film-emulation
# LUTr-Tags: creative, film, film-emulation, hald-clut, natron, png, cube
# LUTr-Input-Color-Space: srgb
# LUTr-Input-Gamut: rec709
# LUTr-Input-Transfer: srgb
# LUTr-Output-Color-Space: srgb
# LUTr-Output-Gamut: rec709
# LUTr-Output-Transfer: srgb
# LUTr-Color-Space-Confidence: assumed-display-referred
# LUTr-Domain-Normalized: true
# LUTr-Shaper: none
# LUTr-Original-Grid: 64x64x64
# LUTr-Conversion-Grid: 25x25x25
# LUTr-Conversion-Interpolation: trilinear
# LUTr-Conversion-Method: HALD-PNG LUT image decoded at 16-bit and sampled to 25x25x25 3D CUBE
# LUTr-Conversion-Tool: LUTr scripts/convert-all-to-cube.mjs 2.0.0
# LUTr-Conversion-Date: 2026-07-27
# LUTr-Note: Preserve this metadata and the upstream license notices when redistributing.
TITLE "kodak portra 400 +"
LUT_3D_SIZE 25
DOMAIN_MIN 0 0 0
DOMAIN_MAX 1 1 1
0.062745098 0.054901961 0.043137255
0.062745098 0.050980392 0.043137255
0.098039216 0.059803922 0.048039216
0.13578431 0.070098039 0.050980392
0.17254902 0.070588235 0.054901961
0.22156863 0.041666667 0.062745098
0.26960784 0.026470588 0.059803922
0.32107843 0.05245098 0.03627451
0.38039216 0.047058824 0.02745098
0.44215686 0.026470588 0.021078431
0.50784314 0.0098039216 0.014705882
0.57009804 0.0034313725 0.0078431373
0.6254902 0.017647059 0.0078431373
0.68480392 0.027941176 0.0073529412
0.74313725 0.035294118 0.0039215686
0.79558824 0.020588235 0.0039215686
0.85098039 0.0039215686 0
0.88970588 0.019117647 0
0.92156863 0.05 0
0.95539216 0.080882353 0
0.98627451 0.11176471 0
0.99215686 0.13872549 0
0.99607843 0.16568627 0
0.99607843 0.19117647 0
1 0.21568627 0
0.060294118 0.070098039 0.047058824
0.065196078 0.067647059 0.044056373
0.094117647 0.068995098 0.044117647
0.13155637 0.078247549 0.048345588
0.17132353 0.07377451 0.051715686
0.22156863 0.061948529 0.051960784
0.26960784 0.055392157 0.04497549
0.32107843 0.06127451 0.030821078
0.38039216 0.049509804 0.02745098
0.44552696 0.031311275 0.021078431
0.51176471 0.0098039216 0.010784314
0.57383578 0.0034313725 0.0039215686
0.62867647 0.016911765 0.0039215686
0.68529412 0.03057598 0.0039215686
0.74595588 0.035294118 0.0039215686
0.79803922 0.024509804 0.0039215686
0.85098039 0.0039215686 0
0.8872549 0.021568627 0
0.91813725 0.063357843 0
0.95147059 0.10343137 0
0.97794118 0.14264706 0
0.99001225 0.16096814 0
0.99509804 0.17941176 0
0.99607843 0.20055147 0
0.99607843 0.22598039 0
0.057843137 0.093137255 0.050980392
0.067279412 0.092156863 0.050980392
0.097058824 0.092156863 0.047058824
0.12401961 0.090931373 0.043259804
0.16568627 0.088235294 0.046078431
0.21813725 0.085294118 0.041789216
0.26887255 0.082352941 0.033088235
0.32254902 0.077328431 0.023529412
0.38529412 0.070588235 0.02254902
0.45 0.057843137 0.017279412
0.51568627 0.038480392 0.0068627451
0.57843137 0.030759804 0.00012254902
0.63235294 0.033823529 0.0019607843
0.69019608 0.037622549 0.0037990196
0.74803922 0.037254902 0
0.79742647 0.034681373 0.0039215686
0.84215686 0.033333333 0.0039215686
0.8814951 0.056372549 0.0039215686
0.91593137 0.099019608 0.0039215686
0.94411765 0.14313725 0.00049019608
0.96960784 0.17598039 0
0.98382353 0.19215686 0
0.99191176 0.20588235 0
0.99607843 0.22009804 0
0.99607843 0.23627451 0
0.044117647 0.11666667 0.050980392
0.062745098 0.11666667 0.050980392
0.092647059 0.11617647 0.050857843
0.12015931 0.11617647 0.050490196
0.16102941 0.11960784 0.046568627
0.21078431 0.12003676 0.04307598
0.2622549 0.11960784 0.03627451
0.32254902 0.12089461 0.025980392
0.38823529 0.11911765 0.015686275
0.45245098 0.10882353 0.0098039216
0.5192402 0.10245098 0.0039215686
0.584375 0.099019608 0.0039215686
0.64068627 0.092892157 0.0039215686
0.69613971 0.082352941 0.0034313725
0.74546569 0.074509804 0.0025735294
0.79068627 0.08627451 0.0039215686
0.83186275 0.10245098 0.0078431373
0.87303922 0.12303922 0.0052083333
0.9127451 0.14914216 0.0039215686
0.94405637 0.18823529 0.00006127451
0.96323529 0.21372549 0
0.97352941 0.22647059 0
0.98639706 0.24056373 0
0.99607843 0.25098039 0
0.99607843 0.25392157 0
0.023529412 0.1372549 0.050980392
0.051715686 0.13848039 0.052205882
0.083823529 0.14558824 0.061764706
0.11617647 0.15098039 0.066666667
0.15784314 0.15490196 0.057843137
0.2004902 0.15710784 0.046568627
0.25637255 0.16029412 0.03627451
0.32254902 0.16470588 0.025980392
0.38823529 0.16470588 0.011764706
0.45392157 0.1627451 0.0046568627
0.52058824 0.16470588 0.0039215686
0.5870098 0.16470588 0.0039215686
0.64607843 0.16078431 0
0.69264706 0.15220588 0.0039215686
0.74068627 0.14313725 0.0039215686
0.78235294 0.15196078 0.0078431373
0.82352941 0.17058824 0.0078431373
0.8627451 0.19117647 0.0078431373
0.90441176 0.20980392 0.0039215686
0.94705882 0.23382353 0
0.95882353 0.24901961 0.00098039216
0.96911765 0.26127451 0.0022058824
0.98137255 0.27156863 0.0039215686
0.99093137 0.28186275 0.0039215686
0.99607843 0.28627451 0.0058823529
0.011764706 0.17107843 0.055882353
0.040379902 0.17322304 0.066176471
0.076593137 0.18284314 0.079901961
0.11084559 0.18578431 0.079411765
0.14828431 0.18970588 0.065196078
0.19019608 0.19368873 0.050490196
0.24718137 0.20098039 0.03627451
0.31109069 0.20606618 0.025490196
0.3754902 0.21029412 0.011764706
0.44411765 0.21636029 0.0078431373
0.51213235 0.22205882 0.0078431373
0.57696078 0.22205882 0.0048406863
0.64044118 0.22205882 0.00049019608
0.69172794 0.21862745 0.0039215686
0.73627451 0.21470588 0.0078431373
0.78204657 0.21795343 0.0078431373
0.82303922 0.23431373 0.0078431373
0.86029412 0.25226716 0.0078431373
0.89803922 0.27009804 0.0039215686
0.93872549 0.27689951 0.0039215686
0.95857843 0.28627451 0.0039215686
0.96819853 0.29656863 0.0048406863
0.97806373 0.30686275 0.0078431373
0.98921569 0.31715686 0.0078431373
0.99215686 0.32401961 0.0083333333
0.011764706 0.22254902 0.076470588
0.029044118 0.21862745 0.082843137
0.056127451 0.21666667 0.087009804
0.090686275 0.21666667 0.085784314
0.12794118 0.21911765 0.072058824
0.17696078 0.22806373 0.056862745
0.22916667 0.24215686 0.037009804
0.28921569 0.25098039 0.022058824
0.35490196 0.25490196 0.011764706
0.43051471 0.26458333 0.011764706
0.50098039 0.27352941 0.011519608
0.56372549 0.27610294 0.0078431373
0.62843137 0.28039216 0.0039215686
0.68872549 0.28039216 0.0039215686
0.73333333 0.27745098 0.0078431373
0.7754902 0.28186275 0.0078431373
0.81666667 0.29215686 0.0078431373
0.85330882 0.30735294 0.0078431373
0.89117647 0.31764706 0.0068627451
0.92879902 0.32156863 0.0078431373
0.95343137 0.32745098 0.0078431373
0.96776961 0.33382353 0.0078431373
0.9754902 0.34411765 0.0078431373
0.98578431 0.35477941 0.010784314
0.99215686 0.36470588 0.011764706
0.0078431373 0.27401961 0.091666667
0.024509804 0.26672794 0.095588235
0.043627451 0.25588235 0.093504902
0.066360294 0.24773284 0.090196078
0.10686275 0.25343137 0.079166667
0.16207108 0.26568627 0.063419118
0.21384804 0.27941176 0.043014706
0.26415441 0.28970588 0.018504902
0.33970588 0.30147059 0.011764706
0.41960784 0.3151348 0.011764706
0.48676471 0.32205882 0.0078431373
0.55226716 0.33235294 0.0044117647
0.61421569 0.33676471 0.0039215686
0.67579657 0.33805147 0.0039215686
0.72401961 0.33492647 0.0057598039
0.76666667 0.33670343 0.0072916667
0.80637255 0.34852941 0.006372549
0.84601716 0.35882353 0.0078431373
0.88419118 0.3627451 0.0082107843
0.91991422 0.36403186 0.011764706
0.94901961 0.36862745 0.011764706
0.96911765 0.375 0.011764706
0.97941176 0.38529412 0.011764706
0.98578431 0.39558824 0.011764706
0.99215686 0.4004902 0.0078431373
0.0078431373 0.31764706 0.098039216
0.022058824 0.31127451 0.099509804
0.037254902 0.29705882 0.098039216
0.050490196 0.29019608 0.098039216
0.088235294 0.29215686 0.094117647
0.14754902 0.31029412 0.085784314
0.19901961 0.32352941 0.064705882
0.24803922 0.33088235 0.045588235
0.3254902 0.34901961 0.023529412
0.40294118 0.36078431 0.013235294
0.46470588 0.36862745 0.0068627451
0.52990196 0.37990196 0.0039215686
0.59607843 0.38823529 0.0039215686
0.65784314 0.39215686 0.0039215686
0.7127451 0.39215686 0.0039215686
0.75882353 0.39362745 0.0039215686
0.8 0.40392157 0.0039215686
0.8372549 0.40392157 0.0078431373
0.8745098 0.40784314 0.011764706
0.91176471 0.40784314 0.015686275
0.94313725 0.41176471 0.015686275
0.96568627 0.41617647 0.011764706
0.98235294 0.42647059 0.011764706
0.98823529 0.43284314 0.011764706
0.99215686 0.43529412 0.0078431373
0.0039215686 0.35882353 0.10196078
0.018137255 0.35245098 0.10441176
0.027083333 0.34558824 0.10833333
0.037561275 0.34166667 0.11207108
0.067647059 0.34117647 0.11348039
0.125 0.35410539 0.11078431
0.1807598 0.36568627 0.10183824
0.2377451 0.37205882 0.086764706
0.30637255 0.38627451 0.055882353
0.37205882 0.39803922 0.01317402
0.43480392 0.40784314 0.0011029412
0.50539216 0.42107843 0.0039215686
0.57426471 0.43137255 0.0051470588
0.6372549 0.4377451 0.0039215686
0.69607843 0.44362745 0.00098039216
0.74852941 0.44509804 0.0014705882
0.78970588 0.44901961 0.0039215686
0.82843137 0.45147059 0.010294118
0.86715686 0.45183824 0.014583333
0.90196078 0.45294118 0.019117647
0.93676471 0.45416667 0.018872549
0.96323529 0.45704657 0.015196078
0.97941176 0.46409314 0.011764706
0.98915441 0.46709559 0.010294118
0.99215686 0.47009804 0.0078431373
0 0.4 0.10588235
0.0068627451 0.39816176 0.11323529
0.010784314 0.39607843 0.12279412
0.01629902 0.38958333 0.12647059
0.035784314 0.38578431 0.12745098
0.089338235 0.39558824 0.12659314
0.15514706 0.40220588 0.12745098
0.21862745 0.40833333 0.12598039
0.28137255 0.41862745 0.093137255
0.34607843 0.43284314 0.042892157
0.4127451 0.44705882 0.020098039
0.48480392 0.45735294 0.018627451
0.55098039 0.46470588 0.011764706
0.6127451 0.47401961 0.0039215686
0.6745098 0.48210784 0.0039215686
0.73480392 0.48737745 0.0020833333
0.77843137 0.49313725 0.0078431373
0.81776961 0.49411765 0.011764706
0.85686275 0.49411765 0.015686275
0.89509804 0.49411765 0.018259804
0.92843137 0.49411765 0.018627451
0.95821078 0.49448529 0.015196078
0.97941176 0.5002451 0.011029412
0.98970588 0.50306373 0.0078431373
0.99313725 0.50490196 0.0078431373
0 0.44509804 0.1245098
0 0.44509804 0.13216912
0.00049019608 0.44117647 0.14019608
0.00049019608 0.43682598 0.140625
0.0012254902 0.42745098 0.14068627
0.06317402 0.43033088 0.14411765
0.13223039 0.43676471 0.14460784
0.20147059 0.44166667 0.14442402
0.26372549 0.4495098 0.12058824
0.32941176 0.46372549 0.090686275
0.39473039 0.47794118 0.073161765
0.46421569 0.49123775 0.041789216
0.52671569 0.49852941 0.011764706
0.59215686 0.50876225 0.0039215686
0.65392157 0.51519608 0.0039215686
0.71421569 0.52371324 0.0052083333
0.76176471 0.52794118 0.0078431373
0.80637255 0.53137255 0.011764706
0.84656863 0.53186275 0.015686275
0.88480392 0.53186275 0.015686275
0.91813725 0.53529412 0.015686275
0.95098039 0.53529412 0.012193627
0.97843137 0.53823529 0.0088235294
0.99344363 0.54099265 0.0065563725
0.99607843 0.54313725 0.0044117647
0 0.49019608 0.15098039
0 0.48897059 0.15612745
0 0.48529412 0.16078431
0 0.47892157 0.16446078
0.0078431373 0.47058824 0.16568627
0.053921569 0.47058824 0.16470588
0.12107843 0.47401961 0.16470588
0.18333333 0.47647059 0.16004902
0.24705882 0.48431373 0.14901961
0.30882353 0.49583333 0.13872549
0.37156863 0.50882353 0.12254902
0.43970588 0.52083333 0.069362745
0.50490196 0.53333333 0.01372549
0.56764706 0.53970588 0.0058823529
0.63333333 0.55 0.0078431373
0.69362745 0.55882353 0.0078431373
0.74117647 0.5627451 0.011764706
0.78946078 0.56593137 0.011764706
0.83333333 0.56862745 0.014215686
0.8745098 0.57058824 0.015686275
0.90784314 0.57254902 0.012745098
0.94460784 0.5747549 0.011519608
0.97696078 0.57647059 0.006372549
0.99681373 0.58039216 0.0039215686
0.99803922 0.58039216 0.0039215686
0 0.53529412 0.17352941
0 0.53137255 0.17598039
0.0013480392 0.52647059 0.18137255
0.0043504902 0.51960784 0.18529412
0.014215686 0.51372549 0.18921569
0.049509804 0.51127451 0.18872549
0.11127451 0.51127451 0.18492647
0.175 0.51127451 0.18155637
0.23921569 0.51127451 0.18186275
0.29675245 0.52371324 0.17530637
0.35833333 0.53578431 0.16421569
0.42401961 0.5495098 0.10680147
0.48921569 0.55980392 0.057352941
0.55189951 0.57015931 0.029840686
0.61960784 0.58345588 0.018259804
0.67696078 0.59332108 0.0083333333
0.725 0.59362745 0.011764706
0.77383578 0.59785539 0.011764706
0.81911765 0.60159314 0.011764706
0.86029412 0.60582108 0.011764706
0.89754902 0.60931373 0.011764706
0.93088235 0.61323529 0.0078431373
0.96813725 0.61629902 0.0039215686
0.99969363 0.62107843 0
1 0.62107843 0
0 0.57254902 0.19019608
0.0018382353 0.57009804 0.19473039
0.0039215686 0.56397059 0.20196078
0.0078431373 0.55821078 0.20330882
0.010784314 0.55294118 0.20588235
0.036151961 0.54901961 0.20551471
0.1 0.54607843 0.20196078
0.17438725 0.54215686 0.20919118
0.24215686 0.54509804 0.2127451
0.2942402 0.55245098 0.20306373
0.34803922 0.5627451 0.19166667
0.41066176 0.57303922 0.15392157
0.47254902 0.58333333 0.11078431
0.53737745 0.59460784 0.087377451
0.60220588 0.60857843 0.065441176
0.66029412 0.61911765 0.030147059
0.71176471 0.62843137 0.0078431373
0.76041667 0.63198529 0.0082107843
0.80588235 0.6370098 0.0095588235
0.85 0.64276961 0.011764706
0.88578431 0.64411765 0.010294118
0.92058824 0.64718137 0.0074754902
0.95784314 0.65098039 0.0039215686
0.98823529 0.65196078 0.0029411765
0.99607843 0.65196078 0.0029411765
0.0014705882 0.60980392 0.22009804
0.0024509804 0.6088848 0.22009804
0.0049019608 0.60196078 0.22291667
0.0078431373 0.59675245 0.22254902
0.0078431373 0.59142157 0.22254902
0.016053922 0.58609069 0.22126225
0.094117647 0.58125 0.22696078
0.17401961 0.5778799 0.23780637
0.24460784 0.57696078 0.24362745
0.29515931 0.58333333 0.23333333
0.34215686 0.58970588 0.21911765
0.39822304 0.6 0.19932598
0.45980392 0.61029412 0.1622549
0.52156863 0.62089461 0.13805147
0.58333333 0.63333333 0.11041667
0.63817402 0.64362745 0.066666667
0.69509804 0.65784314 0.025490196
0.74803922 0.66715686 0.0018382353
0.79460784 0.67107843 0.0099264706
0.83970588 0.675 0.010477941
0.875 0.67892157 0.006372549
0.91158088 0.68069853 0.0073529412
0.94791667 0.68284314 0.0039215686
0.97401961 0.68676471 0.0039215686
0.98823529 0.68676471 0.0039215686
0.0039215686 0.64705882 0.25098039
0.0039215686 0.64460784 0.25098039
0.0039215686 0.63921569 0.24705882
0.0078431373 0.63529412 0.24705882
0.01372549 0.62941176 0.24705882
0.053431373 0.62696078 0.25098039
0.11470588 0.61666667 0.25784314
0.19215686 0.61421569 0.26813725
0.25882353 0.61176471 0.2745098
0.30392157 0.61813725 0.26176471
0.34607843 0.6245098 0.24607843
0.39362745 0.63088235 0.23235294
0.44705882 0.64117647 0.21176471
0.50490196 0.64754902 0.18333333
0.56666667 0.65784314 0.15882353
0.6245098 0.66960784 0.12352941
0.67843137 0.68235294 0.08627451
0.73382353 0.69264706 0.061764706
0.78137255 0.70294118 0.02745098
0.83284314 0.70931373 0.0044117647
0.86862745 0.71176471 0.0058823529
0.90735294 0.71421569 0.0039215686
0.93823529 0.71764706 0
0.96127451 0.71764706 0.0039215686
0.98431373 0.72156863 0.0039215686
0.0039215686 0.68039216 0.28186275
0.003002451 0.67886029 0.27640931
0.00036764706 0.67696078 0.27156863
0.0073529412 0.67254902 0.27156863
0.045588235 0.66936275 0.27598039
0.11127451 0.66421569 0.28235294
0.16029412 0.65784314 0.28578431
0.21519608 0.64993873 0.29264706
0.2754902 0.64901961 0.29754902
0.32058824 0.65202206 0.2872549
0.36323529 0.65723039 0.27696078
0.40441176 0.6622549 0.27126225
0.44754902 0.66813725 0.26519608
0.50098039 0.67843137 0.25294118
0.55698529 0.68688725 0.23308824
0.6127451 0.69656863 0.20588235
0.66568627 0.70686275 0.17254902
0.71623775 0.71715686 0.14803922
0.76470588 0.72708333 0.11715686
0.81617647 0.73627451 0.072365196
0.85784314 0.74264706 0.041911765
0.90098039 0.74852941 0.00030637255
0.93039216 0.75147059 0.0053921569
0.95735294 0.75245098 0.010294118
0.98431373 0.75245098 0.010294118
0.0049019608 0.7127451 0.30784314
0.0067401961 0.7127451 0.3060049
0.0093137255 0.70980392 0.29803922
0.031372549 0.70882353 0.29767157
0.098039216 0.70490196 0.30686275
0.16421569 0.70061275 0.31666667
0.20882353 0.69485294 0.32058824
0.24509804 0.68811275 0.32022059
0.29509804 0.68235294 0.32058824
0.3372549 0.68590686 0.31482843
0.37843137 0.68946078 0.31372549
0.41875 0.69313725 0.31372549
0.45980392 0.69901961 0.30980392
0.50882353 0.70882353 0.30281863
0.55367647 0.71568627 0.29607843
0.5995098 0.725 0.28321078
0.65392157 0.73529412 0.25784314
0.70147059 0.74264706 0.23333333
0.75122549 0.75269608 0.20882353
0.79693627 0.7622549 0.17830882
0.84362745 0.76911765 0.12598039
0.89019608 0.77585784 0.090686275
0.92622549 0.77941176 0.065686275
0.95735294 0.78333333 0.054411765
0.98431373 0.78333333 0.03627451
0.076960784 0.74705882 0.34656863
0.086090686 0.74705882 0.34656863
0.10992647 0.74362745 0.34313725
0.13088235 0.74019608 0.34264706
0.16519608 0.73946078 0.33970588
0.21911765 0.73572304 0.34754902
0.26029412 0.7314951 0.35147059
0.29215686 0.72598039 0.35275735
0.32303922 0.71960784 0.35441176
0.35784314 0.72009804 0.35704657
0.39803922 0.72401961 0.35845588
0.43327206 0.72702206 0.35533088
0.47009804 0.72990196 0.35294118
0.51568627 0.73970588 0.34699755
0.55686275 0.74656863 0.34276961
0.59803922 0.75294118 0.3372549
0.64362745 0.75980392 0.32254902
0.69117647 0.77009804 0.30147059
0.73786765 0.77990196 0.27732843
0.78327206 0.78676471 0.25294118
0.83014706 0.79656863 0.21519608
0.87696078 0.80251225 0.18976716
0.91813725 0.8067402 0.16568627
0.95392157 0.81176471 0.14705882
0.98039216 0.81421569 0.13284314
0.19607843 0.78235294 0.39411765
0.20637255 0.78235294 0.39289216
0.22303922 0.77990196 0.39215686
0.23651961 0.775 0.39019608
0.25490196 0.77254902 0.38627451
0.27794118 0.77058824 0.38455882
0.31029412 0.76862745 0.39313725
0.34289216 0.76470588 0.40269608
0.36862745 0.76078431 0.40392157
0.39240196 0.75686275 0.40392157
0.4245098 0.75735294 0.40539216
0.45539216 0.75882353 0.40220588
0.48529412 0.7627451 0.39705882
0.52328431 0.76715686 0.39387255
0.56078431 0.7745098 0.39019608
0.59803922 0.78235294 0.38480392
0.63921569 0.79019608 0.37843137
0.68161765 0.79656863 0.36372549
0.72745098 0.80637255 0.34264706
0.77230392 0.81348039 0.32230392
0.81764706 0.82156863 0.30980392
0.8629902 0.82769608 0.28897059
0.90784314 0.83284314 0.26470588
0.94901961 0.83995098 0.24411765
0.98039216 0.84509804 0.22745098
0.29362745 0.81715686 0.44558824
0.29607843 0.81715686 0.44589461
0.30551471 0.81715686 0.44987745
0.31323529 0.81329657 0.44607843
0.32892157 0.80955882 0.44436275
0.34558824 0.809375 0.44656863
0.36875 0.80931373 0.45036765
0.39001225 0.80410539 0.45343137
0.40980392 0.79754902 0.45294118
0.43431373 0.79381127 0.45165441
0.45980392 0.79362745 0.45257353
0.49068627 0.79362745 0.45343137
0.52156863 0.79803922 0.45833333
0.54454657 0.80196078 0.45784314
0.5745098 0.8057598 0.45012255
0.60716912 0.81323529 0.44117647
0.64411765 0.81764706 0.43088235
0.67892157 0.82530637 0.42058824
0.71813725 0.83382353 0.41176471
0.7627451 0.84025735 0.40484069
0.80784314 0.84852941 0.39632353
0.8533701 0.8533701 0.37591912
0.89803922 0.86029412 0.35490196
0.93872549 0.86783088 0.33480392
0.97107843 0.8754902 0.32647059
0.36568627 0.85196078 0.5
0.37107843 0.85196078 0.50392157
0.38137255 0.85416667 0.50784314
0.38872549 0.85098039 0.50784314
0.40245098 0.84705882 0.50784314
0.41764706 0.84705882 0.51213235
0.43529412 0.84705882 0.51568627
0.4504902 0.84313725 0.51360294
0.46078431 0.83529412 0.50686275
0.48419118 0.83137255 0.50968137
0.50465686 0.8252451 0.50882353
0.53823529 0.83137255 0.52205882
0.56470588 0.83921569 0.52892157
0.58529412 0.83933824 0.52647059
0.60588235 0.84313725 0.52181373
0.63284314 0.84742647 0.51323529
0.66764706 0.85196078 0.50294118
0.70306373 0.85943627 0.49620098
0.73063725 0.86470588 0.49411765
0.7692402 0.875 0.49068627
0.81176471 0.88137255 0.48186275
0.85551471 0.8872549 0.46176471
0.89117647 0.89117647 0.44313725
0.92303922 0.89656863 0.43186275
0.94705882 0.90294118 0.42647059
0.44313725 0.88823529 0.55931373
0.4495098 0.89068627 0.56813725
0.45943627 0.89178922 0.57352941
0.46470588 0.88823529 0.57322304
0.47573529 0.88823529 0.575
0.49313725 0.88823529 0.57922794
0.50343137 0.88713235 0.58137255
0.51764706 0.88676471 0.58284314
0.52647059 0.87794118 0.57892157
0.54411765 0.875 0.58082108
0.55588235 0.86617647 0.57598039
0.59166667 0.87745098 0.59773284
0.6125 0.88039216 0.59852941
0.62775735 0.87892157 0.59705882
0.64705882 0.88039216 0.59522059
0.66764706 0.88523284 0.58976716
0.69460784 0.89068627 0.58431373
0.72457108 0.89552696 0.57794118
0.75098039 0.8995098 0.57254902
0.77794118 0.90765931 0.57628676
0.81838235 0.91617647 0.56740196
0.85245098 0.91813725 0.54803922
0.88333333 0.92107843 0.53333333
0.91421569 0.92745098 0.53088235
0.94117647 0.93382353 0.52696078
0.52156863 0.9254902 0.62745098
0.52401961 0.9254902 0.62745098
0.53627451 0.92843137 0.63431373
0.53284314 0.92156863 0.62745098
0.55098039 0.92941176 0.64117647
0.55294118 0.92156863 0.63529412
0.55980392 0.91764706 0.63529412
0.5754902 0.92156863 0.64068627
0.59607843 0.9254902 0.65490196
0.60980392 0.92254902 0.65833333
0.61764706 0.91372549 0.65196078
0.63921569 0.91813725 0.66372549
0.64901961 0.91176471 0.65490196
0.66323529 0.90980392 0.65098039
0.68039216 0.90980392 0.65098039
0.70098039 0.91519608 0.65098039
0.72156863 0.92156863 0.65098039
0.74607843 0.9254902 0.64460784
0.77058824 0.92941176 0.63921569
0.79460784 0.93676471 0.64264706
0.82352941 0.94509804 0.64313725
0.85245098 0.94117647 0.61862745
0.87941176 0.94509804 0.60392157
0.91421569 0.95441176 0.60539216
0.94509804 0.96862745 0.62352941
0.062745098 0.057352941 0.059803922
0.070098039 0.053982843 0.059803922
0.098039216 0.053431373 0.064705882
0.13578431 0.06372549 0.067647059
0.17573529 0.061029412 0.067647059
0.221875 0.03560049 0.064889706
0.26960784 0.015318627 0.061642157
0.32254902 0.024019608 0.048958333
0.38431373 0.020098039 0.048039216
0.44607843 0.014705882 0.046568627
0.51176471 0.0068627451 0.041666667
0.57352941 0.0073529412 0.035294118
0.63063725 0.018872549 0.02377451
0.68743873 0.031862745 0.01372549
0.74411765 0.03627451 0.0078431373
0.79558824 0.022058824 0.0039215686
0.84852941 0.0039215686 0
0.88970588 0.019117647 0
0.92058824 0.052818627 0.0024509804
0.95490196 0.084803922 0.0039215686
0.98504902 0.11887255 0
0.99234069 0.1463848 0
0.99607843 0.17022059 0
0.99607843 0.19417892 0
1 0.21568627 0
0.061213235 0.071568627 0.062806373
0.070098039 0.068566176 0.060723039
0.098820466 0.067784926 0.060860907
0.13075214 0.07432598 0.06127451
0.17132353 0.068903186 0.06127451
0.2207644 0.051470588 0.060163909
0.26960784 0.044730392 0.055330882
0.325 0.040747549 0.050490196
0.38431373 0.037745098 0.050490196
0.44875919 0.023874081 0.047487745
0.51237745 0.0068627451 0.039414828
0.57529105 0.0059512868 0.033823529
0.63186275 0.020098039 0.0203125
0.68866422 0.031862745 0.0098728554
0.74702819 0.035523897 0.0048406863
0.79616268 0.023935355 0.0048789828
0.84761029 0.0039215686 0
0.88633578 0.02064951 0
0.91813725 0.06083027 0.00084252451
0.95116422 0.10343137 0.0039215686
0.97794118 0.14172794 0
0.99001225 0.1627451 0
0.9932598 0.18402267 0
0.99607843 0.20657935 0
0.99607843 0.22598039 0
0.058823529 0.096078431 0.067647059
0.073192402 0.095389093 0.063863358
0.1 0.092156863 0.058823529
0.12437194 0.088357843 0.052267157
0.16593137 0.085294118 0.054963235
0.21836703 0.082352941 0.05859375
0.2700674 0.079993873 0.058333333
0.32647059 0.077098652 0.055193015
