site/assets/luts/sha256-556ae2a8001dd915fc7c2b9d91c0920c66addffd0ef503e12cadb4a330f7a111.cube
# LUTr-Schema-Version: 2
# LUTr-ID: sha256-556ae2a8001dd915fc7c2b9d91c0920c66addffd0ef503e12cadb4a330f7a111
# LUTr-Title: fuji 160c +
# LUTr-Collection: Natron HaldCLUT
# LUTr-Collection-ID: natron-haldclut-presets
# LUTr-Source: https://github.com/NatronGitHub/clut
# LUTr-Retrieved: 2026-07-27
# LUTr-Source-File: submissions/natron-haldclut-presets/negative_new/fuji_160c_+.png
# LUTr-Source-Format: HALD-PNG
# LUTr-Source-SHA256: 556ae2a8001dd915fc7c2b9d91c0920c66addffd0ef503e12cadb4a330f7a111
# LUTr-License: CC-BY-SA-4.0
# LUTr-License-URL: https://github.com/NatronGitHub/clut#license
# LUTr-License-Basis: repo-license-file
# LUTr-Transform-Class: film-emulation
# LUTr-Tags: creative, film, film-emulation, hald-clut, natron, png, cube
# LUTr-Input-Color-Space: srgb
# LUTr-Input-Gamut: rec709
# LUTr-Input-Transfer: srgb
# LUTr-Output-Color-Space: srgb
# LUTr-Output-Gamut: rec709
# LUTr-Output-Transfer: srgb
# LUTr-Color-Space-Confidence: assumed-display-referred
# LUTr-Domain-Normalized: true
# LUTr-Shaper: none
# LUTr-Original-Grid: 64x64x64
# LUTr-Conversion-Grid: 25x25x25
# LUTr-Conversion-Interpolation: trilinear
# LUTr-Conversion-Method: HALD-PNG LUT image decoded at 16-bit and sampled to 25x25x25 3D CUBE
# LUTr-Conversion-Tool: LUTr scripts/convert-all-to-cube.mjs 2.0.0
# LUTr-Conversion-Date: 2026-07-27
# LUTr-Note: Preserve this metadata and the upstream license notices when redistributing.
TITLE "fuji 160c +"
LUT_3D_SIZE 5
DOMAIN_MIN 0 0 0
DOMAIN_MAX 1 1 1
0.011764706 0.015686275 0.0078431373
0.24607843 0.011764706 0.015686275
0.60980392 0.0058823529 0.011764706
0.8745098 0.0068627451 0.0039215686
0.99607843 0.28627451 0.019607843
0.0078431373 0.25 0.011764706
0.20882353 0.25784314 0.012745098
0.60098039 0.24411765 0.0039215686
0.85490196 0.28921569 0.0039215686
1 0.38431373 0
0 0.55882353 0.011764706
0.076470588 0.54117647 0.0039215686
0.55098039 0.54901961 0.0039215686
0.8127451 0.575 0
0.98823529 0.58039216 0.0058823529
0 0.76372549 0.11470588
0.23455882 0.75612745 0.13431373
0.51078431 0.75196078 0.14215686
0.74803922 0.76470588 0.15563725
0.95 0.79117647 0.18235294
0.39215686 0.95686275 0.44705882
0.45 0.95392157 0.45490196
0.57058824 0.94509804 0.4745098
0.73627451 0.95294118 0.49411765
0.87843137 0.95686275 0.5254902
0.060784314 0.053921569 0.19803922
0.28504902 0.038970588 0.20318627
0.6254902 0.011764706 0.22303922
0.87254902 0.15784314 0.2620098
0.99607843 0.33921569 0.30490196
0.015441176 0.27647059 0.22254902
0.28915441 0.28137255 0.23033088
0.62365196 0.29460784 0.23259804
0.85790441 0.3497549 0.24528186
0.99607843 0.41176471 0.28137255
0.029901961 0.57598039 0.2504902
0.25036765 0.56262255 0.24313725
0.56666667 0.56421569 0.24632353
0.81985294 0.57144608 0.22340686
0.98382353 0.59362745 0.25490196
0.16176471 0.76764706 0.30784314
0.30318627 0.76109069 0.31452206
0.53161765 0.75980392 0.32169118
0.75588235 0.75980392 0.32352941
0.95514706 0.78333333 0.34338235
0.39117647 0.9372549 0.48823529
0.46176471 0.95367647 0.50882353
0.57254902 0.94117647 0.51813725
0.74019608 0.95294118 0.54632353
0.87058824 0.95588235 0.5627451
0.16666667 0.10588235 0.5
0.35245098 0.085784314 0.51715686
0.64607843 0.066666667 0.54607843
0.87401961 0.12401961 0.52598039
1 0.33529412 0.55098039
0.17352941 0.28529412 0.50931373
0.37254902 0.29754902 0.525
0.64436275 0.33039216 0.54828431
0.8622549 0.36727941 0.55294118
0.98921569 0.4504902 0.56813725
0.16568627 0.5745098 0.54509804
0.37843137 0.58970588 0.56617647
0.63039216 0.59264706 0.57205882
0.82647059 0.60318627 0.57156863
0.98333333 0.62647059 0.57843137
0.38970588 0.79509804 0.58921569
0.47365196 0.79080882 0.58884804
0.59044118 0.78137255 0.56715686
0.77058824 0.775 0.56078431
0.96127451 0.79117647 0.56764706
0.47647059 0.93529412 0.63921569
0.49901961 0.95833333 0.63578431
0.59803922 0.95686275 0.64509804
0.74558824 0.95343137 0.65539216
0.90784314 0.96078431 0.68431373
0.40784314 0.19901961 0.74901961
0.51470588 0.1879902 0.76470588
0.70098039 0.25490196 0.7754902
0.87352941 0.31789216 0.79117647
0.99509804 0.35980392 0.75196078
0.41887255 0.34240196 0.75686275
0.50667892 0.33995098 0.75741422
0.6870098 0.39411765 0.7754902
0.86476716 0.45122549 0.79117647
0.98259804 0.47254902 0.76372549
0.31078431 0.52990196 0.74264706
0.44215686 0.55061275 0.75784314
0.64485294 0.58651961 0.77156863
0.83664216 0.62254902 0.78823529
0.97401961 0.6495098 0.7872549
0.39485294 0.78504902 0.78039216
0.47610294 0.78498775 0.78259804
0.62892157 0.78627451 0.78333333
0.80214461 0.79981618 0.79509804
0.97279412 0.81176471 0.80490196
0.53333333 0.96470588 0.81078431
0.56764706 0.96176471 0.81078431
0.66764706 0.96519608 0.81862745
0.77965686 0.94754902 0.80490196
0.94509804 0.95588235 0.8254902
0.63921569 0.43529412 0.96862745
0.67352941 0.44215686 0.96078431
0.76470588 0.4745098 0.95294118
0.88431373 0.54705882 0.95392157
0.99215686 0.59215686 0.95686275
0.6245098 0.50392157 0.95294118
0.66789216 0.51862745 0.96053922
0.75294118 0.54460784 0.95441176
0.87254902 0.60392157 0.94901961
0.98333333 0.63431373 0.95686275
0.56078431 0.62352941 0.95294118
0.62107843 0.63529412 0.94901961
0.72745098 0.65686275 0.95196078
0.86078431 0.69901961 0.94901961
0.99215686 0.71764706 0.94901961
0.50588235 0.77156863 0.95392157
0.54117647 0.76862745 0.94779412
0.64313725 0.76568627 0.9254902
0.8254902 0.81470588 0.95465686
0.97647059 0.85 0.96176471
0.54117647 0.94509804 0.9372549
0.58823529 0.9627451 0.96666667
0.68823529 0.9627451 0.95686275
0.8254902 0.96372549 0.96666667
0.97254902 0.97254902 0.97647059
