site/assets/luts/sha256-5686df75187ba07d9f659df55803ca50098111f80be99f7affed3eb877396d56.cube
# LUTr-Schema-Version: 2
# LUTr-ID: sha256-5686df75187ba07d9f659df55803ca50098111f80be99f7affed3eb877396d56
# LUTr-Title: kodak tri-x 400 ++
# LUTr-Collection: Natron HaldCLUT
# LUTr-Collection-ID: natron-haldclut-presets
# LUTr-Source: https://github.com/NatronGitHub/clut
# LUTr-Retrieved: 2026-07-27
# LUTr-Source-File: submissions/natron-haldclut-presets/negative_new/kodak_tri-x_400_++.png
# LUTr-Source-Format: HALD-PNG
# LUTr-Source-SHA256: 5686df75187ba07d9f659df55803ca50098111f80be99f7affed3eb877396d56
# LUTr-License: CC-BY-SA-4.0
# LUTr-License-URL: https://github.com/NatronGitHub/clut#license
# LUTr-License-Basis: repo-license-file
# LUTr-Transform-Class: film-emulation
# LUTr-Tags: creative, film, film-emulation, hald-clut, natron, png, cube
# LUTr-Input-Color-Space: srgb
# LUTr-Input-Gamut: rec709
# LUTr-Input-Transfer: srgb
# LUTr-Output-Color-Space: srgb
# LUTr-Output-Gamut: rec709
# LUTr-Output-Transfer: srgb
# LUTr-Color-Space-Confidence: assumed-display-referred
# LUTr-Domain-Normalized: true
# LUTr-Shaper: none
# LUTr-Original-Grid: 64x64x64
# LUTr-Conversion-Grid: 25x25x25
# LUTr-Conversion-Interpolation: trilinear
# LUTr-Conversion-Method: HALD-PNG LUT image decoded at 16-bit and sampled to 25x25x25 3D CUBE
# LUTr-Conversion-Tool: LUTr scripts/convert-all-to-cube.mjs 2.0.0
# LUTr-Conversion-Date: 2026-07-27
# LUTr-Note: Preserve this metadata and the upstream license notices when redistributing.
TITLE "kodak tri-x 400 ++"
LUT_3D_SIZE 5
DOMAIN_MIN 0 0 0
DOMAIN_MAX 1 1 1
0.14509804 0.14509804 0.14509804
0.14901961 0.14901961 0.14901961
0.17058824 0.17058824 0.17058824
0.24803922 0.24803922 0.24803922
0.42745098 0.42745098 0.42745098
0.1627451 0.1627451 0.1627451
0.19411765 0.19411765 0.19411765
0.2627451 0.2627451 0.2627451
0.34803922 0.34803922 0.34803922
0.50980392 0.50980392 0.50980392
0.31176471 0.31176471 0.31176471
0.29264706 0.29264706 0.29264706
0.42647059 0.42647059 0.42647059
0.5754902 0.5754902 0.5754902
0.74901961 0.74901961 0.74901961
0.62156863 0.62156863 0.62156863
0.58333333 0.58333333 0.58333333
0.63137255 0.63137255 0.63137255
0.78235294 0.78235294 0.78235294
0.89215686 0.89215686 0.89215686
0.90588235 0.90588235 0.90588235
0.91470588 0.91470588 0.91470588
0.90980392 0.90980392 0.90980392
0.95686275 0.95686275 0.95686275
0.97254902 0.97254902 0.97254902
0.15686275 0.15686275 0.15686275
0.1745098 0.1745098 0.1745098
0.22058824 0.22058824 0.22058824
0.27058824 0.27058824 0.27058824
0.41960784 0.41960784 0.41960784
0.19117647 0.19117647 0.19117647
0.21795343 0.21795343 0.21795343
0.26813725 0.26813725 0.26813725
0.35171569 0.35171569 0.35171569
0.50686275 0.50686275 0.50686275
0.39411765 0.39411765 0.39411765
0.37928922 0.37928922 0.37928922
0.45392157 0.45392157 0.45392157
0.59595588 0.59595588 0.59595588
0.73480392 0.73480392 0.73480392
0.6627451 0.6627451 0.6627451
0.64313725 0.64313725 0.64313725
0.64620098 0.64620098 0.64620098
0.7817402 0.7817402 0.7817402
0.89509804 0.89509804 0.89509804
0.9254902 0.9254902 0.9254902
0.92156863 0.92156863 0.92156863
0.9127451 0.9127451 0.9127451
0.95392157 0.95392157 0.95392157
0.95686275 0.95686275 0.95686275
0.21960784 0.21960784 0.21960784
0.25588235 0.25588235 0.25588235
0.34901961 0.34901961 0.34901961
0.54362745 0.54362745 0.54362745
0.64313725 0.64313725 0.64313725
0.25588235 0.25588235 0.25588235
0.30343137 0.30343137 0.30343137
0.39362745 0.39362745 0.39362745
0.56813725 0.56813725 0.56813725
0.64705882 0.64705882 0.64705882
0.45980392 0.45980392 0.45980392
0.49411765 0.49411765 0.49411765
0.51372549 0.51372549 0.51372549
0.59191176 0.59191176 0.59191176
0.7 0.7 0.7
0.77009804 0.77009804 0.77009804
0.76421569 0.76421569 0.76421569
0.7252451 0.7252451 0.7252451
0.80747549 0.80747549 0.80747549
0.90147059 0.90147059 0.90147059
0.94117647 0.94117647 0.94117647
0.93284314 0.93284314 0.93284314
0.93137255 0.93137255 0.93137255
0.95147059 0.95147059 0.95147059
0.97843137 0.97843137 0.97843137
0.40196078 0.40196078 0.40196078
0.44289216 0.44289216 0.44289216
0.56127451 0.56127451 0.56127451
0.66372549 0.66372549 0.66372549
0.79117647 0.79117647 0.79117647
0.46764706 0.46764706 0.46764706
0.50882353 0.50882353 0.50882353
0.59901961 0.59901961 0.59901961
0.69803922 0.69803922 0.69803922
0.83455882 0.83455882 0.83455882
0.50490196 0.50490196 0.50490196
0.56372549 0.56372549 0.56372549
0.6627451 0.6627451 0.6627451
0.75379902 0.75379902 0.75379902
0.89068627 0.89068627 0.89068627
0.79485294 0.79485294 0.79485294
0.81060049 0.81060049 0.81060049
0.81960784 0.81960784 0.81960784
0.84258578 0.84258578 0.84258578
0.92205882 0.92205882 0.92205882
0.97647059 0.97647059 0.97647059
0.97132353 0.97132353 0.97132353
0.96568627 0.96568627 0.96568627
0.96960784 0.96960784 0.96960784
0.97254902 0.97254902 0.97254902
0.78823529 0.78823529 0.78823529
0.79901961 0.79901961 0.79901961
0.84901961 0.84901961 0.84901961
0.89803922 0.89803922 0.89803922
0.94117647 0.94117647 0.94117647
0.80784314 0.80784314 0.80784314
0.82426471 0.82426471 0.82426471
0.86323529 0.86323529 0.86323529
0.89877451 0.89877451 0.89877451
0.92941176 0.92941176 0.92941176
0.8254902 0.8254902 0.8254902
0.83823529 0.83823529 0.83823529
0.8745098 0.8745098 0.8745098
0.92254902 0.92254902 0.92254902
0.95294118 0.95294118 0.95294118
0.8745098 0.8745098 0.8745098
0.87745098 0.87745098 0.87745098
0.88431373 0.88431373 0.88431373
0.94509804 0.94509804 0.94509804
0.9754902 0.9754902 0.9754902
0.97647059 0.97647059 0.97647059
0.94803922 0.94803922 0.94803922
0.97254902 0.97254902 0.97254902
0.98431373 0.98431373 0.98431373
0.98039216 0.98039216 0.98039216
