site/assets/luts/sha256-0e73f4e285129ee944a7dae6645a7ecd6b830ee667946979fed35f16c241eb73.cube
# LUTr-Schema-Version: 2
# LUTr-ID: sha256-0e73f4e285129ee944a7dae6645a7ecd6b830ee667946979fed35f16c241eb73
# LUTr-Title: fuji fp-100c negative +++
# LUTr-Collection: Natron HaldCLUT
# LUTr-Collection-ID: natron-haldclut-presets
# LUTr-Source: https://github.com/NatronGitHub/clut
# LUTr-Retrieved: 2026-07-27
# LUTr-Source-File: submissions/natron-haldclut-presets/instant_pro/fuji_fp-100c_negative_+++.png
# LUTr-Source-Format: HALD-PNG
# LUTr-Source-SHA256: 0e73f4e285129ee944a7dae6645a7ecd6b830ee667946979fed35f16c241eb73
# LUTr-License: CC-BY-SA-4.0
# LUTr-License-URL: https://github.com/NatronGitHub/clut#license
# LUTr-License-Basis: repo-license-file
# LUTr-Transform-Class: film-emulation
# LUTr-Tags: creative, film, film-emulation, hald-clut, natron, png, cube
# LUTr-Input-Color-Space: srgb
# LUTr-Input-Gamut: rec709
# LUTr-Input-Transfer: srgb
# LUTr-Output-Color-Space: srgb
# LUTr-Output-Gamut: rec709
# LUTr-Output-Transfer: srgb
# LUTr-Color-Space-Confidence: assumed-display-referred
# LUTr-Domain-Normalized: true
# LUTr-Shaper: none
# LUTr-Original-Grid: 64x64x64
# LUTr-Conversion-Grid: 25x25x25
# LUTr-Conversion-Interpolation: trilinear
# LUTr-Conversion-Method: HALD-PNG LUT image decoded at 16-bit and sampled to 25x25x25 3D CUBE
# LUTr-Conversion-Tool: LUTr scripts/convert-all-to-cube.mjs 2.0.0
# LUTr-Conversion-Date: 2026-07-27
# LUTr-Note: Preserve this metadata and the upstream license notices when redistributing.
TITLE "fuji fp-100c negative +++"
LUT_3D_SIZE 9
DOMAIN_MIN 0 0 0
DOMAIN_MAX 1 1 1
0.20392157 0.14901961 0.21960784
0.22303922 0.14901961 0.22303922
0.26078431 0.14901961 0.22352941
0.33676471 0.15686275 0.22352941
0.46470588 0.15294118 0.21960784
0.63088235 0.17009804 0.22352941
0.79313725 0.24215686 0.21960784
0.91960784 0.33480392 0.21960784
1 0.43921569 0.22352941
0.20784314 0.17205882 0.22745098
0.22303922 0.17555147 0.22745098
0.26470588 0.17291667 0.2245098
0.35067402 0.178125 0.22352941
0.48406863 0.1875 0.22745098
0.64626225 0.20226716 0.22352941
0.80098039 0.26421569 0.21568627
0.91568627 0.36519608 0.2161152
0.99607843 0.43039216 0.21568627
0.20392157 0.20686275 0.23137255
0.22352941 0.21764706 0.23566176
0.26470588 0.22769608 0.22426471
0.36960784 0.24117647 0.22352941
0.51078431 0.25784314 0.21960784
0.66580882 0.29595588 0.21568627
0.80784314 0.35612745 0.21176471
0.91911765 0.42990196 0.21311275
0.99901961 0.51470588 0.22352941
0.21421569 0.29754902 0.25098039
0.23480392 0.30147059 0.25343137
0.27892157 0.31911765 0.25098039
0.37401961 0.36072304 0.23082108
0.54166667 0.40171569 0.20931373
0.69215686 0.43088235 0.20692402
0.81752451 0.47990196 0.19718137
0.92714461 0.52598039 0.20177696
0.97647059 0.56176471 0.22205882
0.21568627 0.41568627 0.2745098
0.2502451 0.42745098 0.28210784
0.29558824 0.43382353 0.27647059
0.38088235 0.47818627 0.26813725
0.54411765 0.52843137 0.23137255
0.69754902 0.5747549 0.20833333
0.82352941 0.61029412 0.19803922
0.92671569 0.62818627 0.20833333
0.99803922 0.65882353 0.23921569
0.24607843 0.55637255 0.3127451
0.27205882 0.55637255 0.3127451
0.34117647 0.56715686 0.32242647
0.42990196 0.59117647 0.32506127
0.5372549 0.63455882 0.29901961
0.68578431 0.67794118 0.26568627
0.83823529 0.72990196 0.21531863
0.94001225 0.72990196 0.25343137
0.98823529 0.73627451 0.30637255
0.36078431 0.69019608 0.38333333
0.38529412 0.69411765 0.3872549
0.4379902 0.69411765 0.39828431
0.5122549 0.70551471 0.40784314
0.59068627 0.73431373 0.40686275
0.69803922 0.76127451 0.39105392
0.81568627 0.79117647 0.37352941
0.96188725 0.81421569 0.36078431
0.99607843 0.81470588 0.36666667
0.56029412 0.79803922 0.49607843
0.56366422 0.80196078 0.50343137
0.59068627 0.80147059 0.50772059
0.64754902 0.80539216 0.51783088
0.7122549 0.81887255 0.52720588
0.76893382 0.83805147 0.52726716
0.85833333 0.85196078 0.51568627
0.94656863 0.86329657 0.51133578
0.99607843 0.86764706 0.50392157
0.78431373 0.89019608 0.60392157
0.78823529 0.88627451 0.60441176
0.80686275 0.88627451 0.60784314
0.8495098 0.89019608 0.61960784
0.88039216 0.89411765 0.62352941
0.89362745 0.89117647 0.61127451
0.95294118 0.90588235 0.62254902
0.98823529 0.91764706 0.61960784
1 0.91764706 0.62352941
0.21176471 0.15294118 0.23529412
0.22696078 0.15294118 0.23137255
0.25784314 0.14607843 0.22708333
0.35067402 0.16292892 0.2372549
0.47990196 0.16470588 0.24264706
0.64001225 0.18186275 0.24656863
0.79607843 0.23039216 0.24656863
0.91519608 0.33480392 0.2504902
0.99215686 0.43137255 0.26127451
0.21519608 0.17205882 0.23872549
0.21998315 0.17205882 0.23480392
0.26470588 0.17598039 0.23861826
0.35806526 0.17974112 0.23872549
0.49117647 0.19117647 0.2421875
0.65408241 0.21488971 0.24264706
0.79603248 0.27647059 0.24656863
0.91487439 0.36519608 0.24963235
0.99172794 0.44313725 0.25784314
0.21568627 0.21764706 0.24607843
0.23077512 0.21764706 0.24575674
0.27156863 0.23161765 0.24558824
0.37731311 0.24595588 0.23913909
0.5216299 0.26464461 0.24025735
0.67696078 0.30196078 0.24264706
0.81525735 0.35628064 0.23970588
0.92136949 0.4342065 0.24624694
0.98823529 0.49264706 0.2622549
0.23088235 0.30539216 0.26617647
0.2468367 0.31145833 0.26881127
0.28627451 0.3282935 0.2682598
0.39509804 0.36672794 0.25686275
0.55294118 0.40808824 0.23734681
0.6988894 0.43662684 0.22813266
0.82241115 0.47005208 0.2245098
0.92650888 0.52205882 0.23845741
0.99411765 0.58333333 0.26568627
0.2370098 0.42916667 0.28823529
0.25542279 0.42938113 0.29166667
0.31715686 0.45349265 0.29558824
0.39917279 0.48112745 0.28636642
0.55110294 0.53529412 0.25245098
0.71078431 0.58808211 0.22147672
0.83088235 0.60882353 0.22303922
0.93088235 0.63137255 0.24264706
0.99019608 0.65318627 0.27377451
0.25980392 0.56243873 0.32647059
0.29908088 0.56633732 0.33186275
0.35481005 0.57169118 0.33970588
0.44117647 0.59186581 0.34209559
0.54249387 0.63455882 0.32132353
0.69051011 0.6835095 0.28761489
0.83137255 0.72003676 0.26706495
0.94019608 0.73382353 0.29656863
0.99154412 0.7377451 0.32732843
0.36176471 0.69019608 0.39460784
0.39946385 0.69244792 0.40277267
0.44788603 0.69761029 0.41130515
0.5213848 0.70551471 0.42605699
0.60269608 0.73284314 0.42843137
0.69442402 0.76311275 0.40863971
0.83109681 0.79093137 0.38382353
0.95441176 0.81017157 0.39129902
0.99607843 0.80980392 0.41384804
0.54895833 0.79754902 0.49515931
0.56764706 0.79761029 0.4995098
0.59852941 0.80179228 0.51148897
0.64656863 0.8095818 0.52930453
0.71271446 0.81712623 0.53431373
0.76930147 0.83627451 0.53825827
0.85494792 0.84891238 0.53120404
0.95098039 0.86372549 0.52336091
0.99607843 0.86764706 0.51954657
0.77205882 0.88235294 0.5995098
0.78125 0.88278186 0.60349265
0.81715686 0.89007353 0.61433824
0.8372549 0.88627451 0.61568627
0.88921569 0.89387255 0.63063725
0.91109069 0.89558824 0.62352941
0.94705882 0.90588235 0.62352941
0.98523284 0.91464461 0.62395833
1 0.92156863 0.63137255
0.21568627 0.14509804 0.25392157
0.24473039 0.15 0.26078431
0.27328431 0.15980392 0.25784314
0.36568627 0.16470588 0.26568627
0.50980392 0.16470588 0.28235294
0.67598039 0.15073529 0.29105392
0.81372549 0.22843137 0.30073529
0.92683824 0.32830882 0.31605392
0.99705882 0.43921569 0.33823529
0.21960784 0.17291667 0.26433824
0.23549326 0.17238051 0.26568627
0.28324142 0.18210784 0.2682598
0.36796875 0.1904565 0.2712163
0.51764706 0.19558824 0.28560049
0.68828125 0.21128983 0.3
0.81853554 0.27417279 0.30392157
0.92352941 0.36911765 0.31637561
0.99215686 0.45343137 0.3372549
0.21568627 0.22132353 0.27647059
0.24175858 0.22833946 0.28134191
0.28946078 0.24019608 0.28357843
0.4 0.25971201 0.28195466
0.54117647 0.27745098 0.29007353
0.68707108 0.30726103 0.29607843
0.82328431 0.36017157 0.30465686
0.92696078 0.43737745 0.31541054
0.99607843 0.49583333 0.33039216
0.23982843 0.30784314 0.29558824
0.2551777 0.31925551 0.30281863
0.31029412 0.33943015 0.30591299
0.41113664 0.37418811 0.30183824
0.57028186 0.40765931 0.29117647
0.7057598 0.42604167 0.28933824
0.82882966 0.47398897 0.29509804
0.93088235 0.52598039 0.31511949
0.98970588 0.57610294 0.34362745
0.28039216 0.4495098 0.33284314
0.29246324 0.4504902 0.33161765
0.34019608 0.45992647 0.33406863
0.41672794 0.49166667 0.33241422
0.56764706 0.54632353 0.31838235
0.72132353 0.5846201 0.2942402
0.83137255 0.60294118 0.30490196
0.93284314 0.62818627 0.32107843
0.98088235 0.64509804 0.34803922
0.30257353 0.5745098 0.3692402
0.34238664 0.58169424 0.37726716
0.38921569 0.58921569 0.38137255
0.46360294 0.60274203 0.38590686
0.56550245 0.64025735 0.38265931
0.69963235 0.68362439 0.36360294
0.8375 0.72349877 0.34181985
0.94264706 0.72893689 0.35744485
0.97696078 0.73566176 0.37977941
0.39313725 0.69411765 0.42843137
0.41194853 0.70193015 0.42843137
0.46691176 0.70753676 0.44338235
0.54264706 0.71372549 0.45998775
0.61470588 0.73823529 0.46384804
0.7075674 0.76467525 0.45477941
0.81979167 0.79117647 0.43964461
0.94463848 0.80309436 0.44454657
1 0.81372549 0.44901961
0.57107843 0.80183824 0.51813725
0.57028186 0.80931373 0.52216605
0.61286765 0.80897672 0.52990196
0.66216299 0.81323529 0.54598652
0.71813725 0.81930147 0.55428922
0.77264093 0.8341299 0.55343137
0.85202206 0.84813113 0.54684436
0.95068934 0.86372549 0.54526654
0.99607843 0.87156863 0.54558824
0.78431373 0.89019608 0.61078431
0.78958333 0.88897059 0.61053922
0.8127451 0.89117647 0.61568627
0.8377451 0.88627451 0.61960784
0.87843137 0.89019608 0.62745098
0.91580882 0.89448529 0.63137255
0.95465686 0.90588235 0.63431373
0.98345588 0.91372549 0.63051471
1 0.9245098 0.63823529
0.24558824 0.14117647 0.31078431
0.27910539 0.14509804 0.31470588
0.34203431 0.15686275 0.32254902
0.40588235 0.17647059 0.325
0.53137255 0.18676471 0.34338235
0.7495098 0.17689951 0.38327206
0.86764706 0.21262255 0.38627451
0.95459559 0.30343137 0.40294118
0.99607843 0.44705882 0.43872549
0.23560049 0.16421569 0.31862745
0.27542892 0.17575827 0.33004749
0.34019608 0.18328738 0.33039216
0.42070313 0.21206342 0.34264706
0.55637255 0.22074142 0.35686275
0.74178156 0.23193168 0.38627451
0.86724877 0.25294118 0.3856924
0.95900735 0.35753676 0.40971967
0.99607843 0.47009804 0.44246324
0.20784314 0.21875 0.33223039
0.23147978 0.22602635 0.33772978
0.33446691 0.24549632 0.35220588
0.43284314 0.28039216 0.35784314
0.57726716 0.30998775 0.3754902
0.73310355 0.32855392 0.39411765
0.85343137 0.36911765 0.40134804
0.94595588 0.44460784 0.41752451
0.99607843 0.50931373 0.43909314
0.22745098 0.31176471 0.34705882
0.25386029 0.32707567 0.35980392
0.32676164 0.35055147 0.36776961
0.44703585 0.38782935 0.3803079
0.59898897 0.43627451 0.38851103
0.72471661 0.44846814 0.39411765
0.84460784 0.49065564 0.40686275
0.93743107 0.54392616 0.42346048
0.99215686 0.59166667 0.44810049
0.27794118 0.44779412 0.38529412
0.3106924 0.4643076 0.39181985
0.36452206 0.47720588 0.39779412
0.47650123 0.51862745 0.41761642
0.59926471 0.55882353 0.40955882
0.72990196 0.58627451 0.4
0.83884804 0.60386029 0.40980392
0.93602941 0.6341299 0.4260723
0.98504902 0.66078431 0.4504902
0.37303922 0.59019608 0.44221814
0.38694853 0.59411765 0.43933058
0.42866115 0.60882353 0.442356
0.51493566 0.62738971 0.45343137
0.59761029 0.6495098 0.45689338
0.71029412 0.68619026 0.44558824
0.83247549 0.70845588 0.43950674
0.94019608 0.72254902 0.44676777
0.99607843 0.74019608 0.47064951
0.47659314 0.7127451 0.49313725
0.47598039 0.7127451 0.48921569
0.51066176 0.71902574 0.49304534
0.56139706 0.72801777 0.49852941
0.64577206 0.74166667 0.51348039
0.72136949 0.77095588 0.51297488
0.84359681 0.79509804 0.50125613
0.95392157 0.81426164 0.50098039
0.99362745 0.81470588 0.51127451
0.58400735 0.80931373 0.54852941
0.60383732 0.81321232 0.55245098
0.61867341 0.81323529 0.55245098
0.6741345 0.81666667 0.56421569
0.72916667 0.82279412 0.57598039
0.79172794 0.83627451 0.57775735
0.86871936 0.85196078 0.57598039
0.95598958 0.86807598 0.57598039
0.99607843 0.88547794 0.57224265
0.78431373 0.89019608 0.61568627
0.80079657 0.89540441 0.62334559
0.8064951 0.89019608 0.62144608
0.83529412 0.8877451 0.62352941
0.88970588 0.89411765 0.63921569
0.9254902 0.89803922 0.64466912
0.95882353 0.90588235 0.64558824
0.99607843 0.91893382 0.6504902
0.99607843 0.90980392 0.62598039
0.30980392 0.13333333 0.40588235
0.33602941 0.13921569 0.40955882
0.42598039 0.14313725 0.42303922
0.5379902 0.1872549 0.44558824
0.62745098 0.23529412 0.45196078
0.73235294 0.2622549 0.46691176
0.88431373 0.31666667 0.50294118
0.99215686 0.40098039 0.51960784
0.99607843 0.49019608 0.53529412
0.29852941 0.16421569 0.41544118
0.3301777 0.16786152 0.41890319
0.41770833 0.17696078 0.43278186
0.54705882 0.22794118 0.45735294
0.64031863 0.2754902 0.46666667
0.74852941 0.30726103 0.48088235
0.89626225 0.3754902 0.52408088
0.98354779 0.43992034 0.5254902
1 0.51715686 0.54485294
0.22843137 0.20980392 0.42156863
0.27689951 0.22536765 0.42941176
0.39203431 0.2432598 0.44963235
0.54822304 0.29926471 0.475
0.64313725 0.37058824 0.48161765
0.75447304 0.39926471 0.49509804
0.87879902 0.44840686 0.52058824
0.97015931 0.50422794 0.53333333
0.99607843 0.55539216 0.54558824
0.18382353 0.3125 0.43063725
0.20523897 0.31568627 0.43455882
0.32230392 0.33143382 0.45588235
0.48802083 0.39583333 0.47892157
0.63639706 0.47598039 0.49926471
0.74828431 0.50193015 0.50710784
0.86390931 0.53431373 0.52009804
0.95064338 0.57337623 0.5354473
0.99215686 0.62254902 0.55098039
0.23039216 0.44117647 0.45
0.2747549 0.45379902 0.45772059
0.34705882 0.47230392 0.4625
0.47843137 0.51188725 0.4877451
0.63333333 0.57745098 0.51519608
0.74595588 0.60502451 0.52352941
0.84828431 0.62254902 0.52377451
0.94436275 0.65159314 0.5314951
0.99607843 0.6872549 0.55392157
0.34779412 0.58823529 0.49240196
0.36911765 0.59387255 0.49215686
0.44068627 0.60882353 0.50367647
0.54509804 0.63697917 0.51957721
0.62941176 0.65992647 0.53406863
0.73924632 0.69534314 0.53403799
0.84852941 0.71770833 0.53406863
0.94705882 0.73397672 0.54019608
0.99215686 0.74411765 0.54901961
0.4745098 0.70931373 0.5372549
0.48259804 0.71127451 0.53333333
0.54142157 0.72095588 0.54093137
0.60300245 0.73529412 0.55
0.66568627 0.74852941 0.55612745
0.74381127 0.77205882 0.5622549
0.86017157 0.79877451 0.55980392
0.96519608 0.81372549 0.55808824
0.99215686 0.81372549 0.56960784
0.61397059 0.80931373 0.58284314
0.62178309 0.80931373 0.57941176
0.64920343 0.81323529 0.58308824
0.68333333 0.81715686 0.58333333
0.74362745 0.82279412 0.59375
0.81004902 0.83382353 0.60343137
0.88449755 0.85177696 0.59901961
0.98137255 0.87110907 0.60248162
0.99436275 0.8752451 0.60294118
0.80196078 0.89411765 0.63137255
0.80171569 0.89019608 0.62941176
0.81862745 0.89215686 0.63333333
0.82671569 0.88308824 0.63137255
0.87352941 0.88823529 0.64313725
0.92843137 0.89485294 0.65637255
0.96764706 0.90294118 0.65931373
0.99607843 0.91568627 0.65882353
1 0.92352941 0.66666667
0.41666667 0.10294118 0.52107843
0.45373775 0.095404412 0.52745098
0.53627451 0.10686275 0.54068627
0.6495098 0.14503676 0.56127451
0.76053922 0.2870098 0.58088235
0.81035539 0.375 0.57395833
0.875 0.42843137 0.58639706
0.99607843 0.50735294 0.60863971
1 0.57205882 0.60686275
0.40784314 0.14136029 0.52745098
0.43790594 0.14654565 0.53378523
0.53650429 0.15379902 0.54862132
0.6495098 0.20398284 0.56600031
0.75588235 0.33235294 0.58088235
0.81508119 0.41813725 0.58088235
0.88494179 0.46102941 0.59117647
0.98382353 0.54025735 0.60588235
1 0.61323529 0.61470588
0.33921569 0.20980392 0.52990196
0.40128676 0.21706495 0.54136029
0.50462623 0.23382353 0.55370711
0.62921262 0.28676471 0.56806066
0.74460784 0.40618873 0.58553922
0.81911765 0.49129902 0.59125306
0.88676471 0.53455882 0.59298407
0.97745098 0.59773284 0.610769
0.99607843 0.63492647 0.61862745
0.14656863 0.28921569 0.52107843
0.23033854 0.30673254 0.53019301
0.37928922 0.32032782 0.55061275
0.56174173 0.38298866 0.57030484
0.72276348 0.48893995 0.59041054
0.7995098 0.56378676 0.59264706
0.87657782 0.61317402 0.59852941
0.98559283 0.66874234 0.62266391
0.99607843 0.68137255 0.61862745
0.10392157 0.43259804 0.52598039
0.16583946 0.43170956 0.53097426
0.27285539 0.44669118 0.54411765
0.4450674 0.4870098 0.56102941
0.62867647 0.56078431 0.58370098
0.78851103 0.65615809 0.59901961
0.88431373 0.68627451 0.61139706
0.96724877 0.70294118 0.61470588
1 0.71078431 0.61593137
0.28345588 0.56666667 0.53627451
0.30858609 0.57519914 0.54019608
0.37987132 0.58918505 0.55265012
0.49328278 0.615625 0.56856618
0.61813725 0.65346201 0.58575368
0.76272212 0.71534161 0.60202206
0.86862745 0.73295037 0.59940257
0.96715686 0.7542356 0.60605852
0.99607843 0.76519608 0.61470588
0.38382353 0.69375 0.56776961
0.42401961 0.69656863 0.56715686
0.4890625 0.70900735 0.57190564
0.57745098 0.7254902 0.58529412
0.66219363 0.74846814 0.59552696
0.77918199 0.77967218 0.60461091
0.87205882 0.79757966 0.60968137
0.97745098 0.81372549 0.60981924
0.99215686 0.81372549 0.61531863
0.54822304 0.80147059 0.60459559
0.57624847 0.80147059 0.60271906
0.6129136 0.80539216 0.60588235
0.68333333 0.81704197 0.61029412
0.74656863 0.8245098 0.61495098
0.82941176 0.83627451 0.62807138
0.90338542 0.85228248 0.63039216
0.98284314 0.8678079 0.62941176
0.99607843 0.86764706 0.63284314
0.78186275 0.89411765 0.64460784
0.77971814 0.88756127 0.64460784
0.80686275 0.89019608 0.64816176
0.85104167 0.89411765 0.65245098
0.8870098 0.89607843 0.65759804
0.92990196 0.89803922 0.66721814
0.97634804 0.90588235 0.67487745
1 0.90949755 0.67303922
1 0.90588235 0.66666667
0.57254902 0.011764706 0.63039216
0.6004902 0.0013480392 0.6372549
0.66936275 0.029411765 0.63823529
0.75245098 0.12953431 0.64791667
0.84362745 0.28480392 0.65686275
0.90355392 0.48284314 0.65196078
0.93529412 0.55784314 0.64901961
0.97745098 0.59963235 0.64803922
0.99607843 0.66078431 0.65196078
0.5627451 0.094607843 0.62941176
0.59007353 0.095588235 0.63736213
0.66115196 0.1060049 0.64215686
0.75442708 0.19050245 0.64901961
0.83995098 0.33351716 0.65294118
0.90183824 0.50470282 0.65294118
0.94093137 0.58872549 0.64730392
0.96294424 0.60735294 0.64411765
0.99301471 0.65735294 0.65196078
0.50269608 0.2 0.62328431
0.5426777 0.20021446 0.63495711
0.63192402 0.21721814 0.64509804
0.72892157 0.29669118 0.6481924
0.825 0.40208333 0.65330882
0.89607843 0.56761642 0.65686275
0.94644608 0.64295343 0.65269608
0.98504902 0.67101716 0.65294118
1 0.7 0.65808824
0.34632353 0.29754902 0.62365196
0.40306373 0.29852941 0.62941176
0.52457108 0.32401961 0.63627451
0.65698529 0.38370098 0.64186581
0.78878676 0.48988971 0.64901961
0.88125 0.61176471 0.65294118
0.93946078 0.68272059 0.65514706
0.97688419 0.70931373 0.65257353
1 0.74313725 0.66556373
0.017156863 0.40392157 0.60980392
0.030821078 0.40704657 0.60814951
0.19767157 0.42414216 0.61568627
0.48743873 0.45398284 0.63137255
0.71764706 0.55294118 0.64338235
0.84699755 0.67022059 0.64957108
0.94215686 0.73419118 0.65686275
0.99479167 0.76078431 0.66427696
1 0.77647059 0.67205882
0.038112745 0.55392157 0.60257353
0.043259804 0.55784314 0.60588235
0.20147059 0.55833333 0.60980392
0.36934743 0.5700674 0.6205576
0.54834559 0.61243873 0.62922794
0.77904412 0.7035386 0.64448529
0.93097426 0.76813725 0.65686275
0.99223346 0.79178922 0.66515012
0.99669118 0.80735294 0.67708333
0.31691176 0.67818627 0.60196078
0.34126838 0.67818627 0.60196078
0.39460784 0.68848039 0.60882353
0.48808211 0.70281863 0.61681985
0.60980392 0.72720588 0.62843137
0.74252451 0.75821078 0.64212623
0.91151961 0.80533088 0.65367647
0.9879902 0.8189951 0.66078431
0.99607843 0.82647059 0.66789216
0.45980392 0.79276961 0.62414216
0.48261336 0.78921569 0.625
0.52769608 0.79666054 0.62794118
0.62084865 0.80833333 0.63284314
0.71231618 0.81709559 0.63676471
0.82166054 0.83350184 0.6519761
0.92928922 0.85551471 0.66421569
0.98872549 0.86753983 0.67184436
0.99607843 0.86764706 0.67610294
0.73235294 0.89705882 0.66764706
0.72904412 0.89362745 0.66715686
0.76176471 0.89411765 0.66764706
0.8120098 0.89914216 0.67120098
0.86127451 0.89313725 0.6754902
0.925 0.89803922 0.68664216
0.98039216 0.90588235 0.69901961
0.99607843 0.90992647 0.70686275
1 0.91862745 0.7127451
0.73627451 0 0.6995098
0.75882353 0.0039215686 0.70294118
0.79178922 0.054534314 0.70686275
0.85557598 0.20422794 0.70900735
0.91470588 0.36715686 0.71078431
0.96666667 0.51991422 0.70294118
0.99742647 0.67279412 0.69901961
1 0.70778186 0.69503676
1 0.71911765 0.69117647
0.7245098 0.050061275 0.7033701
0.74657629 0.10141697 0.70294118
0.78382353 0.15300245 0.70294118
0.83823529 0.26127451 0.70686275
0.90686275 0.39705882 0.70683211
0.96305147 0.55643382 0.70294118
0.98921569 0.67783395 0.69901961
0.99962469 0.72336091 0.69509804
1 0.7377451 0.69509804
0.68284314 0.21384804 0.70686275
0.70588235 0.21763174 0.70294118
0.75683211 0.24840686 0.70294118
0.82291667 0.32873775 0.70667892
0.89430147 0.44803922 0.70686275
0.96550245 0.58872549 0.70294118
0.98823529 0.70897672 0.70683211
0.99607843 0.74509804 0.69901961
1 0.75 0.69117647
0.56011029 0.29589461 0.696875
0.60138634 0.31764706 0.69901961
0.67679228 0.34238664 0.7001685
0.76709559 0.4136106 0.70294118
0.86029412 0.51930147 0.70294118
0.94792433 0.63468903 0.70294118
0.98475797 0.73786765 0.70686275
1 0.77598039 0.70481771
1 0.77598039 0.69754902
0.17279412 0.38186275 0.68553922
0.24276961 0.39411765 0.68553922
0.46176471 0.40189951 0.69270833
0.64175858 0.46813725 0.69329044
0.7745098 0.56691176 0.69509804
0.90474877 0.67794118 0.70294118
0.98921569 0.76642157 0.70686275
0.99849877 0.79874387 0.71078431
1 0.81813725 0.71838235
0.025980392 0.51844363 0.67579657
0.0081112132 0.52687653 0.67420343
0.012791054 0.53020833 0.67205882
0.1650046 0.53907016 0.67531403
0.58023897 0.59093137 0.68596814
0.83026195 0.69197304 0.69410999
0.9622549 0.78272059 0.70553002
1 0.82984069 0.71852022
1 0.84509804 0.73008578
0.013970588 0.67463235 0.66409314
0.021476716 0.67806373 0.66017157
0.061427696 0.68204657 0.65980392
0.26902574 0.68321078 0.66416973
0.46047794 0.6879902 0.67156863
0.66276042 0.71421569 0.6872549
0.91957721 0.79604779 0.7
0.99880515 0.85507047 0.72604167
0.99607843 0.8754902 0.74693627
0.36936275 0.78278186 0.66029412
0.38235294 0.78235294 0.65625766
0.42604167 0.79051777 0.66813725
0.5216299 0.79362745 0.66770833
0.62849265 0.80150123 0.67202819
0.7466299 0.81056219 0.68511029
0.88235294 0.83333333 0.6995098
0.99264706 0.8754902 0.72653186
0.99607843 0.88676471 0.73731618
0.63039216 0.88627451 0.69901961
0.62775735 0.89105392 0.70637255
0.65698529 0.88982843 0.70294118
0.69932598 0.88841912 0.70686275
0.76470588 0.88480392 0.70686275
0.86813725 0.90177696 0.71764706
0.95134804 0.89460784 0.72254902
0.99172794 0.89754902 0.73431373
1 0.91764706 0.75343137
0.8627451 0.23137255 0.78039216
0.86176471 0.23382353 0.77205882
0.88529412 0.2872549 0.77156863
0.92009804 0.37990196 0.76862745
0.95882353 0.49803922 0.76666667
0.98578431 0.61127451 0.76078431
1 0.7127451 0.75686275
0.99607843 0.74509804 0.72352941
0.99607843 0.79215686 0.74901961
0.84313725 0.2495098 0.77254902
0.85490196 0.284375 0.77303922
0.87193627 0.31887255 0.76960784
0.91617647 0.41292892 0.77254902
0.95490196 0.50686275 0.7622549
0.99154412 0.62610294 0.75955882
0.99607843 0.72708333 0.76433824
1 0.79693627 0.76023284
1 0.79901961 0.75245098
0.8127451 0.32745098 0.77254902
0.82009804 0.34522059 0.77254902
0.8502451 0.39142157 0.76936275
0.8932598 0.46029412 0.76617647
0.9504902 0.56176471 0.76715686
0.98823529 0.6377451 0.74865196
0.99926471 0.74607843 0.76470588
1 0.8 0.75686275
1 0.81862745 0.75686275
0.75343137 0.38921569 0.77254902
0.7658701 0.40067402 0.77126225
0.79693627 0.43921569 0.76862745
0.85643382 0.51084559 0.76862745
0.91151961 0.58308824 0.75245098
0.98578431 0.68382353 0.765625
0.99215686 0.75490196 0.75686275
1 0.80294118 0.74344363
1 0.83382353 0.75686275
0.59411765 0.41568627 0.7745098
0.60857843 0.42303922 0.76666667
0.69558824 0.47598039 0.77156863
0.77818627 0.53823529 0.77009804
0.87254902 0.62254902 0.76568627
0.96372549 0.70955882 0.76862745
0.99068627 0.77647059 0.7627451
0.99607843 0.82009804 0.76078431
1 0.84705882 0.76078431
0 0.53284314 0.77107843
0.010232843 0.52205882 0.77046569
0.22818627 0.49889706 0.77389706
0.52990196 0.52365196 0.77738971
0.72867647 0.61764706 0.76936275
0.89650735 0.71813725 0.765625
0.98872549 0.79411765 0.76715686
1 0.84166667 0.76881127
1 0.86421569 0.77009804
0.0039215686 0.70686275 0.76078431
0.011764706 0.6877451 0.74252451
0.021323529 0.67720588 0.72720588
0.011764706 0.68431373 0.74852941
0.2745098 0.67745098 0.77352941
0.69289216 0.71372549 0.75453431
0.95171569 0.79901961 0.77254902
0.99607843 0.85931373 0.76776961
1 0.88627451 0.78039216
0.26078431 0.82107843 0.76568627
0.27095588 0.81715686 0.76084559
0.34080882 0.81801471 0.76605392
0.40655637 0.80882353 0.76292892
0.51495098 0.80980392 0.76666667
0.66323529 0.80177696 0.75343137
0.8057598 0.81066176 0.75735294
0.98829657 0.86813725 0.77598039
1 0.90980392 0.78823529
0.65882353 0.89019608 0.77647059
0.62303922 0.87843137 0.74509804
0.70196078 0.89705882 0.7872549
0.71029412 0.8877451 0.7754902
0.78627451 0.89607843 0.78431373
0.81470588 0.88235294 0.7622549
0.8872549 0.88039216 0.78137255
0.98872549 0.90147059 0.76421569
1 0.92941176 0.80392157
