site/assets/luts/sha256-f1b21d6087b214d70c0cd2bbb2855886bb18221eb1a983f61e7787547847f47c.cube
# LUTr-Schema-Version: 2
# LUTr-ID: sha256-f1b21d6087b214d70c0cd2bbb2855886bb18221eb1a983f61e7787547847f47c
# LUTr-Title: kodak tmax 3200 -
# LUTr-Collection: Natron HaldCLUT
# LUTr-Collection-ID: natron-haldclut-presets
# LUTr-Source: https://github.com/NatronGitHub/clut
# LUTr-Retrieved: 2026-07-27
# LUTr-Source-File: submissions/natron-haldclut-presets/negative_new/kodak_tmax_3200_-.png
# LUTr-Source-Format: HALD-PNG
# LUTr-Source-SHA256: f1b21d6087b214d70c0cd2bbb2855886bb18221eb1a983f61e7787547847f47c
# LUTr-License: CC-BY-SA-4.0
# LUTr-License-URL: https://github.com/NatronGitHub/clut#license
# LUTr-License-Basis: repo-license-file
# LUTr-Transform-Class: film-emulation
# LUTr-Tags: creative, film, film-emulation, hald-clut, natron, png, cube
# LUTr-Input-Color-Space: srgb
# LUTr-Input-Gamut: rec709
# LUTr-Input-Transfer: srgb
# LUTr-Output-Color-Space: srgb
# LUTr-Output-Gamut: rec709
# LUTr-Output-Transfer: srgb
# LUTr-Color-Space-Confidence: assumed-display-referred
# LUTr-Domain-Normalized: true
# LUTr-Shaper: none
# LUTr-Original-Grid: 64x64x64
# LUTr-Conversion-Grid: 25x25x25
# LUTr-Conversion-Interpolation: trilinear
# LUTr-Conversion-Method: HALD-PNG LUT image decoded at 16-bit and sampled to 25x25x25 3D CUBE
# LUTr-Conversion-Tool: LUTr scripts/convert-all-to-cube.mjs 2.0.0
# LUTr-Conversion-Date: 2026-07-27
# LUTr-Note: Preserve this metadata and the upstream license notices when redistributing.
TITLE "kodak tmax 3200 -"
LUT_3D_SIZE 9
DOMAIN_MIN 0 0 0
DOMAIN_MAX 1 1 1
0.0078431373 0.0078431373 0.0078431373
0.0068627451 0.0068627451 0.0068627451
0.023529412 0.023529412 0.023529412
0.043137255 0.043137255 0.043137255
0.096078431 0.096078431 0.096078431
0.19019608 0.19019608 0.19019608
0.24411765 0.24411765 0.24411765
0.27941176 0.27941176 0.27941176
0.34117647 0.34117647 0.34117647
0.053921569 0.053921569 0.053921569
0.057352941 0.057352941 0.057352941
0.10245098 0.10245098 0.10245098
0.12598039 0.12598039 0.12598039
0.18088235 0.18088235 0.18088235
0.22371324 0.22371324 0.22371324
0.26813725 0.26813725 0.26813725
0.32156863 0.32156863 0.32156863
0.37941176 0.37941176 0.37941176
0.15294118 0.15294118 0.15294118
0.16164216 0.16164216 0.16164216
0.19681373 0.19681373 0.19681373
0.23762255 0.23762255 0.23762255
0.27745098 0.27745098 0.27745098
0.31115196 0.31115196 0.31115196
0.33921569 0.33921569 0.33921569
0.38627451 0.38627451 0.38627451
0.43333333 0.43333333 0.43333333
0.26617647 0.26617647 0.26617647
0.26617647 0.26617647 0.26617647
0.28088235 0.28088235 0.28088235
0.31660539 0.31660539 0.31660539
0.36691176 0.36691176 0.36691176
0.40098039 0.40098039 0.40098039
0.43860294 0.43860294 0.43860294
0.48529412 0.48529412 0.48529412
0.53137255 0.53137255 0.53137255
0.37058824 0.37058824 0.37058824
0.36666667 0.36666667 0.36666667
0.37352941 0.37352941 0.37352941
0.4004902 0.4004902 0.4004902
0.43431373 0.43431373 0.43431373
0.48259804 0.48259804 0.48259804
0.5372549 0.5372549 0.5372549
0.60882353 0.60882353 0.60882353
0.6627451 0.6627451 0.6627451
0.48431373 0.48431373 0.48431373
0.47647059 0.47647059 0.47647059
0.47647059 0.47647059 0.47647059
0.50245098 0.50245098 0.50245098
0.52794118 0.52794118 0.52794118
0.55790441 0.55790441 0.55790441
0.62487745 0.62487745 0.62487745
0.69411765 0.69411765 0.69411765
0.75196078 0.75196078 0.75196078
0.60784314 0.60784314 0.60784314
0.60490196 0.60490196 0.60490196
0.61102941 0.61102941 0.61102941
0.61960784 0.61960784 0.61960784
0.64117647 0.64117647 0.64117647
0.66421569 0.66421569 0.66421569
0.70612745 0.70612745 0.70612745
0.75723039 0.75723039 0.75723039
0.81372549 0.81372549 0.81372549
0.74754902 0.74754902 0.74754902
0.74754902 0.74754902 0.74754902
0.75539216 0.75539216 0.75539216
0.7591299 0.7591299 0.7591299
0.77254902 0.77254902 0.77254902
0.79166667 0.79166667 0.79166667
0.82647059 0.82647059 0.82647059
0.85294118 0.85294118 0.85294118
0.88333333 0.88333333 0.88333333
0.89019608 0.89019608 0.89019608
0.875 0.875 0.875
0.88627451 0.88627451 0.88627451
0.87843137 0.87843137 0.87843137
0.88627451 0.88627451 0.88627451
0.90735294 0.90735294 0.90735294
0.92941176 0.92941176 0.92941176
0.93382353 0.93382353 0.93382353
0.95294118 0.95294118 0.95294118
0.031372549 0.031372549 0.031372549
0.031372549 0.031372549 0.031372549
0.05 0.05 0.05
0.079105392 0.079105392 0.079105392
0.1254902 0.1254902 0.1254902
0.19264706 0.19264706 0.19264706
0.2372549 0.2372549 0.2372549
0.27892157 0.27892157 0.27892157
0.31813725 0.31813725 0.31813725
0.050061275 0.050061275 0.050061275
0.079411765 0.079411765 0.079411765
0.10707721 0.10707721 0.10707721
0.14981618 0.14981618 0.14981618
0.18676471 0.18676471 0.18676471
0.22369026 0.22369026 0.22369026
0.27037377 0.27037377 0.27037377
0.3181296 0.3181296 0.3181296
0.36813725 0.36813725 0.36813725
0.17990196 0.17990196 0.17990196
0.18904718 0.18904718 0.18904718
0.21164216 0.21164216 0.21164216
0.2463848 0.2463848 0.2463848
0.28137255 0.28137255 0.28137255
0.3122549 0.3122549 0.3122549
0.33817402 0.33817402 0.33817402
0.38310355 0.38310355 0.38310355
0.42156863 0.42156863 0.42156863
0.28008578 0.28008578 0.28008578
0.28137255 0.28137255 0.28137255
0.29446998 0.29446998 0.29446998
0.33099724 0.33099724 0.33099724
0.37460172 0.37460172 0.37460172
0.40490196 0.40490196 0.40490196
0.44306066 0.44306066 0.44306066
0.48921569 0.48921569 0.48921569
0.51832108 0.51832108 0.51832108
0.37990196 0.37990196 0.37990196
0.38186275 0.38186275 0.38186275
0.38596814 0.38596814 0.38596814
0.41004902 0.41004902 0.41004902
0.44473039 0.44473039 0.44473039
0.48529412 0.48529412 0.48529412
0.53921569 0.53921569 0.53921569
0.60343137 0.60343137 0.60343137
0.65882353 0.65882353 0.65882353
0.49197304 0.49197304 0.49197304
0.48807445 0.48807445 0.48807445
0.49033395 0.49033395 0.49033395
0.5053845 0.5053845 0.5053845
0.53538603 0.53538603 0.53538603
0.5627451 0.5627451 0.5627451
0.61325061 0.61325061 0.61325061
0.68442096 0.68442096 0.68442096
0.75196078 0.75196078 0.75196078
0.61176471 0.61176471 0.61176471
0.60784314 0.60784314 0.60784314
0.61176471 0.61176471 0.61176471
0.61904105 0.61904105 0.61904105
0.64313725 0.64313725 0.64313725
0.67156863 0.67156863 0.67156863
0.70294118 0.70294118 0.70294118
0.75208333 0.75208333 0.75208333
0.81458333 0.81458333 0.81458333
0.74748775 0.74748775 0.74748775
0.7513557 0.7513557 0.7513557
0.75528493 0.75528493 0.75528493
0.75931373 0.75931373 0.75931373
0.77647059 0.77647059 0.77647059
0.79558824 0.79558824 0.79558824
0.82598039 0.82598039 0.82598039
0.85251225 0.85251225 0.85251225
0.88682598 0.88682598 0.88682598
0.88627451 0.88627451 0.88627451
0.88235294 0.88235294 0.88235294
0.89705882 0.89705882 0.89705882
0.88596814 0.88596814 0.88596814
0.90147059 0.90147059 0.90147059
0.8997549 0.8997549 0.8997549
0.91372549 0.91372549 0.91372549
0.93768382 0.93768382 0.93768382
0.96029412 0.96029412 0.96029412
0.02745098 0.02745098 0.02745098
0.034803922 0.034803922 0.034803922
0.06495098 0.06495098 0.06495098
0.089828431 0.089828431 0.089828431
0.14901961 0.14901961 0.14901961
0.20477941 0.20477941 0.20477941
0.25098039 0.25098039 0.25098039
0.29460784 0.29460784 0.29460784
0.3254902 0.3254902 0.3254902
0.059803922 0.059803922 0.059803922
0.10281863 0.10281863 0.10281863
0.13382353 0.13382353 0.13382353
0.17254902 0.17254902 0.17254902
0.2004902 0.2004902 0.2004902
0.24269301 0.24269301 0.24269301
0.28180147 0.28180147 0.28180147
0.32506127 0.32506127 0.32506127
0.37107843 0.37107843 0.37107843
0.19215686 0.19215686 0.19215686
0.21139706 0.21139706 0.21139706
0.23192402 0.23192402 0.23192402
0.25833333 0.25833333 0.25833333
0.28823529 0.28823529 0.28823529
0.31617647 0.31617647 0.31617647
0.3502451 0.3502451 0.3502451
0.39375 0.39375 0.39375
0.42622549 0.42622549 0.42622549
0.30441176 0.30441176 0.30441176
0.31213235 0.31213235 0.31213235
0.32429534 0.32429534 0.32429534
0.35185355 0.35185355 0.35185355
0.38909314 0.38909314 0.38909314
0.41565564 0.41565564 0.41565564
0.44754902 0.44754902 0.44754902
0.48324142 0.48324142 0.48324142
0.50453431 0.50453431 0.50453431
0.40735294 0.40735294 0.40735294
0.40686275 0.40686275 0.40686275
0.41176471 0.41176471 0.41176471
0.43088235 0.43088235 0.43088235
0.4622549 0.4622549 0.4622549
0.49889706 0.49889706 0.49889706
0.5432598 0.5432598 0.5432598
0.59289216 0.59289216 0.59289216
0.64558824 0.64558824 0.64558824
0.51470588 0.51470588 0.51470588
0.51470588 0.51470588 0.51470588
0.51470588 0.51470588 0.51470588
0.52522978 0.52522978 0.52522978
0.54656863 0.54656863 0.54656863
0.57414216 0.57414216 0.57414216
0.61761642 0.61761642 0.61761642
0.68765319 0.68765319 0.68765319
0.7627451 0.7627451 0.7627451
0.63357843 0.63357843 0.63357843
0.63039216 0.63039216 0.63039216
0.63376225 0.63376225 0.63376225
0.63529412 0.63529412 0.63529412
0.64509804 0.64509804 0.64509804
0.67598039 0.67598039 0.67598039
0.70906863 0.70906863 0.70906863
0.76412377 0.76412377 0.76412377
0.83406863 0.83406863 0.83406863
0.75882353 0.75882353 0.75882353
0.76220895 0.76220895 0.76220895
0.76577819 0.76577819 0.76577819
0.77103248 0.77103248 0.77103248
0.7786152 0.7786152 0.7786152
0.79558824 0.79558824 0.79558824
0.82647059 0.82647059 0.82647059
0.86530331 0.86530331 0.86530331
0.89901961 0.89901961 0.89901961
0.89019608 0.89019608 0.89019608
0.89375 0.89375 0.89375
0.89387255 0.89387255 0.89387255
0.89411765 0.89411765 0.89411765
0.89852941 0.89852941 0.89852941
0.91311275 0.91311275 0.91311275
0.92573529 0.92573529 0.92573529
0.93737745 0.93737745 0.93737745
0.95294118 0.95294118 0.95294118
0.041666667 0.041666667 0.041666667
0.056556373 0.056556373 0.056556373
0.099509804 0.099509804 0.099509804
0.14068627 0.14068627 0.14068627
0.17941176 0.17941176 0.17941176
0.22408088 0.22408088 0.22408088
0.26617647 0.26617647 0.26617647
0.30275735 0.30275735 0.30275735
0.34362745 0.34362745 0.34362745
0.10294118 0.10294118 0.10294118
0.12614124 0.12614124 0.12614124
0.16115196 0.16115196 0.16115196
0.19970129 0.19970129 0.19970129
0.22726716 0.22726716 0.22726716
0.26273744 0.26273744 0.26273744
0.29834559 0.29834559 0.29834559
0.33155637 0.33155637 0.33155637
0.371875 0.371875 0.371875
0.1752451 0.1752451 0.1752451
0.21375613 0.21375613 0.21375613
0.2567402 0.2567402 0.2567402
0.28823529 0.28823529 0.28823529
0.30735294 0.30735294 0.30735294
0.33039216 0.33039216 0.33039216
0.35536152 0.35536152 0.35536152
0.38333333 0.38333333 0.38333333
0.4125 0.4125 0.4125
0.30091912 0.30091912 0.30091912
0.31892616 0.31892616 0.31892616
0.33878676 0.33878676 0.33878676
0.37303922 0.37303922 0.37303922
0.39607843 0.39607843 0.39607843
0.42361366 0.42361366 0.42361366
0.44362745 0.44362745 0.44362745
0.48095129 0.48095129 0.48095129
0.51721814 0.51721814 0.51721814
0.42941176 0.42941176 0.42941176
0.43367034 0.43367034 0.43367034
0.44362745 0.44362745 0.44362745
0.46323529 0.46323529 0.46323529
0.48713235 0.48713235 0.48713235
0.52153799 0.52153799 0.52153799
0.56458333 0.56458333 0.56458333
0.60523897 0.60523897 0.60523897
0.64387255 0.64387255 0.64387255
0.54074755 0.54074755 0.54074755
0.54392616 0.54392616 0.54392616
0.54535846 0.54535846 0.54535846
0.55475643 0.55475643 0.55475643
0.57306985 0.57306985 0.57306985
0.60588235 0.60588235 0.60588235
0.65159314 0.65159314 0.65159314
0.70911458 0.70911458 0.70911458
0.7778799 0.7778799 0.7778799
0.6567402 0.6567402 0.6567402
0.65735294 0.65735294 0.65735294
0.65735294 0.65735294 0.65735294
0.66127451 0.66127451 0.66127451
0.67199755 0.67199755 0.67199755
0.69705882 0.69705882 0.69705882
0.73002451 0.73002451 0.73002451
0.782981 0.782981 0.782981
0.84117647 0.84117647 0.84117647
0.77696078 0.77696078 0.77696078
0.78262102 0.78262102 0.78262102
0.78818934 0.78818934 0.78818934
0.78872549 0.78872549 0.78872549
0.79338235 0.79338235 0.79338235
0.80343137 0.80343137 0.80343137
0.8286152 0.8286152 0.8286152
0.86481311 0.86481311 0.86481311
0.90294118 0.90294118 0.90294118
0.89411765 0.89411765 0.89411765
0.89803922 0.89803922 0.89803922
0.91090686 0.91090686 0.91090686
0.90104167 0.90104167 0.90104167
0.90514706 0.90514706 0.90514706
0.91764706 0.91764706 0.91764706
0.9254902 0.9254902 0.9254902
0.94411765 0.94411765 0.94411765
0.96323529 0.96323529 0.96323529
0.074509804 0.074509804 0.074509804
0.085294118 0.085294118 0.085294118
0.13578431 0.13578431 0.13578431
0.19509804 0.19509804 0.19509804
0.24215686 0.24215686 0.24215686
0.25294118 0.25294118 0.25294118
0.28529412 0.28529412 0.28529412
0.31617647 0.31617647 0.31617647
0.35294118 0.35294118 0.35294118
0.1379902 0.1379902 0.1379902
0.15664828 0.15664828 0.15664828
0.19215686 0.19215686 0.19215686
0.23759191 0.23759191 0.23759191
0.27009804 0.27009804 0.27009804
0.296875 0.296875 0.296875
0.31936275 0.31936275 0.31936275
0.34289216 0.34289216 0.34289216
0.37205882 0.37205882 0.37205882
0.20784314 0.20784314 0.20784314
0.22732843 0.22732843 0.22732843
0.26776961 0.26776961 0.26776961
0.31409314 0.31409314 0.31409314
0.34240196 0.34240196 0.34240196
0.35625 0.35625 0.35625
0.375 0.375 0.375
0.4002451 0.4002451 0.4002451
0.41813725 0.41813725 0.41813725
0.28504902 0.28504902 0.28504902
0.30490196 0.30490196 0.30490196
0.34191176 0.34191176 0.34191176
0.3958027 0.3958027 0.3958027
0.42120098 0.42120098 0.42120098
0.43704044 0.43704044 0.43704044
0.45153186 0.45153186 0.45153186
0.47533701 0.47533701 0.47533701
0.50808824 0.50808824 0.50808824
0.40980392 0.40980392 0.40980392
0.4252451 0.4252451 0.4252451
0.45196078 0.45196078 0.45196078
0.48161765 0.48161765 0.48161765
0.50196078 0.50196078 0.50196078
0.52892157 0.52892157 0.52892157
0.55784314 0.55784314 0.55784314
0.59080882 0.59080882 0.59080882
0.61764706 0.61764706 0.61764706
0.54387255 0.54387255 0.54387255
0.55098039 0.55098039 0.55098039
0.56047794 0.56047794 0.56047794
0.58164828 0.58164828 0.58164828
0.59828431 0.59828431 0.59828431
0.62772672 0.62772672 0.62772672
0.66881127 0.66881127 0.66881127
0.7161152 0.7161152 0.7161152
0.75294118 0.75294118 0.75294118
0.6745098 0.6745098 0.6745098
0.67279412 0.67279412 0.67279412
0.67610294 0.67610294 0.67610294
0.68523284 0.68523284 0.68523284
0.70245098 0.70245098 0.70245098
0.72401961 0.72401961 0.72401961
0.74607843 0.74607843 0.74607843
0.79166667 0.79166667 0.79166667
0.85245098 0.85245098 0.85245098
0.8 0.8 0.8
0.80196078 0.80196078 0.80196078
0.80196078 0.80196078 0.80196078
0.80303309 0.80303309 0.80303309
0.81176471 0.81176471 0.81176471
0.82303922 0.82303922 0.82303922
0.84313725 0.84313725 0.84313725
0.87254902 0.87254902 0.87254902
0.90637255 0.90637255 0.90637255
0.90784314 0.90784314 0.90784314
0.90808824 0.90808824 0.90808824
0.90588235 0.90588235 0.90588235
0.90980392 0.90980392 0.90980392
0.91960784 0.91960784 0.91960784
0.91764706 0.91764706 0.91764706
0.92990196 0.92990196 0.92990196
0.94289216 0.94289216 0.94289216
0.94705882 0.94705882 0.94705882
0.11372549 0.11372549 0.11372549
0.13008578 0.13008578 0.13008578
0.17696078 0.17696078 0.17696078
0.22598039 0.22598039 0.22598039
0.29558824 0.29558824 0.29558824
0.32843137 0.32843137 0.32843137
0.33333333 0.33333333 0.33333333
0.35196078 0.35196078 0.35196078
0.35588235 0.35588235 0.35588235
0.17824755 0.17824755 0.17824755
0.18823529 0.18823529 0.18823529
0.22340686 0.22340686 0.22340686
0.26599265 0.26599265 0.26599265
0.32132353 0.32132353 0.32132353
0.34754902 0.34754902 0.34754902
0.35147059 0.35147059 0.35147059
0.37005974 0.37005974 0.37005974
0.38284314 0.38284314 0.38284314
0.24767157 0.24767157 0.24767157
0.25821078 0.25821078 0.25821078
0.28872549 0.28872549 0.28872549
0.33238358 0.33238358 0.33238358
0.36911765 0.36911765 0.36911765
0.39027267 0.39027267 0.39027267
0.40906863 0.40906863 0.40906863
0.41911765 0.41911765 0.41911765
0.4254902 0.4254902 0.4254902
0.31709559 0.31709559 0.31709559
0.33126532 0.33126532 0.33126532
0.35773591 0.35773591 0.35773591
0.40700827 0.40700827 0.40700827
0.44607843 0.44607843 0.44607843
0.46668964 0.46668964 0.46668964
0.47941176 0.47941176 0.47941176
0.492356 0.492356 0.492356
0.50202206 0.50202206 0.50202206
0.39142157 0.39142157 0.39142157
0.4138174 0.4138174 0.4138174
0.44197304 0.44197304 0.44197304
0.47892157 0.47892157 0.47892157
0.51286765 0.51286765 0.51286765
0.55346201 0.55346201 0.55346201
0.57205882 0.57205882 0.57205882
0.58333333 0.58333333 0.58333333
0.58480392 0.58480392 0.58480392
0.51868873 0.51868873 0.51868873
0.53118873 0.53118873 0.53118873
0.55882353 0.55882353 0.55882353
0.58053768 0.58053768 0.58053768
0.6 0.6 0.6
0.64241728 0.64241728 0.64241728
0.6783701 0.6783701 0.6783701
0.70342371 0.70342371 0.70342371
0.725 0.725 0.725
0.65772059 0.65772059 0.65772059
0.66475184 0.66475184 0.66475184
0.68198529 0.68198529 0.68198529
0.69656863 0.69656863 0.69656863
0.72769608 0.72769608 0.72769608
0.75098039 0.75098039 0.75098039
0.77193627 0.77193627 0.77193627
0.80481005 0.80481005 0.80481005
0.85392157 0.85392157 0.85392157
0.80214461 0.80214461 0.80214461
0.80432751 0.80432751 0.80432751
0.80859375 0.80859375 0.80859375
0.81646752 0.81646752 0.81646752
0.82720588 0.82720588 0.82720588
0.84326746 0.84326746 0.84326746
0.85882353 0.85882353 0.85882353
0.88605239 0.88605239 0.88605239
0.91029412 0.91029412 0.91029412
0.90588235 0.90588235 0.90588235
0.90980392 0.90980392 0.90980392
0.91311275 0.91311275 0.91311275
0.90980392 0.90980392 0.90980392
0.90980392 0.90980392 0.90980392
0.9254902 0.9254902 0.9254902
0.94362745 0.94362745 0.94362745
0.94117647 0.94117647 0.94117647
0.93333333 0.93333333 0.93333333
0.16372549 0.16372549 0.16372549
0.18615196 0.18615196 0.18615196
0.21470588 0.21470588 0.21470588
0.26715686 0.26715686 0.26715686
0.32401961 0.32401961 0.32401961
0.38223039 0.38223039 0.38223039
0.40612745 0.40612745 0.40612745
0.41372549 0.41372549 0.41372549
0.41764706 0.41764706 0.41764706
0.21531863 0.21531863 0.21531863
0.22798713 0.22798713 0.22798713
0.25796569 0.25796569 0.25796569
0.29064032 0.29064032 0.29064032
0.35343137 0.35343137 0.35343137
0.40404412 0.40404412 0.40404412
0.42748162 0.42748162 0.42748162
0.43026961 0.43026961 0.43026961
0.44105392 0.44105392 0.44105392
0.28602941 0.28602941 0.28602941
0.28921569 0.28921569 0.28921569
0.31960784 0.31960784 0.31960784
0.35502451 0.35502451 0.35502451
0.40147059 0.40147059 0.40147059
0.44791667 0.44791667 0.44791667
0.47867647 0.47867647 0.47867647
0.47058824 0.47058824 0.47058824
0.47843137 0.47843137 0.47843137
0.36727941 0.36727941 0.36727941
0.37058824 0.37058824 0.37058824
0.38137255 0.38137255 0.38137255
0.4216299 0.4216299 0.4216299
0.46544118 0.46544118 0.46544118
0.51646752 0.51646752 0.51646752
0.53697917 0.53697917 0.53697917
0.53627451 0.53627451 0.53627451
0.54019608 0.54019608 0.54019608
0.41617647 0.41617647 0.41617647
0.41813725 0.41813725 0.41813725
0.44252451 0.44252451 0.44252451
0.49362745 0.49362745 0.49362745
0.54019608 0.54019608 0.54019608
0.58823529 0.58823529 0.58823529
0.61078431 0.61078431 0.61078431
0.61262255 0.61262255 0.61262255
0.61960784 0.61960784 0.61960784
0.50392157 0.50392157 0.50392157
0.51487439 0.51487439 0.51487439
0.53394608 0.53394608 0.53394608
0.55905331 0.55905331 0.55905331
0.60502451 0.60502451 0.60502451
0.66309743 0.66309743 0.66309743
0.70367647 0.70367647 0.70367647
0.71145833 0.71145833 0.71145833
0.72352941 0.72352941 0.72352941
0.64019608 0.64019608 0.64019608
0.65153186 0.65153186 0.65153186
0.66348039 0.66348039 0.66348039
0.68526348 0.68526348 0.68526348
0.71960784 0.71960784 0.71960784
0.76292892 0.76292892 0.76292892
0.79454657 0.79454657 0.79454657
0.82328431 0.82328431 0.82328431
0.84705882 0.84705882 0.84705882
0.79460784 0.79460784 0.79460784
0.79852941 0.79852941 0.79852941
0.80499387 0.80499387 0.80499387
0.828125 0.828125 0.828125
0.83921569 0.83921569 0.83921569
0.86162684 0.86162684 0.86162684
0.87962623 0.87962623 0.87962623
0.90473346 0.90473346 0.90473346
0.92303922 0.92303922 0.92303922
0.92058824 0.92058824 0.92058824
0.90196078 0.90196078 0.90196078
0.91446078 0.91446078 0.91446078
0.92267157 0.92267157 0.92267157
0.93186275 0.93186275 0.93186275
0.94264706 0.94264706 0.94264706
0.94926471 0.94926471 0.94926471
0.94865196 0.94865196 0.94865196
0.94509804 0.94509804 0.94509804
0.23284314 0.23284314 0.23284314
0.24754902 0.24754902 0.24754902
0.26568627 0.26568627 0.26568627
0.31323529 0.31323529 0.31323529
0.35759804 0.35759804 0.35759804
0.42892157 0.42892157 0.42892157
0.49178922 0.49178922 0.49178922
0.5127451 0.5127451 0.5127451
0.52352941 0.52352941 0.52352941
0.2627451 0.2627451 0.2627451
0.26580882 0.26580882 0.26580882
0.29695159 0.29695159 0.29695159
0.33627451 0.33627451 0.33627451
0.39258578 0.39258578 0.39258578
0.45265778 0.45265778 0.45265778
0.51619179 0.51619179 0.51619179
0.54264706 0.54264706 0.54264706
0.54362745 0.54362745 0.54362745
0.32401961 0.32401961 0.32401961
0.32794118 0.32794118 0.32794118
0.3504902 0.3504902 0.3504902
0.38160233 0.38160233 0.38160233
0.43823529 0.43823529 0.43823529
0.49255515 0.49255515 0.49255515
0.54417892 0.54417892 0.54417892
0.56879596 0.56879596 0.56879596
0.56421569 0.56421569 0.56421569
0.39577206 0.39577206 0.39577206
0.39942555 0.39942555 0.39942555
0.41470588 0.41470588 0.41470588
0.44705882 0.44705882 0.44705882
0.49166667 0.49166667 0.49166667
0.5495098 0.5495098 0.5495098
0.59865196 0.59865196 0.59865196
0.62647059 0.62647059 0.62647059
0.62303922 0.62303922 0.62303922
0.43995098 0.43995098 0.43995098
0.43431373 0.43431373 0.43431373
0.46960784 0.46960784 0.46960784
0.5145527 0.5145527 0.5145527
0.56470588 0.56470588 0.56470588
0.61911765 0.61911765 0.61911765
0.66911765 0.66911765 0.66911765
0.69384191 0.69384191 0.69384191
0.69558824 0.69558824 0.69558824
0.48970588 0.48970588 0.48970588
0.49322151 0.49322151 0.49322151
0.50966605 0.50966605 0.50966605
0.53884038 0.53884038 0.53884038
0.62426471 0.62426471 0.62426471
0.67530637 0.67530637 0.67530637
0.73737745 0.73737745 0.73737745
0.76454504 0.76454504 0.76454504
0.76881127 0.76881127 0.76881127
0.6310049 0.6310049 0.6310049
0.63261336 0.63261336 0.63261336
0.63606005 0.63606005 0.63606005
0.66683517 0.66683517 0.66683517
0.69914216 0.69914216 0.69914216
0.73546262 0.73546262 0.73546262
0.80404412 0.80404412 0.80404412
0.84195772 0.84195772 0.84195772
0.85931373 0.85931373 0.85931373
0.77935049 0.77935049 0.77935049
0.79068627 0.79068627 0.79068627
0.79685968 0.79685968 0.79685968
0.81354167 0.81354167 0.81354167
0.83287377 0.83287377 0.83287377
0.85806526 0.85806526 0.85806526
0.88959865 0.88959865 0.88959865
0.91954657 0.91954657 0.91954657
0.94558824 0.94558824 0.94558824
0.88578431 0.88578431 0.88578431
0.88921569 0.88921569 0.88921569
0.91458333 0.91458333 0.91458333
0.9245098 0.9245098 0.9245098
0.91960784 0.91960784 0.91960784
0.9346201 0.9346201 0.9346201
0.96078431 0.96078431 0.96078431
0.95686275 0.95686275 0.95686275
0.95686275 0.95686275 0.95686275
0.29411765 0.29411765 0.29411765
0.29803922 0.29803922 0.29803922
0.31176471 0.31176471 0.31176471
0.36715686 0.36715686 0.36715686
0.39215686 0.39215686 0.39215686
0.50098039 0.50098039 0.50098039
0.57156863 0.57156863 0.57156863
0.65588235 0.65588235 0.65588235
0.65490196 0.65490196 0.65490196
0.30588235 0.30588235 0.30588235
0.29411765 0.29411765 0.29411765
0.33088235 0.33088235 0.33088235
0.39019608 0.39019608 0.39019608
0.44264706 0.44264706 0.44264706
0.50882353 0.50882353 0.50882353
0.56421569 0.56421569 0.56421569
0.67310049 0.67310049 0.67310049
0.68529412 0.68529412 0.68529412
0.36666667 0.36666667 0.36666667
0.37058824 0.37058824 0.37058824
0.38161765 0.38161765 0.38161765
0.43186275 0.43186275 0.43186275
0.47745098 0.47745098 0.47745098
0.53884804 0.53884804 0.53884804
0.58823529 0.58823529 0.58823529
0.67169118 0.67169118 0.67169118
0.70392157 0.70392157 0.70392157
0.4245098 0.4245098 0.4245098
0.42843137 0.42843137 0.42843137
0.44705882 0.44705882 0.44705882
0.47248775 0.47248775 0.47248775
0.49901961 0.49901961 0.49901961
0.57310049 0.57310049 0.57310049
0.65392157 0.65392157 0.65392157
0.7060049 0.7060049 0.7060049
0.74362745 0.74362745 0.74362745
0.48235294 0.48235294 0.48235294
0.48823529 0.48823529 0.48823529
0.50882353 0.50882353 0.50882353
0.53848039 0.53848039 0.53848039
0.57156863 0.57156863 0.57156863
0.64093137 0.64093137 0.64093137
0.71568627 0.71568627 0.71568627
0.76421569 0.76421569 0.76421569
0.79215686 0.79215686 0.79215686
0.4627451 0.4627451 0.4627451
0.4745098 0.4745098 0.4745098
0.51519608 0.51519608 0.51519608
0.57689951 0.57689951 0.57689951
0.65196078 0.65196078 0.65196078
0.71121324 0.71121324 0.71121324
0.74779412 0.74779412 0.74779412
0.81029412 0.81029412 0.81029412
0.83970588 0.83970588 0.83970588
0.60392157 0.60392157 0.60392157
0.59938725 0.59938725 0.59938725
0.59411765 0.59411765 0.59411765
0.62794118 0.62794118 0.62794118
0.65441176 0.65441176 0.65441176
0.73529412 0.73529412 0.73529412
0.80955882 0.80955882 0.80955882
0.87745098 0.87745098 0.87745098
0.90294118 0.90294118 0.90294118
0.79068627 0.79068627 0.79068627
0.79025735 0.79025735 0.79025735
0.79411765 0.79411765 0.79411765
0.80459559 0.80459559 0.80459559
0.82696078 0.82696078 0.82696078
0.85441176 0.85441176 0.85441176
0.89362745 0.89362745 0.89362745
0.92990196 0.92990196 0.92990196
0.94166667 0.94166667 0.94166667
0.8745098 0.8745098 0.8745098
0.87401961 0.87401961 0.87401961
0.9 0.9 0.9
0.91911765 0.91911765 0.91911765
0.9254902 0.9254902 0.9254902
0.9372549 0.9372549 0.9372549
0.95686275 0.95686275 0.95686275
0.95686275 0.95686275 0.95686275
0.95686275 0.95686275 0.95686275
