site/assets/luts/sha256-72d572692e76abd699c3247a2caabb856c43eee1ef261e87d74c6e345a4d41e9.cube
# LUTr-Schema-Version: 2
# LUTr-ID: sha256-72d572692e76abd699c3247a2caabb856c43eee1ef261e87d74c6e345a4d41e9
# LUTr-Title: polaroid px-100uv+ warm --
# LUTr-Collection: Natron HaldCLUT
# LUTr-Collection-ID: natron-haldclut-presets
# LUTr-Source: https://github.com/NatronGitHub/clut
# LUTr-Retrieved: 2026-07-27
# LUTr-Source-File: submissions/natron-haldclut-presets/instant_consumer/polaroid_px-100uv+_warm_--.png
# LUTr-Source-Format: HALD-PNG
# LUTr-Source-SHA256: 72d572692e76abd699c3247a2caabb856c43eee1ef261e87d74c6e345a4d41e9
# LUTr-License: CC-BY-SA-4.0
# LUTr-License-URL: https://github.com/NatronGitHub/clut#license
# LUTr-License-Basis: repo-license-file
# LUTr-Transform-Class: film-emulation
# LUTr-Tags: creative, film, film-emulation, hald-clut, natron, png, warm, cube
# LUTr-Input-Color-Space: srgb
# LUTr-Input-Gamut: rec709
# LUTr-Input-Transfer: srgb
# LUTr-Output-Color-Space: srgb
# LUTr-Output-Gamut: rec709
# LUTr-Output-Transfer: srgb
# LUTr-Color-Space-Confidence: assumed-display-referred
# LUTr-Domain-Normalized: true
# LUTr-Shaper: none
# LUTr-Original-Grid: 64x64x64
# LUTr-Conversion-Grid: 25x25x25
# LUTr-Conversion-Interpolation: trilinear
# LUTr-Conversion-Method: HALD-PNG LUT image decoded at 16-bit and sampled to 25x25x25 3D CUBE
# LUTr-Conversion-Tool: LUTr scripts/convert-all-to-cube.mjs 2.0.0
# LUTr-Conversion-Date: 2026-07-27
# LUTr-Note: Preserve this metadata and the upstream license notices when redistributing.
TITLE "polaroid px-100uv+ warm --"
LUT_3D_SIZE 9
DOMAIN_MIN 0 0 0
DOMAIN_MAX 1 1 1
0.0039215686 0.0078431373 0.019607843
0.061764706 0.061764706 0.069607843
0.13137255 0.11960784 0.12745098
0.24901961 0.23333333 0.23578431
0.38431373 0.36470588 0.36470588
0.45784314 0.43823529 0.43431373
0.51960784 0.5 0.49509804
0.58137255 0.56176471 0.55392157
0.63921569 0.61960784 0.60784314
0.046568627 0.046568627 0.054411765
0.088296569 0.080943627 0.088786765
0.14105392 0.13235294 0.13713235
0.25686275 0.2372549 0.2372549
0.38823529 0.37034314 0.37034314
0.45784314 0.43823529 0.43823529
0.52046569 0.50343137 0.49607843
0.58872549 0.56960784 0.56127451
0.64656863 0.63088235 0.61568627
0.16372549 0.15588235 0.16372549
0.16727941 0.1567402 0.16066176
0.23431373 0.21936275 0.22181373
0.30245098 0.2810049 0.2810049
0.38627451 0.36519608 0.36519608
0.45931373 0.43823529 0.43762255
0.52818627 0.51078431 0.50686275
0.59742647 0.58137255 0.56997549
0.66960784 0.65392157 0.63823529
0.29607843 0.28039216 0.28431373
0.30422794 0.2908701 0.29215686
0.32365196 0.30796569 0.30833333
0.38088235 0.35882353 0.35974265
0.43504902 0.41348039 0.4122549
0.47990196 0.45974265 0.45882353
0.53529412 0.51568627 0.51176471
0.59705882 0.5776348 0.56960784
0.66421569 0.64852941 0.63284314
0.40588235 0.39019608 0.39019608
0.41764706 0.40196078 0.40196078
0.4254902 0.40588235 0.40588235
0.44828431 0.42794118 0.42794118
0.47941176 0.45882353 0.45686275
0.51789216 0.49828431 0.49509804
0.55980392 0.54019608 0.53235294
0.60269608 0.58308824 0.575
0.63333333 0.61568627 0.60196078
0.49852941 0.47892157 0.47892157
0.50637255 0.48676471 0.48658088
0.50637255 0.48737745 0.48676471
0.50735294 0.4877451 0.48621324
0.53039216 0.51078431 0.50686275
0.56127451 0.54258578 0.53682598
0.60392157 0.58492647 0.57536765
0.653125 0.63529412 0.62334559
0.70490196 0.68921569 0.66960784
0.58235294 0.5627451 0.55588235
0.58370098 0.56666667 0.55882353
0.58333333 0.56666667 0.55661765
0.5872549 0.57046569 0.56372549
0.59607843 0.57696078 0.56666667
0.62696078 0.61017157 0.59803922
0.65857843 0.64215686 0.62720588
0.7122549 0.69705882 0.67745098
0.76078431 0.75 0.72647059
0.68823529 0.67254902 0.66078431
0.68039216 0.66470588 0.64901961
0.67647059 0.66078431 0.64509804
0.69246324 0.67677696 0.66323529
0.69215686 0.67647059 0.66078431
0.71715686 0.70410539 0.68811275
0.75232843 0.73933824 0.72107843
0.78235294 0.77064951 0.75490196
0.80931373 0.79754902 0.78186275
0.81568627 0.80784314 0.78431373
0.80392157 0.79215686 0.77254902
0.8 0.78823529 0.76862745
0.81421569 0.80245098 0.78284314
0.80392157 0.79215686 0.77647059
0.82647059 0.81715686 0.79901961
0.86666667 0.85588235 0.84019608
0.89068627 0.88284314 0.86715686
0.93333333 0.92941176 0.91764706
0.084803922 0.084313725 0.08872549
0.094607843 0.091176471 0.098590686
0.20343137 0.18823529 0.19215686
0.3004902 0.28333333 0.28480392
0.40539216 0.38578431 0.38578431
0.48088235 0.46127451 0.46127451
0.53872549 0.51948529 0.51519608
0.58921569 0.57303922 0.56170343
0.64313725 0.62745098 0.61519608
0.10245098 0.098529412 0.10637255
0.16519608 0.15424326 0.1608992
0.2261489 0.21046262 0.21213235
0.31568627 0.29591759 0.29650735
0.40539216 0.38578431 0.38578431
0.4771829 0.45773591 0.45735294
0.53785233 0.5182598 0.513894
0.59613971 0.57739737 0.56868873
0.65098039 0.63523284 0.61960784
0.22990196 0.21556373 0.21948529
0.24607843 0.23039216 0.23399203
0.28985907 0.27110907 0.27417279
0.3467065 0.32473958 0.32806373
0.42426471 0.40245098 0.40294118
0.4803462 0.46073836 0.46029412
0.53872549 0.51911765 0.51547181
0.60098039 0.58186275 0.57352941
0.66666667 0.65085784 0.63529412
0.34754902 0.33039216 0.33186275
0.35768229 0.33850337 0.33866422
0.37794118 0.35553002 0.35833333
0.40931373 0.3872549 0.38970588
0.45229779 0.43063725 0.43137255
0.49509804 0.47408854 0.47401961
0.54264706 0.52303922 0.52103248
0.60441176 0.58743873 0.57726716
0.66029412 0.64460784 0.62892157
0.44852941 0.42892157 0.42892157
0.4502451 0.42892157 0.42892157
0.45441176 0.43431373 0.43302696
0.46470588 0.44402574 0.44402574
0.49276961 0.47303922 0.47107843
0.52843137 0.50882353 0.50499387
0.56721814 0.54767157 0.54105392
0.62205882 0.60294118 0.59289216
0.66960784 0.65392157 0.63651961
0.52058824 0.50226716 0.5004902
0.52012102 0.50067402 0.49705882
0.52009804 0.50226716 0.5004902
0.52658548 0.5078508 0.50460325
0.54191176 0.52230392 0.51773897
0.56353401 0.54392616 0.53627451
0.604856 0.58690257 0.57708333
0.65490196 0.6377451 0.62352941
0.71158088 0.69607843 0.67628676
0.58713235 0.56752451 0.5622549
0.58982843 0.57129289 0.56349571
0.59181985 0.57536765 0.56629902
0.58872549 0.57303922 0.56354167
0.60563725 0.5879902 0.57622549
0.6317402 0.61482843 0.60306373
0.66176471 0.6458027 0.63039216
0.70140931 0.68877145 0.66917892
0.75183824 0.74007353 0.71960784
0.68823529 0.67254902 0.66078431
0.69172794 0.67604167 0.66158854
0.68941483 0.67604167 0.66029412
0.70349265 0.68823529 0.67254902
0.70346201 0.68995098 0.67233456
0.72352941 0.70931373 0.69215686
0.74411765 0.73235294 0.7127451
0.77892157 0.76715686 0.74754902
0.82408088 0.81323529 0.79362745
0.80784314 0.8 0.77647059
0.81862745 0.80686275 0.7872549
0.81176471 0.8 0.78039216
0.8096201 0.79785539 0.77843137
0.81764706 0.80784314 0.78848039
0.83155637 0.82352941 0.80410539
0.86372549 0.85539216 0.83970588
0.89019608 0.88284314 0.86758578
0.91372549 0.90980392 0.89754902
0.21176471 0.20392157 0.20784314
0.25 0.23480392 0.23872549
0.28921569 0.26960784 0.27352941
0.35441176 0.3314951 0.33480392
0.43627451 0.41470588 0.41666667
0.50784314 0.48823529 0.48823529
0.5625 0.54289216 0.53897059
0.61568627 0.59607843 0.5877451
0.66960784 0.65392157 0.63823529
0.24607843 0.23468137 0.23823529
0.27352941 0.25784314 0.25903799
0.31148897 0.29316789 0.29552696
0.37892157 0.35539216 0.35931373
0.44515931 0.42254902 0.42512255
0.51176471 0.49215686 0.49215686
0.56176471 0.54289216 0.53897059
0.61643689 0.59929534 0.58823529
0.67610294 0.65784314 0.64215686
0.30171569 0.28504902 0.28529412
0.33186275 0.3122549 0.31568627
0.37058824 0.35098039 0.35171569
0.4135723 0.39102328 0.39396446
0.46078431 0.43933824 0.44117647
0.51559436 0.49598652 0.49571078
0.56789216 0.5497549 0.54509804
0.62352941 0.60392157 0.59598652
0.69215686 0.67352941 0.65686275
0.39068627 0.37107843 0.37107843
0.40980392 0.38765319 0.38742341
0.42855392 0.40667892 0.40667892
0.44561887 0.42316176 0.42536765
0.48425245 0.4629902 0.46317402
0.52506127 0.50545343 0.5033701
0.57745098 0.55968137 0.55355392
0.63382353 0.61568627 0.60392157
0.69669118 0.67990196 0.66176471
0.47401961 0.45441176 0.45392157
0.47745098 0.45784314 0.45392157
0.48529412 0.46433824 0.46176471
0.49613971 0.47567402 0.47567402
0.52230392 0.50269608 0.50098039
0.55147059 0.53259804 0.52867647
0.59411765 0.575 0.56715686
0.64577206 0.62794118 0.61568627
0.70196078 0.68627451 0.66666667
0.54522059 0.52745098 0.52352941
0.54460784 0.52745098 0.52147672
0.55052083 0.53137255 0.52352941
0.5555913 0.53898591 0.53382353
0.56078431 0.54209559 0.53756127
0.58512561 0.56606924 0.56029412
0.625 0.60548407 0.59525123
0.66384804 0.64589461 0.63247549
0.70735294 0.69166667 0.67389706
0.6127451 0.59313725 0.58235294
0.61629902 0.59705882 0.58550858
0.61666667 0.6002451 0.58848039
0.6229473 0.60588235 0.59375
0.62512255 0.60588235 0.59705882
0.64558824 0.62723652 0.61421569
0.67647059 0.66078431 0.64436275
0.70248162 0.68688725 0.66727941
0.74411765 0.73235294 0.7127451
0.70686275 0.69117647 0.6754902
0.70735294 0.6917739 0.67608762
0.70686275 0.69221814 0.67558211
0.70502451 0.69094669 0.6713848
0.71360294 0.69803922 0.6783701
0.73521752 0.72264093 0.70303309
0.75441176 0.74264706 0.71911765
0.78664216 0.77380515 0.75404412
0.84411765 0.83272059 0.81666667
0.81862745 0.80686275 0.7872549
0.81960784 0.80784314 0.79117647
0.83529412 0.82720588 0.80759804
0.82904412 0.81911765 0.7995098
0.83431373 0.82647059 0.80686275
0.84068627 0.83284314 0.81323529
0.86985294 0.8620098 0.84632353
0.89460784 0.89031863 0.875
0.90294118 0.89509804 0.88333333
0.33921569 0.32745098 0.32745098
0.38008578 0.36207108 0.3622549
0.40698529 0.38529412 0.38737745
0.4254902 0.40196078 0.40496324
0.47818627 0.45661765 0.45784314
0.5372549 0.51819853 0.5161152
0.58811275 0.56911765 0.56237745
0.64656863 0.63088235 0.61911765
0.7004902 0.6872549 0.66911765
0.3776348 0.35980392 0.35980392
0.39748775 0.37922794 0.37922794
0.42028186 0.40067402 0.40203738
0.44833793 0.42715993 0.42738971
0.48446691 0.46341912 0.46485907
0.53872549 0.51911765 0.5181296
0.59264706 0.57303922 0.56822917
0.65046722 0.63088235 0.61911765
0.70441176 0.68872549 0.67273284
0.41090686 0.39166667 0.39129902
0.41813725 0.39852941 0.39852941
0.45355392 0.43284314 0.43394608
0.47904412 0.45840993 0.4592065
0.50410539 0.48431373 0.48339461
0.55232843 0.53340993 0.5301011
0.60186887 0.58226103 0.57598039
0.65698529 0.63760723 0.62593444
0.71727941 0.70343137 0.68419118
0.43633578 0.41672794 0.41464461
0.45876225 0.43823529 0.43823529
0.47719056 0.45551471 0.45379902
0.49846814 0.47647059 0.47647059
0.53143382 0.51155025 0.50836397
0.56436121 0.54532782 0.5394761
0.6122549 0.59379596 0.58466605
0.665625 0.64656863 0.63473499
0.71887255 0.70073529 0.68296569
0.5004902 0.48088235 0.47892157
0.50441176 0.48480392 0.48480392
0.52365196 0.50404412 0.50012255
0.53673407 0.51712623 0.51348039
0.55857843 0.53897059 0.53308824
0.58746936 0.56966912 0.56228554
0.625 0.60710784 0.59558824
0.67009804 0.65441176 0.63838848
0.72916667 0.71348039 0.69387255
0.5754902 0.55980392 0.55349265
0.57450214 0.55833333 0.5504902
0.58102022 0.5622549 0.55441176
0.58578431 0.56975337 0.55890778
0.59365809 0.57647059 0.56666667
0.61658241 0.59754902 0.58823529
0.65294118 0.63627451 0.62267157
0.69068627 0.675 0.65931373
0.71917892 0.70349265 0.6838848
0.64362745 0.62401961 0.6122549
0.6462163 0.62847733 0.6160386
0.64990809 0.63284314 0.6198223
0.65539216 0.63970588 0.62401961
0.65588235 0.64019608 0.62401961
0.66793811 0.64954044 0.63385417
0.70076593 0.68391544 0.66813725
0.73468137 0.71862745 0.69901961
0.75980392 0.74411765 0.7245098
0.7377451 0.72334559 0.70637255
0.7435432 0.72990196 0.71243873
0.7373315 0.72452512 0.7069087
0.73756127 0.72205882 0.70459559
0.734375 0.71985294 0.6984375
0.75166973 0.73803615 0.71923254
0.78102022 0.76533395 0.74600184
0.81011029 0.79675245 0.7771829
0.86354167 0.85177696 0.83609069
0.84558824 0.8377451 0.81813725
0.84607843 0.83823529 0.81862745
0.83529412 0.82598039 0.81029412
0.84466912 0.83382353 0.81666667
0.84828431 0.8377451 0.82083333
0.85398284 0.84558824 0.8283701
0.87585784 0.86580882 0.85294118
0.9004902 0.89264706 0.88088235
0.90294118 0.89509804 0.88333333
0.45882353 0.44313725 0.43921569
0.4879902 0.46838235 0.46813725
0.50539216 0.48578431 0.48382353
0.51813725 0.49852941 0.49534314
0.54019608 0.52058824 0.51862745
0.56102941 0.54460784 0.53872549
0.60735294 0.58970588 0.57990196
0.67745098 0.6622549 0.64632353
0.74117647 0.72745098 0.70784314
0.48161765 0.46397059 0.46029412
0.49515931 0.47598039 0.47248775
0.51360294 0.4939951 0.49276961
0.52515319 0.50554534 0.50410539
0.54117647 0.52156863 0.52058824
0.56942402 0.55214461 0.54589461
0.61911765 0.6 0.59142157
0.6848652 0.6676777 0.65370711
0.74313725 0.72941176 0.70980392
0.4995098 0.47990196 0.47598039
0.50753676 0.48792892 0.48400735
0.52377451 0.50490196 0.50183824
0.54080882 0.52120098 0.51727941
0.55441176 0.53480392 0.53088235
0.58676471 0.56752451 0.56029412
0.63235294 0.61397059 0.60294118
0.69332108 0.67696078 0.66127451
0.75098039 0.7372549 0.71764706
0.51102941 0.49142157 0.48627451
0.5213848 0.50177696 0.49803922
0.53406863 0.51446078 0.51164216
0.55315564 0.53354779 0.52840074
0.57279412 0.55318627 0.54534314
0.60147059 0.58186275 0.57205882
0.65061275 0.6310049 0.61893382
0.70628064 0.68872549 0.67288603
0.77107843 0.75612745 0.73455882
0.53921569 0.51960784 0.51764706
0.54313725 0.52352941 0.52242647
0.55980392 0.54019608 0.53553922
0.57573529 0.55772059 0.55085784
0.59705882 0.57843137 0.56960784
0.62107843 0.60539216 0.59362745
0.6620098 0.64240196 0.62720588
0.71482843 0.69926471 0.68235294
0.78235294 0.76666667 0.74509804
0.58995098 0.57156863 0.56568627
0.59886642 0.58121936 0.57328431
0.60490196 0.58639706 0.57745098
0.6161152 0.5995098 0.5877451
0.6310049 0.61531863 0.60318627
0.6495098 0.63354779 0.62058824
0.68976716 0.67126225 0.65447304
0.73161765 0.71593137 0.69828431
0.78039216 0.76470588 0.74509804
0.66960784 0.65343137 0.63970588
0.67542892 0.65931373 0.64313725
0.68051471 0.66372549 0.64705882
0.68572304 0.67003676 0.65196078
0.69117647 0.6754902 0.65955882
0.70196078 0.68535539 0.66936275
0.73137255 0.71568627 0.69595588
0.76948529 0.75637255 0.73419118
0.80196078 0.78627451 0.77009804
0.76470588 0.75294118 0.73333333
0.77034314 0.75686275 0.73771446
0.76862745 0.75661765 0.7372549
0.77598039 0.76176471 0.74396446
0.77034314 0.75661765 0.7372549
0.77025123 0.75768995 0.73823529
0.80441176 0.79246324 0.77303922
0.83507966 0.82352941 0.80612745
0.87352941 0.86397059 0.8502451
0.86078431 0.85294118 0.83333333
0.87205882 0.86421569 0.84852941
0.88137255 0.87352941 0.85784314
0.85882353 0.85098039 0.83529412
0.87254902 0.8627451 0.84705882
0.87647059 0.86862745 0.85294118
0.8872549 0.87941176 0.86519608
0.91029412 0.90269608 0.89093137
0.93921569 0.93529412 0.9254902
0.56764706 0.5495098 0.54166667
0.57677696 0.55735294 0.55165441
0.58382353 0.56519608 0.55735294
0.59901961 0.57996324 0.57457108
0.62009804 0.60245098 0.59387255
0.62493873 0.60833333 0.59748775
0.63737745 0.62169118 0.60784314
0.70833333 0.69313725 0.67696078
0.77254902 0.76078431 0.7372549
0.56911765 0.5495098 0.54509804
0.57696078 0.55735294 0.55165441
0.58382353 0.56475184 0.55735294
0.59901961 0.57996324 0.57457108
0.61951593 0.60171569 0.59313725
0.63039216 0.61305913 0.60274969
0.64407169 0.62838542 0.6154565
0.71243873 0.69818474 0.68088235
0.78039216 0.76832108 0.74509804
0.57879902 0.56127451 0.55306373
0.58480392 0.56680453 0.5589614
0.59212623 0.5729473 0.56648284
0.60755208 0.58973652 0.58189338
0.62506127 0.60545343 0.59656863
0.63823529 0.62179841 0.60911458
0.65021446 0.63406863 0.61884191
0.7310049 0.71554841 0.69594056
0.79754902 0.78578431 0.76286765
0.58088235 0.56127451 0.55343137
0.58872549 0.56911765 0.56127451
0.60127145 0.58258272 0.5745098
0.62084865 0.60202206 0.593053
0.63627451 0.61862745 0.60640319
0.65149357 0.63373928 0.61954657
0.6814951 0.66580882 0.64840686
0.74001225 0.72432598 0.70594363
0.80147059 0.78970588 0.76617647
0.59852941 0.57892157 0.56960784
0.60098039 0.58137255 0.57352941
0.61084559 0.59234069 0.58284314
0.63161765 0.61351103 0.60220588
0.6497549 0.63272059 0.61960784
0.66957721 0.65343137 0.6377451
0.70655637 0.68976716 0.67199755
0.75922181 0.74362745 0.72401961
0.81323529 0.79901961 0.77941176
0.62101716 0.60196078 0.59264706
0.62787224 0.60833333 0.59656863
0.63448223 0.61709559 0.6051011
0.65 0.63431373 0.61954657
0.6778799 0.66219363 0.64727328
0.70057445 0.68523284 0.66862745
0.73126532 0.71519608 0.69545037
0.78339461 0.76793811 0.74810049
0.83523284 0.82346814 0.80594363
0.69068627 0.675 0.66115196
0.69460784 0.67892157 0.66323529
0.7018076 0.68612132 0.66789216
0.71776961 0.70428922 0.68639706
0.72745098 0.71176471 0.69362745
0.74146752 0.72601103 0.70747549
0.76960784 0.75490196 0.73529412
0.80704657 0.79313725 0.77352941
0.85943627 0.84767157 0.83198529
0.78756127 0.7745098 0.75637255
0.79101563 0.77595741 0.75637255
0.79509804 0.78204657 0.76029412
0.80527727 0.79362745 0.77500766
0.81470588 0.803125 0.78743873
0.82009804 0.80913756 0.79345129
0.83426777 0.82317708 0.80749081
0.85795037 0.84983915 0.83302696
0.88823529 0.88039216 0.86734069
0.8877451 0.88382353 0.86813725
0.89509804 0.8872549 0.871875
0.89227941 0.88443627 0.87205882
0.88719363 0.87990196 0.86421569
0.89632353 0.89044118 0.87745098
0.89558824 0.89166667 0.87689951
0.90441176 0.90012255 0.88480392
0.92726716 0.92334559 0.91158088
0.9245098 0.92058824 0.90882353
0.65686275 0.63823529 0.62647059
0.6692402 0.65355392 0.63823529
0.68137255 0.66568627 0.65
0.69558824 0.67990196 0.66421569
0.70637255 0.68921569 0.675
0.71666667 0.70098039 0.68529412
0.73333333 0.72083333 0.70490196
0.74718137 0.73186275 0.71311275
0.78137255 0.76862745 0.74607843
0.66127451 0.64301471 0.62990196
0.66879596 0.65085784 0.6377451
0.67745098 0.66176471 0.64607843
0.69166667 0.67745098 0.66029412
0.70686275 0.68921569 0.675
0.721875 0.7069087 0.69068627
0.7372549 0.72423407 0.70588235
0.75539216 0.73970588 0.72009804
0.8004902 0.78480392 0.76519608
0.67279412 0.65710784 0.64215686
0.67254902 0.65392157 0.64044118
0.68131127 0.66544118 0.64957108
0.69669118 0.6810049 0.66421569
0.71237745 0.69558824 0.68296569
0.72478554 0.71047794 0.6935049
0.73707108 0.72395833 0.70490196
0.75183824 0.73615196 0.71375613
0.80906863 0.79705882 0.7752451
0.68137255 0.66568627 0.65
0.68137255 0.66230086 0.64967831
0.68529412 0.66960784 0.65367647
0.70320159 0.68682598 0.67113971
0.72003676 0.70465686 0.6877451
0.73558517 0.72012868 0.701731
0.74473039 0.73088235 0.70989583
0.76570159 0.75343137 0.72990196
0.82585784 0.81372549 0.79448529
0.67598039 0.65637255 0.64068627
0.68363971 0.66568627 0.65042892
0.68835784 0.66997549 0.65428922
0.70735294 0.69166667 0.67598039
0.72647059 0.71176471 0.69240196
0.74681373 0.73308824 0.71348039
0.76740196 0.75453431 0.73443627
0.78823529 0.77647059 0.75294118
0.85637255 0.84656863 0.82892157
0.69460784 0.67892157 0.66286765
0.70245098 0.68676471 0.67107843
0.70539216 0.68897059 0.67107843
0.72306985 0.70859375 0.68967525
0.74313725 0.72886029 0.70925245
0.767356 0.75476409 0.73362439
0.79764093 0.78541667 0.76436887
0.83564645 0.82401961 0.80526961
0.88333333 0.8754902 0.85980392
0.71862745 0.70294118 0.68333333
0.72536765 0.71338848 0.69237132
0.73308824 0.71764706 0.69803922
0.7622549 0.74800858 0.72766544
0.76813725 0.75477941 0.73517157
0.79264706 0.77867647 0.76127451
0.81881127 0.80704657 0.7875
0.8546875 0.84635417 0.83002451
0.89215686 0.88431373 0.87181373
0.81433824 0.80257353 0.78333333
0.80943627 0.79541973 0.77591912
0.81400123 0.80251225 0.78290441
0.82561275 0.81605392 0.79816176
0.84099265 0.83137255 0.81525735
0.85525429 0.84558824 0.82990196
0.87647059 0.86862745 0.8533701
0.88990502 0.88218444 0.8703125
0.91911765 0.9122549 0.90098039
0.91078431 0.90588235 0.89117647
0.89803922 0.89019608 0.87806373
0.90686275 0.90294118 0.89117647
0.91041667 0.90477941 0.89362745
0.92401961 0.92009804 0.90833333
0.92671569 0.92169118 0.91139706
0.9379902 0.93406863 0.92254902
0.94522059 0.94129902 0.93088235
0.9627451 0.95882353 0.95392157
0.775 0.76666667 0.75098039
0.78578431 0.7745098 0.75839461
0.79019608 0.77892157 0.7627451
0.79411765 0.78498775 0.7653799
0.80588235 0.79411765 0.7745098
0.81764706 0.80588235 0.78805147
0.83676471 0.82512255 0.80980392
0.84117647 0.82941176 0.81715686
0.83284314 0.82107843 0.80539216
0.77058824 0.75882353 0.74319853
0.77843137 0.76666667 0.75098039
0.78235294 0.77129289 0.75189951
0.79260876 0.78235294 0.76145833
0.80738358 0.79583333 0.77843137
0.82238817 0.81109069 0.79381127
0.83688725 0.82634804 0.810769
0.84901961 0.84025735 0.82505362
0.85202206 0.84068627 0.825
0.78235294 0.76960784 0.75490196
0.78235294 0.77058824 0.75526961
0.78866422 0.77689951 0.75909926
0.79960172 0.78811275 0.77205882
0.81691176 0.80563725 0.79148284
0.82852328 0.81734069 0.80111826
0.84172794 0.83229167 0.81467525
0.84901961 0.83772978 0.82193627
0.86029412 0.84852941 0.83321078
0.79393382 0.78088235 0.76666667
0.79283088 0.77892157 0.76323529
0.79411765 0.78235294 0.76666667
0.80925245 0.79803922 0.7838848
0.8245098 0.81167279 0.79715074
0.83714001 0.82617953 0.80968903
0.84995404 0.84134498 0.82254902
0.86062347 0.84932598 0.83333333
0.88186275 0.87009804 0.85704657
0.7997549 0.78823529 0.7745098
0.79803922 0.78627451 0.77257966
0.79669118 0.78529412 0.77058824
0.81185662 0.80033701 0.7854473
0.82720588 0.81556373 0.79987745
0.84543505 0.8346201 0.81813725
0.8627451 0.8536152 0.83553922
0.87797181 0.87012868 0.85143995
0.90245098 0.89289216 0.87941176
0.78970588 0.778125 0.76243873
0.8030867 0.79405637 0.7783701
0.80324755 0.79327512 0.7745098
0.81635263 0.80576746 0.78627451
0.83489583 0.82481618 0.80848652
0.85245098 0.84460784 0.82765012
0.87400429 0.86616115 0.85047488
0.89703585 0.89136029 0.877428
0.91421569 0.90784314 0.89607843
0.81556373 0.8064951 0.79080882
0.81813725 0.80911458 0.79117647
0.82181373 0.81029412 0.79096201
0.83013174 0.82077206 0.80147059
0.84877451 0.83964461 0.82352941
0.86654412 0.85770527 0.84223346
0.88376225 0.8765625 0.86213235
0.9122549 0.90736826 0.89661458
0.92732843 0.92340686 0.91433824
0.86911765 0.86133578 0.84607843
0.86084559 0.85305607 0.83463542
0.85208333 0.84198836 0.82274816
0.86170343 0.85386029 0.83817402
0.8705576 0.8627451 0.84705882
0.88952206 0.88006281 0.86626072
0.91182598 0.90441176 0.89276961
0.93867188 0.93517923 0.92738971
0.95392157 0.95 0.94607843
0.92205882 0.91813725 0.90637255
0.92205882 0.91813725 0.90637255
0.92941176 0.9254902 0.91764706
0.93204657 0.92665441 0.91666667
0.94117647 0.9372549 0.92965686
0.94295343 0.93743873 0.93118873
0.96090686 0.95747549 0.94963235
0.96127451 0.96078431 0.95294118
0.96862745 0.96470588 0.96078431
0.89803922 0.89019608 0.8745098
0.90245098 0.89852941 0.88284314
0.90490196 0.90098039 0.88627451
0.90196078 0.89803922 0.88235294
0.91568627 0.91176471 0.9
0.92156863 0.91764706 0.90588235
0.9254902 0.91862745 0.90980392
0.9372549 0.93284314 0.925
0.92156863 0.91372549 0.90588235
0.88627451 0.87843137 0.86323529
0.88676471 0.88235294 0.86666667
0.90232843 0.89754902 0.88578431
0.88357843 0.87720588 0.86415441
0.91764706 0.91348039 0.90171569
0.92892157 0.925 0.91323529
0.93026961 0.9254902 0.91470588
0.94852941 0.94460784 0.93676471
0.9372549 0.93333333 0.925
0.88627451 0.87843137 0.86666667
0.89669118 0.88884804 0.87708333
0.90490196 0.89705882 0.88529412
0.90490196 0.89767157 0.88590686
0.91960784 0.91372549 0.90392157
0.9254902 0.91911765 0.90980392
0.9372549 0.93112745 0.92328431
0.94117647 0.9372549 0.92855392
0.94509804 0.94117647 0.93627451
0.89411765 0.88627451 0.8745098
0.89932598 0.89362745 0.88186275
0.91715686 0.91323529 0.90110294
0.91317402 0.90833333 0.89656863
0.90833333 0.89901961 0.88872549
0.92849265 0.92064951 0.90980392
0.93823529 0.93284314 0.92316176
0.94509804 0.94117647 0.93333333
0.95686275 0.9504902 0.94656863
0.90196078 0.89803922 0.88627451
0.90784314 0.90392157 0.89215686
0.89656863 0.89117647 0.87941176
0.90980392 0.90588235 0.89411765
0.92352941 0.91960784 0.91176471
0.93333333 0.92745098 0.91960784
0.94166667 0.9372549 0.93039216
0.95514706 0.95122549 0.94705882
0.95686275 0.95294118 0.94901961
0.87843137 0.87058824 0.85882353
0.89607843 0.88970588 0.87775735
0.90490196 0.89803922 0.88921569
0.91911765 0.91372549 0.90588235
0.9252451 0.92058824 0.91151961
0.9372549 0.92941176 0.92156863
0.94117647 0.9372549 0.92941176
0.94901961 0.94509804 0.9372549
0.94754902 0.94509804 0.9372549
0.90784314 0.90294118 0.88823529
0.91568627 0.91176471 0.9
0.91078431 0.90588235 0.89411765
0.92156863 0.91654412 0.90833333
0.92696078 0.92254902 0.91323529
0.94117647 0.9372549 0.92941176
0.94607843 0.94215686 0.93431373
0.96568627 0.96556373 0.96127451
0.96078431 0.95784314 0.95392157
0.92941176 0.9254902 0.91372549
0.92941176 0.9254902 0.91372549
0.93382353 0.92990196 0.91813725
0.93529412 0.93137255 0.92352941
0.93357843 0.92794118 0.92009804
0.95686275 0.95294118 0.94901961
0.95686275 0.95294118 0.94644608
0.9651348 0.96470588 0.96078431
0.96813725 0.96470588 0.96078431
0.93333333 0.92941176 0.91764706
0.9372549 0.93333333 0.92156863
0.94117647 0.9372549 0.9254902
0.94509804 0.94117647 0.93333333
0.94509804 0.93921569 0.93529412
0.97009804 0.96617647 0.96617647
0.96862745 0.96764706 0.96078431
0.96470588 0.96470588 0.95686275
0.96470588 0.96078431 0.95686275
