site/assets/luts/sha256-6c04c088d86cb5bc034f2c1f70fc26f53e07379579174c9952b9bff85121c876.cube
# LUTr-Schema-Version: 2
# LUTr-ID: sha256-6c04c088d86cb5bc034f2c1f70fc26f53e07379579174c9952b9bff85121c876
# LUTr-Title: polaroid time zero (expired) --
# LUTr-Collection: Natron HaldCLUT
# LUTr-Collection-ID: natron-haldclut-presets
# LUTr-Source: https://github.com/NatronGitHub/clut
# LUTr-Retrieved: 2026-07-27
# LUTr-Source-File: submissions/natron-haldclut-presets/instant_consumer/polaroid_time_zero_(expired)_--.png
# LUTr-Source-Format: HALD-PNG
# LUTr-Source-SHA256: 6c04c088d86cb5bc034f2c1f70fc26f53e07379579174c9952b9bff85121c876
# LUTr-License: CC-BY-SA-4.0
# LUTr-License-URL: https://github.com/NatronGitHub/clut#license
# LUTr-License-Basis: repo-license-file
# LUTr-Transform-Class: film-emulation
# LUTr-Tags: creative, film, film-emulation, hald-clut, natron, png, cube
# LUTr-Input-Color-Space: srgb
# LUTr-Input-Gamut: rec709
# LUTr-Input-Transfer: srgb
# LUTr-Output-Color-Space: srgb
# LUTr-Output-Gamut: rec709
# LUTr-Output-Transfer: srgb
# LUTr-Color-Space-Confidence: assumed-display-referred
# LUTr-Domain-Normalized: true
# LUTr-Shaper: none
# LUTr-Original-Grid: 64x64x64
# LUTr-Conversion-Grid: 25x25x25
# LUTr-Conversion-Interpolation: trilinear
# LUTr-Conversion-Method: HALD-PNG LUT image decoded at 16-bit and sampled to 25x25x25 3D CUBE
# LUTr-Conversion-Tool: LUTr scripts/convert-all-to-cube.mjs 2.0.0
# LUTr-Conversion-Date: 2026-07-27
# LUTr-Note: Preserve this metadata and the upstream license notices when redistributing.
TITLE "polaroid time zero (expired) --"
LUT_3D_SIZE 5
DOMAIN_MIN 0 0 0
DOMAIN_MAX 1 1 1
0.24705882 0.074509804 0.035294118
0.30490196 0.070588235 0.035294118
0.46666667 0.017647059 0.033333333
0.73431373 0.0039215686 0.015686275
0.96862745 0.058823529 0.0078431373
0.27352941 0.17254902 0.016666667
0.32647059 0.16102941 0.0080882353
0.50392157 0.1627451 0.0078431373
0.77156863 0.13529412 0
0.95686275 0.25098039 0
0.38627451 0.42941176 0
0.45539216 0.4372549 0
0.63137255 0.44901961 0
0.82205882 0.48137255 0.0039215686
0.95882353 0.51764706 0.0019607843
0.57156863 0.69803922 0
0.61568627 0.69313725 0
0.725 0.68921569 0.0039215686
0.85784314 0.72377451 0.0036764706
0.94509804 0.74019608 0.24313725
0.74117647 0.85882353 0
0.75196078 0.84705882 0.010784314
0.81960784 0.85294118 0.0078431373
0.91078431 0.86568627 0.28921569
0.96470588 0.85882353 0.54509804
0.27745098 0.078431373 0.080392157
0.30490196 0.074509804 0.086029412
0.47401961 0.030392157 0.10539216
0.76078431 0.0022058824 0.12328431
0.97254902 0.097058824 0.13431373
0.2875 0.15710784 0.070343137
0.35275735 0.17254902 0.081311275
0.54240196 0.16715686 0.084313725
0.7903799 0.15808824 0.082414216
0.96568627 0.27377451 0.10784314
0.38284314 0.43529412 0.017647059
0.46360294 0.44313725 0.0039215686
0.65294118 0.45955882 0.013480392
0.81580882 0.46948529 0.012254902
0.9504902 0.51715686 0.041176471
0.57156863 0.69240196 0.012009804
0.60563725 0.69803922 0.0071078431
0.73431373 0.70098039 0.0078431373
0.86151961 0.72604167 0.11813725
0.94117647 0.74019608 0.32647059
0.75588235 0.8627451 0.16470588
0.76568627 0.85980392 0.1129902
0.81764706 0.86029412 0.04754902
0.90392157 0.85882353 0.33235294
0.96372549 0.85784314 0.55882353
0.43333333 0.094117647 0.30980392
0.46911765 0.09754902 0.32156863
0.56666667 0.098039216 0.31960784
0.79019608 0.0078431373 0.36666667
0.95882353 0.21764706 0.41176471
0.49313725 0.21666667 0.32401961
0.53676471 0.24313725 0.32941176
0.62647059 0.25 0.33602941
0.81458333 0.21568627 0.36458333
0.95931373 0.34509804 0.39852941
0.49705882 0.44215686 0.28431373
0.56715686 0.45441176 0.28897059
0.6995098 0.48431373 0.31960784
0.83970588 0.49093137 0.31887255
0.94509804 0.55784314 0.36078431
0.59852941 0.69313725 0.28186275
0.64681373 0.70563725 0.30061275
0.73406863 0.71642157 0.26446078
0.85612745 0.73308824 0.41078431
0.92598039 0.72990196 0.47107843
0.76666667 0.85882353 0.45882353
0.77598039 0.85784314 0.44117647
0.81862745 0.85882353 0.40686275
0.9 0.86323529 0.46666667
0.9627451 0.8627451 0.65882353
0.67352941 0.22941176 0.6627451
0.69534314 0.26470588 0.66593137
0.74068627 0.30441176 0.66862745
0.8254902 0.36764706 0.66666667
0.91176471 0.36666667 0.66568627
0.71176471 0.38995098 0.65098039
0.73167892 0.41531863 0.6627451
0.76764706 0.45294118 0.67058824
0.83314951 0.47083333 0.65802696
0.93235294 0.46470588 0.67622549
0.73627451 0.5627451 0.63921569
0.76813725 0.59215686 0.64473039
0.80637255 0.63039216 0.65441176
0.84803922 0.6307598 0.66311275
0.90980392 0.59607843 0.65490196
0.72034314 0.72058824 0.60588235
0.74295343 0.71666667 0.60226716
0.79509804 0.7314951 0.62022059
0.85349265 0.74074755 0.64705882
0.91740196 0.74313725 0.64240196
0.78529412 0.84803922 0.67058824
0.78921569 0.85098039 0.66642157
0.81764706 0.84803922 0.66568627
0.87843137 0.86176471 0.65490196
0.94117647 0.84803922 0.74313725
0.81568627 0.59215686 0.85490196
0.81960784 0.6 0.85490196
0.83333333 0.61960784 0.85490196
0.85980392 0.66176471 0.86568627
0.88627451 0.67843137 0.85882353
0.82745098 0.65392157 0.85490196
0.83112745 0.66176471 0.85392157
0.84313725 0.66960784 0.85098039
0.8627451 0.69313725 0.85490196
0.88529412 0.70882353 0.85882353
0.84705882 0.7372549 0.84901961
0.85098039 0.73578431 0.85098039
0.85882353 0.74313725 0.84901961
0.87696078 0.75882353 0.85882353
0.89803922 0.75882353 0.85490196
0.83529412 0.78137255 0.84705882
0.8375 0.78063725 0.83455882
0.86862745 0.79852941 0.85490196
0.89411765 0.8120098 0.85784314
0.92156863 0.82156863 0.87156863
0.83921569 0.85490196 0.85490196
0.83627451 0.85098039 0.82843137
0.8627451 0.85098039 0.8627451
0.89803922 0.85098039 0.87058824
0.94901961 0.87058824 0.88627451
