site/assets/luts/sha256-bd040f24477d1e58881951a99c2af45cc812c3c561af66c26cc12a0bada9e1e2.cube
# LUTr-Schema-Version: 2
# LUTr-ID: sha256-bd040f24477d1e58881951a99c2af45cc812c3c561af66c26cc12a0bada9e1e2
# LUTr-Title: fuji fp-100c negative
# LUTr-Collection: Natron HaldCLUT
# LUTr-Collection-ID: natron-haldclut-presets
# LUTr-Source: https://github.com/NatronGitHub/clut
# LUTr-Retrieved: 2026-07-27
# LUTr-Source-File: submissions/natron-haldclut-presets/instant_pro/fuji_fp-100c_negative.png
# LUTr-Source-Format: HALD-PNG
# LUTr-Source-SHA256: bd040f24477d1e58881951a99c2af45cc812c3c561af66c26cc12a0bada9e1e2
# LUTr-License: CC-BY-SA-4.0
# LUTr-License-URL: https://github.com/NatronGitHub/clut#license
# LUTr-License-Basis: repo-license-file
# LUTr-Transform-Class: film-emulation
# LUTr-Tags: creative, film, film-emulation, hald-clut, natron, png, cube
# LUTr-Input-Color-Space: srgb
# LUTr-Input-Gamut: rec709
# LUTr-Input-Transfer: srgb
# LUTr-Output-Color-Space: srgb
# LUTr-Output-Gamut: rec709
# LUTr-Output-Transfer: srgb
# LUTr-Color-Space-Confidence: assumed-display-referred
# LUTr-Domain-Normalized: true
# LUTr-Shaper: none
# LUTr-Original-Grid: 64x64x64
# LUTr-Conversion-Grid: 25x25x25
# LUTr-Conversion-Interpolation: trilinear
# LUTr-Conversion-Method: HALD-PNG LUT image decoded at 16-bit and sampled to 25x25x25 3D CUBE
# LUTr-Conversion-Tool: LUTr scripts/convert-all-to-cube.mjs 2.0.0
# LUTr-Conversion-Date: 2026-07-27
# LUTr-Note: Preserve this metadata and the upstream license notices when redistributing.
TITLE "fuji fp-100c negative"
LUT_3D_SIZE 25
DOMAIN_MIN 0 0 0
DOMAIN_MAX 1 1 1
0.054901961 0.10588235 0.082352941
0.054901961 0.10588235 0.082352941
0.054901961 0.10196078 0.082352941
0.054901961 0.10196078 0.078431373
0.060784314 0.10196078 0.078431373
0.095588235 0.10196078 0.078431373
0.12941176 0.10196078 0.078431373
0.16127451 0.098039216 0.078431373
0.19215686 0.098039216 0.078431373
0.24607843 0.089215686 0.074509804
0.31176471 0.076470588 0.074509804
0.37009804 0.063235294 0.070588235
0.44705882 0.037254902 0.070588235
0.52107843 0.01127451 0.070588235
0.58921569 0.021568627 0.074509804
0.65196078 0.032352941 0.074509804
0.70196078 0.011764706 0.066666667
0.75343137 0.017156863 0.083333333
0.8 0.042156863 0.089215686
0.84460784 0.11813725 0.078921569
0.89019608 0.19607843 0.074509804
0.92745098 0.2495098 0.091176471
0.9627451 0.30392157 0.11470588
0.97941176 0.35637255 0.14166667
1 0.40784314 0.16470588
0.054901961 0.10588235 0.082352941
0.054901961 0.10588235 0.082352941
0.054901961 0.10588235 0.082352941
0.057046569 0.10588235 0.082352941
0.069117647 0.10588235 0.079656863
0.098039216 0.10441176 0.078431373
0.13002451 0.10196078 0.078431373
0.16127451 0.099571078 0.078431373
0.19215686 0.098039216 0.074509804
0.24515931 0.090747549 0.074509804
0.31237745 0.079901961 0.074509804
0.37598039 0.067463235 0.074509804
0.44754902 0.038480392 0.070588235
0.51715686 0.0086397059 0.070281863
0.58566176 0.017034314 0.071691176
0.65196078 0.02745098 0.071507353
0.70588235 0.0078431373 0.064215686
0.75343137 0.025183824 0.074509804
0.79816176 0.07745098 0.07745098
0.84460784 0.13382353 0.073835784
0.89019608 0.19926471 0.068137255
0.92714461 0.25637255 0.087745098
0.95821078 0.31482843 0.11862745
0.97941176 0.36819853 0.14803922
0.99607843 0.41029412 0.17107843
0.054901961 0.10686275 0.08627451
0.054901961 0.10870098 0.082720588
0.055882353 0.10980392 0.082352941
0.062377451 0.10980392 0.082352941
0.075490196 0.10980392 0.082352941
0.10343137 0.10943627 0.082352941
0.13431373 0.10612745 0.078676471
0.16617647 0.10477941 0.078431373
0.19803922 0.10294118 0.075490196
0.25477941 0.09754902 0.077328431
0.32230392 0.087009804 0.078676471
0.38970588 0.075122549 0.078553922
0.45784314 0.047058824 0.075
0.52291667 0.023161765 0.070220588
0.5872549 0.026470588 0.068872549
0.64901961 0.024509804 0.066666667
0.70980392 0.0068627451 0.059803922
0.75490196 0.061764706 0.062745098
0.8002451 0.11642157 0.066666667
0.84509804 0.17009804 0.066666667
0.89019608 0.22107843 0.065686275
0.92401961 0.27242647 0.092156863
0.95490196 0.32965686 0.12156863
0.98125 0.38088235 0.15563725
0.99215686 0.42058824 0.17745098
0.054411765 0.10980392 0.08627451
0.054901961 0.11194853 0.083823529
0.058823529 0.11372549 0.082352941
0.066176471 0.11372549 0.082352941
0.082352941 0.11372549 0.082352941
0.10735294 0.11323529 0.082352941
0.14080882 0.11323529 0.081985294
0.17794118 0.11323529 0.081862745
0.21862745 0.11323529 0.078431373
0.27518382 0.10949755 0.078431373
0.33860294 0.10392157 0.082352941
0.40343137 0.090134804 0.078921569
0.47181373 0.073039216 0.074754902
0.53921569 0.064705882 0.070588235
0.59840686 0.067647059 0.066666667
0.65802696 0.075367647 0.073284314
0.70980392 0.078921569 0.062745098
0.75863971 0.1091299 0.063051471
0.80392157 0.15980392 0.063235294
0.84895833 0.21127451 0.066237745
0.89019608 0.25710784 0.075980392
0.92738971 0.29993873 0.097242647
0.95870098 0.35098039 0.11507353
0.97941176 0.39491422 0.15079657
0.99558824 0.43431373 0.1877451
0.052941176 0.11568627 0.08627451
0.054901961 0.11691176 0.08627451
0.055882353 0.11764706 0.082352941
0.065931373 0.11764706 0.082352941
0.08627451 0.11862745 0.082352941
0.11127451 0.11985294 0.082352941
0.14754902 0.125 0.082352941
0.19215686 0.12941176 0.080392157
0.23529412 0.12941176 0.080392157
0.29313725 0.12818627 0.077205882
0.35882353 0.125 0.076470588
0.41887255 0.11813725 0.074509804
0.48627451 0.10588235 0.070588235
0.55 0.10367647 0.070098039
0.60882353 0.1004902 0.06372549
0.66421569 0.1122549 0.062745098
0.71372549 0.13921569 0.062745098
0.7620098 0.1629902 0.059558824
0.80833333 0.19705882 0.056862745
0.85294118 0.24656863 0.065931373
0.89019608 0.28823529 0.080392157
0.92745098 0.32941176 0.092647059
0.9622549 0.37058824 0.11372549
0.97941176 0.41519608 0.15955882
0.99607843 0.45490196 0.19803922
0.050980392 0.12598039 0.090196078
0.054901961 0.12598039 0.086764706
0.058823529 0.12254902 0.085416667
0.066176471 0.12555147 0.082843137
0.090196078 0.12990196 0.084558824
0.11127451 0.13382353 0.082352941
0.14938725 0.14068627 0.082352941
0.20410539 0.14754902 0.078431373
0.25980392 0.15441176 0.074509804
0.31764706 0.16011029 0.070098039
0.37843137 0.15343137 0.070098039
0.43382353 0.14356618 0.067095588
0.49460784 0.13897059 0.066176471
0.55980392 0.14460784 0.062254902
0.61813725 0.15183824 0.058333333
0.67273284 0.16617647 0.064215686
0.72205882 0.19068627 0.067156863
0.76697304 0.21127451 0.056862745
0.81176471 0.23370098 0.049387255
0.85294118 0.27794118 0.065747549
0.89240196 0.31960784 0.07622549
0.92395833 0.35680147 0.12101716
0.95735294 0.39718137 0.12732843
0.97922794 0.43480392 0.16844363
0.99215686 0.47107843 0.20392157
0.047058824 0.13235294 0.090196078
0.056740196 0.13811275 0.093137255
0.063480392 0.14019608 0.093137255
0.076960784 0.14007353 0.093137255
0.095588235 0.14411765 0.089705882
0.11078431 0.14718137 0.084926471
0.15784314 0.16004902 0.079411765
0.21960784 0.17610294 0.075122549
0.27745098 0.18823529 0.067647059
0.33639706 0.20147059 0.058333333
0.39607843 0.19730392 0.056862745
0.45392157 0.19031863 0.055882353
0.50833333 0.19068627 0.052941176
0.56666667 0.1995098 0.051960784
0.62843137 0.20980392 0.050980392
0.68088235 0.22303922 0.061764706
0.72843137 0.23823529 0.074509804
0.77058824 0.25980392 0.061764706
0.81176471 0.28431373 0.055882353
0.85294118 0.31911765 0.066176471
0.89411765 0.35539216 0.071078431
0.92389706 0.39068627 0.10294118
0.9502451 0.4254902 0.14117647
0.97696078 0.46066176 0.17745098
0.99509804 0.49215686 0.21078431
0.047058824 0.16666667 0.10343137
0.057352941 0.16519608 0.10343137
0.071568627 0.16421569 0.10453431
0.087071078 0.15882353 0.10471814
0.10612745 0.16985294 0.10220588
0.12579657 0.18106618 0.099019608
0.16348039 0.19276961 0.08872549
0.2245098 0.21127451 0.07935049
0.2877451 0.23333333 0.062745098
0.35343137 0.24901961 0.042218137
0.4127451 0.25196078 0.035171569
0.46930147 0.25196078 0.03627451
0.52377451 0.25392157 0.03627451
0.58039216 0.25441176 0.035968137
0.63541667 0.26127451 0.033823529
0.68431373 0.27457108 0.045588235
0.72941176 0.28970588 0.050490196
0.77150735 0.309375 0.047120098
0.81286765 0.33431373 0.049754902
0.85165441 0.36519608 0.067463235
0.88946078 0.39607843 0.083823529
0.91764706 0.42303922 0.11452206
0.94497549 0.45637255 0.15441176
0.97156863 0.49117647 0.18866422
0.99460784 0.51813725 0.21862745
0.043137255 0.20392157 0.11372549
0.053431373 0.20147059 0.11764706
0.068627451 0.2 0.11764706
0.092647059 0.20392157 0.12156863
0.11764706 0.21176471 0.11960784
0.14215686 0.22009804 0.11323529
0.16960784 0.22745098 0.10294118
0.22058824 0.24607843 0.091176471
0.29019608 0.27058824 0.066666667
0.3622549 0.29509804 0.033333333
0.42941176 0.31078431 0.010784314
0.48382353 0.31372549 0.015196078
0.5372549 0.31372549 0.019607843
0.59068627 0.31372549 0.019607843
0.64215686 0.31078431 0.015686275
0.68431373 0.32843137 0.023529412
0.72941176 0.34509804 0.02745098
0.77303922 0.36176471 0.031372549
0.81176471 0.37941176 0.049019608
0.8495098 0.40637255 0.073529412
0.88431373 0.43529412 0.098039216
0.91127451 0.46029412 0.13088235
0.93823529 0.49117647 0.16862745
0.96519608 0.52205882 0.20441176
0.98823529 0.54117647 0.23137255
0.028921569 0.24509804 0.12794118
0.044117647 0.24362745 0.12947304
0.071446078 0.24791667 0.13529412
0.096875 0.25275735 0.14185049
0.12279412 0.25808824 0.14019608
0.15030637 0.26501225 0.13020833
0.17879902 0.27401961 0.12536765
0.22058824 0.28970588 0.11568627
0.28137255 0.31176471 0.1
0.35343137 0.33780637 0.063664216
0.42904412 0.36078431 0.028921569
0.49381127 0.37892157 0.01060049
0.54877451 0.3877451 0.0093137255
0.60098039 0.38970588 0.009129902
0.6495098 0.38970588 0.0083333333
0.68823529 0.39417892 0.016237745
0.72941176 0.40294118 0.02254902
0.76997549 0.415625 0.050367647
0.81176471 0.42990196 0.060171569
0.85165441 0.45177696 0.073529412
0.88039216 0.47647059 0.10367647
0.90704657 0.50116422 0.14166667
0.93431373 0.52659314 0.18529412
0.96127451 0.55147059 0.22254902
0.98431373 0.56813725 0.25196078
0.018627451 0.2872549 0.14019608
0.04754902 0.29117647 0.14767157
0.076715686 0.29509804 0.15490196
0.10183824 0.29889706 0.15882353
0.12843137 0.30392157 0.16029412
0.15943627 0.31421569 0.15490196
0.19436275 0.3254902 0.15294118
0.22610294 0.33688725 0.14264706
0.27745098 0.35686275 0.13137255
0.34264706 0.37990196 0.1060049
0.41764706 0.40294118 0.076470588
0.49019608 0.42990196 0.044730392
0.55539216 0.45441176 0.020098039
0.61029412 0.45686275 0.013235294
0.65882353 0.46078431 0.0088235294
0.69669118 0.46409314 0.012377451
0.73431373 0.46862745 0.011764706
0.77659314 0.475 0.027205882
0.81470588 0.4879902 0.053186275
0.85208333 0.49754902 0.079779412
0.88039216 0.51372549 0.11911765
0.90735294 0.5372549 0.15980392
0.93431373 0.55784314 0.20171569
0.96409314 0.58235294 0.24215686
0.98529412 0.59901961 0.27156863
0.056862745 0.34607843 0.17843137
0.067953431 0.34607843 0.17843137
0.087377451 0.34656863 0.17892157
0.11176471 0.34656863 0.17941176
0.13651961 0.34901961 0.17941176
0.17395833 0.3627451 0.18327206
0.20919118 0.37303922 0.18382353
0.23511029 0.38382353 0.16960784
0.2745098 0.39803922 0.15931373
0.34264706 0.42254902 0.14215686
0.40992647 0.4432598 0.12536765
0.47941176 0.46807598 0.097058824
0.55171569 0.49828431 0.054656863
0.61464461 0.515625 0.023039216
0.6627451 0.52254902 0.015318627
0.70343137 0.52273284 0.018566176
0.74460784 0.52696078 0.019117647
0.77990196 0.53088235 0.029227941
0.81470588 0.53615196 0.065686275
0.8495098 0.54607843 0.10343137
0.88039216 0.55882353 0.13995098
0.90735294 0.57849265 0.17745098
0.93823529 0.5935049 0.21862745
0.96519608 0.60931373 0.25618873
0.98823529 0.62598039 0.28578431
0.035294118 0.39803922 0.19607843
0.065441176 0.39926471 0.20196078
0.10098039 0.40196078 0.20833333
0.13553922 0.40392157 0.21519608
0.16470588 0.40588235 0.21666667
0.19558824 0.4120098 0.21789216
0.22647059 0.41862745 0.21813725
0.25661765 0.42892157 0.21029412
0.29019608 0.44117647 0.20392157
0.34289216 0.45980392 0.19044118
0.4 0.48235294 0.17696078
0.46348039 0.50490196 0.15441176
0.53823529 0.53137255 0.10784314
0.60686275 0.55588235 0.064460784
0.66568627 0.575 0.023039216
0.70980392 0.58308824 0.01127451
0.74901961 0.58039216 0.045098039
0.78504902 0.58161765 0.071568627
0.81666667 0.58627451 0.1004902
0.85122549 0.59362745 0.12818627
0.88529412 0.60686275 0.16078431
0.9129902 0.62009804 0.19754902
0.93872549 0.62843137 0.23333333
0.96838235 0.63872549 0.26985294
0.99019608 0.65294118 0.3
0.07254902 0.44901961 0.22941176
0.088909314 0.45165441 0.23284314
0.12156863 0.45428922 0.2377451
0.15980392 0.46035539 0.24761029
0.18921569 0.46127451 0.25245098
0.21464461 0.46127451 0.25245098
0.2442402 0.46384804 0.25257353
0.27990196 0.47401961 0.24901961
0.31470588 0.48431373 0.24509804
0.35802696 0.50098039 0.23498775
0.40441176 0.52156863 0.2245098
0.44901961 0.54166667 0.21470588
0.51936275 0.56421569 0.17598039
0.59068627 0.58682598 0.13131127
0.65245098 0.61127451 0.08370098
0.70851716 0.62990196 0.055208333
0.75294118 0.63333333 0.081372549
0.7903799 0.63333333 0.1153799
0.82303922 0.63737745 0.13676471
0.85778186 0.64460784 0.15778186
0.89044118 0.65269608 0.18014706
0.915625 0.65729167 0.21470588
0.94227941 0.66335784 0.24901961
0.96942402 0.67009804 0.28382353
0.99607843 0.67990196 0.31470588
0.11764706 0.49705882 0.26666667
0.1314951 0.50098039 0.26764706
0.14362745 0.50490196 0.26764706
0.17647059 0.50845588 0.275
0.21176471 0.5127451 0.28529412
0.24166667 0.50882353 0.2872549
0.27254902 0.50955882 0.29019608
0.30343137 0.51813725 0.28688725
0.33529412 0.52941176 0.28627451
0.36960784 0.54215686 0.28284314
0.41470588 0.55882353 0.27254902
0.45968137 0.57683824 0.2622549
0.51764706 0.59705882 0.24460784
0.58431373 0.61813725 0.21029412
0.63995098 0.63921569 0.18872549
0.69166667 0.65441176 0.17634804
0.74705882 0.66764706 0.15980392
0.79411765 0.67634804 0.16041667
0.82965686 0.67941176 0.17156863
0.86127451 0.68321078 0.20625
0.89215686 0.68872549 0.21764706
0.91911765 0.69154412 0.24852941
0.94681373 0.69803922 0.28039216
0.97487745 0.70625 0.31458333
0.99607843 0.71078431 0.34215686
0.16421569 0.54852941 0.30245098
0.17879902 0.55189951 0.30821078
0.19264706 0.55245098 0.30784314
0.21243873 0.55116422 0.31127451
0.24705882 0.55563725 0.32083333
0.27383578 0.55637255 0.32616422
0.30343137 0.55931373 0.32745098
0.33039216 0.56568627 0.32745098
0.35980392 0.5745098 0.32745098
0.38823529 0.58572304 0.32745098
0.425 0.6 0.32401961
0.47224265 0.6153799 0.31372549
0.51960784 0.63186275 0.30220588
0.57745098 0.65196078 0.28302696
0.62536765 0.66617647 0.28480392
0.67254902 0.68039216 0.27947304
0.73039216 0.69313725 0.25098039
0.7848652 0.70827206 0.22647059
0.8375 0.72340686 0.21262255
0.86930147 0.72745098 0.22843137
0.89681373 0.72598039 0.25686275
0.92665441 0.72745098 0.28578431
0.95036765 0.73284314 0.31556373
0.9754902 0.7377451 0.34607843
0.99215686 0.74166667 0.36911765
0.20784314 0.59607843 0.3372549
0.2245098 0.6 0.34117647
0.24117647 0.6 0.34901961
0.25784314 0.6 0.34901961
0.28431373 0.60196078 0.35686275
0.31078431 0.60392157 0.36127451
0.33431373 0.60686275 0.36862745
0.36519608 0.61176471 0.37254902
0.39215686 0.61960784 0.37254902
0.41911765 0.62598039 0.37254902
0.45 0.6372549 0.37254902
0.48480392 0.6504902 0.36519608
0.52352941 0.66470588 0.35882353
0.57107843 0.68284314 0.34901961
0.61960784 0.69607843 0.34607843
0.66862745 0.70735294 0.33970588
0.72156863 0.72156863 0.31764706
0.77303922 0.73578431 0.29705882
0.82745098 0.75 0.27745098
0.86911765 0.76029412 0.27401961
0.90392157 0.76078431 0.29607843
0.93088235 0.76127451 0.32696078
0.95490196 0.76470588 0.35392157
0.9754902 0.76862745 0.38088235
0.99607843 0.77254902 0.40392157
0.26813725 0.64362745 0.38088235
0.27843137 0.64509804 0.3838848
0.29375 0.64571078 0.38835784
0.30588235 0.64754902 0.39019608
0.32156863 0.64828431 0.39289216
0.34852941 0.64932598 0.40245098
0.37610294 0.65257353 0.40882353
0.40245098 0.65594363 0.41519608
0.42696078 0.66078431 0.42009804
0.45147059 0.66378676 0.42009804
0.48186275 0.675 0.41948529
0.51568627 0.6877451 0.4127451
0.54730392 0.6995098 0.40833333
0.57910539 0.70980392 0.40441176
0.62144608 0.72401961 0.40294118
0.66709559 0.7348652 0.39601716
0.71519608 0.74607843 0.38333333
0.76666667 0.76029412 0.36127451
0.81360294 0.77058824 0.34620098
0.85833333 0.78088235 0.34264706
0.90269608 0.79044118 0.34681373
0.94117647 0.79589461 0.36764706
0.96519608 0.7995098 0.39117647
0.98186275 0.80343137 0.4151348
0.99607843 0.80490196 0.43627451
0.33627451 0.68627451 0.42843137
0.34264706 0.68627451 0.43198529
0.35196078 0.6870098 0.43235294
0.36139706 0.68921569 0.43235294
0.37205882 0.69019608 0.43529412
0.39411765 0.6932598 0.44362745
0.41764706 0.69411765 0.45098039
0.44362745 0.69803922 0.45698529
0.46666667 0.70196078 0.4627451
0.4872549 0.70551471 0.46666667
0.51176471 0.70980392 0.46666667
0.54264706 0.72009804 0.46372549
0.57303922 0.73039216 0.45980392
0.60343137 0.74068627 0.45980392
0.63431373 0.75098039 0.45980392
0.66960784 0.76237745 0.45441176
0.70980392 0.7745098 0.44509804
0.7567402 0.78480392 0.43186275
0.80294118 0.79436275 0.42083333
0.84754902 0.80159314 0.41127451
0.89264706 0.8122549 0.4122549
0.94093137 0.82561275 0.41666667
0.97156863 0.83014706 0.42647059
0.99068627 0.83039216 0.44865196
0.99607843 0.83039216 0.45686275
0.39362745 0.72745098 0.47254902
0.4 0.72745098 0.47469363
0.40894608 0.72745098 0.47647059
0.41666667 0.72745098 0.47647059
0.42671569 0.72941176 0.47843137
0.44515931 0.73143382 0.48480392
0.4622549 0.73529412 0.49215686
0.48694853 0.73921569 0.5
0.51176471 0.73970588 0.50392157
0.53235294 0.74313725 0.50998775
0.55294118 0.74718137 0.51176471
0.57310049 0.75140931 0.51133578
0.59877451 0.76127451 0.50955882
0.6278799 0.77156863 0.50741422
0.65833333 0.78186275 0.50747549
0.68578431 0.79215686 0.50373775
0.71666667 0.79901961 0.5
0.75833333 0.80900735 0.49313725
0.80257353 0.81568627 0.48333333
0.8377451 0.82598039 0.47941176
0.87916667 0.83627451 0.4754902
0.92800245 0.84656863 0.475
0.97561275 0.8564951 0.4685049
0.99577206 0.85784314 0.47714461
0.99607843 0.85784314 0.47745098
0.44901961 0.76862745 0.51372549
0.45539216 0.76862745 0.51495098
0.46176471 0.76715686 0.51764706
0.47034314 0.76862745 0.51936275
0.48039216 0.77254902 0.52254902
0.49681373 0.77254902 0.52941176
0.51372549 0.77254902 0.53333333
0.53039216 0.7752451 0.53995098
0.55294118 0.77647059 0.54509804
0.57352941 0.78039216 0.55147059
0.59411765 0.78235294 0.55686275
0.61127451 0.7879902 0.55710784
0.63039216 0.79607843 0.55686275
0.65441176 0.80612745 0.55661765
0.68186275 0.8127451 0.55294118
0.71029412 0.81838235 0.54828431
0.74117647 0.8254902 0.54509804
0.77205882 0.83382353 0.54460784
0.80931373 0.84166667 0.53872549
0.84362745 0.84877451 0.53553922
0.88039216 0.85686275 0.53431373
0.92401961 0.86715686 0.52916667
0.97254902 0.87598039 0.52205882
0.99485294 0.88039216 0.52156863
0.99607843 0.88039216 0.5254902
0.52156863 0.80539216 0.56323529
0.52371324 0.80539216 0.56323529
0.52892157 0.80539216 0.56323529
0.53284314 0.80539216 0.56623775
0.54264706 0.80931373 0.56887255
0.5533701 0.80931373 0.57457108
0.56973039 0.80931373 0.57879902
0.58265931 0.81109069 0.58253676
0.59509804 0.81323529 0.58676471
0.61783088 0.8158701 0.59442402
0.63958333 0.81727941 0.60208333
0.65588235 0.82064951 0.60588235
0.67303922 0.82696078 0.60245098
0.69313725 0.83327206 0.60196078
0.71286765 0.83933824 0.59816176
0.73578431 0.84430147 0.59442402
0.7622549 0.84852941 0.59068627
0.78890931 0.85833333 0.59411765
0.81911765 0.86764706 0.59362745
0.85392157 0.87156863 0.59068627
0.88872549 0.87745098 0.58676471
0.92352941 0.88382353 0.58584559
0.96421569 0.89105392 0.57904412
0.98676471 0.89479167 0.57941176
0.99607843 0.89852941 0.58333333
0.60098039 0.84019608 0.61764706
0.60098039 0.84019608 0.61470588
0.60318627 0.83946078 0.61470588
0.60453431 0.84019608 0.61433824
0.61470588 0.84166667 0.61715686
0.625 0.84411765 0.62254902
0.63823529 0.84411765 0.62647059
0.65159314 0.84411765 0.6307598
0.66078431 0.84411765 0.63137255
0.68039216 0.84803922 0.64068627
0.69387255 0.85196078 0.64779412
0.70723039 0.85196078 0.65098039
0.72794118 0.85637255 0.64852941
0.74718137 0.85992647 0.64705882
0.75857843 0.86372549 0.64607843
0.78051471 0.86973039 0.64215686
0.80294118 0.8754902 0.64215686
0.8245098 0.88284314 0.64215686
0.84607843 0.88823529 0.64289216
0.87107843 0.89215686 0.63872549
0.90588235 0.89803922 0.63823529
0.93247549 0.90392157 0.63431373
0.95784314 0.90710784 0.63431373
0.97941176 0.90992647 0.63762255
0.99607843 0.9127451 0.63823529
0.67696078 0.87647059 0.66617647
0.67751225 0.87647059 0.66617647
0.67696078 0.87438725 0.6622549
0.68039216 0.875 0.66568627
0.68823529 0.87573529 0.66887255
0.69834559 0.87892157 0.67401961
0.70919118 0.87892157 0.67696078
0.72009804 0.87892157 0.67947304
0.72794118 0.87892157 0.67794118
0.74705882 0.88137255 0.68676471
0.76421569 0.88431373 0.69215686
0.77794118 0.88676471 0.69362745
0.79117647 0.88676471 0.69485294
0.80520833 0.88707108 0.69577206
0.81421569 0.89068627 0.69362745
0.83137255 0.89607843 0.69362745
0.84901961 0.90098039 0.68970588
0.86568627 0.90490196 0.69215686
0.88235294 0.90980392 0.69264706
0.89675245 0.90784314 0.68008578
0.92647059 0.91862745 0.68970588
0.94901961 0.9245098 0.68970588
0.96519608 0.9245098 0.68970588
0.98033088 0.92542892 0.68970588
0.99607843 0.92843137 0.69362745
0.75294118 0.91372549 0.71764706
0.73872549 0.90343137 0.70735294
0.73333333 0.90196078 0.70196078
0.73676471 0.90196078 0.70539216
0.75098039 0.90588235 0.71176471
0.76078431 0.90588235 0.71764706
0.76764706 0.90588235 0.71764706
0.77401961 0.90588235 0.71764706
0.78431373 0.90588235 0.71764706
0.80098039 0.90833333 0.72401961
0.82647059 0.91470588 0.73431373
0.83529412 0.91372549 0.73333333
0.84509804 0.90980392 0.73333333
0.85490196 0.90980392 0.73676471
0.86176471 0.91372549 0.73333333
0.87745098 0.91911765 0.7372549
0.88627451 0.92156863 0.73333333
0.90294118 0.9254902 0.73578431
0.92058824 0.93235294 0.74215686
0.91421569 0.91862745 0.70392157
0.94705882 0.9372549 0.73921569
0.96127451 0.9372549 0.73676471
0.97156863 0.9372549 0.73039216
0.98578431 0.93872549 0.73333333
0.99607843 0.94117647 0.74117647
0.054901961 0.10588235 0.084803922
0.054901961 0.10251225 0.084803922
0.054901961 0.10196078 0.082352941
0.054901961 0.10196078 0.082352941
0.065931373 0.10196078 0.082352941
0.098223039 0.10196078 0.082352941
0.13039216 0.099019608 0.082352941
0.1627451 0.098039216 0.082352941
0.19607843 0.095588235 0.080882353
0.25545343 0.086213235 0.07935049
0.32205882 0.070710784 0.080882353
0.3841299 0.053431373 0.080882353
0.45539216 0.032843137 0.080882353
0.525 0.018137255 0.081188725
0.59019608 0.02254902 0.086642157
0.65196078 0.032291667 0.08817402
0.70588235 0.022058824 0.083333333
0.75343137 0.010232843 0.084803922
0.80061275 0.040318627 0.089828431
0.84509804 0.12156863 0.090870098
0.89019608 0.19215686 0.097058824
0.92959559 0.2495098 0.10588235
0.9627451 0.30343137 0.12267157
0.97941176 0.35637255 0.15441176
0.99607843 0.39754902 0.17892157
0.054901961 0.10588235 0.08627451
0.054901961 0.10588235 0.085148591
0.054901961 0.10588235 0.084574142
0.058042279 0.10588235 0.083884804
0.070802696 0.10588235 0.082352941
0.099027267 0.10441176 0.082352941
0.13039216 0.10196078 0.082352941
0.16372549 0.099571078 0.081801471
0.19852941 0.098039216 0.080882353
0.25637255 0.08717065 0.080882353
0.32205882 0.076393995 0.080882353
0.38535539 0.059803922 0.080882353
0.45539216 0.036060049 0.080882353
0.52401195 0.017149203 0.080997243
0.58982843 0.021078431 0.084574142
0.65349265 0.02745098 0.085033701
0.70588235 0.014767157 0.083333333
0.75377604 0.03069087 0.084459252
0.80022978 0.073897059 0.083884804
0.84509804 0.13596814 0.08683364
0.89019608 0.20398284 0.093903186
0.92745098 0.26156556 0.10706189
0.96176471 0.31672794 0.12806373
0.98094363 0.36540288 0.157644
0.99123775 0.39724265 0.17653186
0.052083333 0.10625 0.08627451
0.054901961 0.10686275 0.08627451
0.056617647 0.10842525 0.084803922
0.065073529 0.10980392 0.084803922
