site/assets/luts/sha256-c671d1ec5fd8ed4aeedae815fa349880c5e3b53fe3f3feb4d8900e6b1e12674f.cube
# LUTr-Schema-Version: 2
# LUTr-ID: sha256-c671d1ec5fd8ed4aeedae815fa349880c5e3b53fe3f3feb4d8900e6b1e12674f
# LUTr-Title: polaroid px-70 ++
# LUTr-Collection: Natron HaldCLUT
# LUTr-Collection-ID: natron-haldclut-presets
# LUTr-Source: https://github.com/NatronGitHub/clut
# LUTr-Retrieved: 2026-07-27
# LUTr-Source-File: submissions/natron-haldclut-presets/instant_consumer/polaroid_px-70_++.png
# LUTr-Source-Format: HALD-PNG
# LUTr-Source-SHA256: c671d1ec5fd8ed4aeedae815fa349880c5e3b53fe3f3feb4d8900e6b1e12674f
# LUTr-License: CC-BY-SA-4.0
# LUTr-License-URL: https://github.com/NatronGitHub/clut#license
# LUTr-License-Basis: repo-license-file
# LUTr-Transform-Class: film-emulation
# LUTr-Tags: creative, film, film-emulation, hald-clut, natron, png, cube
# LUTr-Input-Color-Space: srgb
# LUTr-Input-Gamut: rec709
# LUTr-Input-Transfer: srgb
# LUTr-Output-Color-Space: srgb
# LUTr-Output-Gamut: rec709
# LUTr-Output-Transfer: srgb
# LUTr-Color-Space-Confidence: assumed-display-referred
# LUTr-Domain-Normalized: true
# LUTr-Shaper: none
# LUTr-Original-Grid: 64x64x64
# LUTr-Conversion-Grid: 25x25x25
# LUTr-Conversion-Interpolation: trilinear
# LUTr-Conversion-Method: HALD-PNG LUT image decoded at 16-bit and sampled to 25x25x25 3D CUBE
# LUTr-Conversion-Tool: LUTr scripts/convert-all-to-cube.mjs 2.0.0
# LUTr-Conversion-Date: 2026-07-27
# LUTr-Note: Preserve this metadata and the upstream license notices when redistributing.
TITLE "polaroid px-70 ++"
LUT_3D_SIZE 25
DOMAIN_MIN 0 0 0
DOMAIN_MAX 1 1 1
0.20784314 0.31764706 0.25882353
0.21176471 0.31764706 0.25882353
0.2127451 0.31764706 0.25882353
0.21911765 0.31764706 0.25882353
0.22352941 0.31764706 0.25882353
0.22745098 0.31764706 0.25882353
0.23039216 0.31764706 0.25882353
0.23284314 0.31764706 0.25882353
0.23529412 0.31764706 0.25882353
0.24901961 0.31764706 0.25882353
0.29411765 0.32156863 0.25882353
0.33186275 0.32156863 0.25882353
0.35686275 0.31764706 0.25882353
0.41176471 0.32205882 0.25833333
0.49803922 0.33529412 0.25196078
0.58039216 0.34656863 0.2495098
0.6627451 0.35294118 0.24313725
0.74117647 0.36323529 0.23921569
0.81176471 0.3754902 0.23529412
0.85294118 0.40637255 0.23137255
0.88823529 0.43529412 0.22941176
0.91911765 0.46029412 0.22696078
0.95 0.48431373 0.22352941
0.96470588 0.49803922 0.22352941
0.96862745 0.50196078 0.22352941
0.20784314 0.31764706 0.25882353
0.21084559 0.31764706 0.25882353
0.2127451 0.31764706 0.25882353
0.21911765 0.31764706 0.25882353
0.22352941 0.31764706 0.25882353
0.22745098 0.31764706 0.25882353
0.23137255 0.31764706 0.25882353
0.23529412 0.31764706 0.25882353
0.24166667 0.31764706 0.25882353
0.26078431 0.32101716 0.25882353
0.3004902 0.32156863 0.25882353
0.33609069 0.321875 0.25882353
0.36715686 0.32279412 0.25882353
0.42401961 0.328125 0.25490196
0.50159314 0.33627451 0.25196078
0.58431373 0.34656863 0.2495098
0.6627451 0.35686275 0.24313725
0.74117647 0.36715686 0.23921569
0.81176471 0.38480392 0.23431373
0.85294118 0.4127451 0.23137255
0.88823529 0.44044118 0.22745098
0.92175245 0.46617647 0.22352941
0.95098039 0.49068627 0.22352941
0.96862745 0.5122549 0.2283701
0.96862745 0.51715686 0.23382353
0.20784314 0.31764706 0.25882353
0.20968137 0.31764706 0.25882353
0.2127451 0.31764706 0.25882353
0.21911765 0.31764706 0.25882353
0.22352941 0.31764706 0.25882353
0.22794118 0.31764706 0.25882353
0.23431373 0.31764706 0.25882353
0.23958333 0.31801471 0.25882353
0.24705882 0.32156863 0.25882353
0.27291667 0.32156863 0.25882353
0.31004902 0.32573529 0.25882353
0.34362745 0.3254902 0.25882353
0.38333333 0.32843137 0.25882353
0.44056373 0.33382353 0.25490196
0.51176471 0.34117647 0.25171569
0.58713235 0.34938725 0.24889706
0.66666667 0.35686275 0.24313725
0.74264706 0.37169118 0.23860294
0.8129902 0.39436275 0.23112745
0.85698529 0.41948529 0.22745098
0.89215686 0.44754902 0.22745098
0.92303922 0.47303922 0.22745098
0.95 0.50171569 0.22818627
0.96617647 0.5254902 0.23676471
0.97254902 0.53921569 0.24411765
0.20784314 0.31764706 0.25882353
0.20784314 0.31764706 0.25882353
0.21176471 0.31764706 0.25882353
0.21911765 0.31764706 0.25882353
0.22352941 0.32107843 0.25882353
0.22794118 0.32107843 0.25882353
0.23431373 0.32107843 0.25882353
0.24068627 0.32156863 0.25882353
0.25098039 0.32156863 0.25882353
0.28008578 0.32401961 0.25882353
0.31617647 0.32904412 0.25882353
0.34754902 0.32941176 0.25882353
0.38823529 0.33137255 0.25490196
0.45042892 0.3377451 0.25447304
0.52205882 0.34754902 0.25098039
0.59411765 0.3526348 0.24705882
0.67009804 0.36078431 0.24313725
0.74264706 0.37726716 0.23676471
0.81715686 0.40147059 0.22781863
0.86121324 0.42640931 0.22745098
0.89215686 0.45637255 0.22745098
0.91954657 0.48333333 0.23094363
0.94705882 0.51421569 0.23394608
0.96617647 0.5372549 0.2403799
0.97647059 0.55637255 0.24705882
0.20784314 0.32156863 0.25882353
0.20784314 0.32156863 0.25882353
0.21176471 0.32156863 0.25882353
0.21911765 0.32328431 0.25882353
0.22352941 0.32352941 0.25882353
0.23137255 0.32328431 0.25882353
0.23529412 0.32156863 0.25882353
0.24068627 0.32156863 0.25882353
0.24901961 0.32156863 0.25882353
0.28308824 0.3247549 0.25882353
0.32009804 0.32941176 0.25882353
0.34754902 0.32941176 0.25514706
0.3872549 0.33431373 0.25490196
0.45857843 0.34362745 0.25098039
0.53235294 0.35392157 0.2495098
0.60441176 0.35955882 0.24632353
0.67647059 0.36470588 0.24313725
0.74460784 0.3877451 0.23602941
0.82058824 0.41078431 0.22647059
0.86348039 0.4377451 0.22352941
0.89215686 0.46666667 0.22745098
0.92107843 0.49558824 0.22965686
0.94509804 0.52303922 0.23431373
0.96372549 0.54754902 0.24068627
0.97647059 0.56666667 0.24705882
0.20784314 0.32598039 0.25882353
0.20784314 0.32598039 0.25882353
0.2127451 0.32683824 0.25882353
0.21911765 0.32990196 0.25882353
0.22352941 0.32990196 0.25882353
0.23137255 0.32990196 0.25882353
0.23529412 0.32990196 0.25882353
0.24313725 0.32647059 0.25882353
0.25196078 0.33039216 0.25882353
0.28890931 0.33431373 0.25833333
0.32794118 0.33823529 0.25747549
0.35588235 0.33866422 0.25490196
0.39754902 0.34460784 0.25269608
0.47156863 0.35790441 0.25006127
0.54705882 0.36862745 0.24669118
0.61911765 0.375 0.24295343
0.6872549 0.38529412 0.23921569
0.74834559 0.40980392 0.23284314
0.81752451 0.43431373 0.22340686
0.86427696 0.45490196 0.21960784
0.9 0.48137255 0.22303922
0.93039216 0.51127451 0.22401961
0.94718137 0.53492647 0.23125
0.96372549 0.55637255 0.24068627
0.97647059 0.57696078 0.24705882
0.20490196 0.33235294 0.25882353
0.20784314 0.33235294 0.25882353
0.2127451 0.33627451 0.25882353
0.21568627 0.33982843 0.25882353
0.22156863 0.34019608 0.25882353
0.22879902 0.34019608 0.25882353
0.23823529 0.34019608 0.25882353
0.24754902 0.34460784 0.25882353
0.26568627 0.35098039 0.25490196
0.30294118 0.35490196 0.25490196
0.33921569 0.35882353 0.25490196
0.37254902 0.36262255 0.25232843
0.42843137 0.37009804 0.24803922
0.49558824 0.37794118 0.24669118
0.56764706 0.38529412 0.24313725
0.63970588 0.39558824 0.23921569
0.70392157 0.40980392 0.23529412
0.75698529 0.43039216 0.22953431
0.81666667 0.45490196 0.22254902
0.86078431 0.47806373 0.21960784
0.9004902 0.50196078 0.21813725
0.93125 0.52463235 0.22009804
0.94730392 0.54607843 0.22745098
0.96262255 0.56997549 0.23676471
0.97352941 0.5872549 0.24411765
0.20392157 0.3372549 0.25882353
0.20784314 0.34117647 0.25882353
0.21176471 0.34362745 0.25882353
0.21550245 0.34656863 0.25882353
0.22083333 0.34901961 0.25882353
0.22794118 0.3504902 0.25882353
0.24154412 0.35551471 0.25772059
0.25539216 0.36519608 0.25490196
0.27598039 0.37156863 0.25490196
0.31470588 0.37794118 0.25343137
0.35588235 0.38333333 0.25098039
0.4004902 0.38854167 0.2473652
0.45465686 0.39460784 0.24436275
0.52009804 0.403125 0.24136029
0.59215686 0.40796569 0.23811275
0.66029412 0.41525735 0.23529412
0.71911765 0.43039216 0.23137255
0.77058824 0.45245098 0.22444853
0.81960784 0.47585784 0.21752451
0.85949755 0.5 0.21568627
0.89534314 0.51911765 0.2129902
0.925 0.53970588 0.21439951
0.94166667 0.56029412 0.22144608
0.95441176 0.58088235 0.23137255
0.96323529 0.59362745 0.2377451
0.2 0.35686275 0.25490196
0.20392157 0.36078431 0.25882353
0.20784314 0.36078431 0.25882353
0.21176471 0.35686275 0.25882353
0.21764706 0.35686275 0.25882353
0.23235294 0.36519608 0.25833333
0.24901961 0.3754902 0.25490196
0.26421569 0.38578431 0.25343137
0.28627451 0.39215686 0.25098039
0.32352941 0.39852941 0.25098039
0.37352941 0.40784314 0.24705882
0.425 0.41176471 0.24362745
0.47843137 0.41960784 0.23921569
0.54460784 0.42745098 0.23529412
0.6127451 0.43431373 0.23235294
0.67401961 0.44460784 0.22990196
0.72941176 0.45490196 0.22352941
0.77696078 0.4754902 0.21715686
0.81960784 0.5 0.21176471
0.85686275 0.51666667 0.20833333
0.88823529 0.53333333 0.20588235
0.91862745 0.55392157 0.20784314
0.93235294 0.5745098 0.21470588
0.94656863 0.58970588 0.225
0.95686275 0.6 0.23529412
0.19215686 0.38529412 0.25490196
0.19607843 0.38866422 0.25490196
0.20147059 0.3877451 0.25490196
0.20753676 0.38627451 0.25490196
0.21960784 0.3875 0.25563725
0.23627451 0.39185049 0.25490196
0.25355392 0.39669118 0.25245098
0.27113971 0.4033701 0.25098039
0.29264706 0.40882353 0.25098039
0.33627451 0.41911765 0.24761029
0.38835784 0.42941176 0.2442402
0.44528186 0.43609069 0.23970588
0.50098039 0.44338235 0.23406863
0.56488971 0.45098039 0.23106618
0.625 0.46127451 0.22781863
0.68039216 0.47156863 0.22261029
0.73333333 0.48186275 0.21715686
0.7838848 0.5 0.21023284
0.82009804 0.51666667 0.20723039
0.853125 0.53351716 0.20410539
0.88504902 0.55 0.19877451
0.91439951 0.56813725 0.2004902
0.92598039 0.58578431 0.21017157
0.93872549 0.60091912 0.22254902
0.9504902 0.61421569 0.23529412
0.18235294 0.41666667 0.25
0.18578431 0.42303922 0.25
0.19191176 0.43161765 0.25
0.20245098 0.43615196 0.25
0.21715686 0.43529412 0.25
0.23627451 0.43235294 0.25
0.25686275 0.43137255 0.25
0.27634804 0.42647059 0.24705882
0.30392157 0.43039216 0.24705882
0.35147059 0.44460784 0.2442402
0.40612745 0.45490196 0.24142157
0.46176471 0.46262255 0.23578431
0.51960784 0.47009804 0.23088235
0.57732843 0.47892157 0.22610294
0.63137255 0.48921569 0.22034314
0.68676471 0.50245098 0.21531863
0.74117647 0.5127451 0.20784314
0.7877451 0.52303922 0.20392157
0.81862745 0.5372549 0.2
0.8495098 0.55134804 0.19656863
0.88382353 0.56666667 0.19215686
0.90943627 0.58333333 0.19656863
0.92352941 0.60098039 0.21004902
0.93872549 0.61911765 0.22536765
0.95 0.63235294 0.23529412
0.16911765 0.46421569 0.24362745
0.17175245 0.47205882 0.24362745
0.17830882 0.47732843 0.24362745
0.19166667 0.48039216 0.24362745
0.21397059 0.48039216 0.24362745
0.23670343 0.47947304 0.24362745
0.26066176 0.47352941 0.24362745
0.28609069 0.46844363 0.24362745
0.32401961 0.47205882 0.24362745
0.37205882 0.48284314 0.24313725
0.42352941 0.49705882 0.23921569
0.47935049 0.50386029 0.23529412
0.53848039 0.51176471 0.23137255
0.59019608 0.52009804 0.22696078
0.64166667 0.53039216 0.21703431
0.69705882 0.54068627 0.21078431
0.74852941 0.55098039 0.20441176
0.7877451 0.56127451 0.20392157
0.81862745 0.57169118 0.20379902
0.8495098 0.58578431 0.2
0.88063725 0.59656863 0.19558824
0.90686275 0.60735294 0.20006127
0.92352941 0.6245098 0.21458333
0.94001225 0.63970588 0.22892157
0.95294118 0.65 0.23921569
0.15294118 0.51568627 0.2372549
0.15931373 0.52205882 0.2372549
0.17156863 0.52401961 0.2372549
0.18921569 0.5254902 0.23897059
0.21862745 0.5254902 0.23921569
0.24436275 0.52156863 0.23921569
0.26960784 0.51813725 0.24264706
0.30392157 0.51764706 0.24313725
0.34509804 0.51960784 0.24313725
0.39264706 0.52990196 0.23995098
0.44117647 0.54019608 0.23823529
0.49901961 0.54852941 0.23529412
0.55196078 0.55392157 0.23235294
0.60245098 0.56348039 0.22696078
0.65539216 0.57205882 0.21666667
0.70735294 0.58186275 0.20637255
0.75686275 0.59215686 0.2
0.79044118 0.60245098 0.20122549
0.81862745 0.60931373 0.20392157
0.8495098 0.62132353 0.20220588
0.87941176 0.63137255 0.20196078
0.90294118 0.64166667 0.20637255
0.92205882 0.65196078 0.21813725
0.93872549 0.6622549 0.23088235
0.95490196 0.67058824 0.24313725
0.14019608 0.56666667 0.23137255
0.16243873 0.56666667 0.23137255
0.18186275 0.56666667 0.23137255
0.2033701 0.56666667 0.23523284
0.22598039 0.56666667 0.23529412
0.25202206 0.5627451 0.23529412
0.28333333 0.56311275 0.23872549
0.32628676 0.56685049 0.23921569
0.36960784 0.57107843 0.23921569
0.41341912 0.57745098 0.23921569
0.46458333 0.58627451 0.23529412
0.5122549 0.59019608 0.23529412
0.56348039 0.59607843 0.23333333
0.61470588 0.60637255 0.22303922
0.66617647 0.61372549 0.2127451
0.71764706 0.62285539 0.20098039
0.76470588 0.62941176 0.19607843
0.79166667 0.63921569 0.20030637
0.82156863 0.64816176 0.20526961
0.8495098 0.65545343 0.20784314
0.87647059 0.6622549 0.20784314
0.90294118 0.67254902 0.20839461
0.92046569 0.67977941 0.22291667
0.93449755 0.68480392 0.2372549
0.94460784 0.69117647 0.25098039
0.20196078 0.61078431 0.23529412
0.19901961 0.60784314 0.23137255
0.19583333 0.60392157 0.22745098
0.22352941 0.60784314 0.23480392
0.24411765 0.60784314 0.23480392
0.26311275 0.60428922 0.23186275
0.30980392 0.60784314 0.2375
0.35196078 0.61176471 0.23921569
0.39411765 0.61568627 0.24215686
0.43884804 0.62205882 0.24031863
0.48431373 0.62745098 0.23921569
0.52941176 0.63394608 0.23921569
0.57696078 0.6372549 0.23872549
0.625 0.64362745 0.22990196
0.67647059 0.65171569 0.21960784
0.725 0.65919118 0.21041667
0.76470588 0.66372549 0.20588235
0.79166667 0.67009804 0.20931373
0.82156863 0.67647059 0.21470588
0.8495098 0.68296569 0.21470588
0.87647059 0.69166667 0.21470588
0.9 0.7 0.21813725
0.91372549 0.70294118 0.22941176
0.92794118 0.70539216 0.24571078
0.93823529 0.71176471 0.25784314
0.25294118 0.65686275 0.23529412
0.24748775 0.65349265 0.23137255
0.25294118 0.64803922 0.23676471
0.27401961 0.64852941 0.24068627
0.29632353 0.64901961 0.24460784
0.31746324 0.64901961 0.24460784
0.35134804 0.65294118 0.24460784
0.38376225 0.65533088 0.24405637
0.42009804 0.65686275 0.24313725
0.46280637 0.66323529 0.24313725
0.50698529 0.66862745 0.24313725
0.55 0.67254902 0.24313725
0.59240196 0.67647059 0.24191176
0.63529412 0.68069853 0.23658088
0.68345588 0.6872549 0.22990196
0.72444853 0.69460784 0.23204657
0.76078431 0.69852941 0.22254902
0.79166667 0.70153186 0.22254902
0.82254902 0.70735294 0.22316176
0.84969363 0.71372549 0.225
0.8745098 0.71936275 0.22843137
0.89332108 0.72058824 0.23872549
0.90735294 0.72352941 0.24901961
0.92156863 0.72598039 0.25784314
0.93333333 0.73235294 0.26813725
0.29411765 0.70588235 0.23137255
0.30686275 0.69803922 0.23921569
0.31862745 0.68921569 0.24411765
0.33235294 0.68627451 0.2504902
0.35686275 0.68627451 0.25490196
0.37794118 0.69019608 0.25882353
0.40490196 0.69313725 0.25588235
0.42647059 0.69803922 0.25343137
0.44705882 0.69803922 0.24705882
0.48676471 0.70196078 0.24705882
0.52941176 0.70686275 0.24705882
0.57058824 0.70980392 0.24705882
0.61176471 0.71372549 0.24705882
0.65245098 0.71764706 0.24264706
0.69019608 0.72058824 0.23627451
0.72598039 0.7254902 0.23529412
0.75686275 0.72941176 0.23921569
0.7877451 0.73333333 0.23921569
0.81960784 0.73823529 0.23823529
0.85343137 0.74460784 0.23529412
0.86862745 0.74509804 0.24509804
0.88676471 0.74509804 0.25931373
0.90098039 0.74509804 0.26960784
0.91519608 0.74901961 0.27990196
0.92156863 0.75294118 0.28627451
0.37009804 0.73431373 0.25833333
0.37254902 0.73284314 0.25680147
0.3879902 0.73137255 0.26102941
0.39099265 0.72745098 0.26109069
0.40833333 0.725 0.26397059
0.43284314 0.7276348 0.26666667
0.45343137 0.72892157 0.26556373
0.47401961 0.73284314 0.26464461
0.49460784 0.73284314 0.26617647
0.52003676 0.73376225 0.26954657
0.55637255 0.73713235 0.27291667
0.59509804 0.74068627 0.27401961
0.63627451 0.74460784 0.27132353
0.67303922 0.7463848 0.26832108
0.70539216 0.74963235 0.26470588
0.72935049 0.75091912 0.26317402
0.75931373 0.75392157 0.26617647
0.7877451 0.75784314 0.26770833
0.81862745 0.76176471 0.26862745
0.84607843 0.7653799 0.27009804
0.86421569 0.76568627 0.27328431
0.88069853 0.76568627 0.2841299
0.89644608 0.76813725 0.29656863
0.90643382 0.76960784 0.30294118
0.90735294 0.76960784 0.30686275
0.44705882 0.76372549 0.28823529
0.45061275 0.76372549 0.28529412
0.45318627 0.75980392 0.28137255
0.45392157 0.75980392 0.27745098
0.4627451 0.7622549 0.27254902
0.47953431 0.76372549 0.27561275
0.50098039 0.7627451 0.28333333
0.5254902 0.75980392 0.29068627
0.55 0.75980392 0.30098039
0.57058824 0.76335784 0.30379902
0.59509804 0.76446078 0.30514706
0.6247549 0.76764706 0.30882353
0.65686275 0.77058824 0.30735294
0.69362745 0.77193627 0.30453431
0.72058824 0.7745098 0.30196078
0.74117647 0.77487745 0.30098039
0.76470588 0.77843137 0.30098039
0.79166667 0.78125 0.30196078
0.81838235 0.78235294 0.30490196
0.84117647 0.78578431 0.3057598
0.85833333 0.78676471 0.30735294
0.87536765 0.79031863 0.31323529
0.89142157 0.79338235 0.32279412
0.89742647 0.79301471 0.32879902
0.90196078 0.79117647 0.3372549
0.52941176 0.79460784 0.31617647
0.53186275 0.79460784 0.31746324
0.52941176 0.79362745 0.3122549
0.52598039 0.79068627 0.30790441
0.52303922 0.7872549 0.30392157
0.52794118 0.78382353 0.30098039
0.55159314 0.7872549 0.31127451
0.57696078 0.78707108 0.32156863
0.60147059 0.7872549 0.33186275
0.62205882 0.79068627 0.33578431
0.64178922 0.79460784 0.33713235
0.65980392 0.79460784 0.33970588
0.68112745 0.79509804 0.34142157
0.71421569 0.79859069 0.33964461
0.73566176 0.79901961 0.33921569
0.7536152 0.79901961 0.33578431
0.77205882 0.80245098 0.33921569
0.79313725 0.80294118 0.33921569
0.81764706 0.80637255 0.34056373
0.83480392 0.80686275 0.34313725
0.85318627 0.81053922 0.34362745
0.87113971 0.81470588 0.34705882
0.88529412 0.8185049 0.35306373
0.89411765 0.81470588 0.36813725
0.90196078 0.81470588 0.38186275
0.60980392 0.8254902 0.35098039
0.60857843 0.82426471 0.35098039
0.59705882 0.81519608 0.34803922
0.58872549 0.80833333 0.34509804
0.58431373 0.80294118 0.34117647
0.58480392 0.8 0.34117647
0.6 0.80196078 0.34607843
0.6252451 0.80661765 0.35441176
0.64705882 0.81176471 0.3627451
0.66642157 0.81568627 0.36593137
0.68186275 0.81764706 0.36666667
0.69730392 0.81960784 0.37058824
0.71372549 0.82058824 0.37254902
0.73431373 0.82352941 0.3745098
0.75147059 0.82352941 0.37303922
0.76691176 0.82156863 0.37254902
0.78431373 0.82352941 0.37254902
0.7997549 0.8254902 0.3745098
0.81568627 0.8254902 0.37843137
0.83431373 0.8254902 0.38014706
0.85196078 0.82647059 0.38235294
0.87156863 0.82941176 0.38186275
0.88529412 0.82941176 0.38431373
0.89166667 0.83088235 0.40098039
0.90196078 0.8372549 0.41960784
0.65735294 0.83578431 0.38578431
0.65735294 0.83578431 0.38578431
0.6564951 0.83186275 0.38627451
0.6504902 0.825 0.38584559
0.64607843 0.82034314 0.38235294
0.64656863 0.81666667 0.38235294
0.65686275 0.81666667 0.38492647
0.67843137 0.821875 0.39019608
0.69264706 0.82794118 0.39411765
0.70637255 0.82824755 0.39754902
0.71752451 0.83186275 0.39889706
0.7338848 0.83186275 0.40189951
0.74852941 0.83578431 0.40539216
0.75882353 0.83578431 0.4088848
0.76911765 0.83578431 0.40539216
0.78431373 0.83578431 0.40539216
0.80098039 0.83578431 0.40539216
0.81470588 0.83578431 0.40539216
0.825 0.83578431 0.40931373
0.83921569 0.83921569 0.41323529
0.85539216 0.83970588 0.41740196
0.87199755 0.83878676 0.4127451
0.88529412 0.83578431 0.41519608
0.89166667 0.84099265 0.43167892
0.89803922 0.84313725 0.44019608
0.70882353 0.84607843 0.42058824
0.70882353 0.84607843 0.42058824
0.70882353 0.84215686 0.42352941
0.70882353 0.84215686 0.42352941
0.70784314 0.8377451 0.42352941
0.70833333 0.83431373 0.42352941
0.71862745 0.83431373 0.42426471
0.72696078 0.83762255 0.42561275
0.73431373 0.83823529 0.42843137
0.74362745 0.84068627 0.43198529
0.75416667 0.84215686 0.43308824
0.7689951 0.84473039 0.43627451
0.78088235 0.84607843 0.43970588
0.78933824 0.84607843 0.44019608
0.79607843 0.84607843 0.43946078
0.8067402 0.84460784 0.43627451
0.81862745 0.84215686 0.43627451
0.82830882 0.84607843 0.43811275
0.83823529 0.84607843 0.44117647
0.8495098 0.8495098 0.44754902
0.86372549 0.85 0.44852941
0.875 0.84607843 0.4439951
0.88235294 0.84607843 0.44705882
0.89166667 0.85 0.45686275
0.89803922 0.85 0.46078431
0.76029412 0.85637255 0.45686275
0.76421569 0.85637255 0.45931373
0.76384804 0.85355392 0.45931373
0.76060049 0.85245098 0.45931373
0.7629902 0.85245098 0.45931373
0.76421569 0.85 0.45931373
0.76666667 0.84852941 0.45931373
0.76758578 0.84852941 0.45839461
0.7745098 0.84852941 0.45931373
0.78333333 0.85245098 0.46568627
0.79117647 0.85453431 0.46715686
0.80392157 0.85637255 0.47077206
0.81029412 0.85637255 0.47107843
0.81648284 0.85637255 0.475
0.82193627 0.85637255 0.47205882
0.83039216 0.85398284 0.46960784
0.83431373 0.85637255 0.46862745
0.84160539 0.85637255 0.47199755
0.8495098 0.85735294 0.47598039
0.85980392 0.86029412 0.47892157
0.86936275 0.85759804 0.47892157
0.875 0.85637255 0.475
0.88235294 0.85637255 0.47683824
0.89019608 0.85582108 0.47745098
0.89411765 0.85637255 0.48137255
0.81176471 0.86666667 0.49019608
0.80931373 0.86421569 0.49019608
0.8 0.8627451 0.48627451
0.8 0.8627451 0.48627451
0.80196078 0.8627451 0.48627451
0.80392157 0.8622549 0.48627451
0.8 0.85882353 0.48235294
0.8 0.85882353 0.48235294
0.80392157 0.85882353 0.48627451
0.81421569 0.86127451 0.49019608
0.8254902 0.86666667 0.49901961
0.83137255 0.86666667 0.49803922
0.83333333 0.8627451 0.49803922
0.83921569 0.8627451 0.49852941
0.84215686 0.8627451 0.49803922
0.84313725 0.8627451 0.49411765
0.84705882 0.8627451 0.49411765
0.85343137 0.86519608 0.49803922
0.85980392 0.86666667 0.50294118
0.86666667 0.86666667 0.50588235
0.87254902 0.86666667 0.50196078
0.87843137 0.8627451 0.49803922
0.88235294 0.8627451 0.49803922
0.89019608 0.8627451 0.49803922
0.89411765 0.8627451 0.50196078
0.20784314 0.31764706 0.25882353
0.21029412 0.31764706 0.25882353
0.2127451 0.31764706 0.25882353
0.21911765 0.31764706 0.25882353
0.22156863 0.31764706 0.25882353
0.22745098 0.31764706 0.25882353
0.2310049 0.31764706 0.25882353
0.23529412 0.31764706 0.25882353
0.23921569 0.31764706 0.25882353
0.25686275 0.31917892 0.25882353
0.29411765 0.32156863 0.25882353
0.33186275 0.32156863 0.25882353
0.36323529 0.32156863 0.25882353
0.42420343 0.32579657 0.25882353
0.50441176 0.33627451 0.25490196
0.58584559 0.34656863 0.2495098
0.6627451 0.35294118 0.24313725
0.73964461 0.36323529 0.23921569
0.80992647 0.37487745 0.23529412
0.8495098 0.40637255 0.23137255
0.88823529 0.4372549 0.23063725
0.9254902 0.46666667 0.22745098
0.95453431 0.49068627 0.22928922
0.96954657 0.51464461 0.23474265
0.97254902 0.52254902 0.2377451
0.20784314 0.31764706 0.25882353
0.21029412 0.31764706 0.25882353
0.2127451 0.31764706 0.25882353
0.21911765 0.31764706 0.25882353
0.22156863 0.31764706 0.25882353
0.22745098 0.31764706 0.25882353
0.23137255 0.31764706 0.25882353
0.23621324 0.31764706 0.25882353
0.24258578 0.31764706 0.25882353
0.26289062 0.32044271 0.25882353
0.29964767 0.32156863 0.25882353
0.33438266 0.32321538 0.25882353
0.3700674 0.32356005 0.25882353
0.43138021 0.3292356 0.25844822
0.50894608 0.33688725 0.25490196
0.58864124 0.34656863 0.2495098
0.66519608 0.35686275 0.24313725
0.74117647 0.36568627 0.23921569
0.80923713 0.38296569 0.23431373
0.85294118 0.4127451 0.23137255
0.89264706 0.44362745 0.23109681
0.92640931 0.47040441 0.22898284
0.95453431 0.49644608 0.22990196
0.97009804 0.51914063 0.23717065
0.97408088 0.52984069 0.2411152
0.20784314 0.31764706 0.25882353
0.20784314 0.31764706 0.25882353
0.21259191 0.31764706 0.25882353
0.21665135 0.31764706 0.25882353
0.22175245 0.31764706 0.25882353
0.22794118 0.31764706 0.25882353
0.23431373 0.31764706 0.25882353
0.24027267 0.31764706 0.25882353
0.24803922 0.31862745 0.25882353
0.27352941 0.32156863 0.25882353
0.30943627 0.32558211 0.25882353
0.34339767 0.32634804 0.25882353
0.38382353 0.32843137 0.25882353
0.4441636 0.33475797 0.25490196
0.51706495 0.34191176 0.25333946
0.59327512 0.3504902 0.25042892
0.66911765 0.35968137 0.24558824
0.74264706 0.37414216 0.23898591
0.81145833 0.3939951 0.23128064
0.85784314 0.42213542 0.22950368
0.89730392 0.45 0.22959559
