site/assets/luts/sha256-48a591b63e0304556643e3bdf1f88b0f67444d684f398663ce92529578d8dcdb.cube
# LUTr-Schema-Version: 2
# LUTr-ID: sha256-48a591b63e0304556643e3bdf1f88b0f67444d684f398663ce92529578d8dcdb
# LUTr-Title: polaroid px-680 warm
# LUTr-Collection: Natron HaldCLUT
# LUTr-Collection-ID: natron-haldclut-presets
# LUTr-Source: https://github.com/NatronGitHub/clut
# LUTr-Retrieved: 2026-07-27
# LUTr-Source-File: submissions/natron-haldclut-presets/instant_consumer/polaroid_px-680_warm.png
# LUTr-Source-Format: HALD-PNG
# LUTr-Source-SHA256: 48a591b63e0304556643e3bdf1f88b0f67444d684f398663ce92529578d8dcdb
# LUTr-License: CC-BY-SA-4.0
# LUTr-License-URL: https://github.com/NatronGitHub/clut#license
# LUTr-License-Basis: repo-license-file
# LUTr-Transform-Class: film-emulation
# LUTr-Tags: creative, film, film-emulation, hald-clut, natron, png, warm, cube
# LUTr-Input-Color-Space: srgb
# LUTr-Input-Gamut: rec709
# LUTr-Input-Transfer: srgb
# LUTr-Output-Color-Space: srgb
# LUTr-Output-Gamut: rec709
# LUTr-Output-Transfer: srgb
# LUTr-Color-Space-Confidence: assumed-display-referred
# LUTr-Domain-Normalized: true
# LUTr-Shaper: none
# LUTr-Original-Grid: 64x64x64
# LUTr-Conversion-Grid: 25x25x25
# LUTr-Conversion-Interpolation: trilinear
# LUTr-Conversion-Method: HALD-PNG LUT image decoded at 16-bit and sampled to 25x25x25 3D CUBE
# LUTr-Conversion-Tool: LUTr scripts/convert-all-to-cube.mjs 2.0.0
# LUTr-Conversion-Date: 2026-07-27
# LUTr-Note: Preserve this metadata and the upstream license notices when redistributing.
TITLE "polaroid px-680 warm"
LUT_3D_SIZE 25
DOMAIN_MIN 0 0 0
DOMAIN_MAX 1 1 1
0.25490196 0.21176471 0.082352941
0.25490196 0.21176471 0.082352941
0.25882353 0.21176471 0.082352941
0.2622549 0.21176471 0.082352941
0.26666667 0.21176471 0.08627451
0.27107843 0.20784314 0.08627451
0.27745098 0.20784314 0.08627451
0.30245098 0.21176471 0.084803922
0.3372549 0.21176471 0.082352941
0.36813725 0.21568627 0.075980392
0.40882353 0.21960784 0.073529412
0.47156863 0.22303922 0.070588235
0.53921569 0.2254902 0.066666667
0.60343137 0.22745098 0.062254902
0.66862745 0.22745098 0.055882353
0.72107843 0.23823529 0.053431373
0.76862745 0.25490196 0.043137255
0.8122549 0.27156863 0.032843137
0.85392157 0.28627451 0.02745098
0.88480392 0.32745098 0.06127451
0.91568627 0.3627451 0.084313725
0.94215686 0.39019608 0.1
0.95882353 0.42745098 0.1372549
0.97794118 0.46323529 0.17303922
0.99215686 0.49019608 0.2
0.25490196 0.21176471 0.082352941
0.25490196 0.21176471 0.082352941
0.25882353 0.21176471 0.082352941
0.2622549 0.21176471 0.082352941
0.26666667 0.21176471 0.08627451
0.27352941 0.21176471 0.08627451
0.28676471 0.21176471 0.08627451
0.30882353 0.21421569 0.082352941
0.3372549 0.21568627 0.078431373
0.36813725 0.21568627 0.075980392
0.40588235 0.21960784 0.073529412
0.47107843 0.22303922 0.070588235
0.53921569 0.22671569 0.065441176
0.60471814 0.22745098 0.062254902
0.66862745 0.23039216 0.055882353
0.72352941 0.24068627 0.053431373
0.76862745 0.26127451 0.047058824
0.81280637 0.28094363 0.036764706
0.85392157 0.30343137 0.035784314
0.88480392 0.33645833 0.061580882
0.91568627 0.36519608 0.082352941
0.94215686 0.39234069 0.10067402
0.95882353 0.42806373 0.1372549
0.97794118 0.46323529 0.17058824
0.99460784 0.49019608 0.2
0.25490196 0.21176471 0.082352941
0.25490196 0.21176471 0.082352941
0.25882353 0.21176471 0.082352941
0.2622549 0.21176471 0.082352941
0.26911765 0.2122549 0.08627451
0.27892157 0.21580882 0.085294118
0.29215686 0.21666667 0.085294118
0.31703431 0.21666667 0.082352941
0.34509804 0.21666667 0.078431373
0.37022059 0.21666667 0.074509804
0.40588235 0.21960784 0.070588235
0.47120098 0.22438725 0.067156863
0.5377451 0.22990196 0.064215686
0.60428922 0.23247549 0.058823529
0.66960784 0.23333333 0.055637255
0.72352941 0.24803922 0.052818627
0.76862745 0.27254902 0.047058824
0.80980392 0.29669118 0.043137255
0.85098039 0.32083333 0.041911765
0.88480392 0.3495098 0.064338235
0.91372549 0.37941176 0.089215686
0.93823529 0.40588235 0.11470588
0.96053922 0.43235294 0.13357843
0.97696078 0.46286765 0.16421569
0.99117647 0.48921569 0.19509804
0.25490196 0.21176471 0.082352941
0.25490196 0.21176471 0.082352941
0.25588235 0.21176471 0.082352941
0.26574755 0.21476716 0.082352941
0.27254902 0.21740196 0.082352941
0.27892157 0.22303922 0.082352941
0.29215686 0.22340686 0.082352941
0.31813725 0.22352941 0.080882353
0.34509804 0.22352941 0.078431373
0.37598039 0.22303922 0.072365196
0.41188725 0.22745098 0.067156863
0.475 0.23474265 0.063664216
0.54289216 0.24411765 0.061029412
0.61035539 0.25 0.055330882
0.67254902 0.2564951 0.051102941
0.72352941 0.26715686 0.043627451
0.76470588 0.28578431 0.043627451
0.80980392 0.31029412 0.043627451
0.85098039 0.33480392 0.043137255
0.88480392 0.3627451 0.06127451
0.91176471 0.39166667 0.092156863
0.93523284 0.41617647 0.11427696
0.95931373 0.43676471 0.1310049
0.97058824 0.45802696 0.15392157
0.98088235 0.48284314 0.18088235
0.25490196 0.21764706 0.08627451
0.25490196 0.21519608 0.082352941
0.25882353 0.21764706 0.082352941
0.26617647 0.22156863 0.082352941
0.27254902 0.2254902 0.082352941
0.27892157 0.22769608 0.080392157
0.29215686 0.22941176 0.078431373
0.31813725 0.23137255 0.077696078
0.35098039 0.23529412 0.074509804
0.3870098 0.24362745 0.066176471
0.43235294 0.25147059 0.060294118
0.4875 0.25490196 0.056862745
0.54803922 0.26176471 0.051960784
0.61470588 0.27058824 0.048529412
0.67254902 0.27745098 0.042156863
0.72352941 0.28848039 0.033333333
0.76666667 0.30588235 0.035294118
0.80588235 0.3245098 0.037254902
0.8495098 0.34509804 0.034313725
0.88480392 0.37132353 0.051470588
0.90882353 0.39901961 0.082352941
0.93235294 0.42647059 0.11078431
0.95294118 0.45098039 0.13676471
0.96617647 0.46813725 0.15784314
0.97058824 0.48039216 0.17254902
0.25441176 0.22401961 0.082352941
0.25490196 0.23039216 0.082352941
0.25882353 0.24019608 0.082230392
0.26574755 0.24019608 0.081433824
0.27254902 0.23651961 0.080147059
0.28235294 0.23578431 0.078431373
0.28921569 0.23529412 0.078063725
0.32009804 0.24136029 0.072732843
0.36127451 0.25245098 0.066176471
0.40294118 0.26881127 0.058333333
0.45294118 0.27561275 0.050490196
0.50441176 0.27941176 0.046568627
0.56495098 0.28112745 0.047794118
0.61911765 0.2872549 0.034803922
0.67401961 0.29754902 0.030514706
0.7276348 0.30569853 0.021262255
0.76911765 0.32254902 0.02254902
0.80980392 0.34344363 0.025980392
0.84754902 0.36090686 0.029656863
0.88186275 0.38192402 0.044362745
0.90588235 0.41151961 0.077696078
0.92647059 0.4377451 0.11176471
0.94705882 0.46519608 0.14264706
0.9622549 0.48480392 0.16813725
0.96911765 0.49509804 0.18137255
0.24803922 0.23921569 0.078431373
0.25379902 0.24754902 0.078431373
0.25882353 0.25784314 0.078431373
0.2622549 0.26470588 0.075857843
0.27107843 0.26029412 0.075490196
0.27892157 0.25539216 0.074509804
0.29142157 0.2504902 0.074509804
0.33039216 0.2627451 0.066176471
0.3754902 0.27941176 0.058823529
0.42242647 0.2942402 0.045588235
0.47352941 0.3 0.040196078
0.52242647 0.30294118 0.03627451
0.57303922 0.30147059 0.028921569
0.62892157 0.30404412 0.024019608
0.68063725 0.31176471 0.016911765
0.73247549 0.32205882 0.0073529412
0.7754902 0.34019608 0.0088235294
0.81127451 0.36372549 0.016666667
0.85098039 0.38112745 0.020588235
0.88492647 0.40183824 0.037622549
0.90588235 0.42990196 0.077941176
0.92610294 0.45526961 0.11519608
0.94338235 0.48161765 0.14926471
0.9622549 0.50294118 0.17659314
0.97254902 0.51960784 0.19509804
0.24166667 0.28039216 0.074509804
0.24803922 0.28039216 0.074509804
0.25379902 0.28345588 0.074142157
0.25863971 0.28890931 0.073039216
0.26715686 0.2879902 0.070588235
0.27892157 0.28498775 0.070588235
0.3004902 0.28615196 0.069117647
0.33474265 0.29215686 0.06372549
0.38284314 0.30637255 0.050980392
0.44264706 0.32058824 0.034375
0.49203431 0.32598039 0.025980392
0.5403799 0.32990196 0.02254902
0.58921569 0.32867647 0.018137255
0.63921569 0.3254902 0.0098039216
0.6877451 0.32708333 0.0024509804
0.73229167 0.34705882 0.003002451
0.77254902 0.36372549 0.0078431373
0.80980392 0.38523284 0.015686275
0.84852941 0.40490196 0.020588235
0.87941176 0.4254902 0.036458333
0.90196078 0.44803922 0.076960784
0.92254902 0.47322304 0.11783088
0.94313725 0.49693627 0.15294118
0.96133578 0.52052696 0.1838848
0.97647059 0.54019608 0.20539216
0.23529412 0.31764706 0.074509804
0.24166667 0.31764706 0.072058824
0.24803922 0.31764706 0.070588235
0.25441176 0.31372549 0.067156863
0.26078431 0.31372549 0.066666667
0.27990196 0.31421569 0.066176471
0.30686275 0.32058824 0.062745098
0.33382353 0.32303922 0.054901961
0.38039216 0.33333333 0.043137255
0.44852941 0.35 0.030392157
0.50294118 0.36176471 0.019607843
0.55441176 0.36862745 0.019607843
0.60196078 0.37254902 0.01372549
0.6495098 0.36813725 0.0039215686
0.69019608 0.36470588 0.0068627451
0.73137255 0.3754902 0.0078431373
0.77254902 0.39215686 0.0078431373
0.80980392 0.40882353 0.014215686
0.84215686 0.42843137 0.020588235
0.87303922 0.44607843 0.030882353
0.89607843 0.46666667 0.070588235
0.91862745 0.49117647 0.10784314
0.93921569 0.51470588 0.14509804
0.95980392 0.5377451 0.17696078
0.97647059 0.55686275 0.20784314
0.22892157 0.35490196 0.070588235
0.234375 0.35245098 0.070588235
0.2435049 0.35208333 0.067769608
0.2504902 0.34852941 0.066666667
0.25686275 0.34313725 0.062745098
0.28363971 0.34754902 0.062745098
0.31078431 0.35428922 0.059436275
0.33719363 0.35637255 0.055882353
0.37647059 0.3627451 0.049509804
0.43578431 0.37696078 0.039215686
0.49656863 0.39264706 0.025
0.55196078 0.40686275 0.016176471
0.60735294 0.41715686 0.011764706
0.65508578 0.41930147 0.0078431373
0.69264706 0.41372549 0.011397059
0.73082108 0.41672794 0.014215686
0.76862745 0.4254902 0.011764706
0.80827206 0.43425245 0.0087622549
0.83823529 0.45 0.017156863
0.86666667 0.46666667 0.024509804
0.89166667 0.48602941 0.05
0.9122549 0.50784314 0.087254902
0.93284314 0.52953431 0.1245098
0.9528799 0.55140931 0.16421569
0.96617647 0.56715686 0.19754902
0.22254902 0.38627451 0.065686275
0.22990196 0.38443627 0.065686275
0.24019608 0.38333333 0.06495098
0.2504902 0.3807598 0.062745098
0.26078431 0.38186275 0.062745098
0.28247549 0.38468137 0.066666667
0.31078431 0.39044118 0.064460784
0.34203431 0.39154412 0.063357843
0.37647059 0.39509804 0.054901961
0.4314951 0.40784314 0.044607843
0.4879902 0.42352941 0.033578431
0.54166667 0.4372549 0.01752451
0.59705882 0.44803922 0.0073529412
0.64411765 0.45392157 0.0078431373
0.68995098 0.45784314 0.014705882
0.73382353 0.46482843 0.015686275
0.76862745 0.47058824 0.010784314
0.80343137 0.47512255 0.0096813725
0.83333333 0.47941176 0.011764706
0.86127451 0.48872549 0.010906863
0.88921569 0.50392157 0.02745098
0.90686275 0.52438725 0.066789216
0.92745098 0.54411765 0.11176471
0.94767157 0.56568627 0.15821078
0.95980392 0.57745098 0.18333333
0.21617647 0.41421569 0.055392157
0.22598039 0.41421569 0.058823529
0.2372549 0.41421569 0.060171569
0.2504902 0.41764706 0.062745098
0.26446078 0.41813725 0.066421569
0.27947304 0.4216299 0.066666667
0.30698529 0.42205882 0.066666667
0.34558824 0.42726716 0.068811275
0.38039216 0.42990196 0.058823529
0.4245098 0.44019608 0.048039216
0.47990196 0.45441176 0.037745098
0.534375 0.46470588 0.023590686
0.58676471 0.47892157 0.0039215686
0.63431373 0.48872549 0.0078431373
0.68284314 0.49901961 0.015563725
0.72794118 0.50931373 0.014215686
0.76470588 0.51568627 0.0044117647
0.7995098 0.52175245 0.0065563725
0.82696078 0.52352941 0.019117647
0.85735294 0.52352941 0.022120098
0.88284314 0.52622549 0.024019608
0.90294118 0.54117647 0.060784314
0.92352941 0.55833333 0.10625
0.94411765 0.57892157 0.15147059
0.95294118 0.59117647 0.17303922
0.20980392 0.44117647 0.049019608
0.22328431 0.44509804 0.054901961
0.23872549 0.44901961 0.06127451
0.25245098 0.45269608 0.064705882
0.26470588 0.45294118 0.062745098
0.2754902 0.45294118 0.062990196
0.30588235 0.45588235 0.069607843
0.34705882 0.46151961 0.070588235
0.38039216 0.46470588 0.062745098
0.41544118 0.47107843 0.049754902
0.47058824 0.48529412 0.047058824
0.525 0.49901961 0.041666667
0.57647059 0.50980392 0.035294118
0.62401961 0.52058824 0.039215686
0.67156863 0.53431373 0.039215686
0.71519608 0.54534314 0.029166667
0.75882353 0.55882353 0.01372549
0.79362745 0.5627451 0.026960784
0.82254902 0.5627451 0.052941176
0.85147059 0.56078431 0.066421569
0.87647059 0.56372549 0.069607843
0.89901961 0.56715686 0.083333333
0.91960784 0.57892157 0.10686275
0.94019608 0.59509804 0.14509804
0.94705882 0.60196078 0.15882353
0.2245098 0.47647059 0.06372549
0.23480392 0.4786152 0.065870098
0.24865196 0.48125 0.068504902
0.2627451 0.48425245 0.071568627
0.27303922 0.48602941 0.071568627
0.2838848 0.4877451 0.071629902
0.31335784 0.49080882 0.078553922
0.35539216 0.49577206 0.085110294
0.38872549 0.4995098 0.079411765
0.41813725 0.50588235 0.072058824
0.46764706 0.51617647 0.071568627
0.51862745 0.52996324 0.068566176
0.56617647 0.54068627 0.070098039
0.61372549 0.55098039 0.075980392
0.66127451 0.56519608 0.075980392
0.70520833 0.57696078 0.06752451
0.74852941 0.58970588 0.065196078
0.78333333 0.59607843 0.077634804
0.81727941 0.60147059 0.093995098
0.84515931 0.60196078 0.10686275
0.87009804 0.60196078 0.10931373
0.89160539 0.60588235 0.12401961
0.91519608 0.60968137 0.13480392
0.93578431 0.61501225 0.14460784
0.94068627 0.61715686 0.15098039
0.24803922 0.51372549 0.084313725
0.25147059 0.51433824 0.084313725
0.26348039 0.51789216 0.088235294
0.27598039 0.52120098 0.088235294
0.29019608 0.52254902 0.092156863
0.30490196 0.52254902 0.096078431
0.32843137 0.52622549 0.10294118
0.36568627 0.52977941 0.10784314
0.39509804 0.53431373 0.10294118
0.42843137 0.54007353 0.099387255
0.46764706 0.5502451 0.096078431
0.51519608 0.56127451 0.096078431
0.55784314 0.57156863 0.10147059
0.60343137 0.58186275 0.10686275
0.65098039 0.59534314 0.10686275
0.69742647 0.60637255 0.11458333
0.73431373 0.61666667 0.1127451
0.77193627 0.62512255 0.12365196
0.80563725 0.63333333 0.13112745
0.83872549 0.64264706 0.13517157
0.86372549 0.64313725 0.14362745
0.88737745 0.64313725 0.1629902
0.90882353 0.64632353 0.17573529
0.92794118 0.65134804 0.18970588
0.93431373 0.65196078 0.19509804
0.26960784 0.55098039 0.10098039
0.27113971 0.55098039 0.10343137
0.27904412 0.55490196 0.10490196
0.29264706 0.55735294 0.10882353
0.30882353 0.55735294 0.1127451
0.32530637 0.55735294 0.11666667
0.34571078 0.56066176 0.12242647
0.37542892 0.56519608 0.12696078
0.40539216 0.56911765 0.1245098
0.43235294 0.57395833 0.12297794
0.46666667 0.58186275 0.12058824
0.51029412 0.59215686 0.1254902
0.55294118 0.60245098 0.12990196
0.59411765 0.6127451 0.13382353
0.6377451 0.62303922 0.13737745
0.68137255 0.63578431 0.14368873
0.72009804 0.64362745 0.15490196
0.75882353 0.65392157 0.16127451
0.79460784 0.6627451 0.16556373
0.82843137 0.67303922 0.16666667
0.85735294 0.67745098 0.18235294
0.87971814 0.67910539 0.20294118
0.90245098 0.68394608 0.22352941
0.92156863 0.68823529 0.23964461
0.9254902 0.68823529 0.24117647
0.29019608 0.58823529 0.12156863
0.29019608 0.59068627 0.12156863
0.29607843 0.59215686 0.1254902
0.3127451 0.59215686 0.12892157
0.32745098 0.59215686 0.13137255
0.34166667 0.58872549 0.13382353
0.36176471 0.59215686 0.14019608
0.38872549 0.59607843 0.14264706
0.41568627 0.60392157 0.14509804
0.44264706 0.60784314 0.14509804
0.47058824 0.6127451 0.14607843
0.51127451 0.62303922 0.15245098
0.55294118 0.63333333 0.15882353
0.59411765 0.64362745 0.16470588
0.63235294 0.65392157 0.16764706
0.67254902 0.66029412 0.17941176
0.71372549 0.67058824 0.19215686
0.75098039 0.67843137 0.19852941
0.7872549 0.68627451 0.20392157
0.81813725 0.69362745 0.20784314
0.84705882 0.7 0.22352941
0.87156863 0.70637255 0.24411765
0.89607843 0.71666667 0.26470588
0.91519608 0.7254902 0.28235294
0.91764706 0.7254902 0.28235294
0.31715686 0.62696078 0.15245098
0.31807598 0.62696078 0.15245098
0.32144608 0.62659314 0.14963235
0.32990196 0.62303922 0.1463848
0.34093137 0.62303922 0.14681373
0.35245098 0.62303922 0.14785539
0.37303922 0.62303922 0.15441176
0.39901961 0.62843137 0.15931373
0.42598039 0.63480392 0.16568627
0.45441176 0.63872549 0.17058824
0.48051471 0.64362745 0.17757353
0.51599265 0.65392157 0.18118873
0.55686275 0.66421569 0.1877451
0.59803922 0.67420343 0.19460784
0.63590686 0.68088235 0.20784314
0.67408088 0.68970588 0.21911765
0.70735294 0.69509804 0.22941176
0.74215686 0.70238971 0.23633578
0.77696078 0.70784314 0.23933824
0.80784314 0.71470588 0.24852941
0.83480392 0.72254902 0.26470588
0.86176471 0.73088235 0.28498775
0.88762255 0.7372549 0.30232843
0.90582108 0.74270833 0.31715686
0.91127451 0.74362745 0.31960784
0.34803922 0.6627451 0.18235294
0.34705882 0.66176471 0.17941176
0.34803922 0.65882353 0.17769608
0.35539216 0.65784314 0.17463235
0.36127451 0.65392157 0.16911765
0.36715686 0.65392157 0.16617647
0.38235294 0.65392157 0.16642157
0.41213235 0.65931373 0.17990196
0.44019608 0.66568627 0.19117647
0.46470588 0.66960784 0.19754902
0.49019608 0.6745098 0.20465686
0.52365196 0.68125 0.20943627
0.56323529 0.69117647 0.21666667
0.60159314 0.70134804 0.2310049
0.63921569 0.70857843 0.24509804
0.675 0.71776961 0.25637255
0.70588235 0.72352941 0.26568627
0.73676471 0.72634804 0.27022059
0.76838235 0.73235294 0.2745098
0.79754902 0.73872549 0.28566176
0.8254902 0.74509804 0.30343137
0.85625 0.75098039 0.32120098
0.88039216 0.75710784 0.33602941
0.89669118 0.75992647 0.3495098
0.90588235 0.7627451 0.36078431
0.375 0.69656863 0.21029412
0.375 0.69656863 0.20814951
0.37598039 0.69522059 0.20637255
0.38241422 0.69221814 0.20294118
0.3870098 0.68872549 0.19852941
0.39160539 0.68480392 0.19460784
0.40526961 0.6877451 0.20098039
0.43088235 0.69264706 0.21127451
0.45784314 0.69656863 0.22205882
0.47892157 0.7026348 0.22598039
0.5004902 0.70539216 0.23002451
0.53088235 0.71176471 0.23425245
0.56642157 0.72034314 0.25122549
0.60496324 0.72843137 0.2661152
0.64007353 0.73615196 0.27990196
0.675 0.74381127 0.29019608
0.70588235 0.74803922 0.3
0.73676471 0.75177696 0.30637255
0.76715686 0.75588235 0.31176471
0.79460784 0.759375 0.32647059
0.8254902 0.76568627 0.34485294
0.85245098 0.77156863 0.35631127
0.87389706 0.7754902 0.37009804
0.88952206 0.77941176 0.38529412
0.90588235 0.78333333 0.40196078
0.40588235 0.72745098 0.24117647
0.40269608 0.72745098 0.23995098
0.40686275 0.72745098 0.23921569
0.41348039 0.72573529 0.23921569
0.41764706 0.72254902 0.23529412
0.42230392 0.71960784 0.23186275
0.43921569 0.72107843 0.23872549
0.45906863 0.72622549 0.24852941
0.47843137 0.73137255 0.25882353
0.50098039 0.73455882 0.2627451
0.52156863 0.73529412 0.26715686
0.54926471 0.73897059 0.27598039
0.58333333 0.74705882 0.29117647
0.62132353 0.75343137 0.30661765
0.65539216 0.76078431 0.32058824
0.6879902 0.76470588 0.33284314
0.71764706 0.76862745 0.34117647
0.7504902 0.76985294 0.34828431
0.77647059 0.77254902 0.35392157
0.80098039 0.77622549 0.36764706
0.82647059 0.78333333 0.38235294
0.85196078 0.79044118 0.39289216
0.86960784 0.79558824 0.40686275
0.88529412 0.79754902 0.42647059
0.90588235 0.80196078 0.44705882
0.44068627 0.75833333 0.27647059
0.43970588 0.75833333 0.27628676
0.44914216 0.75784314 0.28039216
0.44901961 0.75784314 0.27696078
0.44877451 0.75833333 0.27254902
0.45392157 0.75484069 0.27303922
0.4745098 0.75441176 0.28370098
0.49901961 0.75569853 0.29558824
0.51617647 0.75833333 0.30441176
0.52990196 0.76207108 0.30814951
0.54840686 0.76580882 0.31262255
0.57555147 0.76960784 0.32254902
0.60931373 0.77377451 0.33553922
0.64656863 0.77794118 0.35238971
0.68480392 0.78137255 0.36911765
0.71158088 0.78498775 0.38039216
0.73823529 0.78529412 0.38676471
0.76488971 0.78921569 0.39442402
0.78676471 0.78921569 0.39901961
0.81078431 0.79307598 0.40980392
0.83382353 0.79901961 0.42377451
0.85637255 0.80533088 0.4377451
0.87267157 0.80833333 0.44718137
0.88921569 0.8122549 0.46323529
0.90980392 0.81617647 0.48039216
0.4745098 0.78921569 0.31372549
0.48627451 0.78566176 0.31948529
0.49828431 0.78455882 0.32867647
0.50098039 0.78235294 0.32757353
0.5 0.78529412 0.32352941
0.50453431 0.78235294 0.32365196
0.52254902 0.78235294 0.33137255
0.54522059 0.78235294 0.34705882
0.56764706 0.78235294 0.35882353
0.57794118 0.78627451 0.35980392
0.58823529 0.79093137 0.35980392
0.60367647 0.79411765 0.36703431
0.64019608 0.79803922 0.38333333
0.68039216 0.79803922 0.40392157
0.71348039 0.80196078 0.42058824
0.7372549 0.80196078 0.43186275
0.75882353 0.80588235 0.43823529
0.77757353 0.80588235 0.43921569
0.79705882 0.80612745 0.44411765
0.82107843 0.80980392 0.45735294
0.84215686 0.81617647 0.47352941
0.86360294 0.8189951 0.48541667
0.87720588 0.82156863 0.48921569
0.89166667 0.82254902 0.50098039
0.90980392 0.82647059 0.51764706
0.54362745 0.81078431 0.37352941
0.55931373 0.8122549 0.38621324
0.56715686 0.81078431 0.39252451
0.56715686 0.80833333 0.38921569
0.56911765 0.80955882 0.38872549
0.575 0.80833333 0.39068627
0.58186275 0.80686275 0.39068627
0.59699755 0.80686275 0.39944853
0.61911765 0.80833333 0.41519608
0.63333333 0.81170343 0.42003676
0.64362745 0.81470588 0.42058824
0.6536152 0.81470588 0.42401961
0.68112745 0.81666667 0.44019608
0.71568627 0.81862745 0.45931373
0.74252451 0.81862745 0.47193627
0.76029412 0.82254902 0.47941176
0.77941176 0.82254902 0.48431373
0.79362745 0.82107843 0.48186275
0.80882353 0.82144608 0.48811275
0.83186275 0.82628676 0.50686275
0.85441176 0.83161765 0.52426471
0.87126225 0.83431373 0.53155637
0.88468137 0.83431373 0.53578431
0.90006127 0.83676471 0.54699755
0.90980392 0.84068627 0.55490196
0.61176471 0.83137255 0.43529412
0.62843137 0.83382353 0.4495098
0.62745098 0.83137255 0.44705882
0.62745098 0.83137255 0.44705882
0.63333333 0.83137255 0.44901961
0.63921569 0.83137255 0.45098039
0.64215686 0.82843137 0.45098039
0.65245098 0.82892157 0.45245098
0.66666667 0.83137255 0.4627451
0.68578431 0.83529412 0.47303922
0.69509804 0.83529412 0.4745098
0.70539216 0.83137255 0.48186275
0.7254902 0.83529412 0.49411765
0.7495098 0.83529412 0.50980392
0.76372549 0.83529412 0.51372549
0.77941176 0.83676471 0.51911765
0.79607843 0.83529412 0.52156863
0.80637255 0.83137255 0.51372549
0.82156863 0.83235294 0.51960784
0.84215686 0.83872549 0.54019608
0.8627451 0.84705882 0.56470588
0.87892157 0.84705882 0.56911765
0.88921569 0.84705882 0.57254902
0.90343137 0.84705882 0.58186275
0.90980392 0.84705882 0.58823529
0.25490196 0.21176471 0.08627451
0.25490196 0.21176471 0.08627451
0.25882353 0.21176471 0.08627451
0.26256127 0.21176471 0.08627451
0.26666667 0.21176471 0.08627451
0.27058824 0.20784314 0.08627451
0.27745098 0.20784314 0.08627451
0.30245098 0.21176471 0.084803922
0.33333333 0.21176471 0.082352941
0.37150735 0.21568627 0.078431373
0.41335784 0.21384804 0.078063725
0.47530637 0.21715686 0.074816176
0.54044118 0.22230392 0.069852941
0.60343137 0.22530637 0.062561275
0.66862745 0.22745098 0.055882353
0.72352941 0.24068627 0.05435049
0.76862745 0.26127451 0.055882353
0.81372549 0.28039216 0.054411765
0.85747549 0.30588235 0.062745098
0.88480392 0.33805147 0.088541667
0.91372549 0.37303922 0.11323529
0.93823529 0.40245098 0.13204657
0.95698529 0.43480392 0.15551471
0.97457108 0.46807598 0.18970588
0.98823529 0.49264706 0.21421569
0.25490196 0.21176471 0.08627451
0.25490196 0.21176471 0.08627451
0.25882353 0.21176471 0.08627451
0.26256127 0.21176471 0.08627451
0.26666667 0.21176471 0.08627451
0.27333793 0.21176471 0.08627451
0.28382353 0.21176471 0.08627451
0.30824908 0.21325827 0.082352941
0.3372549 0.21476716 0.082352941
0.37150735 0.21568627 0.078431373
0.41335784 0.21384804 0.078063725
0.47450214 0.21849724 0.074011949
0.53967525 0.22352941 0.069852941
0.60686275 0.22745098 0.062561275
0.67084865 0.22745098 0.055882353
0.72595741 0.24103094 0.05435049
0.76862745 0.26219363 0.053431373
0.81372549 0.28642004 0.056288297
0.8567402 0.31317402 0.063802083
0.88511029 0.34460784 0.088541667
0.91568627 0.37594975 0.10931373
0.93823529 0.40385263 0.13020833
0.95698529 0.43480392 0.15712316
0.97457108 0.46960784 0.18970588
0.98970588 0.49411765 0.2151348
0.25490196 0.21176471 0.08627451
0.25490196 0.21176471 0.08627451
0.25882353 0.21176471 0.08627451
0.26260723 0.21176471 0.08627451
