site/assets/luts/sha256-11d83251c20b4cee66950ab680c6ba62af14e9a5d279865218d045b8fa6fb2ec.cube
# LUTr-Schema-Version: 2
# LUTr-ID: sha256-11d83251c20b4cee66950ab680c6ba62af14e9a5d279865218d045b8fa6fb2ec
# LUTr-Title: ilford hp5 plus 400
# LUTr-Collection: Natron HaldCLUT
# LUTr-Collection-ID: natron-haldclut-presets
# LUTr-Source: https://github.com/NatronGitHub/clut
# LUTr-Retrieved: 2026-07-27
# LUTr-Source-File: submissions/natron-haldclut-presets/bw/ilford_hp5_plus_400.png
# LUTr-Source-Format: HALD-PNG
# LUTr-Source-SHA256: 11d83251c20b4cee66950ab680c6ba62af14e9a5d279865218d045b8fa6fb2ec
# LUTr-License: CC-BY-SA-4.0
# LUTr-License-URL: https://github.com/NatronGitHub/clut#license
# LUTr-License-Basis: repo-license-file
# LUTr-Transform-Class: film-emulation
# LUTr-Tags: creative, film, film-emulation, hald-clut, natron, png, cube
# LUTr-Input-Color-Space: srgb
# LUTr-Input-Gamut: rec709
# LUTr-Input-Transfer: srgb
# LUTr-Output-Color-Space: srgb
# LUTr-Output-Gamut: rec709
# LUTr-Output-Transfer: srgb
# LUTr-Color-Space-Confidence: assumed-display-referred
# LUTr-Domain-Normalized: true
# LUTr-Shaper: none
# LUTr-Original-Grid: 64x64x64
# LUTr-Conversion-Grid: 25x25x25
# LUTr-Conversion-Interpolation: trilinear
# LUTr-Conversion-Method: HALD-PNG LUT image decoded at 16-bit and sampled to 25x25x25 3D CUBE
# LUTr-Conversion-Tool: LUTr scripts/convert-all-to-cube.mjs 2.0.0
# LUTr-Conversion-Date: 2026-07-27
# LUTr-Note: Preserve this metadata and the upstream license notices when redistributing.
TITLE "ilford hp5 plus 400"
LUT_3D_SIZE 9
DOMAIN_MIN 0 0 0
DOMAIN_MAX 1 1 1
0.011764706 0.011764706 0.011764706
0.019117647 0.019117647 0.019117647
0.042156863 0.042156863 0.042156863
0.062745098 0.062745098 0.062745098
0.08627451 0.08627451 0.08627451
0.10784314 0.10784314 0.10784314
0.22745098 0.22745098 0.22745098
0.34705882 0.34705882 0.34705882
0.45098039 0.45098039 0.45098039
0.019607843 0.019607843 0.019607843
0.042218137 0.042218137 0.042218137
0.05747549 0.05747549 0.05747549
0.077757353 0.077757353 0.077757353
0.1127451 0.1127451 0.1127451
0.17401961 0.17401961 0.17401961
0.25698529 0.25698529 0.25698529
0.36617647 0.36617647 0.36617647
0.4627451 0.4627451 0.4627451
0.096078431 0.096078431 0.096078431
0.10772059 0.10772059 0.10772059
0.10686275 0.10686275 0.10686275
0.13958333 0.13958333 0.13958333
0.18578431 0.18578431 0.18578431
0.24019608 0.24019608 0.24019608
0.31397059 0.31397059 0.31397059
0.40735294 0.40735294 0.40735294
0.5 0.5 0.5
0.17598039 0.17598039 0.17598039
0.18382353 0.18382353 0.18382353
0.1877451 0.1877451 0.1877451
0.21856618 0.21856618 0.21856618
0.25710784 0.25710784 0.25710784
0.30196078 0.30196078 0.30196078
0.37193627 0.37193627 0.37193627
0.46127451 0.46127451 0.46127451
0.54362745 0.54362745 0.54362745
0.25098039 0.25098039 0.25098039
0.25661765 0.25661765 0.25661765
0.27205882 0.27205882 0.27205882
0.30367647 0.30367647 0.30367647
0.34803922 0.34803922 0.34803922
0.39166667 0.39166667 0.39166667
0.43921569 0.43921569 0.43921569
0.51911765 0.51911765 0.51911765
0.59215686 0.59215686 0.59215686
0.37058824 0.37058824 0.37058824
0.3745098 0.3745098 0.3745098
0.39019608 0.39019608 0.39019608
0.41378676 0.41378676 0.41378676
0.45343137 0.45343137 0.45343137
0.49215686 0.49215686 0.49215686
0.53688725 0.53688725 0.53688725
0.59754902 0.59754902 0.59754902
0.65539216 0.65539216 0.65539216
0.50980392 0.50980392 0.50980392
0.50980392 0.50980392 0.50980392
0.52230392 0.52230392 0.52230392
0.53615196 0.53615196 0.53615196
0.5627451 0.5627451 0.5627451
0.59264706 0.59264706 0.59264706
0.63529412 0.63529412 0.63529412
0.68223039 0.68223039 0.68223039
0.72843137 0.72843137 0.72843137
0.65294118 0.65294118 0.65294118
0.64901961 0.64901961 0.64901961
0.65723039 0.65723039 0.65723039
0.66734069 0.66734069 0.66734069
0.67843137 0.67843137 0.67843137
0.70539216 0.70539216 0.70539216
0.73235294 0.73235294 0.73235294
0.77150735 0.77150735 0.77150735
0.81323529 0.81323529 0.81323529
0.76470588 0.76470588 0.76470588
0.75686275 0.75686275 0.75686275
0.77156863 0.77156863 0.77156863
0.78431373 0.78431373 0.78431373
0.78627451 0.78627451 0.78627451
0.81960784 0.81960784 0.81960784
0.83235294 0.83235294 0.83235294
0.86323529 0.86323529 0.86323529
0.89803922 0.89803922 0.89803922
0.034313725 0.034313725 0.034313725
0.038664216 0.038664216 0.038664216
0.039215686 0.039215686 0.039215686
0.086764706 0.086764706 0.086764706
0.12867647 0.12867647 0.12867647
0.16795343 0.16795343 0.16795343
0.25698529 0.25698529 0.25698529
0.36574755 0.36574755 0.36574755
0.46666667 0.46666667 0.46666667
0.057781863 0.057781863 0.057781863
0.072610294 0.072610294 0.072610294
0.087377451 0.087377451 0.087377451
0.11846661 0.11846661 0.11846661
0.16277574 0.16277574 0.16277574
0.2127451 0.2127451 0.2127451
0.29145221 0.29145221 0.29145221
0.39264706 0.39264706 0.39264706
0.47058824 0.47058824 0.47058824
0.11911765 0.11911765 0.11911765
0.12685355 0.12685355 0.12685355
0.14126838 0.14126838 0.14126838
0.17628676 0.17628676 0.17628676
0.22230392 0.22230392 0.22230392
0.275 0.275 0.275
0.34231005 0.34231005 0.34231005
0.43039216 0.43039216 0.43039216
0.51617647 0.51617647 0.51617647
0.19295343 0.19295343 0.19295343
0.19891238 0.19891238 0.19891238
0.21404718 0.21404718 0.21404718
0.24933364 0.24933364 0.24933364
0.28872549 0.28872549 0.28872549
0.33418352 0.33418352 0.33418352
0.39655331 0.39655331 0.39655331
0.48431373 0.48431373 0.48431373
0.5591299 0.5591299 0.5591299
0.27230392 0.27230392 0.27230392
0.28333333 0.28333333 0.28333333
0.29852941 0.29852941 0.29852941
0.3265625 0.3265625 0.3265625
0.36813725 0.36813725 0.36813725
0.4145527 0.4145527 0.4145527
0.46660539 0.46660539 0.46660539
0.54215686 0.54215686 0.54215686
0.61151961 0.61151961 0.61151961
0.39019608 0.39019608 0.39019608
0.39362745 0.39362745 0.39362745
0.40819547 0.40819547 0.40819547
0.43137255 0.43137255 0.43137255
0.46479779 0.46479779 0.46479779
0.50343137 0.50343137 0.50343137
0.55490196 0.55490196 0.55490196
0.61697304 0.61697304 0.61697304
0.67696078 0.67696078 0.67696078
0.52156863 0.52156863 0.52156863
0.52242647 0.52242647 0.52242647
0.53189338 0.53189338 0.53189338
0.55490196 0.55490196 0.55490196
0.57573529 0.57573529 0.57573529
0.60231311 0.60231311 0.60231311
0.64601716 0.64601716 0.64601716
0.6924326 0.6924326 0.6924326
0.73480392 0.73480392 0.73480392
0.66035539 0.66035539 0.66035539
0.65648744 0.65648744 0.65648744
0.65588235 0.65588235 0.65588235
0.68235294 0.68235294 0.68235294
0.68970588 0.68970588 0.68970588
0.71258425 0.71258425 0.71258425
0.73696385 0.73696385 0.73696385
0.77800245 0.77800245 0.77800245
0.81323529 0.81323529 0.81323529
0.77598039 0.77598039 0.77598039
0.76819853 0.76819853 0.76819853
0.76372549 0.76372549 0.76372549
0.79754902 0.79754902 0.79754902
0.79362745 0.79362745 0.79362745
0.82303922 0.82303922 0.82303922
0.83627451 0.83627451 0.83627451
0.85796569 0.85796569 0.85796569
0.90686275 0.90686275 0.90686275
0.043137255 0.043137255 0.043137255
0.057352941 0.057352941 0.057352941
0.084313725 0.084313725 0.084313725
0.13333333 0.13333333 0.13333333
0.18235294 0.18235294 0.18235294
0.22732843 0.22732843 0.22732843
0.29215686 0.29215686 0.29215686
0.39571078 0.39571078 0.39571078
0.49705882 0.49705882 0.49705882
0.084803922 0.084803922 0.084803922
0.10343137 0.10343137 0.10343137
0.13345588 0.13345588 0.13345588
0.16433824 0.16433824 0.16433824
0.20753676 0.20753676 0.20753676
0.26666667 0.26666667 0.26666667
0.33345588 0.33345588 0.33345588
0.42310049 0.42310049 0.42310049
0.50343137 0.50343137 0.50343137
0.15392157 0.15392157 0.15392157
0.16228554 0.16228554 0.16228554
0.18841912 0.18841912 0.18841912
0.22267157 0.22267157 0.22267157
0.26519608 0.26519608 0.26519608
0.32156863 0.32156863 0.32156863
0.38627451 0.38627451 0.38627451
0.46614583 0.46614583 0.46614583
0.55392157 0.55392157 0.55392157
0.22708333 0.22708333 0.22708333
0.23370098 0.23370098 0.23370098
0.25073529 0.25073529 0.25073529
0.28987439 0.28987439 0.28987439
0.33014706 0.33014706 0.33014706
0.37941176 0.37941176 0.37941176
0.44117647 0.44117647 0.44117647
0.51822917 0.51822917 0.51822917
0.59546569 0.59546569 0.59546569
0.31421569 0.31421569 0.31421569
0.32898284 0.32898284 0.32898284
0.34865196 0.34865196 0.34865196
0.37175245 0.37175245 0.37175245
0.40759804 0.40759804 0.40759804
0.45189951 0.45189951 0.45189951
0.51041667 0.51041667 0.51041667
0.57689951 0.57689951 0.57689951
0.64607843 0.64607843 0.64607843
0.42242647 0.42242647 0.42242647
0.43223039 0.43223039 0.43223039
0.44932598 0.44932598 0.44932598
0.46649816 0.46649816 0.46649816
0.49920343 0.49920343 0.49920343
0.53823529 0.53823529 0.53823529
0.58370098 0.58370098 0.58370098
0.64754902 0.64754902 0.64754902
0.70784314 0.70784314 0.70784314
0.54705882 0.54705882 0.54705882
0.55539216 0.55539216 0.55539216
0.56648284 0.56648284 0.56648284
0.57794118 0.57794118 0.57794118
0.6004902 0.6004902 0.6004902
0.62748162 0.62748162 0.62748162
0.66721814 0.66721814 0.66721814
0.71654412 0.71654412 0.71654412
0.76544118 0.76544118 0.76544118
0.67683824 0.67683824 0.67683824
0.67892157 0.67892157 0.67892157
0.6872549 0.6872549 0.6872549
0.69731924 0.69731924 0.69731924
0.71323529 0.71323529 0.71323529
0.73578431 0.73578431 0.73578431
0.75833333 0.75833333 0.75833333
0.7932598 0.7932598 0.7932598
0.82745098 0.82745098 0.82745098
0.80294118 0.80294118 0.80294118
0.79509804 0.79509804 0.79509804
0.8 0.8 0.8
0.79571078 0.79571078 0.79571078
0.81372549 0.81372549 0.81372549
0.83247549 0.83247549 0.83247549
0.84803922 0.84803922 0.84803922
0.88370098 0.88370098 0.88370098
0.89215686 0.89215686 0.89215686
0.08872549 0.08872549 0.08872549
0.094791667 0.094791667 0.094791667
0.11813725 0.11813725 0.11813725
0.17843137 0.17843137 0.17843137
0.23308824 0.23308824 0.23308824
0.28088235 0.28088235 0.28088235
0.33688725 0.33688725 0.33688725
0.43792892 0.43792892 0.43792892
0.52009804 0.52009804 0.52009804
0.1346201 0.1346201 0.1346201
0.15594363 0.15594363 0.15594363
0.1754902 0.1754902 0.1754902
0.21813725 0.21813725 0.21813725
0.26495098 0.26495098 0.26495098
0.31697304 0.31697304 0.31697304
0.38051471 0.38051471 0.38051471
0.4655867 0.4655867 0.4655867
0.54313725 0.54313725 0.54313725
0.20294118 0.20294118 0.20294118
0.21813725 0.21813725 0.21813725
0.24509804 0.24509804 0.24509804
0.27990196 0.27990196 0.27990196
0.31715686 0.31715686 0.31715686
0.37058824 0.37058824 0.37058824
0.43272059 0.43272059 0.43272059
0.50093444 0.50093444 0.50093444
0.57977941 0.57977941 0.57977941
0.275 0.275 0.275
0.29019608 0.29019608 0.29019608
0.31715686 0.31715686 0.31715686
0.34558824 0.34558824 0.34558824
0.38161765 0.38161765 0.38161765
0.42843137 0.42843137 0.42843137
0.48359375 0.48359375 0.48359375
0.54607843 0.54607843 0.54607843
0.62150735 0.62150735 0.62150735
0.37156863 0.37156863 0.37156863
0.38676471 0.38676471 0.38676471
0.40980392 0.40980392 0.40980392
0.42555147 0.42555147 0.42555147
0.45857843 0.45857843 0.45857843
0.49656863 0.49656863 0.49656863
0.5495098 0.5495098 0.5495098
0.61338848 0.61338848 0.61338848
0.68088235 0.68088235 0.68088235
0.47261029 0.47261029 0.47261029
0.48430607 0.48430607 0.48430607
0.50245098 0.50245098 0.50245098
0.52061121 0.52061121 0.52061121
0.54460784 0.54460784 0.54460784
0.57849265 0.57849265 0.57849265
0.62395833 0.62395833 0.62395833
0.68572304 0.68572304 0.68572304
0.74172794 0.74172794 0.74172794
0.58921569 0.58921569 0.58921569
0.59460784 0.59460784 0.59460784
0.60245098 0.60245098 0.60245098
0.61712623 0.61712623 0.61712623
0.63406863 0.63406863 0.63406863
0.66176471 0.66176471 0.66176471
0.69938725 0.69938725 0.69938725
0.75655637 0.75655637 0.75655637
0.79203431 0.79203431 0.79203431
0.71078431 0.71078431 0.71078431
0.71721814 0.71721814 0.71721814
0.72198223 0.72198223 0.72198223
0.7292356 0.7292356 0.7292356
0.74077819 0.74077819 0.74077819
0.75863971 0.75863971 0.75863971
0.78106618 0.78106618 0.78106618
0.81960784 0.81960784 0.81960784
0.84705882 0.84705882 0.84705882
0.81960784 0.81960784 0.81960784
0.81176471 0.81176471 0.81176471
0.8192402 0.8192402 0.8192402
0.82598039 0.82598039 0.82598039
0.8370098 0.8370098 0.8370098
0.84613971 0.84613971 0.84613971
0.85943627 0.85943627 0.85943627
0.8776348 0.8776348 0.8776348
0.91911765 0.91911765 0.91911765
0.11176471 0.11176471 0.11176471
0.15612745 0.15612745 0.15612745
0.1872549 0.1872549 0.1872549
0.23112745 0.23112745 0.23112745
0.27254902 0.27254902 0.27254902
0.3495098 0.3495098 0.3495098
0.4122549 0.4122549 0.4122549
0.49166667 0.49166667 0.49166667
0.55098039 0.55098039 0.55098039
0.19656863 0.19656863 0.19656863
0.22181373 0.22181373 0.22181373
0.24552696 0.24552696 0.24552696
0.27843137 0.27843137 0.27843137
0.32365196 0.32365196 0.32365196
0.38063725 0.38063725 0.38063725
0.44289216 0.44289216 0.44289216
0.51470588 0.51470588 0.51470588
0.58382353 0.58382353 0.58382353
0.28235294 0.28235294 0.28235294
0.29387255 0.29387255 0.29387255
0.31715686 0.31715686 0.31715686
0.34166667 0.34166667 0.34166667
0.38063725 0.38063725 0.38063725
0.42843137 0.42843137 0.42843137
0.4872549 0.4872549 0.4872549
0.55294118 0.55294118 0.55294118
0.62254902 0.62254902 0.62254902
0.35318627 0.35318627 0.35318627
0.3627451 0.3627451 0.3627451
0.38265931 0.38265931 0.38265931
0.40735294 0.40735294 0.40735294
0.44215686 0.44215686 0.44215686
0.48627451 0.48627451 0.48627451
0.53596814 0.53596814 0.53596814
0.59289216 0.59289216 0.59289216
0.65857843 0.65857843 0.65857843
0.43823529 0.43823529 0.43823529
0.45269608 0.45269608 0.45269608
0.46862745 0.46862745 0.46862745
0.48676471 0.48676471 0.48676471
0.51372549 0.51372549 0.51372549
0.55257353 0.55257353 0.55257353
0.59803922 0.59803922 0.59803922
0.65085784 0.65085784 0.65085784
0.71176471 0.71176471 0.71176471
0.53382353 0.53382353 0.53382353
0.54509804 0.54509804 0.54509804
0.56127451 0.56127451 0.56127451
0.57772672 0.57772672 0.57772672
0.59852941 0.59852941 0.59852941
0.62987132 0.62987132 0.62987132
0.67181373 0.67181373 0.67181373
0.72622549 0.72622549 0.72622549
0.76568627 0.76568627 0.76568627
0.6254902 0.6254902 0.6254902
0.63670343 0.63670343 0.63670343
0.65110294 0.65110294 0.65110294
0.66813725 0.66813725 0.66813725
0.6872549 0.6872549 0.6872549
0.71176471 0.71176471 0.71176471
0.74865196 0.74865196 0.74865196
0.79264706 0.79264706 0.79264706
0.81862745 0.81862745 0.81862745
0.7372549 0.7372549 0.7372549
0.74117647 0.74117647 0.74117647
0.74264706 0.74264706 0.74264706
0.76666667 0.76666667 0.76666667
0.78382353 0.78382353 0.78382353
0.79215686 0.79215686 0.79215686
0.82224265 0.82224265 0.82224265
0.84650735 0.84650735 0.84650735
0.86348039 0.86348039 0.86348039
0.83333333 0.83333333 0.83333333
0.82990196 0.82990196 0.82990196
0.83284314 0.83284314 0.83284314
0.85294118 0.85294118 0.85294118
0.86666667 0.86666667 0.86666667
0.87254902 0.87254902 0.87254902
0.88627451 0.88627451 0.88627451
0.89264706 0.89264706 0.89264706
0.90980392 0.90980392 0.90980392
0.22156863 0.22156863 0.22156863
0.25245098 0.25245098 0.25245098
0.27610294 0.27610294 0.27610294
0.30398284 0.30398284 0.30398284
0.3502451 0.3502451 0.3502451
0.40588235 0.40588235 0.40588235
0.47585784 0.47585784 0.47585784
0.54148284 0.54148284 0.54148284
0.62009804 0.62009804 0.62009804
0.29099265 0.29099265 0.29099265
0.31421569 0.31421569 0.31421569
0.32610294 0.32610294 0.32610294
0.35501685 0.35501685 0.35501685
0.40082721 0.40082721 0.40082721
0.44933364 0.44933364 0.44933364
0.50998775 0.50998775 0.50998775
0.57205882 0.57205882 0.57205882
0.64589461 0.64589461 0.64589461
0.375 0.375 0.375
0.37095588 0.37095588 0.37095588
0.39408701 0.39408701 0.39408701
0.41666667 0.41666667 0.41666667
0.45484069 0.45484069 0.45484069
0.49757966 0.49757966 0.49757966
0.54901961 0.54901961 0.54901961
0.61078431 0.61078431 0.61078431
0.67254902 0.67254902 0.67254902
0.44068627 0.44068627 0.44068627
0.44594822 0.44594822 0.44594822
0.45821078 0.45821078 0.45821078
0.4803079 0.4803079 0.4803079
0.51176471 0.51176471 0.51176471
0.54895833 0.54895833 0.54895833
0.59313725 0.59313725 0.59313725
0.64902727 0.64902727 0.64902727
0.70588235 0.70588235 0.70588235
0.51544118 0.51544118 0.51544118
0.525 0.525 0.525
0.5348652 0.5348652 0.5348652
0.55245098 0.55245098 0.55245098
0.57818627 0.57818627 0.57818627
0.6129902 0.6129902 0.6129902
0.65569853 0.65569853 0.65569853
0.70569853 0.70569853 0.70569853
0.75245098 0.75245098 0.75245098
0.5995098 0.5995098 0.5995098
0.60998009 0.60998009 0.60998009
0.62598039 0.62598039 0.62598039
0.63691023 0.63691023 0.63691023
0.6544424 0.6544424 0.6544424
0.68691023 0.68691023 0.68691023
0.72405025 0.72405025 0.72405025
0.76580116 0.76580116 0.76580116
0.79748775 0.79748775 0.79748775
0.6814951 0.6814951 0.6814951
0.69607843 0.69607843 0.69607843
0.71004902 0.71004902 0.71004902
0.72182904 0.72182904 0.72182904
0.73351716 0.73351716 0.73351716
0.76213235 0.76213235 0.76213235
0.79610907 0.79610907 0.79610907
0.81960784 0.81960784 0.81960784
0.84656863 0.84656863 0.84656863
0.76942402 0.76942402 0.76942402
0.78415288 0.78415288 0.78415288
0.79598652 0.79598652 0.79598652
0.80755208 0.80755208 0.80755208
0.82034314 0.82034314 0.82034314
0.83566942 0.83566942 0.83566942
0.85833333 0.85833333 0.85833333
0.87745098 0.87745098 0.87745098
0.90441176 0.90441176 0.90441176
0.85637255 0.85637255 0.85637255
0.86372549 0.86372549 0.86372549
0.87316176 0.87316176 0.87316176
0.884375 0.884375 0.884375
0.88357843 0.88357843 0.88357843
0.90643382 0.90643382 0.90643382
0.90980392 0.90980392 0.90980392
0.92598039 0.92598039 0.92598039
0.95931373 0.95931373 0.95931373
0.3372549 0.3372549 0.3372549
0.35147059 0.35147059 0.35147059
0.38235294 0.38235294 0.38235294
0.4064951 0.4064951 0.4064951
0.43431373 0.43431373 0.43431373
0.49215686 0.49215686 0.49215686
0.55 0.55 0.55
0.6064951 0.6064951 0.6064951
0.67941176 0.67941176 0.67941176
0.39803922 0.39803922 0.39803922
0.40588235 0.40588235 0.40588235
0.42843137 0.42843137 0.42843137
0.4489277 0.4489277 0.4489277
0.4786152 0.4786152 0.4786152
0.52856924 0.52856924 0.52856924
0.58085172 0.58085172 0.58085172
0.63768382 0.63768382 0.63768382
0.69460784 0.69460784 0.69460784
0.46666667 0.46666667 0.46666667
0.46764706 0.46764706 0.46764706
0.48235294 0.48235294 0.48235294
0.50303309 0.50303309 0.50303309
0.53198529 0.53198529 0.53198529
0.57454044 0.57454044 0.57454044
0.61862745 0.61862745 0.61862745
0.67904412 0.67904412 0.67904412
0.71862745 0.71862745 0.71862745
0.52941176 0.52941176 0.52941176
0.53333333 0.53333333 0.53333333
0.5448223 0.5448223 0.5448223
0.56262255 0.56262255 0.56262255
0.58627451 0.58627451 0.58627451
0.62110907 0.62110907 0.62110907
0.66354167 0.66354167 0.66354167
0.71519608 0.71519608 0.71519608
0.7495098 0.7495098 0.7495098
0.59264706 0.59264706 0.59264706
0.6026348 0.6026348 0.6026348
0.61458333 0.61458333 0.61458333
0.62438725 0.62438725 0.62438725
0.64705882 0.64705882 0.64705882
0.67647059 0.67647059 0.67647059
0.71507353 0.71507353 0.71507353
0.7588848 0.7588848 0.7588848
0.78529412 0.78529412 0.78529412
0.67696078 0.67696078 0.67696078
0.6814185 0.6814185 0.6814185
0.68753064 0.68753064 0.68753064
0.69810049 0.69810049 0.69810049
0.71311275 0.71311275 0.71311275
0.74100797 0.74100797 0.74100797
0.76596201 0.76596201 0.76596201
0.80448836 0.80448836 0.80448836
0.83590686 0.83590686 0.83590686
0.75686275 0.75686275 0.75686275
0.75784314 0.75784314 0.75784314
0.76544118 0.76544118 0.76544118
0.77708333 0.77708333 0.77708333
0.78823529 0.78823529 0.78823529
0.80677083 0.80677083 0.80677083
0.83057598 0.83057598 0.83057598
0.85428922 0.85428922 0.85428922
0.87941176 0.87941176 0.87941176
0.83431373 0.83431373 0.83431373
0.83704044 0.83704044 0.83704044
0.84454657 0.84454657 0.84454657
0.85589767 0.85589767 0.85589767
0.85392157 0.85392157 0.85392157
0.8622549 0.8622549 0.8622549
0.87965686 0.87965686 0.87965686
0.89901961 0.89901961 0.89901961
0.92598039 0.92598039 0.92598039
0.8872549 0.8872549 0.8872549
0.89460784 0.89460784 0.89460784
0.90588235 0.90588235 0.90588235
0.91372549 0.91372549 0.91372549
0.91470588 0.91470588 0.91470588
0.92254902 0.92254902 0.92254902
0.92647059 0.92647059 0.92647059
0.92843137 0.92843137 0.92843137
0.95294118 0.95294118 0.95294118
0.45637255 0.45637255 0.45637255
0.45637255 0.45637255 0.45637255
0.46715686 0.46715686 0.46715686
0.48921569 0.48921569 0.48921569
0.53137255 0.53137255 0.53137255
0.58480392 0.58480392 0.58480392
0.6307598 0.6307598 0.6307598
0.67996324 0.67996324 0.67996324
0.73039216 0.73039216 0.73039216
0.49852941 0.49852941 0.49852941
0.50245098 0.50245098 0.50245098
0.51683517 0.51683517 0.51683517
0.53439798 0.53439798 0.53439798
0.57352941 0.57352941 0.57352941
0.61595435 0.61595435 0.61595435
0.66041667 0.66041667 0.66041667
0.70300245 0.70300245 0.70300245
0.74558824 0.74558824 0.74558824
0.56323529 0.56323529 0.56323529
0.56421569 0.56421569 0.56421569
0.57598039 0.57598039 0.57598039
0.58835784 0.58835784 0.58835784
0.61721814 0.61721814 0.61721814
0.6558364 0.6558364 0.6558364
0.69411765 0.69411765 0.69411765
0.73419118 0.73419118 0.73419118
0.77254902 0.77254902 0.77254902
0.62205882 0.62205882 0.62205882
0.62941176 0.62941176 0.62941176
0.63751532 0.63751532 0.63751532
0.63854933 0.63854933 0.63854933
0.66167279 0.66167279 0.66167279
0.69932598 0.69932598 0.69932598
0.7403799 0.7403799 0.7403799
0.77673866 0.77673866 0.77673866
0.80704657 0.80704657 0.80704657
0.67990196 0.67990196 0.67990196
0.69117647 0.69117647 0.69117647
0.69816176 0.69816176 0.69816176
0.69941789 0.69941789 0.69941789
0.72058824 0.72058824 0.72058824
0.75171569 0.75171569 0.75171569
0.78039216 0.78039216 0.78039216
0.81470588 0.81470588 0.81470588
0.8377451 0.8377451 0.8377451
0.746875 0.746875 0.746875
0.75294118 0.75294118 0.75294118
0.76115196 0.76115196 0.76115196
0.77185968 0.77185968 0.77185968
0.78627451 0.78627451 0.78627451
0.80274203 0.80274203 0.80274203
0.82008272 0.82008272 0.82008272
0.84908088 0.84908088 0.84908088
0.86862745 0.86862745 0.86862745
0.81862745 0.81862745 0.81862745
0.81937806 0.81937806 0.81937806
0.8265625 0.8265625 0.8265625
0.83823529 0.83823529 0.83823529
0.84515931 0.84515931 0.84515931
0.85520833 0.85520833 0.85520833
0.86985294 0.86985294 0.86985294
0.88158701 0.88158701 0.88158701
0.90477941 0.90477941 0.90477941
0.88339461 0.88339461 0.88339461
0.87995558 0.87995558 0.87995558
0.88429841 0.88429841 0.88429841
0.89166667 0.89166667 0.89166667
0.8995098 0.8995098 0.8995098
0.90751379 0.90751379 0.90751379
0.9147212 0.9147212 0.9147212
0.91943168 0.91943168 0.91943168
0.94215686 0.94215686 0.94215686
0.92205882 0.92205882 0.92205882
0.93033088 0.93033088 0.93033088
0.9377451 0.9377451 0.9377451
0.94019608 0.94019608 0.94019608
0.95171569 0.95171569 0.95171569
0.95343137 0.95343137 0.95343137
0.95735294 0.95735294 0.95735294
0.95343137 0.95343137 0.95343137
0.95343137 0.95343137 0.95343137
0.55294118 0.55294118 0.55294118
0.56470588 0.56470588 0.56470588
0.56862745 0.56862745 0.56862745
0.60490196 0.60490196 0.60490196
0.64117647 0.64117647 0.64117647
0.66813725 0.66813725 0.66813725
0.70392157 0.70392157 0.70392157
0.74607843 0.74607843 0.74607843
0.8 0.8 0.8
0.57205882 0.57205882 0.57205882
0.58382353 0.58382353 0.58382353
0.58676471 0.58676471 0.58676471
0.62401961 0.62401961 0.62401961
0.65245098 0.65245098 0.65245098
0.67616422 0.67616422 0.67616422
0.72598039 0.72598039 0.72598039
0.76519608 0.76519608 0.76519608
0.80392157 0.80392157 0.80392157
0.64019608 0.64019608 0.64019608
0.64803922 0.64803922 0.64803922
0.65196078 0.65196078 0.65196078
0.65637255 0.65637255 0.65637255
0.68480392 0.68480392 0.68480392
0.70502451 0.70502451 0.70502451
0.74215686 0.74215686 0.74215686
0.79301471 0.79301471 0.79301471
0.83039216 0.83039216 0.83039216
0.70441176 0.70441176 0.70441176
0.71047794 0.71047794 0.71047794
0.70686275 0.70686275 0.70686275
0.70294118 0.70294118 0.70294118
0.72843137 0.72843137 0.72843137
0.7689951 0.7689951 0.7689951
0.79803922 0.79803922 0.79803922
0.82647059 0.82647059 0.82647059
0.85490196 0.85490196 0.85490196
0.75686275 0.75686275 0.75686275
0.76078431 0.76078431 0.76078431
0.76764706 0.76764706 0.76764706
0.76985294 0.76985294 0.76985294
0.77843137 0.77843137 0.77843137
0.81372549 0.81372549 0.81372549
0.83186275 0.83186275 0.83186275
0.86127451 0.86127451 0.86127451
0.87647059 0.87647059 0.87647059
0.81323529 0.81323529 0.81323529
0.81844363 0.81844363 0.81844363
0.82610294 0.82610294 0.82610294
0.83676471 0.83676471 0.83676471
0.83946078 0.83946078 0.83946078
0.85091912 0.85091912 0.85091912
0.85245098 0.85245098 0.85245098
0.88302696 0.88302696 0.88302696
0.90735294 0.90735294 0.90735294
0.87254902 0.87254902 0.87254902
0.87647059 0.87647059 0.87647059
0.8754902 0.8754902 0.8754902
0.88039216 0.88039216 0.88039216
0.88970588 0.88970588 0.88970588
0.89901961 0.89901961 0.89901961
0.89215686 0.89215686 0.89215686
0.90833333 0.90833333 0.90833333
0.94313725 0.94313725 0.94313725
0.91421569 0.91421569 0.91421569
0.9216299 0.9216299 0.9216299
0.92647059 0.92647059 0.92647059
0.92647059 0.92647059 0.92647059
0.93382353 0.93382353 0.93382353
0.94166667 0.94166667 0.94166667
0.94178922 0.94178922 0.94178922
0.95165441 0.95165441 0.95165441
0.96813725 0.96813725 0.96813725
0.95294118 0.95294118 0.95294118
0.96421569 0.96421569 0.96421569
0.97745098 0.97745098 0.97745098
0.96078431 0.96078431 0.96078431
0.96078431 0.96078431 0.96078431
0.97009804 0.97009804 0.97009804
0.99215686 0.99215686 0.99215686
0.97647059 0.97647059 0.97647059
0.96470588 0.96470588 0.96470588
