site/assets/luts/sha256-9b66b7b71455058fb207c632e1ebbd00d69802742a817a76aa5b9e4e1256ad0d.cube
# LUTr-Schema-Version: 2
# LUTr-ID: sha256-9b66b7b71455058fb207c632e1ebbd00d69802742a817a76aa5b9e4e1256ad0d
# LUTr-Title: orange tone
# LUTr-Collection: Natron HaldCLUT
# LUTr-Collection-ID: natron-haldclut-presets
# LUTr-Source: https://github.com/NatronGitHub/clut
# LUTr-Retrieved: 2026-07-27
# LUTr-Source-File: submissions/natron-haldclut-presets/various/orange_tone.png
# LUTr-Source-Format: HALD-PNG
# LUTr-Source-SHA256: 9b66b7b71455058fb207c632e1ebbd00d69802742a817a76aa5b9e4e1256ad0d
# LUTr-License: CC-BY-SA-4.0
# LUTr-License-URL: https://github.com/NatronGitHub/clut#license
# LUTr-License-Basis: repo-license-file
# LUTr-Transform-Class: film-emulation
# LUTr-Tags: creative, film, film-emulation, hald-clut, natron, png, warm, cube
# LUTr-Input-Color-Space: srgb
# LUTr-Input-Gamut: rec709
# LUTr-Input-Transfer: srgb
# LUTr-Output-Color-Space: srgb
# LUTr-Output-Gamut: rec709
# LUTr-Output-Transfer: srgb
# LUTr-Color-Space-Confidence: assumed-display-referred
# LUTr-Domain-Normalized: true
# LUTr-Shaper: none
# LUTr-Original-Grid: 64x64x64
# LUTr-Conversion-Grid: 25x25x25
# LUTr-Conversion-Interpolation: trilinear
# LUTr-Conversion-Method: HALD-PNG LUT image decoded at 16-bit and sampled to 25x25x25 3D CUBE
# LUTr-Conversion-Tool: LUTr scripts/convert-all-to-cube.mjs 2.0.0
# LUTr-Conversion-Date: 2026-07-27
# LUTr-Note: Preserve this metadata and the upstream license notices when redistributing.
TITLE "orange tone"
LUT_3D_SIZE 25
DOMAIN_MIN 0 0 0
DOMAIN_MAX 1 1 1
0.078431373 0 0
0.11176471 0.006372549 0
0.15392157 0.012745098 0.0039215686
0.19803922 0.019117647 0.0039215686
0.24313725 0.023529412 0.0078431373
0.29362745 0.040686275 0.0078431373
0.36176471 0.074509804 0.0078431373
0.42990196 0.10637255 0.006372549
0.49803922 0.14117647 0.0039215686
0.56617647 0.17205882 0.0039215686
0.63823529 0.2127451 0.0039215686
0.71421569 0.26764706 0.0039215686
0.79215686 0.3254902 0.0039215686
0.87009804 0.38333333 0.0039215686
0.93921569 0.44117647 0.0039215686
0.98970588 0.49068627 0.0039215686
0.99607843 0.5254902 0.0039215686
0.99607843 0.5627451 0.0039215686
0.99607843 0.6 0.0029411765
1 0.6372549 0
1 0.67254902 0
1 0.70735294 0
1 0.73529412 0
1 0.75980392 0
1 0.78039216 0
0.082352941 0.0039215686 0
0.11568627 0.0072916667 0.0024509804
0.15968137 0.012745098 0.0039215686
0.20196078 0.019117647 0.0039215686
0.24632353 0.025490196 0.0078431373
0.29705882 0.040686275 0.0078431373
0.3627451 0.071568627 0.0078431373
0.42990196 0.10300245 0.0039215686
0.49803922 0.1372549 0.0039215686
0.56617647 0.16813725 0.0039215686
0.63823529 0.20919118 0.0039215686
0.71421569 0.26764706 0.0039215686
0.79215686 0.3254902 0.0039215686
0.87009804 0.38333333 0.0039215686
0.94215686 0.44117647 0.0039215686
0.98670343 0.48823529 0.0039215686
0.99460784 0.5254902 0.0039215686
0.99607843 0.56121324 0.0039215686
0.99607843 0.59718137 0.0029411765
0.99607843 0.63351716 0
0.99803922 0.66936275 0
1 0.70343137 0
1 0.73431373 0
1 0.75980392 0
1 0.77401961 0
0.08627451 0.0039215686 0
0.11960784 0.0078431373 0.0024509804
0.16470588 0.012745098 0.0039215686
0.2067402 0.019240196 0.0039215686
0.25147059 0.026470588 0.0078431373
0.30196078 0.040686275 0.0078431373
0.36666667 0.067892157 0.0078431373
0.43235294 0.098529412 0.0039215686
0.49803922 0.13235294 0.0039215686
0.56372549 0.16323529 0.0039215686
0.63529412 0.20808824 0.0039215686
0.71421569 0.26372549 0.0039215686
0.79215686 0.32303922 0.0039215686
0.87058824 0.38284314 0.0039215686
0.94705882 0.44117647 0.0039215686
0.99031863 0.48823529 0.0039215686
0.99607843 0.5245098 0.0039215686
0.99607843 0.55992647 0.0039215686
0.99607843 0.59607843 0.0039215686
0.99607843 0.63333333 0
0.99607843 0.66862745 0
1 0.70343137 0
1 0.73357843 0
1 0.75551471 0
1 0.77156863 0
0.082843137 0.0039215686 0
0.11960784 0.006372549 0.0024509804
0.16556373 0.012745098 0.0039215686
0.21280637 0.022610294 0.0039215686
0.25661765 0.029411765 0.0078431373
0.30490196 0.044117647 0.0078431373
0.37046569 0.068627451 0.0078431373
0.43363971 0.097058824 0.0039215686
0.49803922 0.1254902 0.0039215686
0.56372549 0.15667892 0.0017769608
0.63823529 0.20490196 0
0.71421569 0.26372549 0.0034926471
0.79215686 0.32156863 0.0039215686
0.87058824 0.37941176 0.0039215686
0.95294118 0.44117647 0.0039215686
0.99234069 0.48823529 0.0039215686
0.99607843 0.525 0.0039215686
0.99607843 0.56011029 0.0039215686
0.99607843 0.59607843 0.0029411765
0.99607843 0.63376225 0
0.99803922 0.67058824 0
1 0.70343137 0
1 0.73051471 0
1 0.75196078 0
1 0.76862745 0
0.080392157 0 0
0.12083333 0.006372549 0.0024509804
0.16862745 0.016176471 0.0039215686
0.21372549 0.023039216 0.0056372549
0.26078431 0.032352941 0.0078431373
0.30882353 0.044117647 0.0078431373
0.37058824 0.068137255 0.0078431373
0.43627451 0.094607843 0.0039215686
0.5 0.12156863 0.0039215686
0.56617647 0.15171569 0
0.63921569 0.20196078 0
0.71789216 0.2620098 0.0034313725
0.79705882 0.32156863 0.0039215686
0.87647059 0.38333333 0.0039215686
0.95735294 0.44509804 0.0039215686
0.99215686 0.49142157 0.0039215686
0.99607843 0.52745098 0.0039215686
0.99607843 0.56348039 0.0039215686
0.99607843 0.6 0
0.99607843 0.6375 0
1 0.67254902 0
1 0.70318627 0
1 0.72745098 0
1 0.75465686 0
1 0.7745098 0
0.082843137 0.00049019608 0
0.12383578 0.0081495098 0.0024509804
0.17267157 0.016666667 0.0039215686
0.21807598 0.023958333 0.0073529412
0.26470588 0.033333333 0.0078431373
0.3122549 0.044117647 0.0083333333
0.37365196 0.067647059 0.0078431373
0.43805147 0.094607843 0.0065563725
0.50245098 0.12205882 0.0039215686
0.57107843 0.15294118 0.00049019608
0.64754902 0.20637255 0.0013480392
0.72598039 0.26813725 0.0039215686
0.80441176 0.32941176 0.0039215686
0.88578431 0.39117647 0.0044117647
0.95453431 0.45036765 0.0039215686
0.98529412 0.4963848 0.0039215686
0.99215686 0.52990196 0.0039215686
0.99607843 0.56666667 0.0014705882
0.99607843 0.60306373 0
0.9995098 0.6377451 0
1 0.67254902 0
1 0.6995098 0
1 0.73039216 0
1 0.75998775 0
1 0.78039216 0
0.097058824 0.0039215686 0
0.13284314 0.010294118 0.0024509804
0.17720588 0.016666667 0.0039215686
0.22414216 0.026960784 0.0073529412
0.26813725 0.033333333 0.0078431373
0.31531863 0.04375 0.011764706
0.3745098 0.067647059 0.0088235294
0.44129902 0.09754902 0.0078431373
0.5127451 0.12843137 0.0068627451
0.58480392 0.16507353 0.0068627451
0.66078431 0.2127451 0.0068627451
0.73676471 0.2745098 0.0068627451
0.81617647 0.33627451 0.0078431373
0.88958333 0.39803922 0.0078431373
0.95416667 0.45759804 0.0039215686
0.97892157 0.50183824 0.0039215686
0.98823529 0.53627451 0.0039215686
0.99497549 0.56813725 0
0.99607843 0.60392157 0
1 0.64117647 0
1 0.67254902 0
1 0.70245098 0
1 0.73406863 0
1 0.76482843 0
0.99705882 0.78431373 0
0.10735294 0.0039215686 0
0.14068627 0.010294118 0.0024509804
0.18578431 0.01997549 0.0039215686
0.23069853 0.026960784 0.0073529412
0.27328431 0.036029412 0.0078431373
0.31746324 0.043627451 0.011764706
0.38002451 0.069117647 0.011764706
0.45490196 0.10484069 0.011764706
0.52696078 0.13872549 0.0093137255
0.59901961 0.17506127 0.0093137255
0.66997549 0.21666667 0.0093137255
0.74656863 0.2754902 0.011458333
0.82303922 0.33995098 0.0085784314
0.89509804 0.40833333 0.0078431373
0.95833333 0.46715686 0.0049019608
0.97647059 0.50692402 0.0039215686
0.98431373 0.54117647 0.0039215686
0.99160539 0.57352941 0.00055147059
0.99705882 0.60723039 0
1 0.64166667 0
1 0.67254902 0
1 0.70520833 0
1 0.73970588 0
0.99607843 0.77003676 0
0.99607843 0.79215686 0
0.11764706 0.0078431373 0
0.15098039 0.011764706 0.0024509804
0.19313725 0.020588235 0.0039215686
0.2372549 0.02745098 0.0073529412
0.28235294 0.037254902 0.0078431373
0.32843137 0.051960784 0.0078431373
0.39313725 0.075490196 0.010784314
0.46519608 0.11176471 0.011764706
0.54117647 0.14901961 0.011764706
0.60931373 0.17990196 0.011764706
0.67745098 0.21568627 0.015686275
0.75294118 0.27843137 0.012254902
0.83529412 0.35098039 0.011764706
0.91715686 0.42254902 0.0078431373
0.97352941 0.47843137 0.0049019608
0.98431373 0.51813725 0.0039215686
0.98823529 0.54901961 0.0039215686
0.99460784 0.57990196 0.0014705882
1 0.61470588 0
1 0.64558824 0
1 0.67843137 0
1 0.71127451 0
0.99705882 0.74607843 0
0.99607843 0.77696078 0
0.99607843 0.79607843 0
0.1254902 0.0078431373 0
0.15735294 0.014215686 0.0024509804
0.20245098 0.020588235 0.0039215686
0.24491422 0.030882353 0.0073529412
0.29387255 0.043627451 0.0078431373
0.34901961 0.062254902 0.0078431373
0.41078431 0.083946078 0.0078431373
0.47941176 0.1151348 0.0078431373
0.55147059 0.15147059 0.0093137255
0.61960784 0.18627451 0.011764706
0.69019608 0.2254902 0.013235294
0.77696078 0.29295343 0.011948529
0.86936275 0.37156863 0.011764706
0.95018382 0.44068627 0.0078431373
0.98933824 0.49264706 0.0078431373
0.99460784 0.52689951 0.0039215686
0.99852941 0.55931373 0.0039215686
0.99944853 0.59019608 0.0014705882
1 0.62107843 0
1 0.65196078 0
1 0.68357843 0
0.9973652 0.71764706 0
0.99607843 0.74963235 0
0.99607843 0.78088235 0
0.99607843 0.80392157 0
0.13039216 0.0078431373 0
0.1627451 0.014215686 0.0024509804
0.20808824 0.024509804 0.0039215686
0.25379902 0.034803922 0.0039215686
0.30784314 0.051960784 0.0039215686
0.36862745 0.07254902 0.0039215686
0.42671569 0.093137255 0.0039215686
0.48762255 0.11813725 0.0039215686
0.55784314 0.15392157 0.0039215686
0.63382353 0.19852941 0.0078431373
0.70759804 0.24705882 0.010784314
0.79362745 0.31139706 0.011764706
0.89117647 0.3872549 0.0078431373
0.97647059 0.45490196 0.0078431373
1 0.5 0.0078431373
1 0.53480392 0.0039215686
1 0.56568627 0.0039215686
1 0.59656863 0.0014705882
0.99901961 0.62745098 0
0.99607843 0.66127451 0
0.99607843 0.69313725 0
0.99607843 0.72401961 0
0.99607843 0.75490196 0
0.99607843 0.78541667 0
0.99607843 0.8127451 0
0.13333333 0.0078431373 0
0.16666667 0.014215686 0.0024509804
0.21262255 0.025367647 0.0039215686
0.26372549 0.03872549 0.0039215686
0.32107843 0.058823529 0.0039215686
0.38235294 0.079411765 0.00049019608
0.4377451 0.099632353 0
0.49332108 0.12028186 0
0.56813725 0.16421569 0.0039215686
0.64656863 0.21568627 0.0042279412
0.7245098 0.26678922 0.0078431373
0.80729167 0.32591912 0.0078431373
0.89607843 0.39411765 0.0078431373
0.97941176 0.46127451 0.0078431373
1 0.50551471 0.0040441176
1 0.53903186 0.0039215686
1 0.57254902 0.0039215686
0.99785539 0.60343137 0.0039215686
0.99607843 0.6377451 0
0.99607843 0.66862745 0
0.99607843 0.7 0
0.99607843 0.73088235 0
0.99607843 0.76176471 0
0.99607843 0.79215686 0
0.99607843 0.8122549 0
0.13333333 0.0078431373 0
0.17058824 0.014215686 0
0.21862745 0.028431373 0.0039215686
0.26813725 0.03872549 0.0039215686
0.32254902 0.054901961 0.0039215686
0.38284314 0.075490196 0.0034313725
0.43970588 0.099019608 0
0.50245098 0.12941176 0
0.57843137 0.17843137 0
0.66078431 0.23235294 0.0031862745
0.73823529 0.28529412 0.0039215686
0.81764706 0.34044118 0.0039215686
0.89803922 0.39803922 0.0058823529
0.97941176 0.46151961 0.0039215686
1 0.50588235 0.0039215686
1 0.54166667 0.0039215686
1 0.57647059 0.0039215686
0.99607843 0.61053922 0.0039215686
0.99607843 0.64411765 0.0014705882
0.99607843 0.67671569 0
0.99607843 0.70882353 0
0.99607843 0.73872549 0
0.99607843 0.76813725 0
0.99607843 0.79509804 0
0.99607843 0.81372549 0
0.13333333 0.0073529412 0
0.17322304 0.014215686 0
0.2245098 0.028431373 0.00098039216
0.27254902 0.03872549 0.0039215686
0.32377451 0.050980392 0.0039215686
0.38333333 0.071997549 0.0039215686
0.44546569 0.099387255 0.0039215686
0.51666667 0.14117647 0.00049019608
0.59264706 0.18872549 0
0.66862745 0.24019608 0.0026348039
0.74852941 0.29558824 0.0039215686
0.8245098 0.35098039 0.0039215686
0.9004902 0.40637255 0.0039215686
0.97598039 0.46127451 0.0039215686
1 0.50588235 0.0039215686
1 0.54344363 0.0039215686
0.99607843 0.58039216 0.0039215686
0.99607843 0.61550245 0.0039215686
0.99607843 0.6504902 0.0039215686
0.99607843 0.684375 0.00006127451
0.99607843 0.71568627 0
0.99607843 0.74313725 0
0.99607843 0.77352941 0
0.99607843 0.796875 0
0.99607843 0.81568627 0
0.13627451 0.0068627451 0
0.17990196 0.014215686 0
0.22818627 0.028431373 0.00098039216
0.27892157 0.03872549 0.0039215686
0.32745098 0.049019608 0.0039215686
0.38370098 0.068504902 0.0039215686
0.45490196 0.10882353 0.0039215686
0.52696078 0.15392157 0.0039215686
0.60294118 0.19901961 0.0039215686
0.67892157 0.24718137 0.0039215686
0.75588235 0.30294118 0.0039215686
0.83480392 0.35821078 0.0039215686
0.91078431 0.41323529 0.0039215686
0.98198529 0.46813725 0.0039215686
1 0.51053922 0.0039215686
1 0.55 0.0039215686
0.99607843 0.5872549 0.0039215686
0.99607843 0.62205882 0.0039215686
0.99607843 0.65686275 0.0039215686
0.99607843 0.68872549 0.0039215686
0.99607843 0.71960784 0
0.99607843 0.74914216 0
0.99607843 0.77671569 0
0.99607843 0.80196078 0
0.99607843 0.81960784 0
0.14264706 0.0078431373 0
0.18719363 0.018137255 0
0.23737745 0.028431373 0.00098039216
0.28560049 0.03872549 0.0039215686
0.33480392 0.049019608 0.0039215686
0.39313725 0.072732843 0.0039215686
0.46519608 0.11764706 0.0039215686
0.5372549 0.16121324 0.0039215686
0.61323529 0.20784314 0.0039215686
0.68921569 0.25594363 0.0039215686
0.76617647 0.30894608 0.0039215686
0.84491422 0.36354167 0.0039215686
0.92107843 0.42107843 0.0039215686
0.98578431 0.4745098 0.0039215686
1 0.51764706 0.0039215686
0.99852941 0.55582108 0.0039215686
0.99607843 0.59362745 0.0039215686
0.99607843 0.62843137 0.0039215686
0.9939951 0.66323529 0.0039215686
0.99430147 0.69411765 0.0039215686
0.99607843 0.725 0.0039215686
0.99607843 0.75441176 0.0017769608
0.99607843 0.7817402 0.0039215686
0.99552696 0.80741422 0.0039215686
0.99460784 0.825 0.0039215686
0.14509804 0.0078431373 0
0.19264706 0.018137255 0
0.24803922 0.032352941 0.00098039216
0.2995098 0.042647059 0.0039215686
0.35098039 0.054901961 0.0039215686
0.40686275 0.080392157 0.0039215686
0.47254902 0.11764706 0.0039215686
0.54754902 0.16421569 0.0039215686
0.61960784 0.21176471 0.0039215686
0.69558824 0.25931373 0.0039215686
0.77254902 0.31176471 0.0039215686
0.85147059 0.36960784 0.0039215686
0.92745098 0.42745098 0.0039215686
0.98578431 0.48088235 0.0039215686
0.99607843 0.52156863 0.0039215686
0.99607843 0.56127451 0.0039215686
0.99607843 0.6 0.0039215686
0.99362745 0.63480392 0.0039215686
0.99215686 0.66960784 0.0039215686
0.99215686 0.7004902 0.0039215686
0.99607843 0.72941176 0.0039215686
0.99607843 0.75833333 0.0039215686
0.99607843 0.78921569 0.0039215686
0.99215686 0.81470588 0.0039215686
0.99215686 0.83529412 0.0039215686
0.16568627 0.010294118 0
0.20686275 0.022058824 0
0.2622549 0.035171569 0.00098039216
0.3158701 0.049019608 0.0039215686
0.36764706 0.065196078 0.0039215686
0.425 0.090196078 0.0039215686
0.48676471 0.125 0.0039215686
0.55392157 0.16574755 0.0039215686
0.62598039 0.20784314 0.0039215686
0.6995098 0.25539216 0.0039215686
0.77647059 0.31176471 0.0039215686
0.86127451 0.37567402 0.0039215686
0.9377451 0.43455882 0.0039215686
0.9877451 0.48676471 0.0039215686
0.99607843 0.52610294 0.0039215686
0.99607843 0.56427696 0.0039215686
0.99362745 0.60245098 0.0039215686
0.99215686 0.63817402 0.0039215686
0.99215686 0.67352941 0.0039215686
0.99215686 0.70441176 0.0039215686
0.99607843 0.73259804 0.0039215686
0.99607843 0.7622549 0.0039215686
0.99607843 0.79203431 0.0039215686
0.99215686 0.81954657 0.0039215686
0.99215686 0.83921569 0.0039215686
0.18235294 0.015686275 0
0.22205882 0.025980392 0
0.27647059 0.040441176 0.0039215686
0.3314951 0.054044118 0.0039215686
0.38382353 0.071078431 0.0039215686
0.44276961 0.1004902 0.0039215686
0.50196078 0.13431373 0.0039215686
0.56372549 0.16948529 0.0039215686
0.62843137 0.20784314 0
0.70232843 0.25294118 0
0.78039216 0.30784314 0.00073529412
0.86752451 0.37696078 0.0039215686
0.94754902 0.43970588 0.0039215686
0.99264706 0.49215686 0.0039215686
0.99632353 0.52965686 0.0039215686
0.99607843 0.56666667 0.0039215686
0.99313725 0.60392157 0.0039215686
0.99215686 0.64117647 0.0039215686
0.99215686 0.67745098 0.0039215686
0.99215686 0.70441176 0.0039215686
0.99607843 0.73333333 0.0039215686
0.99607843 0.7622549 0.0039215686
0.99607843 0.78995098 0.0039215686
0.99276961 0.81764706 0.0039215686
0.99215686 0.83529412 0.0039215686
0.19901961 0.019607843 0
0.23658088 0.029901961 0
0.29031863 0.04375 0.0039215686
0.34215686 0.057843137 0.0039215686
0.39730392 0.07622549 0.0039215686
0.45729167 0.10778186 0.0039215686
0.51862745 0.14166667 0.0039215686
0.57696078 0.17647059 0.0024509804
0.63872549 0.21127451 0
0.70343137 0.25147059 0
0.78137255 0.30404412 0
0.87052696 0.37696078 0.0039215686
0.95441176 0.44313725 0.0039215686
0.99957108 0.49515931 0.0039215686
1 0.53333333 0.0039215686
0.99607843 0.56911765 0.0039215686
0.99607843 0.60392157 0.0039215686
0.99215686 0.64117647 0.0039215686
0.99215686 0.67401961 0.0039215686
0.99215686 0.70441176 0.0039215686
0.99607843 0.73137255 0.0039215686
0.99607843 0.75876225 0.0039215686
0.99607843 0.78664216 0.0039215686
0.99607843 0.81127451 0.0039215686
0.99215686 0.82794118 0.0039215686
0.20980392 0.023529412 0
0.2495098 0.033823529 0
0.30098039 0.046568627 0.0039215686
0.35245098 0.061764706 0.0039215686
0.40784314 0.081372549 0.0039215686
0.46764706 0.11176471 0.0039215686
0.52941176 0.14754902 0.0039215686
0.59117647 0.18161765 0
0.65098039 0.21764706 0
0.71078431 0.25367647 0
0.78431373 0.29901961 0
0.87058824 0.37303922 0.0034313725
0.95490196 0.44117647 0.0039215686
1 0.49558824 0.0039215686
1 0.53186275 0.0039215686
0.99607843 0.56789216 0.0039215686
0.99607843 0.60392157 0.0039215686
0.99607843 0.63872549 0.0039215686
0.99607843 0.67352941 0.0039215686
0.99607843 0.70441176 0.0039215686
0.99607843 0.73333333 0.0029411765
0.99607843 0.75833333 0
0.99607843 0.78529412 0
0.99607843 0.80833333 0.0019607843
0.99607843 0.82745098 0.0039215686
0.21960784 0.02745098 0
0.25686275 0.037745098 0
0.30735294 0.049509804 0.00085784314
0.3622549 0.069607843 0.0038602941
0.42009804 0.088480392 0.0039215686
0.47794118 0.11519608 0.0034313725
0.53970588 0.14607843 0
0.60147059 0.18480392 0
0.65931373 0.21960784 0
0.72107843 0.25686275 0
0.78872549 0.30134804 0
0.87408088 0.37352941 0
0.95710784 0.44558824 0.0039215686
1 0.49650735 0.0039215686
1 0.53333333 0.0039215686
0.99871324 0.56911765 0.0039215686
0.99607843 0.60392157 0.0039215686
0.99607843 0.63872549 0.0036151961
0.99607843 0.67352941 0
0.99607843 0.70441176 0
0.99607843 0.73357843 0
0.99607843 0.76182598 0
0.99607843 0.78664216 0
0.99607843 0.81127451 0
0.99607843 0.82794118 0
0.21960784 0.02745098 0
0.26041667 0.039583333 0
0.31470588 0.056617647 0
0.37267157 0.076470588 0
0.43039216 0.094117647 0
0.48823529 0.11519608 0
0.54779412 0.14607843 0
0.60784314 0.18235294 0
0.66960784 0.21960784 0
0.73137255 0.25980392 0
0.79681373 0.30931373 0
0.88137255 0.38382353 0.0025735294
0.96421569 0.45441176 0.0039215686
0.99656863 0.4995098 0.0039215686
1 0.53431373 0.0039215686
1 0.56911765 0.0039215686
0.99607843 0.60392157 0.00098039216
0.99607843 0.64056373 0
0.99607843 0.67352941 0
0.99607843 0.70441176 0
0.99607843 0.73529412 0
0.99607843 0.7622549 0
0.99607843 0.79240196 0
0.99607843 0.81764706 0
0.99607843 0.83431373 0
0.22352941 0.028921569 0
0.26470588 0.044117647 0
0.32291667 0.060784314 0
0.37922794 0.081372549 0
0.4379902 0.099509804 0
0.49675245 0.12009804 0
0.55637255 0.14607843 0
0.61813725 0.18235294 0
0.67843137 0.225 0
0.7377451 0.26770833 0
0.80637255 0.31875 0
0.9004902 0.39901961 0.0034313725
0.97205882 0.46617647 0.0039215686
0.99264706 0.50343137 0.0039215686
0.99607843 0.53431373 0.0039215686
0.99607843 0.57058824 0
0.99607843 0.60784314 0
0.99754902 0.64264706 0
0.99718137 0.67352941 0
0.99607843 0.70441176 0
0.99607843 0.73529412 0
0.99607843 0.7622549 0
0.99607843 0.79313725 0
0.99607843 0.82401961 0
0.99607843 0.84607843 0
0.22352941 0.031372549 0
0.26715686 0.044117647 0
0.32745098 0.064705882 0
0.38529412 0.085294118 0
0.44313725 0.10196078 0
0.50098039 0.12254902 0
0.5627451 0.14607843 0
0.6245098 0.18627451 0
0.68627451 0.23137255 0
0.74411765 0.27254902 0
0.81372549 0.3254902 0
0.91666667 0.41176471 0.0039215686
0.98235294 0.4745098 0.0039215686
0.99264706 0.50735294 0.0039215686
0.99607843 0.53823529 0.0039215686
0.99607843 0.57303922 0
0.99607843 0.61176471 0
1 0.64509804 0
1 0.67352941 0
1 0.70441176 0
0.99607843 0.73529412 0
0.99607843 0.76617647 0
0.99607843 0.79313725 0
0.99607843 0.82401961 0
0.99607843 0.85098039 0
0.074509804 0 0
0.11084559 0.006372549 0
0.15686275 0.012745098 0.0039215686
0.2004902 0.019117647 0.0039215686
0.24436275 0.024754902 0.0078431373
0.2995098 0.040686275 0.0078431373
0.36458333 0.072671569 0.0078431373
0.43327206 0.10637255 0.0078431373
0.50196078 0.14117647 0.0039215686
0.57009804 0.17359069 0.0039215686
0.64105392 0.2127451 0.0039215686
0.71795343 0.26764706 0.0039215686
0.79411765 0.3254902 0.0039215686
0.87009804 0.38333333 0.0039215686
0.94215686 0.43933824 0.0039215686
0.990625 0.48823529 0.0039215686
0.99607843 0.5254902 0.0039215686
0.99944853 0.5627451 0.0039215686
1 0.6 0.0029411765
1 0.6372549 0
1 0.67254902 0
1 0.70735294 0
1 0.73529412 0
1 0.76280637 0
1 0.78039216 0
0.07935049 0.0039215686 0
0.11534161 0.006372549 0.0015318627
0.15968137 0.012745098 0.0039215686
0.20429688 0.019117647 0.0039215686
0.2495098 0.025490196 0.0078431373
0.30251225 0.042830882 0.0078431373
0.3665288 0.071568627 0.0078431373
0.43327206 0.10300245 0.0067172181
0.50196078 0.1372549 0.0039215686
0.56917892 0.16940104 0.0039215686
0.64105392 0.21144301 0.0039215686
0.71795343 0.26764706 0.0039215686
0.79384191 0.3254902 0.0039215686
0.86629136 0.38291207 0.0039215686
0.93952206 0.43823529 0.0039215686
0.98612898 0.48823529 0.0039215686
0.99307598 0.5254902 0.0039215686
0.9942019 0.5627451 0.0039215686
0.99607843 0.59901961 0.0029411765
0.99607843 0.63382353 0
0.99954044 0.67058824 0
1 0.70343137 0
1 0.73431373 0
1 0.75980392 0
1 0.77647059 0
0.084436275 0.0039215686 0
0.11999081 0.0078431373 0.0024509804
0.16485907 0.013204657 0.0039215686
0.21020221 0.020143995 0.0039215686
0.25606618 0.029411765 0.0078431373
0.30772059 0.04442402 0.0078431373
0.37077206 0.071568627 0.0078431373
0.43558517 0.10036765 0.0039215686
0.5004902 0.13235294 0.0039215686
0.56862745 0.16522672 0.0039215686
0.64105392 0.20854779 0.0039215686
0.72009804 0.26409314 0.0039215686
0.79761029 0.3247549 0.0039215686
0.87107843 0.38291973 0.0039215686
0.9426777 0.43851103 0.0039215686
0.98578431 0.48823529 0.0039215686
0.98970588 0.5254902 0.0039215686
0.99215686 0.56182598 0.0039215686
0.99469975 0.5981924 0.0029411765
0.99607843 0.63382353 0
0.99730392 0.67058824 0
1 0.70343137 0
1 0.73357843 0
1 0.75551471 0
1 0.76862745 0
0.08627451 0.0039215686 0
0.12297794 0.0078431373 0.0011106005
0.16902574 0.015686275 0.0039215686
0.21557904 0.023039216 0.0039215686
0.26176471 0.031556373 0.0078431373
0.31240043 0.046461397 0.0078431373
0.37432598 0.071568627 0.0078431373
0.43841912 0.098529412 0.0039215686
0.50177696 0.12579657 0.0039215686
0.56862745 0.16000306 0.0039215686
0.64159007 0.20497855 0.0039215686
0.72355239 0.26372549 0.0039215686
0.8015625 0.3247549 0.0039215686
0.87992494 0.38333333 0.0039215686
0.9504902 0.44117647 0.0039215686
0.98484988 0.48823529 0.0039215686
0.99215686 0.5254902 0.0039215686
0.9948989 0.56343444 0.0039215686
0.99607843 0.59995404 0.0013327206
0.99607843 0.63709406 0
0.99803922 0.67245711 0
1 0.70343137 0
1 0.73137255 0
1 0.75196078 0
1 0.76862745 0
0.08995098 0.0039215686 0
0.12552083 0.0086090686 0.00045955882
0.17230392 0.016666667 0.0039215686
0.21969975 0.024509804 0.0039215686
0.26691176 0.033333333 0.0078431373
0.31691176 0.047395833 0.0078431373
0.37751225 0.072181373 0.0078431373
0.44142157 0.097977941 0.0039215686
0.50514706 0.1254902 0.0039215686
0.57132353 0.15582108 0.0024509804
0.64613971 0.20465686 0.0024509804
0.7260723 0.26495098 0.0039215686
0.8060049 0.32512255 0.0039215686
0.88529412 0.38636642 0.0039215686
0.95306373 0.44466912 0.0039215686
0.98088235 0.48897059 0.0039215686
0.99093137 0.52941176 0.0039215686
0.99515931 0.56620711 0.0039215686
0.99607843 0.60324755 0
0.99607843 0.6388174 0
1 0.67254902 0
1 0.70333946 0
1 0.73069853 0
