site/assets/luts/sha256-c671d1ec5fd8ed4aeedae815fa349880c5e3b53fe3f3feb4d8900e6b1e12674f.cube
# LUTr-Schema-Version: 2
# LUTr-ID: sha256-c671d1ec5fd8ed4aeedae815fa349880c5e3b53fe3f3feb4d8900e6b1e12674f
# LUTr-Title: polaroid px-70 ++
# LUTr-Collection: Natron HaldCLUT
# LUTr-Collection-ID: natron-haldclut-presets
# LUTr-Source: https://github.com/NatronGitHub/clut
# LUTr-Retrieved: 2026-07-27
# LUTr-Source-File: submissions/natron-haldclut-presets/instant_consumer/polaroid_px-70_++.png
# LUTr-Source-Format: HALD-PNG
# LUTr-Source-SHA256: c671d1ec5fd8ed4aeedae815fa349880c5e3b53fe3f3feb4d8900e6b1e12674f
# LUTr-License: CC-BY-SA-4.0
# LUTr-License-URL: https://github.com/NatronGitHub/clut#license
# LUTr-License-Basis: repo-license-file
# LUTr-Transform-Class: film-emulation
# LUTr-Tags: creative, film, film-emulation, hald-clut, natron, png, cube
# LUTr-Input-Color-Space: srgb
# LUTr-Input-Gamut: rec709
# LUTr-Input-Transfer: srgb
# LUTr-Output-Color-Space: srgb
# LUTr-Output-Gamut: rec709
# LUTr-Output-Transfer: srgb
# LUTr-Color-Space-Confidence: assumed-display-referred
# LUTr-Domain-Normalized: true
# LUTr-Shaper: none
# LUTr-Original-Grid: 64x64x64
# LUTr-Conversion-Grid: 25x25x25
# LUTr-Conversion-Interpolation: trilinear
# LUTr-Conversion-Method: HALD-PNG LUT image decoded at 16-bit and sampled to 25x25x25 3D CUBE
# LUTr-Conversion-Tool: LUTr scripts/convert-all-to-cube.mjs 2.0.0
# LUTr-Conversion-Date: 2026-07-27
# LUTr-Note: Preserve this metadata and the upstream license notices when redistributing.
TITLE "polaroid px-70 ++"
LUT_3D_SIZE 9
DOMAIN_MIN 0 0 0
DOMAIN_MAX 1 1 1
0.20784314 0.31764706 0.25882353
0.21911765 0.31764706 0.25882353
0.23039216 0.31764706 0.25882353
0.24901961 0.31764706 0.25882353
0.35686275 0.31764706 0.25882353
0.58039216 0.34656863 0.2495098
0.81176471 0.3754902 0.23529412
0.91911765 0.46029412 0.22696078
0.96862745 0.50196078 0.22352941
0.20784314 0.31764706 0.25882353
0.21911765 0.31764706 0.25882353
0.23431373 0.32107843 0.25882353
0.28008578 0.32401961 0.25882353
0.38823529 0.33137255 0.25490196
0.59411765 0.3526348 0.24705882
0.81715686 0.40147059 0.22781863
0.91954657 0.48333333 0.23094363
0.97647059 0.55637255 0.24705882
0.20490196 0.33235294 0.25882353
0.21568627 0.33982843 0.25882353
0.23823529 0.34019608 0.25882353
0.30294118 0.35490196 0.25490196
0.42843137 0.37009804 0.24803922
0.63970588 0.39558824 0.23921569
0.81666667 0.45490196 0.22254902
0.93125 0.52463235 0.22009804
0.97352941 0.5872549 0.24411765
0.19215686 0.38529412 0.25490196
0.20753676 0.38627451 0.25490196
0.25355392 0.39669118 0.25245098
0.33627451 0.41911765 0.24761029
0.50098039 0.44338235 0.23406863
0.68039216 0.47156863 0.22261029
0.82009804 0.51666667 0.20723039
0.91439951 0.56813725 0.2004902
0.9504902 0.61421569 0.23529412
0.15294118 0.51568627 0.2372549
0.18921569 0.5254902 0.23897059
0.26960784 0.51813725 0.24264706
0.39264706 0.52990196 0.23995098
0.55196078 0.55392157 0.23235294
0.70735294 0.58186275 0.20637255
0.81862745 0.60931373 0.20392157
0.90294118 0.64166667 0.20637255
0.95490196 0.67058824 0.24313725
0.25294118 0.65686275 0.23529412
0.27401961 0.64852941 0.24068627
0.35134804 0.65294118 0.24460784
0.46280637 0.66323529 0.24313725
0.59240196 0.67647059 0.24191176
0.72444853 0.69460784 0.23204657
0.82254902 0.70735294 0.22316176
0.89332108 0.72058824 0.23872549
0.93333333 0.73235294 0.26813725
0.44705882 0.76372549 0.28823529
0.45392157 0.75980392 0.27745098
0.50098039 0.7627451 0.28333333
0.57058824 0.76335784 0.30379902
0.65686275 0.77058824 0.30735294
0.74117647 0.77487745 0.30098039
0.81838235 0.78235294 0.30490196
0.87536765 0.79031863 0.31323529
0.90196078 0.79117647 0.3372549
0.65735294 0.83578431 0.38578431
0.6504902 0.825 0.38584559
0.65686275 0.81666667 0.38492647
0.70637255 0.82824755 0.39754902
0.74852941 0.83578431 0.40539216
0.78431373 0.83578431 0.40539216
0.825 0.83578431 0.40931373
0.87199755 0.83878676 0.4127451
0.89803922 0.84313725 0.44019608
0.81176471 0.86666667 0.49019608
0.8 0.8627451 0.48627451
0.8 0.85882353 0.48235294
0.81421569 0.86127451 0.49019608
0.83333333 0.8627451 0.49803922
0.84313725 0.8627451 0.49411765
0.85980392 0.86666667 0.50294118
0.87843137 0.8627451 0.49803922
0.89411765 0.8627451 0.50196078
0.20784314 0.31764706 0.25882353
0.21911765 0.31764706 0.25882353
0.23517157 0.31764706 0.26139706
0.26832108 0.32009804 0.2627451
0.37990196 0.3254902 0.2627451
0.60588235 0.33921569 0.25704657
0.80539216 0.38284314 0.24656863
0.94166667 0.47984069 0.23572304
0.97696078 0.55294118 0.26617647
0.20784314 0.31764706 0.25882353
0.21868873 0.31764706 0.25882353
0.23754596 0.32107843 0.2622549
0.27385876 0.32371324 0.2627451
0.39316789 0.33480392 0.25882353
0.61341912 0.36176471 0.25332414
0.82052696 0.40637255 0.24264706
0.93823529 0.49380362 0.23572304
0.97696078 0.56770833 0.27003676
0.20784314 0.34276961 0.25882353
0.21868873 0.34019608 0.25882353
0.25254289 0.34411765 0.26246936
0.3064951 0.34434743 0.25882353
0.45484069 0.36948529 0.25343137
0.648269 0.39656863 0.24299939
0.81691176 0.45490196 0.23489583
0.93484988 0.52973346 0.23872549
0.96715686 0.58786765 0.2682598
0.19185049 0.396875 0.25490196
0.21127451 0.397572 0.25882353
0.26862745 0.4069087 0.25859375
0.34394148 0.4221201 0.25098039
0.5004902 0.4370098 0.24558824
0.68094363 0.4732307 0.23411458
0.8303462 0.51864277 0.22218137
0.90720741 0.5745098 0.23872549
0.95833333 0.63204657 0.27352941
0.15490196 0.53308824 0.24656863
0.209375 0.52766544 0.24678309
0.27015931 0.51764706 0.24705882
0.39705882 0.53651961 0.24378064
0.55110294 0.55882353 0.24313725
0.70670956 0.58970588 0.23088235
0.83455882 0.61642157 0.20955882
0.90294118 0.64708946 0.23137255
0.94142157 0.66862745 0.25294118
0.27647059 0.66470588 0.25196078
0.31168045 0.65949755 0.25953585
0.38247549 0.65436581 0.26403186
0.48431373 0.66844363 0.25765931
0.61234681 0.69019608 0.24941789
0.72598039 0.69852941 0.25196078
0.82610294 0.70992647 0.2495098
0.89099265 0.7245098 0.26176471
0.921875 0.72990196 0.29019608
0.4877451 0.78590686 0.29705882
0.4877451 0.76796875 0.2995098
0.52098652 0.7705576 0.29788603
0.59166667 0.7676011 0.31973039
0.67647059 0.7745098 0.32359069
0.75494792 0.77939645 0.3165288
0.81372549 0.78627451 0.32117034
0.87176777 0.79143689 0.34509804
0.90980392 0.80453431 0.37855392
0.66868873 0.83186275 0.40104167
0.665625 0.82531403 0.40104167
0.67947304 0.82391238 0.39754902
0.71361826 0.83186275 0.40490196
0.75003064 0.83186275 0.4129902
0.79616268 0.83390778 0.42058824
0.82967218 0.83970588 0.42575061
0.86323529 0.84362745 0.43595282
0.89019608 0.84362745 0.44852941
0.8 0.8627451 0.48627451
0.80735294 0.8627451 0.49019608
0.80870098 0.8627451 0.48982843
0.82156863 0.8627451 0.49607843
0.83333333 0.8627451 0.49828431
0.84705882 0.8627451 0.5004902
0.8627451 0.86666667 0.5060049
0.87892157 0.86666667 0.50637255
0.89411765 0.86666667 0.52107843
0.21568627 0.3254902 0.27352941
0.22610294 0.3254902 0.27058824
0.23921569 0.3247549 0.26666667
0.26041667 0.32156863 0.26666667
0.40686275 0.3254902 0.27352941
0.62352941 0.32941176 0.27352941
0.81568627 0.36666667 0.27745098
0.94166667 0.50980392 0.3004902
0.97352941 0.5754902 0.32352941
0.21568627 0.32928922 0.27352941
0.22352941 0.32806373 0.26962316
0.24215686 0.3254902 0.26666667
0.27855392 0.32536765 0.26666667
0.41568627 0.33284314 0.27352941
0.64526654 0.34180453 0.27352941
0.84178922 0.4208027 0.27818627
0.9379136 0.52124694 0.3004902
0.96862745 0.59754902 0.33039216
0.21789216 0.34093137 0.26985294
0.22340686 0.33946078 0.26666667
0.26060049 0.35079657 0.26666667
0.32169118 0.35143995 0.26960784
0.47561275 0.3625 0.2685049
0.67745098 0.39721201 0.27352941
0.83958333 0.46666667 0.27297794
0.93808211 0.55196078 0.28946078
0.96176471 0.6129902 0.32745098
0.21078431 0.41764706 0.26960784
0.22501532 0.41372549 0.26666667
0.27873775 0.41979167 0.27058824
0.37205882 0.42340686 0.26960784
0.52879902 0.44215686 0.26568627
0.69172794 0.47659314 0.26153493
0.84080882 0.52745098 0.25894608
0.92210478 0.59322917 0.27714461
0.96078431 0.64742647 0.32352941
0.2495098 0.54460784 0.275
0.24264706 0.53333333 0.26905637
0.31875 0.53664216 0.27352941
0.42818627 0.54356618 0.27015931
0.57965686 0.56666667 0.26960784
0.72659314 0.59485294 0.26446078
0.83823529 0.61556373 0.26323529
0.90661765 0.65122549 0.27867647
0.93529412 0.67941176 0.30343137
0.33676471 0.67585784 0.28284314
0.35784314 0.6682598 0.28284314
0.42129289 0.67110907 0.28676471
0.5127451 0.67254902 0.29362745
0.6254902 0.68841912 0.28431373
0.73777574 0.69963235 0.28869485
0.84034926 0.71887255 0.28759191
0.88939951 0.72843137 0.30931373
0.92156863 0.73345588 0.32144608
0.51862745 0.7747549 0.33529412
0.52898284 0.7754902 0.32941176
0.56960784 0.77193627 0.34044118
0.61896446 0.77257966 0.34669118
0.68578431 0.77843137 0.35098039
0.76078431 0.78235294 0.35346201
0.82941176 0.79093137 0.36329657
0.87478554 0.79411765 0.37000613
0.90490196 0.79485294 0.39019608
0.68786765 0.83223039 0.41715686
0.68823529 0.83111213 0.41629902
0.70609681 0.82821691 0.42009804
0.72977941 0.83186275 0.42388174
0.76280637 0.83186275 0.42616422
0.79845282 0.83578431 0.43664216
0.82892157 0.84313725 0.44019608
0.86372549 0.84362745 0.45067402
0.89791667 0.84754902 0.4625
0.80686275 0.8627451 0.49019608
0.81078431 0.8627451 0.49411765
0.81151961 0.8625 0.49240196
0.82708333 0.8627451 0.49803922
0.83137255 0.8627451 0.49803922
0.8560049 0.86666667 0.51482843
0.8627451 0.8629902 0.50588235
0.875 0.86286765 0.50245098
0.89019608 0.8627451 0.50686275
0.22352941 0.32941176 0.28872549
0.2372549 0.32941176 0.28872549
0.26127451 0.32941176 0.28125
0.28584559 0.32794118 0.27696078
0.40465686 0.32671569 0.29142157
0.62199755 0.32101716 0.30196078
0.84620098 0.32303922 0.32144608
0.9495098 0.45098039 0.34068627
0.96078431 0.59803922 0.39607843
0.22352941 0.32941176 0.28872549
0.23351716 0.32941176 0.28480392
0.26029412 0.32941176 0.28088235
0.30882353 0.3332644 0.28468903
0.41871936 0.33146446 0.29249387
0.64865962 0.33003217 0.30902267
0.86617647 0.3680913 0.32352941
0.94166667 0.50637255 0.35615043
0.95471814 0.62481618 0.40177696
0.21176471 0.35196078 0.29019608
0.22703738 0.35441176 0.28982843
0.27447917 0.35168505 0.28918505
0.35154718 0.36271446 0.29656863
0.49264706 0.37573529 0.30318627
0.6967065 0.39502145 0.31862745
0.8518076 0.45845588 0.33137255
0.92175245 0.5877451 0.37634804
0.94509804 0.67696078 0.41519608
0.21813725 0.42941176 0.29901961
0.24332108 0.42640931 0.29901961
0.30036765 0.42696078 0.30163909
0.40931373 0.43612898 0.30873928
0.56253064 0.46228554 0.31666667
0.73269761 0.50539216 0.32647059
0.84215686 0.56531863 0.34166667
0.91207108 0.63578431 0.36862745
0.93964461 0.68241422 0.39405637
0.28161765 0.54632353 0.31348039
0.30784314 0.5481924 0.3127451
0.39313725 0.55582108 0.31832108
0.49093137 0.56470588 0.32181373
0.61887255 0.58357843 0.31985294
0.74512868 0.6028799 0.32107843
0.84509804 0.63406863 0.32689951
0.90245098 0.66764706 0.3497549
0.93137255 0.70637255 0.38455882
0.45827206 0.69362745 0.34601716
0.46470588 0.68706342 0.34293811
0.49172794 0.68039216 0.33933824
0.56715686 0.68410692 0.34362745
0.64702819 0.69114583 0.34362745
0.75677849 0.7035769 0.34754902
0.84117647 0.72303922 0.35036765
0.89068627 0.73009344 0.37114737
0.92101716 0.74656863 0.38529412
0.60833333 0.78480392 0.39154412
0.60147059 0.78466605 0.38293505
0.6189951 0.77487745 0.38400735
0.66219363 0.77843137 0.38872549
0.71795343 0.77843137 0.38872549
0.77176777 0.78235294 0.3872549
0.82987132 0.79411765 0.3989277
0.87879902 0.80476409 0.41043199
0.90882353 0.79803922 0.42794118
0.72598039 0.83578431 0.44656863
0.72567402 0.83578431 0.44264706
0.72941176 0.82820159 0.44234069
0.74362745 0.83186275 0.44172794
0.78186275 0.82794118 0.4504902
0.80637255 0.83498009 0.45618873
0.83627451 0.83970588 0.46202512
0.87473192 0.83970588 0.47009804
0.89411765 0.84362745 0.47530637
0.81960784 0.8627451 0.50196078
0.81979167 0.8627451 0.50196078
0.81960784 0.8627451 0.49803922
0.82990196 0.8627451 0.50196078
0.84313725 0.8627451 0.50833333
0.85098039 0.8627451 0.50980392
0.86556373 0.8627451 0.51262255
0.88235294 0.87028186 0.52371324
0.88480392 0.86666667 0.51764706
0.23333333 0.3254902 0.32156863
0.26029412 0.3254902 0.31960784
0.30147059 0.32892157 0.31764706
0.37990196 0.34240196 0.32352941
0.48333333 0.35294118 0.3372549
0.63186275 0.35759804 0.35441176
0.83333333 0.35882353 0.39264706
0.93382353 0.46446078 0.40833333
0.9627451 0.55686275 0.42352941
0.23333333 0.33112745 0.32328431
0.2622549 0.33287377 0.32545956
0.31464461 0.33915441 0.33002451
0.41470588 0.35704657 0.33995098
0.50919118 0.37107843 0.34583333
0.65425858 0.37956495 0.3622549
0.8401348 0.39754902 0.39613971
0.9323223 0.50514706 0.41593137
0.95735294 0.60955882 0.43921569
0.22598039 0.36470588 0.34460784
0.25618873 0.36862745 0.34411765
0.33921569 0.37254902 0.35379902
0.44166667 0.39307598 0.3622549
0.55686275 0.42867647 0.36593137
0.69362745 0.44338235 0.37696078
0.84926471 0.47781863 0.40061275
0.92469363 0.56807598 0.42420343
0.9495098 0.6754902 0.45294118
0.21495098 0.44607843 0.35294118
0.24175858 0.44525123 0.35294118
0.32156863 0.44607843 0.36060049
0.46568627 0.47254902 0.37227328
0.60968137 0.50269608 0.38198529
0.73998162 0.54019608 0.39699755
0.85171569 0.59148284 0.41911765
0.90701593 0.66495098 0.44157475
0.92696078 0.72892157 0.46911765
0.30980392 0.57058824 0.37156863
0.33823529 0.57046569 0.3745098
0.41151961 0.56764706 0.37598039
0.51237745 0.57573529 0.38296569
0.65343137 0.60343137 0.39460784
0.76519608 0.63296569 0.40502451
0.8504902 0.68112745 0.425
0.89460784 0.71237745 0.43553922
0.91960784 0.74803922 0.45784314
0.46495098 0.68676471 0.39754902
0.49705882 0.69215686 0.40147059
0.53229167 0.69215686 0.39754902
0.60735294 0.69022672 0.40147059
0.68970588 0.70306373 0.40931373
0.78556985 0.71544118 0.41715686
0.84491422 0.73529412 0.41868873
0.88299632 0.75530025 0.43422181
0.91176471 0.77205882 0.44828431
0.63186275 0.78333333 0.42843137
0.63511029 0.77843137 0.43020833
0.66335784 0.77892157 0.43051471
0.69705882 0.78235294 0.43039216
0.74583333 0.78627451 0.43946078
0.79093137 0.79019608 0.44442402
0.84019608 0.79840686 0.44705882
0.87892157 0.80502451 0.45245098
0.8995098 0.80539216 0.45784314
0.74313725 0.83578431 0.46936275
0.75045956 0.83578431 0.46936275
0.75569853 0.83449755 0.46911765
0.76626838 0.83406863 0.46568627
0.79681373 0.83002451 0.47696078
0.82288603 0.83578431 0.48137255
0.84436275 0.84099265 0.48480392
0.87107843 0.84362745 0.48897059
0.89411765 0.84583333 0.49264706
0.82941176 0.8627451 0.51176471
0.82745098 0.8627451 0.51151961
0.82990196 0.8627451 0.51029412
0.83970588 0.86397059 0.5129902
0.84705882 0.8627451 0.51666667
0.85759804 0.8627451 0.51960784
0.87156863 0.86666667 0.5254902
0.88235294 0.86617647 0.52156863
0.89019608 0.8627451 0.51372549
0.29754902 0.33088235 0.39803922
0.34393382 0.3372549 0.40539216
0.40110294 0.33235294 0.40943627
0.53817402 0.36623775 0.42310049
0.66029412 0.42058824 0.43970588
0.73823529 0.47990196 0.43731618
0.82107843 0.47855392 0.45098039
0.91715686 0.52058824 0.46813725
0.95294118 0.62254902 0.48382353
0.29754902 0.34852941 0.41501225
0.35 0.35234375 0.42154565
0.43008578 0.36346507 0.42394301
0.54951746 0.39547335 0.42794118
0.66780025 0.44901961 0.44215686
0.75354626 0.50452665 0.44835325
0.83431373 0.50531556 0.45837929
0.92058824 0.55588235 0.47221967
0.94901961 0.6377451 0.48382353
0.2807598 0.38823529 0.42794118
0.32892157 0.39404105 0.43517157
0.42827819 0.4067402 0.43532475
0.57046569 0.44517463 0.4444087
0.68792892 0.50821078 0.44938725
0.77144608 0.57064951 0.4535386
0.83805147 0.57362132 0.4625
0.91332721 0.61781556 0.47598039
0.93786765 0.67254902 0.4877451
0.24356618 0.4872549 0.43578431
0.29264706 0.48714001 0.43578431
0.4078125 0.48909314 0.4394761
0.57408088 0.52442555 0.45091912
0.71378676 0.58311887 0.4583027
0.78200827 0.64365043 0.46176471
0.85012255 0.63731618 0.47391238
0.89398744 0.67450214 0.48001685
0.92064951 0.73039216 0.49503676
0.32892157 0.59828431 0.44607843
0.36372549 0.59362745 0.44093137
0.42824755 0.59362745 0.44215686
0.54136029 0.60196078 0.44908088
0.7067402 0.63786765 0.46176471
0.78946078 0.69411765 0.46614583
0.85294118 0.72604167 0.48057598
0.88783701 0.74329044 0.48814338
0.90980392 0.76936275 0.49558824
0.48480392 0.69944853 0.45091912
0.50889246 0.7 0.45098805
0.5504902 0.7 0.45091912
0.63004749 0.70415135 0.45484069
0.72303922 0.71933211 0.46344975
0.79599418 0.73359375 0.46960784
0.848269 0.76147365 0.48026961
0.88284314 0.77860754 0.48792892
0.90196078 0.79117647 0.49313725
0.63958333 0.78235294 0.46813725
0.64715074 0.78443627 0.46629902
0.66960784 0.78235294 0.46865809
0.71551777 0.78627451 0.46980699
0.76636029 0.79019608 0.47843137
0.80853248 0.79742647 0.48198529
0.84411765 0.80992647 0.48590686
0.87892157 0.81444547 0.48982843
0.89558824 0.82058824 0.49411765
0.7504902 0.83578431 0.49460784
0.75394455 0.83578431 0.49215686
0.76556373 0.83578431 0.49068627
0.78540901 0.83578431 0.49552696
0.81127451 0.83578431 0.50122549
0.8372549 0.83970588 0.50784314
0.85629596 0.84339767 0.51176471
0.88235294 0.84362745 0.51203278
0.89411765 0.85128676 0.51783088
0.82990196 0.8627451 0.52156863
0.83529412 0.8627451 0.52156863
0.83921569 0.86311275 0.52156863
0.85245098 0.86666667 0.52696078
0.85367647 0.8627451 0.5254902
0.8627451 0.8627451 0.52696078
0.8754902 0.86666667 0.53370098
0.88627451 0.86666667 0.53302696
0.89411765 0.8627451 0.5254902
0.43137255 0.34509804 0.52058824
0.48676471 0.36960784 0.51360294
0.55882353 0.39240196 0.50514706
0.66862745 0.43088235 0.51421569
0.76372549 0.53137255 0.51519608
0.82598039 0.63480392 0.50784314
0.86372549 0.65955882 0.50784314
0.89460784 0.64938725 0.50686275
0.9254902 0.69607843 0.50980392
0.46421569 0.3942402 0.52352941
0.48981311 0.40281863 0.51617647
0.57843137 0.42193627 0.51568627
0.67977941 0.46070772 0.51960784
0.77022059 0.54718137 0.51936275
0.82967218 0.66104473 0.51176471
0.86470588 0.68651961 0.51078431
0.8988511 0.68203125 0.50816483
0.92843137 0.71127451 0.51078431
0.42034314 0.43627451 0.52352941
0.4765625 0.45588235 0.51960784
0.56740196 0.46985294 0.51887255
0.68226103 0.5176777 0.51176471
0.78039216 0.5932598 0.51715686
0.83128064 0.68676471 0.51176471
0.87156863 0.72371324 0.51470588
0.90147059 0.7122549 0.5140625
0.91666667 0.73039216 0.51470588
0.44129902 0.54509804 0.51605392
0.48489583 0.54938725 0.51181066
0.55245098 0.54080882 0.51286765
0.68200061 0.58823529 0.51092218
0.76997549 0.64675245 0.51078431
0.83137255 0.72786458 0.51262255
0.85980392 0.74558824 0.51470588
0.88690257 0.7504902 0.51862745
0.90882353 0.75735294 0.52254902
0.38627451 0.62696078 0.50735294
0.42420343 0.63082108 0.50416667
0.51458333 0.63480392 0.50428922
0.62352941 0.65147059 0.50392157
0.75073529 0.68627451 0.51102941
0.81403186 0.74540441 0.51470588
0.86053922 0.77647059 0.51862745
0.88676471 0.78333333 0.52254902
0.90882353 0.78333333 0.52647059
0.53627451 0.72303922 0.50686275
0.55163909 0.72271752 0.50686275
0.58590686 0.71875 0.50686275
0.65477941 0.72012868 0.50686275
0.74656863 0.72910539 0.51305147
0.80784314 0.76378676 0.51078431
0.85897672 0.79742647 0.51541054
0.88498775 0.80637255 0.52254902
0.89803922 0.81029412 0.52254902
0.65588235 0.79019608 0.50686275
0.66329657 0.78921569 0.50686275
0.6776348 0.78627451 0.50392157
0.72714461 0.78599877 0.5057598
0.77401961 0.79411765 0.51078431
0.81531863 0.80177696 0.51470588
0.85631127 0.82248775 0.51881127
0.88235294 0.82916667 0.52254902
0.89803922 0.83308824 0.52328431
0.75833333 0.83590686 0.51776961
0.76220895 0.83578431 0.51507353
0.77074142 0.83627451 0.51384804
0.79551164 0.83676471 0.51507353
0.81813725 0.83578431 0.51776961
0.84171262 0.84002757 0.52254902
0.86295956 0.84718137 0.52570466
0.87892157 0.84754902 0.52953431
0.89411765 0.85098039 0.53333333
0.83921569 0.86764706 0.53039216
0.83529412 0.86666667 0.52941176
0.82965686 0.86053922 0.52720588
0.8495098 0.8627451 0.53333333
0.85686275 0.8627451 0.53333333
0.86875 0.86482843 0.53370098
0.88235294 0.86666667 0.5372549
0.88627451 0.86372549 0.54117647
0.89411765 0.86666667 0.54117647
0.63431373 0.47352941 0.58088235
0.64509804 0.48480392 0.57352941
0.70465686 0.50404412 0.57647059
0.7745098 0.57598039 0.56519608
0.82598039 0.64093137 0.5629902
0.85294118 0.71942402 0.54803922
0.87843137 0.77830882 0.54154412
0.89411765 0.7778799 0.5377451
0.90980392 0.77401961 0.5377451
0.64172794 0.51623775 0.57647059
0.66122089 0.51439185 0.57738971
0.7129136 0.55268076 0.56487439
0.77074908 0.59275429 0.56427696
0.82598039 0.66099877 0.55536152
0.85686275 0.727428 0.5495098
0.87855392 0.76698836 0.54166667
0.89411765 0.78136489 0.5377451
0.91280637 0.77794118 0.53382353
0.63431373 0.55686275 0.57303922
0.64901961 0.56482843 0.56498162
0.69705882 0.58079044 0.56470588
0.77501532 0.63302696 0.56171875
0.82506127 0.6911152 0.55165441
0.85686275 0.75196078 0.54166667
0.87843137 0.78808211 0.53860294
0.89068627 0.79693627 0.54166667
0.89509804 0.79607843 0.54117647
0.64166667 0.63382353 0.56096814
0.6567019 0.6345818 0.55692402
0.70240502 0.64178922 0.55439645
0.77039675 0.67303922 0.55686275
0.81976103 0.72573529 0.54920343
0.85556832 0.77382047 0.53763021
0.87585784 0.79722733 0.54117647
0.89019608 0.80688572 0.54166667
0.89411765 0.80704657 0.54117647
0.60588235 0.6875 0.5495098
0.6245098 0.68771446 0.5495098
0.67071078 0.69632353 0.54558824
0.73023897 0.70744485 0.54730392
0.80281863 0.74705882 0.54252451
0.84371936 0.78627451 0.5377451
0.87463235 0.8127451 0.54117647
0.88676471 0.81859681 0.54163603
0.89779412 0.82205882 0.54117647
0.59509804 0.74068627 0.54558824
0.59948683 0.73649663 0.54558824
0.63128064 0.73284314 0.54166667
0.69577206 0.7401348 0.54166667
0.78201593 0.76470588 0.54273897
0.82849265 0.79558824 0.5377451
0.87068015 0.82492341 0.54166667
0.88627451 0.83155637 0.54117647
0.89411765 0.83186275 0.54117647
0.69803922 0.80196078 0.54031863
0.70183824 0.79718137 0.5377451
0.71262255 0.79448529 0.5377451
0.74620098 0.79448529 0.5377451
0.77622549 0.79957108 0.5377451
0.82752757 0.81844363 0.5377451
0.86764706 0.83572304 0.5377451
0.88633578 0.8432598 0.5377451
0.89803922 0.84718137 0.5377451
0.77794118 0.84319853 0.5377451
0.78105852 0.83982077 0.5372549
0.786106 0.83970588 0.53382353
0.79969363 0.83970588 0.53382353
0.82205882 0.84362745 0.53795956
0.84856771 0.84518229 0.54117647
0.87156863 0.85147059 0.54117647
0.89019608 0.85544577 0.54117647
0.89803922 0.85974265 0.54509804
0.83480392 0.8627451 0.54117647
0.83529412 0.8627451 0.54117647
0.84301471 0.8627451 0.54117647
0.85098039 0.8627451 0.54117647
0.85514706 0.8627451 0.54117647
0.87058824 0.86648284 0.54509804
0.88235294 0.86666667 0.54509804
0.89019608 0.86666667 0.54509804
0.89803922 0.87009804 0.54901961
0.78823529 0.68627451 0.58431373
0.7877451 0.67794118 0.58039216
0.80686275 0.69705882 0.57647059
0.83137255 0.72794118 0.57254902
0.85686275 0.76666667 0.56666667
0.8745098 0.79754902 0.55931373
0.88627451 0.81960784 0.55294118
0.89803922 0.83088235 0.55245098
0.90588235 0.80784314 0.54901961
0.77303922 0.67156863 0.58039216
0.79558824 0.70006127 0.58039216
0.81078431 0.71151961 0.57647059
0.82959559 0.72922794 0.56862745
0.85686275 0.77401961 0.56470588
0.8745098 0.80116422 0.55949755
0.8872549 0.82303922 0.55294118
0.89411765 0.83137255 0.5528799
0.90196078 0.83872549 0.55245098
0.79411765 0.72254902 0.57647059
0.79166667 0.71360294 0.57647059
0.80465686 0.72132353 0.56887255
0.83382353 0.75110294 0.56862745
0.85490196 0.7745098 0.56078431
0.8745098 0.80441176 0.55686275
0.8872549 0.82843137 0.55294118
0.8942402 0.83921569 0.55294118
0.89803922 0.84313725 0.54901961
0.78039216 0.73186275 0.57254902
0.79558824 0.74313725 0.57254902
0.80330882 0.74362745 0.56568627
0.83474265 0.77199755 0.56470588
0.84509804 0.77156863 0.56004902
0.8745098 0.81813725 0.55631127
0.88443627 0.82843137 0.55294118
0.89019608 0.83118873 0.54901961
0.89803922 0.84705882 0.54901961
0.78235294 0.76470588 0.56862745
0.76740196 0.74779412 0.56862745
0.79607843 0.76421569 0.56470588
0.8122549 0.77696078 0.56078431
0.84705882 0.8 0.56078431
0.87058824 0.81838235 0.55612745
0.88235294 0.83137255 0.55196078
0.89019608 0.83970588 0.54901961
0.89607843 0.85294118 0.54901961
0.72352941 0.77647059 0.56323529
0.74215686 0.77775735 0.56470588
0.7689951 0.78370098 0.56176471
0.77800245 0.78186275 0.55686275
0.82156863 0.79558824 0.55686275
0.86329657 0.82892157 0.55294118
0.88125 0.83468137 0.54840686
0.89019608 0.84491422 0.54901961
0.89411765 0.85098039 0.54901961
0.74411765 0.80980392 0.55686275
0.74754902 0.80625 0.55686275
0.76176471 0.80882353 0.55686275
0.79852941 0.81666667 0.55796569
0.81715686 0.82058824 0.55196078
0.84852941 0.83566176 0.54901961
0.8754902 0.84730392 0.54901961
0.89019608 0.85490196 0.54901961
0.89803922 0.85882353 0.54901961
0.81666667 0.85098039 0.55294118
0.80925245 0.84754902 0.55294118
0.81531863 0.84754902 0.55294118
0.81648284 0.84313725 0.54901961
0.82205882 0.84534314 0.54509804
0.85539216 0.85116422 0.54901961
0.8754902 0.85882353 0.55294118
0.89025735 0.8627451 0.54901961
0.89803922 0.86666667 0.55245098
0.8627451 0.87058824 0.55294118
0.83970588 0.8627451 0.54901961
0.83823529 0.8627451 0.54901961
0.85343137 0.8627451 0.54509804
0.8627451 0.86666667 0.54901961
0.8745098 0.86666667 0.55294118
0.8754902 0.85882353 0.55196078
0.89019608 0.86666667 0.54509804
0.89803922 0.86666667 0.54901961
