site/assets/luts/sha256-32e54838ea9891ab1ec4b4783d88f993481e0c7a65b9e87751c0d8d092f039b8.cube
# LUTr-Schema-Version: 2
# LUTr-ID: sha256-32e54838ea9891ab1ec4b4783d88f993481e0c7a65b9e87751c0d8d092f039b8
# LUTr-Title: fuji fp-3000b negative -
# LUTr-Collection: Natron HaldCLUT
# LUTr-Collection-ID: natron-haldclut-presets
# LUTr-Source: https://github.com/NatronGitHub/clut
# LUTr-Retrieved: 2026-07-27
# LUTr-Source-File: submissions/natron-haldclut-presets/instant_pro/fuji_fp-3000b_negative_-.png
# LUTr-Source-Format: HALD-PNG
# LUTr-Source-SHA256: 32e54838ea9891ab1ec4b4783d88f993481e0c7a65b9e87751c0d8d092f039b8
# LUTr-License: CC-BY-SA-4.0
# LUTr-License-URL: https://github.com/NatronGitHub/clut#license
# LUTr-License-Basis: repo-license-file
# LUTr-Transform-Class: film-emulation
# LUTr-Tags: creative, film, film-emulation, hald-clut, natron, png, cube
# LUTr-Input-Color-Space: srgb
# LUTr-Input-Gamut: rec709
# LUTr-Input-Transfer: srgb
# LUTr-Output-Color-Space: srgb
# LUTr-Output-Gamut: rec709
# LUTr-Output-Transfer: srgb
# LUTr-Color-Space-Confidence: assumed-display-referred
# LUTr-Domain-Normalized: true
# LUTr-Shaper: none
# LUTr-Original-Grid: 64x64x64
# LUTr-Conversion-Grid: 25x25x25
# LUTr-Conversion-Interpolation: trilinear
# LUTr-Conversion-Method: HALD-PNG LUT image decoded at 16-bit and sampled to 25x25x25 3D CUBE
# LUTr-Conversion-Tool: LUTr scripts/convert-all-to-cube.mjs 2.0.0
# LUTr-Conversion-Date: 2026-07-27
# LUTr-Note: Preserve this metadata and the upstream license notices when redistributing.
TITLE "fuji fp-3000b negative -"
LUT_3D_SIZE 9
DOMAIN_MIN 0 0 0
DOMAIN_MAX 1 1 1
0.062745098 0.062745098 0.062745098
0.062745098 0.062745098 0.062745098
0.11176471 0.11176471 0.11176471
0.19166667 0.19166667 0.19166667
0.2627451 0.2627451 0.2627451
0.36666667 0.36666667 0.36666667
0.47745098 0.47745098 0.47745098
0.57401961 0.57401961 0.57401961
0.6745098 0.6745098 0.6745098
0.062254902 0.062254902 0.062254902
0.080882353 0.080882353 0.080882353
0.13872549 0.13872549 0.13872549
0.20079657 0.20079657 0.20079657
0.28995098 0.28995098 0.28995098
0.38823529 0.38823529 0.38823529
0.48872549 0.48872549 0.48872549
0.58143382 0.58143382 0.58143382
0.67058824 0.67058824 0.67058824
0.13921569 0.13921569 0.13921569
0.13872549 0.13872549 0.13872549
0.18333333 0.18333333 0.18333333
0.2557598 0.2557598 0.2557598
0.33970588 0.33970588 0.33970588
0.42659314 0.42659314 0.42659314
0.51568627 0.51568627 0.51568627
0.60833333 0.60833333 0.60833333
0.69705882 0.69705882 0.69705882
0.24901961 0.24901961 0.24901961
0.24901961 0.24901961 0.24901961
0.27806373 0.27806373 0.27806373
0.33045343 0.33045343 0.33045343
0.39901961 0.39901961 0.39901961
0.48382353 0.48382353 0.48382353
0.56764706 0.56764706 0.56764706
0.646875 0.646875 0.646875
0.72794118 0.72794118 0.72794118
0.37058824 0.37058824 0.37058824
0.37254902 0.37254902 0.37254902
0.38333333 0.38333333 0.38333333
0.4122549 0.4122549 0.4122549
0.46666667 0.46666667 0.46666667
0.53897059 0.53897059 0.53897059
0.61813725 0.61813725 0.61813725
0.69705882 0.69705882 0.69705882
0.7627451 0.7627451 0.7627451
0.48823529 0.48823529 0.48823529
0.49185049 0.49185049 0.49185049
0.49571078 0.49571078 0.49571078
0.50882353 0.50882353 0.50882353
0.5495098 0.5495098 0.5495098
0.60496324 0.60496324 0.60496324
0.67156863 0.67156863 0.67156863
0.74148284 0.74148284 0.74148284
0.80931373 0.80931373 0.80931373
0.62843137 0.62843137 0.62843137
0.62757353 0.62757353 0.62757353
0.61960784 0.61960784 0.61960784
0.60882353 0.60882353 0.60882353
0.64460784 0.64460784 0.64460784
0.68823529 0.68823529 0.68823529
0.73259804 0.73259804 0.73259804
0.78627451 0.78627451 0.78627451
0.84509804 0.84509804 0.84509804
0.76666667 0.76666667 0.76666667
0.7627451 0.7627451 0.7627451
0.75232843 0.75232843 0.75232843
0.74705882 0.74705882 0.74705882
0.75490196 0.75490196 0.75490196
0.78511029 0.78511029 0.78511029
0.82205882 0.82205882 0.82205882
0.84503676 0.84503676 0.84503676
0.88676471 0.88676471 0.88676471
0.8627451 0.8627451 0.8627451
0.8627451 0.8627451 0.8627451
0.8627451 0.8627451 0.8627451
0.8627451 0.8627451 0.8627451
0.8627451 0.8627451 0.8627451
0.87990196 0.87990196 0.87990196
0.89803922 0.89803922 0.89803922
0.91421569 0.91421569 0.91421569
0.94117647 0.94117647 0.94117647
0.097058824 0.097058824 0.097058824
0.097058824 0.097058824 0.097058824
0.1317402 0.1317402 0.1317402
0.19166667 0.19166667 0.19166667
0.29338235 0.29338235 0.29338235
0.38609069 0.38609069 0.38609069
0.48872549 0.48872549 0.48872549
0.58186275 0.58186275 0.58186275
0.67058824 0.67058824 0.67058824
0.10055147 0.10055147 0.10055147
0.097916667 0.097916667 0.097916667
0.16176471 0.16176471 0.16176471
0.22726716 0.22726716 0.22726716
0.31470588 0.31470588 0.31470588
0.40735294 0.40735294 0.40735294
0.49252451 0.49252451 0.49252451
0.58964461 0.58964461 0.58964461
0.68529412 0.68529412 0.68529412
0.18431373 0.18431373 0.18431373
0.18823529 0.18823529 0.18823529
0.21976103 0.21976103 0.21976103
0.28088235 0.28088235 0.28088235
0.35508578 0.35508578 0.35508578
0.43422181 0.43422181 0.43422181
0.52303922 0.52303922 0.52303922
0.6122549 0.6122549 0.6122549
0.69068627 0.69068627 0.69068627
0.28903186 0.28903186 0.28903186
0.28147978 0.28147978 0.28147978
0.29250919 0.29250919 0.29250919
0.3504902 0.3504902 0.3504902
0.40931373 0.40931373 0.40931373
0.48854933 0.48854933 0.48854933
0.56959252 0.56959252 0.56959252
0.64947151 0.64947151 0.64947151
0.72303922 0.72303922 0.72303922
0.40686275 0.40686275 0.40686275
0.40147059 0.40147059 0.40147059
0.3877451 0.3877451 0.3877451
0.42288603 0.42288603 0.42288603
0.47598039 0.47598039 0.47598039
0.54157475 0.54157475 0.54157475
0.62181373 0.62181373 0.62181373
0.70098039 0.70098039 0.70098039
0.76862745 0.76862745 0.76862745
0.52126225 0.52126225 0.52126225
0.5192019 0.5192019 0.5192019
0.50742953 0.50742953 0.50742953
0.51537224 0.51537224 0.51537224
0.55147059 0.55147059 0.55147059
0.60716912 0.60716912 0.60716912
0.67143076 0.67143076 0.67143076
0.74520527 0.74520527 0.74520527
0.81078431 0.81078431 0.81078431
0.63615196 0.63615196 0.63615196
0.63255208 0.63255208 0.63255208
0.63088235 0.63088235 0.63088235
0.63088235 0.63088235 0.63088235
0.65177696 0.65177696 0.65177696
0.68877145 0.68877145 0.68877145
0.73014706 0.73014706 0.73014706
0.78235294 0.78235294 0.78235294
0.84901961 0.84901961 0.84901961
0.77058824 0.77058824 0.77058824
0.76318168 0.76318168 0.76318168
0.75479473 0.75479473 0.75479473
0.75720741 0.75720741 0.75720741
0.7627451 0.7627451 0.7627451
0.7877068 0.7877068 0.7877068
0.82205882 0.82205882 0.82205882
0.84460784 0.84460784 0.84460784
0.88241422 0.88241422 0.88241422
0.86666667 0.86666667 0.86666667
0.87058824 0.87058824 0.87058824
0.86666667 0.86666667 0.86666667
0.87420343 0.87420343 0.87420343
0.86666667 0.86666667 0.86666667
0.88382353 0.88382353 0.88382353
0.89705882 0.89705882 0.89705882
0.90091912 0.90091912 0.90091912
0.94901961 0.94901961 0.94901961
0.14705882 0.14705882 0.14705882
0.16911765 0.16911765 0.16911765
0.1875 0.1875 0.1875
0.25637255 0.25637255 0.25637255
0.34117647 0.34117647 0.34117647
0.42095588 0.42095588 0.42095588
0.50784314 0.50784314 0.50784314
0.60453431 0.60453431 0.60453431
0.68921569 0.68921569 0.68921569
0.14522059 0.14522059 0.14522059
0.18474265 0.18474265 0.18474265
0.21985294 0.21985294 0.21985294
0.27495404 0.27495404 0.27495404
0.35643382 0.35643382 0.35643382
0.4379136 0.4379136 0.4379136
0.51920956 0.51920956 0.51920956
0.6122549 0.6122549 0.6122549
0.69791667 0.69791667 0.69791667
0.23529412 0.23529412 0.23529412
0.23529412 0.23529412 0.23529412
0.26488971 0.26488971 0.26488971
0.31678922 0.31678922 0.31678922
0.38541667 0.38541667 0.38541667
0.46482843 0.46482843 0.46482843
0.54509804 0.54509804 0.54509804
0.63060662 0.63060662 0.63060662
0.70882353 0.70882353 0.70882353
0.3432598 0.3432598 0.3432598
0.34117647 0.34117647 0.34117647
0.3504902 0.3504902 0.3504902
0.38229167 0.38229167 0.38229167
0.44313725 0.44313725 0.44313725
0.51352635 0.51352635 0.51352635
0.58314951 0.58314951 0.58314951
0.65824142 0.65824142 0.65824142
0.72683824 0.72683824 0.72683824
0.46078431 0.46078431 0.46078431
0.45821078 0.45821078 0.45821078
0.44754902 0.44754902 0.44754902
0.45563725 0.45563725 0.45563725
0.50882353 0.50882353 0.50882353
0.56685049 0.56685049 0.56685049
0.6372549 0.6372549 0.6372549
0.70637255 0.70637255 0.70637255
0.7627451 0.7627451 0.7627451
0.5692402 0.5692402 0.5692402
0.56720282 0.56720282 0.56720282
0.54779412 0.54779412 0.54779412
0.53722426 0.53722426 0.53722426
0.57794118 0.57794118 0.57794118
0.62535233 0.62535233 0.62535233
0.68771446 0.68771446 0.68771446
0.75441176 0.75441176 0.75441176
0.81433824 0.81433824 0.81433824
0.66544118 0.66544118 0.66544118
0.66115196 0.66115196 0.66115196
0.65153186 0.65153186 0.65153186
0.65364583 0.65364583 0.65364583
0.67071078 0.67071078 0.67071078
0.70245098 0.70245098 0.70245098
0.74356618 0.74356618 0.74356618
0.79335172 0.79335172 0.79335172
0.85196078 0.85196078 0.85196078
0.77843137 0.77843137 0.77843137
0.7745098 0.7745098 0.7745098
0.77352941 0.77352941 0.77352941
0.77443321 0.77443321 0.77443321
0.77009804 0.77009804 0.77009804
0.79811581 0.79811581 0.79811581
0.82855392 0.82855392 0.82855392
0.84857537 0.84857537 0.84857537
0.89497549 0.89497549 0.89497549
0.87843137 0.87843137 0.87843137
0.87843137 0.87843137 0.87843137
0.8754902 0.8754902 0.8754902
0.8745098 0.8745098 0.8745098
0.86960784 0.86960784 0.86960784
0.88345588 0.88345588 0.88345588
0.89411765 0.89411765 0.89411765
0.91421569 0.91421569 0.91421569
0.94901961 0.94901961 0.94901961
0.26078431 0.26078431 0.26078431
0.27990196 0.27990196 0.27990196
0.31911765 0.31911765 0.31911765
0.35882353 0.35882353 0.35882353
0.39632353 0.39632353 0.39632353
0.47843137 0.47843137 0.47843137
0.54411765 0.54411765 0.54411765
0.63137255 0.63137255 0.63137255
0.70980392 0.70980392 0.70980392
0.26862745 0.26862745 0.26862745
0.2877451 0.2877451 0.2877451
0.32247243 0.32247243 0.32247243
0.36127451 0.36127451 0.36127451
0.41936275 0.41936275 0.41936275
0.48596814 0.48596814 0.48596814
0.55775123 0.55775123 0.55775123
0.63921569 0.63921569 0.63921569
0.71746324 0.71746324 0.71746324
0.2995098 0.2995098 0.2995098
0.30359988 0.30359988 0.30359988
0.33789828 0.33789828 0.33789828
0.39143689 0.39143689 0.39143689
0.44558824 0.44558824 0.44558824
0.509375 0.509375 0.509375
0.58272059 0.58272059 0.58272059
0.65454963 0.65454963 0.65454963
0.72267157 0.72267157 0.72267157
0.39509804 0.39509804 0.39509804
0.39901961 0.39901961 0.39901961
0.40349265 0.40349265 0.40349265
0.43284314 0.43284314 0.43284314
0.48039216 0.48039216 0.48039216
0.54532782 0.54532782 0.54532782
0.61862745 0.61862745 0.61862745
0.68431373 0.68431373 0.68431373
0.73578431 0.73578431 0.73578431
0.51151961 0.51151961 0.51151961
0.50955882 0.50955882 0.50955882
0.50508578 0.50508578 0.50508578
0.49705882 0.49705882 0.49705882
0.54093137 0.54093137 0.54093137
0.60147059 0.60147059 0.60147059
0.66096814 0.66096814 0.66096814
0.72573529 0.72573529 0.72573529
0.77965686 0.77965686 0.77965686
0.60686275 0.60686275 0.60686275
0.60686275 0.60686275 0.60686275
0.59791667 0.59791667 0.59791667
0.5872549 0.5872549 0.5872549
0.60220588 0.60220588 0.60220588
0.65204504 0.65204504 0.65204504
0.70631127 0.70631127 0.70631127
0.7702742 0.7702742 0.7702742
0.825 0.825 0.825
0.70343137 0.70343137 0.70343137
0.69986213 0.69986213 0.69986213
0.69166667 0.69166667 0.69166667
0.68835784 0.68835784 0.68835784
0.69044118 0.69044118 0.69044118
0.71997549 0.71997549 0.71997549
0.7497549 0.7497549 0.7497549
0.80588235 0.80588235 0.80588235
0.85588235 0.85588235 0.85588235
0.80392157 0.80392157 0.80392157
0.80006127 0.80006127 0.80006127
0.79215686 0.79215686 0.79215686
0.79215686 0.79215686 0.79215686
0.78823529 0.78823529 0.78823529
0.80202206 0.80202206 0.80202206
0.829856 0.829856 0.829856
0.86029412 0.86029412 0.86029412
0.90294118 0.90294118 0.90294118
0.88382353 0.88382353 0.88382353
0.89019608 0.89019608 0.89019608
0.88872549 0.88872549 0.88872549
0.88480392 0.88480392 0.88480392
0.89093137 0.89093137 0.89093137
0.88872549 0.88872549 0.88872549
0.89901961 0.89901961 0.89901961
0.92205882 0.92205882 0.92205882
0.9504902 0.9504902 0.9504902
0.39215686 0.39215686 0.39215686
0.40563725 0.40563725 0.40563725
0.43431373 0.43431373 0.43431373
0.48529412 0.48529412 0.48529412
0.5254902 0.5254902 0.5254902
0.53602941 0.53602941 0.53602941
0.59656863 0.59656863 0.59656863
0.67377451 0.67377451 0.67377451
0.73529412 0.73529412 0.73529412
0.3997549 0.3997549 0.3997549
0.41473652 0.41473652 0.41473652
0.44558824 0.44558824 0.44558824
0.48710172 0.48710172 0.48710172
0.53137255 0.53137255 0.53137255
0.54123775 0.54123775 0.54123775
0.60802696 0.60802696 0.60802696
0.68158701 0.68158701 0.68158701
0.73529412 0.73529412 0.73529412
0.41078431 0.41078431 0.41078431
0.41911765 0.41911765 0.41911765
0.46004902 0.46004902 0.46004902
0.49460784 0.49460784 0.49460784
0.53627451 0.53627451 0.53627451
0.57058824 0.57058824 0.57058824
0.63235294 0.63235294 0.63235294
0.69264706 0.69264706 0.69264706
0.73872549 0.73872549 0.73872549
0.44730392 0.44730392 0.44730392
0.45113358 0.45113358 0.45113358
0.46917892 0.46917892 0.46917892
0.51004902 0.51004902 0.51004902
0.54595588 0.54595588 0.54595588
0.59632353 0.59632353 0.59632353
0.66127451 0.66127451 0.66127451
0.7120098 0.7120098 0.7120098
0.75931373 0.75931373 0.75931373
0.54705882 0.54705882 0.54705882
0.54901961 0.54901961 0.54901961
0.55098039 0.55098039 0.55098039
0.55931373 0.55931373 0.55931373
0.59019608 0.59019608 0.59019608
0.63357843 0.63357843 0.63357843
0.68823529 0.68823529 0.68823529
0.74301471 0.74301471 0.74301471
0.78627451 0.78627451 0.78627451
0.6377451 0.6377451 0.6377451
0.64347426 0.64347426 0.64347426
0.6377451 0.6377451 0.6377451
0.63308824 0.63308824 0.63308824
0.64681373 0.64681373 0.64681373
0.68918505 0.68918505 0.68918505
0.73026961 0.73026961 0.73026961
0.78284314 0.78284314 0.78284314
0.81593137 0.81593137 0.81593137
0.73823529 0.73823529 0.73823529
0.73823529 0.73823529 0.73823529
0.73321078 0.73321078 0.73321078
0.72665441 0.72665441 0.72665441
0.73088235 0.73088235 0.73088235
0.7504902 0.7504902 0.7504902
0.78039216 0.78039216 0.78039216
0.81917892 0.81917892 0.81917892
0.8622549 0.8622549 0.8622549
0.82696078 0.82696078 0.82696078
0.82696078 0.82696078 0.82696078
0.8254902 0.8254902 0.8254902
0.81829044 0.81829044 0.81829044
0.81727941 0.81727941 0.81727941
0.81773897 0.81773897 0.81773897
0.83946078 0.83946078 0.83946078
0.87447917 0.87447917 0.87447917
0.90465686 0.90465686 0.90465686
0.88823529 0.88823529 0.88823529
0.89779412 0.89779412 0.89779412
0.90588235 0.90588235 0.90588235
0.88455882 0.88455882 0.88455882
0.90392157 0.90392157 0.90392157
0.90196078 0.90196078 0.90196078
0.9127451 0.9127451 0.9127451
0.9254902 0.9254902 0.9254902
0.93333333 0.93333333 0.93333333
0.51568627 0.51568627 0.51568627
0.53088235 0.53088235 0.53088235
0.55784314 0.55784314 0.55784314
0.60294118 0.60294118 0.60294118
0.64485294 0.64485294 0.64485294
0.65238971 0.65238971 0.65238971
0.66421569 0.66421569 0.66421569
0.72941176 0.72941176 0.72941176
0.78333333 0.78333333 0.78333333
0.52481618 0.52481618 0.52481618
0.53872549 0.53872549 0.53872549
0.56953125 0.56953125 0.56953125
0.60575214 0.60575214 0.60575214
0.64166667 0.64166667 0.64166667
0.65294118 0.65294118 0.65294118
0.68053002 0.68053002 0.68053002
0.73333333 0.73333333 0.73333333
0.7872549 0.7872549 0.7872549
0.53921569 0.53921569 0.53921569
0.55067402 0.55067402 0.55067402
0.57352941 0.57352941 0.57352941
0.60686275 0.60686275 0.60686275
0.63529412 0.63529412 0.63529412
0.66715686 0.66715686 0.66715686
0.67775735 0.67775735 0.67775735
0.73619792 0.73619792 0.73619792
0.80196078 0.80196078 0.80196078
0.54258578 0.54258578 0.54258578
0.55098039 0.55098039 0.55098039
0.57352941 0.57352941 0.57352941
0.60778186 0.60778186 0.60778186
0.64782475 0.64782475 0.64782475
0.672572 0.672572 0.672572
0.7004902 0.7004902 0.7004902
0.7539905 0.7539905 0.7539905
0.80594363 0.80594363 0.80594363
0.59313725 0.59313725 0.59313725
0.59224877 0.59224877 0.59224877
0.59993873 0.59993873 0.59993873
0.62181373 0.62181373 0.62181373
0.65208333 0.65208333 0.65208333
0.6924326 0.6924326 0.6924326
0.73958333 0.73958333 0.73958333
0.7765625 0.7765625 0.7765625
0.80686275 0.80686275 0.80686275
0.67107843 0.67107843 0.67107843
0.66335018 0.66335018 0.66335018
0.67300858 0.67300858 0.67300858
0.68789063 0.68789063 0.68789063
0.69803922 0.69803922 0.69803922
0.72745098 0.72745098 0.72745098
0.76355699 0.76355699 0.76355699
0.79816942 0.79816942 0.79816942
0.83186275 0.83186275 0.83186275
0.75980392 0.75980392 0.75980392
0.75980392 0.75980392 0.75980392
0.75670956 0.75670956 0.75670956
0.76482843 0.76482843 0.76482843
0.77224265 0.77224265 0.77224265
0.78160233 0.78160233 0.78160233
0.81127451 0.81127451 0.81127451
0.83944547 0.83944547 0.83944547
0.86801471 0.86801471 0.86801471
0.84607843 0.84607843 0.84607843
0.84822304 0.84822304 0.84822304
0.84215686 0.84215686 0.84215686
0.8460095 0.8460095 0.8460095
0.84990809 0.84990809 0.84990809
0.84969363 0.84969363 0.84969363
0.86220895 0.86220895 0.86220895
0.88743873 0.88743873 0.88743873
0.90980392 0.90980392 0.90980392
0.91911765 0.91911765 0.91911765
0.92303922 0.92303922 0.92303922
0.91372549 0.91372549 0.91372549
0.91464461 0.91464461 0.91464461
0.91911765 0.91911765 0.91911765
0.89803922 0.89803922 0.89803922
0.88480392 0.88480392 0.88480392
0.92745098 0.92745098 0.92745098
0.93480392 0.93480392 0.93480392
0.65098039 0.65098039 0.65098039
0.65968137 0.65968137 0.65968137
0.68137255 0.68137255 0.68137255
0.71127451 0.71127451 0.71127451
0.73431373 0.73431373 0.73431373
0.75588235 0.75588235 0.75588235
0.77156863 0.77156863 0.77156863
0.79068627 0.79068627 0.79068627
0.8245098 0.8245098 0.8245098
0.65968137 0.65968137 0.65968137
0.66977635 0.66977635 0.66977635
0.68455882 0.68455882 0.68455882
0.70943627 0.70943627 0.70943627
0.73474265 0.73474265 0.73474265
0.75949755 0.75949755 0.75949755
0.76862745 0.76862745 0.76862745
0.78676471 0.78676471 0.78676471
0.82843137 0.82843137 0.82843137
0.6745098 0.6745098 0.6745098
0.67843137 0.67843137 0.67843137
0.69142157 0.69142157 0.69142157
0.71939338 0.71939338 0.71939338
0.74607843 0.74607843 0.74607843
0.76519608 0.76519608 0.76519608
0.77230392 0.77230392 0.77230392
0.77892157 0.77892157 0.77892157
0.8252451 0.8252451 0.8252451
0.66875 0.66875 0.66875
0.67843137 0.67843137 0.67843137
0.69313725 0.69313725 0.69313725
0.72120098 0.72120098 0.72120098
0.74852941 0.74852941 0.74852941
0.77303922 0.77303922 0.77303922
0.79301471 0.79301471 0.79301471
0.79705882 0.79705882 0.79705882
0.83419118 0.83419118 0.83419118
0.66666667 0.66666667 0.66666667
0.67898284 0.67898284 0.67898284
0.69313725 0.69313725 0.69313725
0.71764706 0.71764706 0.71764706
0.74607843 0.74607843 0.74607843
0.77058824 0.77058824 0.77058824
0.80294118 0.80294118 0.80294118
0.82794118 0.82794118 0.82794118
0.85784314 0.85784314 0.85784314
0.71470588 0.71470588 0.71470588
0.72869179 0.72869179 0.72869179
0.73403799 0.73403799 0.73403799
0.73884804 0.73884804 0.73884804
0.75539216 0.75539216 0.75539216
0.77745098 0.77745098 0.77745098
0.81145833 0.81145833 0.81145833
0.83515625 0.83515625 0.83515625
0.88088235 0.88088235 0.88088235
0.7754902 0.7754902 0.7754902
0.78039216 0.78039216 0.78039216
0.78314951 0.78314951 0.78314951
0.79571078 0.79571078 0.79571078
0.80686275 0.80686275 0.80686275
0.81862745 0.81862745 0.81862745
0.84215686 0.84215686 0.84215686
0.87009804 0.87009804 0.87009804
0.89215686 0.89215686 0.89215686
0.85637255 0.85637255 0.85637255
0.86029412 0.86029412 0.86029412
0.86029412 0.86029412 0.86029412
0.86675858 0.86675858 0.86675858
0.87647059 0.87647059 0.87647059
0.88431373 0.88431373 0.88431373
0.88909314 0.88909314 0.88909314
0.91176471 0.91176471 0.91176471
0.92683824 0.92683824 0.92683824
0.9372549 0.9372549 0.9372549
0.93333333 0.93333333 0.93333333
0.93823529 0.93823529 0.93823529
0.92941176 0.92941176 0.92941176
0.93970588 0.93970588 0.93970588
0.94007353 0.94007353 0.94007353
0.93529412 0.93529412 0.93529412
0.95686275 0.95686275 0.95686275
0.95392157 0.95392157 0.95392157
0.7745098 0.7745098 0.7745098
0.78535539 0.78535539 0.78535539
0.79669118 0.79669118 0.79669118
0.81194853 0.81194853 0.81194853
0.82892157 0.82892157 0.82892157
0.84460784 0.84460784 0.84460784
0.85992647 0.85992647 0.85992647
0.8716299 0.8716299 0.8716299
0.87941176 0.87941176 0.87941176
0.78627451 0.78627451 0.78627451
0.79394914 0.79394914 0.79394914
0.79636949 0.79636949 0.79636949
0.81192555 0.81192555 0.81192555
0.83259804 0.83259804 0.83259804
0.84795496 0.84795496 0.84795496
0.86029412 0.86029412 0.86029412
0.8716299 0.8716299 0.8716299
0.87990196 0.87990196 0.87990196
0.79411765 0.79411765 0.79411765
0.79797794 0.79797794 0.79797794
0.80174632 0.80174632 0.80174632
0.81568627 0.81568627 0.81568627
0.83670343 0.83670343 0.83670343
0.85341605 0.85341605 0.85341605
0.86029412 0.86029412 0.86029412
0.86862745 0.86862745 0.86862745
0.87990196 0.87990196 0.87990196
0.78988971 0.78988971 0.78988971
0.79770987 0.79770987 0.79770987
0.80507047 0.80507047 0.80507047
0.81960784 0.81960784 0.81960784
0.83872549 0.83872549 0.83872549
0.85588235 0.85588235 0.85588235
0.86276042 0.86276042 0.86276042
0.87598039 0.87598039 0.87598039
0.88204657 0.88204657 0.88204657
0.78235294 0.78235294 0.78235294
0.79019608 0.79019608 0.79019608
0.80496324 0.80496324 0.80496324
0.81930147 0.81930147 0.81930147
0.83762255 0.83762255 0.83762255
0.85373775 0.85373775 0.85373775
0.8689951 0.8689951 0.8689951
0.88183211 0.88183211 0.88183211
0.90490196 0.90490196 0.90490196
0.80030637 0.80030637 0.80030637
0.80310202 0.80310202 0.80310202
0.81366422 0.81366422 0.81366422
0.82408088 0.82408088 0.82408088
0.84019608 0.84019608 0.84019608
0.85606618 0.85606618 0.85606618
0.87215074 0.87215074 0.87215074
0.8872549 0.8872549 0.8872549
0.90098039 0.90098039 0.90098039
0.84509804 0.84509804 0.84509804
0.84215686 0.84215686 0.84215686
0.84803922 0.84803922 0.84803922
0.84901961 0.84901961 0.84901961
0.84313725 0.84313725 0.84313725
0.86188725 0.86188725 0.86188725
0.87984069 0.87984069 0.87984069
0.90784314 0.90784314 0.90784314
0.91960784 0.91960784 0.91960784
0.88866422 0.88866422 0.88866422
0.89210325 0.89210325 0.89210325
0.8879136 0.8879136 0.8879136
0.88758425 0.88758425 0.88758425
0.89338235 0.89338235 0.89338235
0.90735294 0.90735294 0.90735294
0.9203125 0.9203125 0.9203125
0.93871783 0.93871783 0.93871783
0.95343137 0.95343137 0.95343137
0.96029412 0.96029412 0.96029412
0.94509804 0.94509804 0.94509804
0.94901961 0.94901961 0.94901961
0.94509804 0.94509804 0.94509804
0.94509804 0.94509804 0.94509804
0.95863971 0.95863971 0.95863971
0.96519608 0.96519608 0.96519608
0.96868873 0.96868873 0.96868873
0.97647059 0.97647059 0.97647059
0.89019608 0.89019608 0.89019608
0.89803922 0.89803922 0.89803922
0.89313725 0.89313725 0.89313725
0.90196078 0.90196078 0.90196078
0.90588235 0.90588235 0.90588235
0.91911765 0.91911765 0.91911765
0.9254902 0.9254902 0.9254902
0.92941176 0.92941176 0.92941176
0.93333333 0.93333333 0.93333333
0.88627451 0.88627451 0.88627451
0.89019608 0.89019608 0.89019608
0.89313725 0.89313725 0.89313725
0.90980392 0.90980392 0.90980392
0.90980392 0.90980392 0.90980392
0.92677696 0.92677696 0.92677696
0.92941176 0.92941176 0.92941176
0.93682598 0.93682598 0.93682598
0.9372549 0.9372549 0.9372549
0.88529412 0.88529412 0.88529412
0.89007353 0.89007353 0.89007353
0.89705882 0.89705882 0.89705882
0.90588235 0.90588235 0.90588235
0.91372549 0.91372549 0.91372549
0.9254902 0.9254902 0.9254902
0.9254902 0.9254902 0.9254902
0.94852941 0.94852941 0.94852941
0.94901961 0.94901961 0.94901961
0.89019608 0.89019608 0.89019608
0.89754902 0.89754902 0.89754902
0.90404412 0.90404412 0.90404412
0.90091912 0.90091912 0.90091912
0.92034314 0.92034314 0.92034314
0.91672794 0.91672794 0.91672794
0.92254902 0.92254902 0.92254902
0.94528186 0.94528186 0.94528186
0.95294118 0.95294118 0.95294118
0.89019608 0.89019608 0.89019608
0.89215686 0.89215686 0.89215686
0.89607843 0.89607843 0.89607843
0.89534314 0.89534314 0.89534314
0.90686275 0.90686275 0.90686275
0.91764706 0.91764706 0.91764706
0.92745098 0.92745098 0.92745098
0.94142157 0.94142157 0.94142157
0.9627451 0.9627451 0.9627451
0.88627451 0.88627451 0.88627451
0.88756127 0.88756127 0.88756127
0.89019608 0.89019608 0.89019608
0.90588235 0.90588235 0.90588235
0.90588235 0.90588235 0.90588235
0.91911765 0.91911765 0.91911765
0.93786765 0.93786765 0.93786765
0.95686275 0.95686275 0.95686275
0.95686275 0.95686275 0.95686275
0.89803922 0.89803922 0.89803922
0.90294118 0.90294118 0.90294118
0.90196078 0.90196078 0.90196078
0.90980392 0.90980392 0.90980392
0.90245098 0.90245098 0.90245098
0.92696078 0.92696078 0.92696078
0.94387255 0.94387255 0.94387255
0.95821078 0.95821078 0.95821078
0.96960784 0.96960784 0.96960784
0.91862745 0.91862745 0.91862745
0.92205882 0.92205882 0.92205882
0.91776961 0.91776961 0.91776961
0.91636029 0.91636029 0.91636029
0.92009804 0.92009804 0.92009804
0.94295343 0.94295343 0.94295343
0.95821078 0.95821078 0.95821078
0.96862745 0.96862745 0.96862745
0.97647059 0.97647059 0.97647059
0.95294118 0.95294118 0.95294118
0.94509804 0.94509804 0.94509804
0.94509804 0.94509804 0.94509804
0.94509804 0.94509804 0.94509804
0.94901961 0.94901961 0.94901961
0.96470588 0.96470588 0.96470588
0.97254902 0.97254902 0.97254902
0.97696078 0.97696078 0.97696078
0.98823529 0.98823529 0.98823529
