site/assets/luts/sha256-adc84e6300aaac69efd1558e3338d9efb307b397f371904e206f1ef54c472aa9.cube
# LUTr-Schema-Version: 2
# LUTr-ID: sha256-adc84e6300aaac69efd1558e3338d9efb307b397f371904e206f1ef54c472aa9
# LUTr-Title: polaroid px-70 +
# LUTr-Collection: Natron HaldCLUT
# LUTr-Collection-ID: natron-haldclut-presets
# LUTr-Source: https://github.com/NatronGitHub/clut
# LUTr-Retrieved: 2026-07-27
# LUTr-Source-File: submissions/natron-haldclut-presets/instant_consumer/polaroid_px-70_+.png
# LUTr-Source-Format: HALD-PNG
# LUTr-Source-SHA256: adc84e6300aaac69efd1558e3338d9efb307b397f371904e206f1ef54c472aa9
# LUTr-License: CC-BY-SA-4.0
# LUTr-License-URL: https://github.com/NatronGitHub/clut#license
# LUTr-License-Basis: repo-license-file
# LUTr-Transform-Class: film-emulation
# LUTr-Tags: creative, film, film-emulation, hald-clut, natron, png, cube
# LUTr-Input-Color-Space: srgb
# LUTr-Input-Gamut: rec709
# LUTr-Input-Transfer: srgb
# LUTr-Output-Color-Space: srgb
# LUTr-Output-Gamut: rec709
# LUTr-Output-Transfer: srgb
# LUTr-Color-Space-Confidence: assumed-display-referred
# LUTr-Domain-Normalized: true
# LUTr-Shaper: none
# LUTr-Original-Grid: 64x64x64
# LUTr-Conversion-Grid: 25x25x25
# LUTr-Conversion-Interpolation: trilinear
# LUTr-Conversion-Method: HALD-PNG LUT image decoded at 16-bit and sampled to 25x25x25 3D CUBE
# LUTr-Conversion-Tool: LUTr scripts/convert-all-to-cube.mjs 2.0.0
# LUTr-Conversion-Date: 2026-07-27
# LUTr-Note: Preserve this metadata and the upstream license notices when redistributing.
TITLE "polaroid px-70 +"
LUT_3D_SIZE 5
DOMAIN_MIN 0 0 0
DOMAIN_MAX 1 1 1
0.12156863 0.26666667 0.23921569
0.16764706 0.25882353 0.23921569
0.33333333 0.25490196 0.23529412
0.79803922 0.3372549 0.21078431
0.99215686 0.55686275 0.21960784
0.11078431 0.26764706 0.23921569
0.17156863 0.27916667 0.23921569
0.40098039 0.30637255 0.22990196
0.83431373 0.43137255 0.19117647
0.99215686 0.60294118 0.19607843
0.0058823529 0.49411765 0.21960784
0.15735294 0.5 0.21421569
0.52941176 0.54117647 0.19705882
0.83823529 0.62254902 0.14313725
0.9627451 0.67843137 0.15294118
0.46176471 0.80980392 0.27058824
0.48137255 0.7872549 0.26004902
0.65686275 0.79754902 0.26127451
0.84509804 0.81544118 0.28259804
0.95588235 0.84117647 0.34411765
0.81176471 0.9254902 0.5254902
0.81470588 0.9254902 0.5245098
0.84509804 0.92352941 0.53333333
0.89509804 0.92941176 0.54117647
0.9254902 0.93333333 0.55294118
0.12254902 0.2627451 0.25098039
0.15514706 0.25490196 0.24705882
0.34803922 0.25490196 0.25098039
0.84019608 0.31764706 0.25857843
0.99901961 0.59313725 0.30294118
0.12867647 0.28112745 0.25
0.18823529 0.28921569 0.25
0.44865196 0.31715686 0.25392157
0.86047794 0.45955882 0.26170343
0.9872549 0.60882353 0.28651961
0.11960784 0.53431373 0.25343137
0.25196078 0.52647059 0.25379902
0.55906863 0.56666667 0.24534314
0.85245098 0.64154412 0.23039216
0.97647059 0.71078431 0.27941176
0.48995098 0.80686275 0.31960784
0.53161765 0.79901961 0.30851716
0.68615196 0.8067402 0.34166667
0.84901961 0.82291667 0.34730392
0.93921569 0.8372549 0.38529412
0.8245098 0.92647059 0.53823529
0.82254902 0.9245098 0.53161765
0.85441176 0.9254902 0.54117647
0.89803922 0.92941176 0.55661765
0.92941176 0.9254902 0.54215686
0.15098039 0.25882353 0.3
0.25980392 0.27401961 0.30980392
0.45980392 0.31470588 0.32745098
0.84656863 0.31862745 0.38578431
0.99607843 0.55098039 0.4372549
0.14705882 0.32009804 0.32745098
0.27855392 0.33345588 0.33786765
0.53970588 0.39338235 0.35490196
0.85980392 0.47095588 0.40098039
0.98137255 0.66813725 0.46764706
0.21176471 0.55882353 0.36764706
0.36715686 0.56127451 0.36813725
0.64901961 0.60098039 0.39166667
0.86495098 0.6752451 0.41715686
0.96470588 0.7754902 0.47745098
0.61862745 0.81078431 0.44607843
0.65588235 0.80686275 0.44693627
0.74313725 0.81397059 0.45612745
0.85759804 0.8372549 0.46433824
0.94705882 0.8377451 0.47843137
0.8372549 0.92352941 0.55490196
0.84313725 0.9254902 0.55490196
0.86372549 0.92156863 0.56078431
0.89166667 0.92254902 0.56127451
0.94117647 0.93333333 0.57843137
0.4127451 0.29901961 0.53823529
0.55514706 0.35171569 0.5372549
0.79068627 0.51078431 0.5504902
0.88897059 0.6872549 0.55
0.96764706 0.68333333 0.55882353
0.42181373 0.41960784 0.54803922
0.55098039 0.44332108 0.54803922
0.7932598 0.59313725 0.55588235
0.88504902 0.72058824 0.55098039
0.95588235 0.73039216 0.55882353
0.29852941 0.63872549 0.53529412
0.46433824 0.64742647 0.53737745
0.76348039 0.69828431 0.55441176
0.88431373 0.80269608 0.56176471
0.93872549 0.81617647 0.56960784
0.62843137 0.82156863 0.54313725
0.66881127 0.81862745 0.54387255
0.77009804 0.82328431 0.54901961
0.87254902 0.84920343 0.56011029
0.94877451 0.88039216 0.58308824
0.84705882 0.9254902 0.58039216
0.85588235 0.92720588 0.58431373
0.88627451 0.92941176 0.58921569
0.90294118 0.91862745 0.58823529
0.94901961 0.94117647 0.61176471
0.79215686 0.68235294 0.65098039
0.82352941 0.7127451 0.64411765
0.88235294 0.77647059 0.63137255
0.9254902 0.84313725 0.60686275
0.94901961 0.89019608 0.61568627
0.78627451 0.71568627 0.64411765
0.83112745 0.75637255 0.64313725
0.8877451 0.80686275 0.63137255
0.92941176 0.8627451 0.61960784
0.95294118 0.89705882 0.62254902
0.77647059 0.79215686 0.63529412
0.79117647 0.78235294 0.63137255
0.86862745 0.82843137 0.62745098
0.91862745 0.86960784 0.6122549
0.94509804 0.9 0.61960784
0.74705882 0.85980392 0.62647059
0.74852941 0.84901961 0.61960784
0.81470588 0.85833333 0.62352941
0.91078431 0.89436275 0.61960784
0.95294118 0.92647059 0.63137255
0.87843137 0.94117647 0.63137255
0.87156863 0.93333333 0.62745098
0.88627451 0.92941176 0.62745098
0.92647059 0.94509804 0.63823529
0.94901961 0.94509804 0.64313725
