site/assets/luts/sha256-cdeb0ad2f9c583b62975d9fc5c1b602ce28709002b5d6478888b692019424947.cube
# LUTr-Schema-Version: 2
# LUTr-ID: sha256-cdeb0ad2f9c583b62975d9fc5c1b602ce28709002b5d6478888b692019424947
# LUTr-Title: polaroid px-70 -
# LUTr-Collection: Natron HaldCLUT
# LUTr-Collection-ID: natron-haldclut-presets
# LUTr-Source: https://github.com/NatronGitHub/clut
# LUTr-Retrieved: 2026-07-27
# LUTr-Source-File: submissions/natron-haldclut-presets/instant_consumer/polaroid_px-70_-.png
# LUTr-Source-Format: HALD-PNG
# LUTr-Source-SHA256: cdeb0ad2f9c583b62975d9fc5c1b602ce28709002b5d6478888b692019424947
# LUTr-License: CC-BY-SA-4.0
# LUTr-License-URL: https://github.com/NatronGitHub/clut#license
# LUTr-License-Basis: repo-license-file
# LUTr-Transform-Class: film-emulation
# LUTr-Tags: creative, film, film-emulation, hald-clut, natron, png, cube
# LUTr-Input-Color-Space: srgb
# LUTr-Input-Gamut: rec709
# LUTr-Input-Transfer: srgb
# LUTr-Output-Color-Space: srgb
# LUTr-Output-Gamut: rec709
# LUTr-Output-Transfer: srgb
# LUTr-Color-Space-Confidence: assumed-display-referred
# LUTr-Domain-Normalized: true
# LUTr-Shaper: none
# LUTr-Original-Grid: 64x64x64
# LUTr-Conversion-Grid: 25x25x25
# LUTr-Conversion-Interpolation: trilinear
# LUTr-Conversion-Method: HALD-PNG LUT image decoded at 16-bit and sampled to 25x25x25 3D CUBE
# LUTr-Conversion-Tool: LUTr scripts/convert-all-to-cube.mjs 2.0.0
# LUTr-Conversion-Date: 2026-07-27
# LUTr-Note: Preserve this metadata and the upstream license notices when redistributing.
TITLE "polaroid px-70 -"
LUT_3D_SIZE 9
DOMAIN_MIN 0 0 0
DOMAIN_MAX 1 1 1
0 0.074509804 0.1254902
0.015196078 0.089705882 0.12941176
0.069607843 0.11666667 0.14117647
0.23039216 0.11764706 0.1372549
0.4627451 0.13333333 0.14509804
0.70294118 0.16813725 0.13970588
0.90392157 0.34215686 0.1127451
0.99607843 0.46862745 0.091176471
1 0.56078431 0.13333333
0 0.12892157 0.1372549
0.023039216 0.13627451 0.14068627
0.086887255 0.12806373 0.13333333
0.24558824 0.13970588 0.13676471
0.47794118 0.17696078 0.15073529
0.71568627 0.23627451 0.13970588
0.89473039 0.36127451 0.10882353
0.98480392 0.49558824 0.094607843
1 0.56862745 0.12205882
0 0.20294118 0.14803922
0.0039215686 0.21176471 0.14901961
0.028921569 0.21568627 0.14117647
0.26875 0.23137255 0.13872549
0.49901961 0.26666667 0.13039216
0.72977941 0.3377451 0.11507353
0.89215686 0.43137255 0.074509804
0.97843137 0.53676471 0.045588235
1 0.60980392 0.11764706
0 0.3495098 0.15294118
0.0039215686 0.35324755 0.15686275
0.0047794118 0.3627451 0.15833333
0.28535539 0.38817402 0.14172794
0.52671569 0.41813725 0.10490196
0.74215686 0.46072304 0.044607843
0.87990196 0.53088235 0.010784314
0.96568627 0.59656863 0.0039215686
0.99215686 0.63627451 0.037745098
0.0078431373 0.54901961 0.14901961
0.0078431373 0.54313725 0.13946078
0.011764706 0.55196078 0.13529412
0.32867647 0.55931373 0.12107843
0.56568627 0.58431373 0.061764706
0.75098039 0.61053922 0.0085784314
0.86960784 0.64019608 0.0039215686
0.94779412 0.66715686 0.012254902
0.98431373 0.68431373 0.025490196
0.011764706 0.71323529 0.13186275
0.014215686 0.72469363 0.1254902
0.2 0.70784314 0.14987745
0.42359069 0.71813725 0.14650735
0.62573529 0.72352941 0.11666667
0.75882353 0.73137255 0.034742647
0.86360294 0.74558824 0.016789216
0.93805147 0.75735294 0.0075367647
0.98676471 0.75980392 0.066176471
0.35392157 0.82156863 0.22058824
0.39607843 0.82291667 0.21875
0.46666667 0.81838235 0.22377451
0.56213235 0.81973039 0.23811275
0.65882353 0.81470588 0.24215686
0.76519608 0.81580882 0.20833333
0.85294118 0.82254902 0.18627451
0.91727941 0.83039216 0.19852941
0.96862745 0.83333333 0.2372549
0.61960784 0.8872549 0.36666667
0.62254902 0.8872549 0.36715686
0.65637255 0.88333333 0.37009804
0.69068627 0.88302696 0.37745098
0.74240196 0.88333333 0.39240196
0.79607843 0.8872549 0.38284314
0.84509804 0.89117647 0.38333333
0.90686275 0.89509804 0.38382353
0.95637255 0.89901961 0.41421569
0.77647059 0.94117647 0.50588235
0.77696078 0.94117647 0.50637255
0.78431373 0.9372549 0.50980392
0.8 0.9372549 0.51764706
0.81960784 0.9372549 0.5254902
0.84852941 0.94509804 0.53480392
0.8754902 0.94117647 0.5254902
0.90686275 0.94901961 0.54166667
0.92941176 0.95294118 0.54901961
0 0.09754902 0.15245098
0.0039215686 0.097610294 0.15245098
0.045220588 0.097181373 0.14901961
0.23253676 0.13155637 0.16666667
0.4745098 0.13357843 0.17990196
0.72107843 0.21960784 0.17971814
0.89852941 0.36029412 0.16629902
0.98088235 0.48339461 0.16813725
1 0.57990196 0.20637255
0 0.13235294 0.15680147
0.0048406863 0.14019608 0.1602405
0.07221201 0.14636949 0.15981924
0.25729167 0.1595818 0.16813725
0.48924632 0.19607843 0.17598039
0.72937347 0.26503523 0.16813725
0.89411765 0.38452819 0.15614277
0.98529412 0.50729167 0.16061581
1 0.59166667 0.20251225
0 0.22009804 0.17205882
0.0039215686 0.22352941 0.17205882
0.074724265 0.23431373 0.17107843
0.29590993 0.25625 0.16813725
0.52401961 0.29368873 0.1661152
0.75254289 0.35147059 0.15147059
0.89803922 0.45465686 0.13057598
0.9722886 0.54803922 0.13811275
0.99987745 0.62205882 0.19068627
0 0.37107843 0.17352941
0.0039215686 0.36764706 0.17990196
0.034788603 0.37637868 0.17575061
0.31849724 0.40127911 0.1640242
0.55358456 0.42941176 0.14019608
0.75771293 0.46439951 0.10704657
0.88658088 0.54304534 0.065686275
0.96930147 0.60512408 0.088235294
0.99607843 0.65735294 0.15422794
0.0036764706 0.5622549 0.15980392
0.0095588235 0.55465686 0.16593137
0.0072303922 0.56029412 0.16207108
0.34656863 0.57264093 0.15621936
0.58186275 0.5877451 0.12156863
0.76920956 0.61911765 0.054411765
0.87873775 0.64411765 0.012806373
0.95392157 0.66715686 0.0029105392
0.99215686 0.69191176 0.066421569
0.00036764706 0.73020833 0.15637255
0.059964767 0.72714461 0.15539216
0.27333027 0.71813725 0.17213542
0.43163297 0.71268382 0.17762714
0.62303922 0.72598039 0.15220588
0.77003676 0.7377451 0.11263021
0.87107843 0.7495098 0.072074142
0.93431373 0.75343137 0.093589154
0.98069853 0.75557598 0.12352941
0.39509804 0.82156863 0.24656863
0.41999081 0.8189951 0.25306373
0.49191176 0.81764706 0.25661765
0.58895527 0.81764706 0.26279105
0.67647059 0.8185049 0.26703431
0.76573223 0.82189032 0.25458027
0.8497549 0.82913603 0.24313725
0.91862745 0.83333333 0.24754902
0.97254902 0.83419118 0.27830882
0.64172794 0.89117647 0.38186275
0.64123775 0.8872549 0.37880668
0.66041667 0.88333333 0.38235294
0.70410539 0.88333333 0.39422488
0.7502451 0.88333333 0.40196078
0.80343137 0.885072 0.39411765
0.85556066 0.89117647 0.39803922
0.90686275 0.89509804 0.40325521
0.96029412 0.9028799 0.42156863
0.78431373 0.94166667 0.51764706
0.78033088 0.94068627 0.51323529
0.79509804 0.94154412 0.52156863
0.80588235 0.94099265 0.52745098
0.82745098 0.93921569 0.53333333
0.84460784 0.9372549 0.52303922
0.87904412 0.94473039 0.5377451
0.91072304 0.94901961 0.5495098
0.93333333 0.95294118 0.55686275
0 0.098039216 0.1872549
0.0077205882 0.12414216 0.19411765
0.061764706 0.13529412 0.19117647
0.23811275 0.14509804 0.20147059
0.49362745 0.1372549 0.21617647
0.73296569 0.2122549 0.2314951
0.92034314 0.38480392 0.24803922
0.98443627 0.52205882 0.26715686
1 0.61372549 0.30588235
0.0039215686 0.15833333 0.20147059
0 0.15098039 0.19814645
0.090594363 0.17279412 0.19889706
0.27254902 0.18837316 0.21034007
0.51672794 0.20214461 0.22377451
0.75404412 0.26328125 0.23088235
0.91504289 0.39145221 0.2379902
0.98492647 0.54106924 0.26361826
1 0.61433824 0.2995098
0.00073529412 0.24485294 0.20980392
0.0067095588 0.24411765 0.21372549
0.12947304 0.25392157 0.21372549
0.32781863 0.28244485 0.21764706
0.5495098 0.31727941 0.22365196
0.77288603 0.37509191 0.22460172
0.91605392 0.48235294 0.22156863
0.97745098 0.57564338 0.25245098
1 0.60784314 0.26470588
0.0074754902 0.39117647 0.22009804
0.013756127 0.38664216 0.22156863
0.15955882 0.40134804 0.22245711
0.37058824 0.41894914 0.21806066
0.58504902 0.44669118 0.20220588
0.76862745 0.48604473 0.18601409
0.88995098 0.55098039 0.19136029
0.96519608 0.62147672 0.21801471
0.9932598 0.67205882 0.26862745
0.0083333333 0.57941176 0.2254902
0.015625 0.5754902 0.21966912
0.175 0.58137255 0.21911765
0.41384804 0.5875 0.21862745
0.60808824 0.59901961 0.19681373
0.7745098 0.62647059 0.17818627
0.88235294 0.65 0.15772059
0.95 0.67971814 0.18480392
0.99754902 0.71078431 0.23627451
0.14068627 0.72990196 0.23247549
0.22254902 0.73233762 0.23198529
0.34776348 0.72181373 0.24540441
0.49613971 0.73178615 0.2401348
0.65006127 0.73210784 0.24160539
0.77696078 0.74166667 0.21821385
0.87227328 0.7495098 0.19840686
0.93668811 0.75606618 0.21164216
0.98431373 0.76666667 0.24558824
0.4627451 0.8254902 0.30392157
0.47892157 0.82156863 0.30677083
0.53216912 0.81844363 0.31470588
0.61495098 0.81862745 0.32227328
0.6997549 0.82156863 0.3182598
0.77990196 0.82254902 0.31029412
0.86053922 0.8254902 0.30073529
0.92242647 0.83382353 0.30070466
0.96838235 0.8372549 0.33823529
0.66813725 0.89068627 0.42058824
0.67195159 0.8872549 0.41939338
0.68606005 0.8872549 0.41645221
0.71732537 0.8872549 0.42843137
0.75545343 0.88676471 0.42843137
0.8024663 0.88821998 0.43235294
0.85723039 0.89203431 0.42892157
0.9095435 0.89632353 0.43235294
0.96335784 0.9067402 0.44460784
0.78431373 0.9372549 0.5254902
0.78909314 0.94117647 0.52941176
0.79607843 0.9379902 0.52941176
0.81029412 0.93970588 0.53762255
0.82696078 0.9372549 0.53676471
0.84852941 0.9372549 0.54117647
0.88088235 0.94289216 0.55220588
0.91421569 0.94509804 0.55294118
0.94901961 0.95686275 0.58137255
0.0078431373 0.13823529 0.25441176
0.018137255 0.14215686 0.25067402
0.15098039 0.18541667 0.25257353
0.29895833 0.21029412 0.25833333
0.47598039 0.20490196 0.27230392
0.7372549 0.2127451 0.29846814
0.92058824 0.27928922 0.31813725
0.99607843 0.46764706 0.34754902
1 0.65392157 0.41421569
0.0039215686 0.18314951 0.26746324
0.02220435 0.18088235 0.2595818
0.19050245 0.21654412 0.2713848
0.32285539 0.24067862 0.27401961
0.50686275 0.25098039 0.28112745
0.75501685 0.24460784 0.30979626
0.92018995 0.35496324 0.32571998
0.98484222 0.54211857 0.37028186
1 0.64442402 0.41029412
0.0039215686 0.27696078 0.27941176
0.0071231618 0.26807598 0.2754902
0.18759191 0.29264706 0.28296569
0.36962316 0.32169118 0.28518689
0.56207108 0.35196078 0.29356618
0.78370098 0.38872549 0.31692708
0.91602328 0.48492647 0.33639706
0.97303922 0.61790748 0.37838542
0.99607843 0.69901961 0.4192402
0.011764706 0.41617647 0.28670343
0.020458027 0.41862745 0.2872549
0.21398591 0.42254902 0.29339767
0.41779259 0.44273131 0.29209559
0.62349877 0.47352941 0.29558824
0.79452359 0.53376225 0.31568627
0.90143995 0.60461091 0.33627451
0.95993413 0.66715686 0.36341912
0.99607843 0.71470588 0.40098039
0.090196078 0.5875 0.30220588
0.16510417 0.58039216 0.30098039
0.3247549 0.58897059 0.30220588
0.48483456 0.58964461 0.30343137
0.64914216 0.60637255 0.30012255
0.79365809 0.64041054 0.2958027
0.88976716 0.66372549 0.29509804
0.95171569 0.70098039 0.33740809
0.99215686 0.73970588 0.37573529
0.40931373 0.73676471 0.34607843
0.42297794 0.72616422 0.34215686
0.46338848 0.72850797 0.32970282
0.57018229 0.72779565 0.33789063
0.68189338 0.7377451 0.33823529
0.79264706 0.74166667 0.33062194
0.87647059 0.74620098 0.32046569
0.93645833 0.76011029 0.31947763
0.97401961 0.77640931 0.35637255
0.58517157 0.82941176 0.39264706
0.57887561 0.82291667 0.38578431
0.59286152 0.82156863 0.37683824
0.6605239 0.82156863 0.38592218
0.71813725 0.821875 0.39454657
0.79140625 0.82571998 0.38676471
0.86078431 0.82647059 0.37840074
0.92156863 0.83062194 0.3819087
0.96764706 0.84117647 0.4
0.6903799 0.89117647 0.45490196
0.69705882 0.89117647 0.45294118
0.71505821 0.8872549 0.45749081
0.73970588 0.8872549 0.4613894
0.77401961 0.8872549 0.4653799
0.81109835 0.89246324 0.47139246
0.86109069 0.89474571 0.47107843
0.9103171 0.89509804 0.47089461
0.93529412 0.90294118 0.47892157
0.79460784 0.94117647 0.54754902
0.80588235 0.94332108 0.5536152
0.80686275 0.93762255 0.54901961
0.81568627 0.9372549 0.55238971
0.83848039 0.94117647 0.56715686
0.85398284 0.93670343 0.56329657
0.88333333 0.94154412 0.57316176
0.91421569 0.94901961 0.58284314
0.94509804 0.94754902 0.58137255
0.049019608 0.18431373 0.34509804
0.15686275 0.19607843 0.35686275
0.30686275 0.23431373 0.35686275
0.46078431 0.27696078 0.36397059
0.58039216 0.33333333 0.36960784
0.73970588 0.3254902 0.3877451
0.91078431 0.33921569 0.42205882
0.98308824 0.48676471 0.42598039
0.99803922 0.62352941 0.4627451
0.068382353 0.22254902 0.36029412
0.1705576 0.2299326 0.35903799
0.31501225 0.26758578 0.3598652
0.49338235 0.33520221 0.37049632
0.60625 0.38468137 0.37610294
0.75949755 0.37637868 0.39721201
0.89895833 0.40441176 0.42512255
0.98284314 0.51908701 0.43921569
0.99828431 0.64460784 0.46666667
0.053431373 0.31764706 0.37647059
0.13480392 0.32420343 0.37579657
0.31911765 0.34705882 0.3754902
0.52261029 0.40490196 0.38131127
0.65588235 0.45416667 0.39093137
0.80269608 0.46942402 0.41127451
0.89926471 0.51090686 0.42585784
0.96617647 0.60036765 0.4504902
0.99019608 0.69411765 0.48529412
0.014215686 0.45343137 0.37573529
0.033026961 0.45229779 0.3745098
0.26060049 0.45870098 0.378125
0.51715686 0.49368873 0.39068627
0.67205882 0.5495098 0.40098039
0.80588235 0.55508578 0.41642157
0.89430147 0.628125 0.43946078
0.95064338 0.69494485 0.47352941
0.98823529 0.75931373 0.50588235
0.071568627 0.60392157 0.38921569
0.21495098 0.60563725 0.38161765
0.36421569 0.60514706 0.3870098
0.52487745 0.60833333 0.39693627
0.69019608 0.63284314 0.40196078
0.81102941 0.67156863 0.42438725
0.88823529 0.70294118 0.43627451
0.94215686 0.74681373 0.46507353
0.98137255 0.78431373 0.49117647
0.40612745 0.73137255 0.41323529
0.45098039 0.73088235 0.41323529
0.53376225 0.73492647 0.41715686
0.62331495 0.73409926 0.42181373
0.70931373 0.74166667 0.42365196
0.80833333 0.75343137 0.43581495
0.88039216 0.75802696 0.4278799
0.93431373 0.77417279 0.43716299
0.97647059 0.80098039 0.46789216
0.6254902 0.8254902 0.45637255
0.63235294 0.82169118 0.45637255
0.65919118 0.82242647 0.45490196
0.70508578 0.82254902 0.45667892
0.75318627 0.8247549 0.4622549
0.80569853 0.83008578 0.46372549
0.86813725 0.83382353 0.45686275
0.92383578 0.8372549 0.45686275
0.96568627 0.84852941 0.46764706
0.73872549 0.89117647 0.51078431
0.74240196 0.8872549 0.51078431
0.75196078 0.8872549 0.5127451
0.77009804 0.8872549 0.51112132
0.7939951 0.88897059 0.51470588
0.82784926 0.89509804 0.52123162
0.8721201 0.89509804 0.52867647
0.91596201 0.89923407 0.51911765
0.93357843 0.90465686 0.51936275
0.78235294 0.91960784 0.54901961
0.80343137 0.93872549 0.57009804
0.81568627 0.94117647 0.57843137
0.8247549 0.93921569 0.57965686
0.8372549 0.93333333 0.57843137
0.86421569 0.94117647 0.60073529
0.89019608 0.94509804 0.60392157
0.91813725 0.94926471 0.61397059
0.93921569 0.95490196 0.62352941
0.28235294 0.24901961 0.47254902
0.34460784 0.25392157 0.48431373
0.4627451 0.28627451 0.475
0.62598039 0.3504902 0.47984069
0.73382353 0.50073529 0.48431373
0.81911765 0.54656863 0.48915441
0.88995098 0.5377451 0.50245098
0.95637255 0.57922794 0.5127451
0.99607843 0.64460784 0.52598039
0.28039216 0.29607843 0.48020833
0.34675245 0.29953278 0.48039216
0.47634804 0.33431373 0.48039216
0.63763021 0.41403952 0.48664982
0.75318627 0.53333333 0.48661152
0.82303922 0.56666667 0.49068627
0.88823529 0.54460784 0.50075061
0.96029412 0.59460784 0.51452206
0.99264706 0.65128676 0.52843137
0.24852941 0.38235294 0.48786765
0.32647059 0.39033395 0.48676471
0.46985294 0.41127451 0.48786765
0.64932598 0.46973039 0.49460784
0.7536152 0.56348039 0.49289216
0.83209252 0.63627451 0.49761029
0.88363971 0.60955882 0.50306373
0.9488511 0.6435049 0.51715686
0.9810049 0.68039216 0.52990196
0.078431373 0.51078431 0.47947304
0.18535539 0.51145067 0.47947304
0.42544424 0.51580882 0.48869485
0.62546722 0.55484069 0.49460784
0.75269608 0.62276348 0.49852941
0.82975643 0.69068627 0.50545343
0.89215686 0.6839614 0.51482843
0.94430147 0.69883578 0.52493107
0.96770833 0.73676471 0.54264706
0.14754902 0.63676471 0.47892157
0.25637255 0.63137255 0.47254902
0.40753676 0.62892157 0.47855392
0.55808824 0.64041054 0.48676471
0.72745098 0.68688725 0.50110294
0.82794118 0.72058824 0.51375613
0.8814951 0.72696078 0.52150735
0.93602941 0.75490196 0.53128064
0.96715686 0.80196078 0.56102941
0.4533701 0.74705882 0.48584559
0.47462469 0.74657629 0.48768382
0.55343137 0.7401348 0.48722426
0.64483762 0.74258578 0.49426317
0.72892157 0.7549326 0.50367647
0.82101716 0.76911765 0.51456036
0.88039216 0.78716299 0.52621017
0.93032322 0.8042356 0.53235294
0.97254902 0.82647059 0.55196078
0.62058824 0.8254902 0.50588235
0.63711703 0.8254902 0.5096201
0.67273284 0.8263174 0.51764706
0.7245098 0.8254902 0.51686581
0.77009804 0.82941176 0.52156863
0.82352941 0.8372549 0.52941176
0.87576593 0.84420956 0.53443627
0.92647059 0.84295343 0.52941176
0.95294118 0.84865196 0.53235294
0.73480392 0.8872549 0.55147059
0.74450061 0.8872549 0.55147059
0.76078431 0.8908701 0.55147059
0.7912454 0.89117647 0.56023284
0.81960784 0.89264706 0.56452206
0.85 0.89509804 0.57254902
0.88118873 0.89878983 0.5810049
0.92205882 0.9033701 0.57673866
0.9463848 0.90686275 0.57254902
0.81715686 0.93872549 0.60833333
0.82089461 0.94068627 0.6127451
0.82352941 0.94117647 0.61139706
0.83327206 0.940625 0.61360294
0.84705882 0.93406863 0.6127451
0.86176471 0.92941176 0.61470588
0.89117647 0.94509804 0.64105392
0.92175245 0.94822304 0.64773284
0.94264706 0.95833333 0.65784314
0.52254902 0.37352941 0.58823529
0.55 0.36862745 0.5872549
0.63014706 0.41053922 0.58333333
0.73529412 0.48333333 0.58333333
0.82156863 0.60882353 0.5872549
0.86911765 0.71078431 0.58333333
0.90392157 0.69313725 0.58553922
0.93382353 0.69019608 0.57928922
0.95196078 0.69607843 0.57843137
0.52009804 0.39987745 0.5877451
0.53828125 0.40718444 0.58414522
0.62843137 0.43354779 0.58333333
0.73578431 0.52058824 0.5872549
0.82175245 0.63014706 0.5872549
0.86911765 0.70917586 0.58333333
0.90294118 0.7254902 0.58333333
0.93307292 0.71392463 0.58321078
0.97156863 0.7310049 0.59411765
0.49215686 0.48235294 0.58333333
0.52686887 0.48158701 0.58333333
0.62377451 0.50294118 0.5872549
0.74197304 0.57821691 0.5872549
0.8245098 0.6567402 0.58627451
0.86519608 0.73333333 0.58416054
0.89607843 0.75098039 0.58327206
0.92647059 0.73550858 0.58379289
0.97181373 0.75563725 0.60269608
0.46433824 0.58676471 0.57941176
0.51371017 0.59015012 0.57941176
0.60315564 0.60147059 0.57941176
0.72156863 0.63405331 0.58333333
0.80894608 0.69852941 0.58333333
0.86237745 0.76061581 0.58835784
0.89901961 0.78645833 0.59693627
0.93227635 0.76801471 0.59322917
0.95588235 0.77696078 0.60588235
0.34362745 0.67401961 0.56372549
0.38210784 0.67058824 0.56176471
0.50208333 0.67622549 0.56678922
0.67910539 0.68731618 0.5783701
0.78112745 0.73014706 0.58406863
0.85471814 0.78658088 0.59227941
0.89509804 0.80085784 0.59938725
0.93008578 0.8 0.60594363
0.95686275 0.80882353 0.61568627
0.48627451 0.75625 0.55980392
0.51421569 0.75796569 0.56372549
0.57573529 0.75735294 0.5627451
0.66205576 0.75980392 0.56666667
0.73382353 0.76666667 0.57303922
0.83144914 0.80784314 0.59204963
0.88504902 0.82487745 0.60196078
0.92512255 0.83417586 0.61078431
0.95980392 0.84558824 0.62365196
0.61936275 0.82622549 0.57230392
0.63786765 0.82941176 0.57083333
0.66991422 0.82941176 0.57156863
0.72095588 0.82941176 0.5736826
0.77401961 0.83382353 0.58051471
0.82693015 0.84310662 0.59145221
0.87941176 0.84901961 0.60238971
0.92512255 0.8640625 0.60793505
0.96078431 0.87254902 0.62181373
0.73088235 0.8872549 0.59889706
0.73855699 0.89080882 0.59466912
0.75799632 0.89117647 0.59966299
0.78713235 0.89117647 0.60681679
0.81770833 0.89509804 0.61789216
0.85477941 0.89901961 0.62544424
0.8872549 0.90294118 0.63189338
0.92205882 0.9064951 0.63431373
0.96029412 0.90686275 0.63431373
0.80784314 0.9372549 0.64411765
0.81531863 0.94117647 0.64509804
0.82647059 0.94509804 0.65294118
0.83921569 0.94117647 0.65870098
0.86029412 0.94509804 0.66715686
0.87598039 0.94215686 0.66862745
0.89828431 0.94926471 0.68431373
0.92205882 0.95245098 0.68823529
0.94509804 0.95294118 0.69117647
0.68431373 0.52892157 0.6754902
0.6995098 0.54019608 0.66856618
0.74852941 0.58566176 0.66813725
0.81372549 0.64803922 0.66764706
0.85735294 0.70784314 0.66421569
0.89215686 0.76862745 0.66372549
0.91862745 0.80882353 0.66029412
0.9377451 0.79754902 0.66029412
0.95294118 0.80539216 0.66029412
0.68131127 0.56666667 0.67205882
0.69558824 0.5745098 0.66856618
0.74820772 0.60441176 0.66813725
0.81372549 0.66413143 0.67156863
0.85735294 0.71933211 0.6674326
0.89215686 0.78036918 0.66421569
0.91507353 0.81629902 0.66372549
0.93425245 0.82401961 0.66421569
0.95294118 0.80931373 0.66029412
0.68431373 0.61372549 0.67205882
0.69214154 0.6198989 0.6716299
0.74816176 0.63921569 0.66813725
0.80565257 0.69348958 0.66813725
0.85539216 0.74142157 0.66464461
0.89558824 0.79068627 0.66764706
0.91384804 0.82414216 0.66412377
0.93333333 0.84008885 0.66764706
0.94852941 0.8314951 0.67156863
0.66930147 0.67696078 0.66783088
0.68792892 0.67665441 0.66546415
0.73377757 0.69198836 0.66550245
0.7877451 0.72120864 0.66764706
0.8502451 0.76764706 0.66421569
0.88560049 0.80471048 0.66783088
0.91078431 0.83676471 0.67060355
0.93333333 0.85150888 0.6754902
0.93939951 0.8504902 0.6754902
0.60563725 0.72671569 0.65441176
0.62996324 0.73235294 0.65637255
0.6877451 0.73278186 0.65637255
0.76029412 0.7504902 0.66029412
0.82205882 0.77855392 0.66764706
0.88039216 0.82362132 0.67205882
0.90992647 0.84828431 0.6754902
0.93382353 0.8578125 0.6794424
0.94509804 0.86151961 0.68333333
0.57824755 0.77941176 0.64852941
0.58137255 0.77914369 0.64852941
0.61841299 0.77628676 0.64460784
0.70275735 0.78719363 0.65006127
0.79166667 0.80392157 0.66029412
0.85686275 0.83480392 0.66882659
0.90686275 0.86029412 0.67941176
0.93039216 0.87254902 0.68537837
0.94901961 0.88039216 0.69117647
0.65882353 0.84166667 0.65637255
0.66966912 0.84117647 0.65245098
0.6995098 0.84166667 0.65245098
0.72254902 0.8377451 0.64852941
0.77696078 0.84442402 0.65245098
0.83435968 0.85606618 0.66237745
0.88762255 0.87132353 0.67561275
0.92205882 0.88823529 0.68785233
0.95245098 0.90343137 0.70392157
0.73523284 0.89509804 0.66035539
0.73872549 0.89552696 0.66378676
0.7535386 0.89520527 0.67205882
0.78355545 0.89509804 0.67410386
0.81029412 0.89856005 0.67598039
0.84476869 0.90294118 0.677428
0.88457414 0.90413603 0.69189645
0.91813725 0.91831342 0.70435049
0.94901961 0.92990196 0.71084559
0.80392157 0.94117647 0.69901961
0.80827206 0.94166667 0.6995098
0.81629902 0.94313725 0.70588235
0.83137255 0.94509804 0.70686275
0.84901961 0.94509804 0.70686275
0.86764706 0.93431373 0.70392157
0.90245098 0.95294118 0.72634804
0.92205882 0.94901961 0.72996324
0.94509804 0.94509804 0.72647059
0.8 0.7254902 0.74509804
0.80784314 0.72598039 0.74166667
0.81960784 0.73235294 0.73333333
0.85343137 0.77254902 0.7372549
0.88431373 0.80196078 0.7372549
0.90588235 0.81960784 0.72401961
0.92941176 0.85980392 0.73627451
0.94117647 0.8745098 0.73333333
0.95294118 0.89411765 0.74509804
0.79607843 0.72892157 0.74509804
0.80735294 0.74019608 0.74509804
0.82205882 0.74362745 0.7372549
0.85343137 0.78008578 0.74246324
0.88039216 0.79779412 0.73112745
0.90343137 0.82058824 0.72107843
0.93026961 0.86372549 0.73688725
0.94117647 0.87843137 0.72941176
0.94901961 0.89019608 0.7372549
0.79607843 0.75196078 0.74509804
0.80477941 0.75943627 0.74522059
0.82352941 0.77156863 0.74509804
0.8495098 0.78615196 0.7372549
0.88039216 0.81372549 0.73529412
0.90735294 0.84068627 0.73664216
0.92941176 0.87058824 0.73406863
0.94117647 0.88529412 0.73235294
0.94509804 0.89117647 0.7372549
0.79215686 0.775 0.74901961
0.78756127 0.76678922 0.73921569
0.80330882 0.77267157 0.73406863
0.84313725 0.80392157 0.74264706
0.87647059 0.82867647 0.74117647
0.90435049 0.85245098 0.74117647
0.92647059 0.87794118 0.74007353
0.93756127 0.89264706 0.73939951
0.94509804 0.89411765 0.7372549
0.77058824 0.79803922 0.74509804
0.7745098 0.79803922 0.74509804
0.78578431 0.8 0.73921569
0.81936275 0.81421569 0.7372549
0.85980392 0.83333333 0.73921569
0.8995098 0.86151961 0.74632353
0.92254902 0.88333333 0.74117647
0.9375 0.89068627 0.72965686
0.94705882 0.91176471 0.74901961
0.7122549 0.81715686 0.73333333
0.72745098 0.82089461 0.74491422
0.76164216 0.82794118 0.74117647
0.79313725 0.83284314 0.74117647
0.83651961 0.84779412 0.74509804
0.88290441 0.86721814 0.74656863
0.91531863 0.88578431 0.73884804
0.9372549 0.90606618 0.74901961
0.94509804 0.91764706 0.74901961
0.71862745 0.86372549 0.75196078
0.72205882 0.86335784 0.74117647
0.74411765 0.86372549 0.74117647
0.76078431 0.86470588 0.74791667
0.81078431 0.86764706 0.74117647
0.85294118 0.87487745 0.74852941
0.90220588 0.89509804 0.7502451
0.92598039 0.91384804 0.75392157
0.94117647 0.92941176 0.75784314
0.75784314 0.90686275 0.73431373
0.76568627 0.90686275 0.74859069
0.78002451 0.91078431 0.7495098
0.79656863 0.91029412 0.74901961
0.81642157 0.91029412 0.74534314
0.84981618 0.91421569 0.75949755
0.8872549 0.92205882 0.76470588
0.92156863 0.93431373 0.76862745
0.94901961 0.95686275 0.7877451
0.80392157 0.94901961 0.76862745
0.80784314 0.94901961 0.76078431
0.82254902 0.95588235 0.77156863
0.83137255 0.94901961 0.75833333
0.84509804 0.94705882 0.7372549
0.85245098 0.9254902 0.76078431
0.88333333 0.93431373 0.76862745
0.91813725 0.94509804 0.76911765
0.94509804 0.95294118 0.78039216
