site/assets/luts/sha256-e3f15986d4da5f1569bebd466532c5429c4a24f1a82eadb6ead91cfecef80a22.cube
# LUTr-Schema-Version: 2
# LUTr-ID: sha256-e3f15986d4da5f1569bebd466532c5429c4a24f1a82eadb6ead91cfecef80a22
# LUTr-Title: polaroid 669 cold -
# LUTr-Collection: Natron HaldCLUT
# LUTr-Collection-ID: natron-haldclut-presets
# LUTr-Source: https://github.com/NatronGitHub/clut
# LUTr-Retrieved: 2026-07-27
# LUTr-Source-File: submissions/natron-haldclut-presets/instant_pro/polaroid_669_cold_-.png
# LUTr-Source-Format: HALD-PNG
# LUTr-Source-SHA256: e3f15986d4da5f1569bebd466532c5429c4a24f1a82eadb6ead91cfecef80a22
# LUTr-License: CC-BY-SA-4.0
# LUTr-License-URL: https://github.com/NatronGitHub/clut#license
# LUTr-License-Basis: repo-license-file
# LUTr-Transform-Class: film-emulation
# LUTr-Tags: creative, film, film-emulation, hald-clut, natron, png, cool, cube
# LUTr-Input-Color-Space: srgb
# LUTr-Input-Gamut: rec709
# LUTr-Input-Transfer: srgb
# LUTr-Output-Color-Space: srgb
# LUTr-Output-Gamut: rec709
# LUTr-Output-Transfer: srgb
# LUTr-Color-Space-Confidence: assumed-display-referred
# LUTr-Domain-Normalized: true
# LUTr-Shaper: none
# LUTr-Original-Grid: 64x64x64
# LUTr-Conversion-Grid: 25x25x25
# LUTr-Conversion-Interpolation: trilinear
# LUTr-Conversion-Method: HALD-PNG LUT image decoded at 16-bit and sampled to 25x25x25 3D CUBE
# LUTr-Conversion-Tool: LUTr scripts/convert-all-to-cube.mjs 2.0.0
# LUTr-Conversion-Date: 2026-07-27
# LUTr-Note: Preserve this metadata and the upstream license notices when redistributing.
TITLE "polaroid 669 cold -"
LUT_3D_SIZE 5
DOMAIN_MIN 0 0 0
DOMAIN_MAX 1 1 1
0 0.10196078 0.12156863
0.0039215686 0.14117647 0.16862745
0.31568627 0.16862745 0.21764706
0.63137255 0.16470588 0.27941176
0.87843137 0.24705882 0.37254902
0 0.22843137 0.20098039
0.037990196 0.24313725 0.22303922
0.41470588 0.26078431 0.27598039
0.67745098 0.26862745 0.3254902
0.88823529 0.33823529 0.40980392
0 0.40588235 0.31568627
0.14656863 0.40392157 0.32303922
0.44901961 0.42352941 0.33529412
0.69852941 0.46813725 0.38823529
0.89215686 0.57254902 0.51176471
0.24215686 0.62745098 0.40882353
0.30980392 0.6245098 0.41372549
0.45784314 0.63186275 0.41666667
0.66666667 0.6754902 0.42058824
0.84117647 0.75 0.50294118
0.49803922 0.95294118 0.63921569
0.51862745 0.94705882 0.62941176
0.58627451 0.92745098 0.62745098
0.72058824 0.94607843 0.66372549
0.87843137 0.98431373 0.75294118
0 0.14117647 0.24901961
0.0039215686 0.17622549 0.29509804
0.34215686 0.19215686 0.33480392
0.63602941 0.18897059 0.37156863
0.85980392 0.23921569 0.43823529
0 0.25980392 0.32916667
0.022732843 0.26746324 0.35214461
0.42928922 0.28639706 0.39522059
0.68039216 0.29191176 0.42132353
0.8872549 0.34901961 0.4754902
0.11323529 0.46127451 0.42696078
0.23823529 0.45098039 0.42647059
0.47034314 0.45588235 0.43480392
0.71568627 0.50245098 0.48333333
0.87107843 0.58039216 0.56372549
0.28333333 0.66887255 0.48823529
0.34148284 0.65802696 0.48529412
0.4745098 0.64852941 0.47352941
0.66960784 0.68921569 0.48921569
0.82941176 0.76470588 0.55980392
0.4745098 0.91764706 0.64607843
0.50980392 0.93333333 0.65098039
0.59754902 0.94656863 0.66568627
0.7245098 0.95 0.68627451
0.87647059 0.98333333 0.76568627
0 0.19607843 0.47647059
0.0078431373 0.22058824 0.5127451
0.39607843 0.25490196 0.57058824
0.69803922 0.30637255 0.6127451
0.89019608 0.36470588 0.64117647
0 0.3245098 0.53627451
0.019362745 0.32156863 0.56372549
0.47230392 0.35147059 0.61102941
0.71041667 0.40196078 0.63884804
0.87696078 0.42843137 0.64901961
0.070588235 0.51960784 0.61568627
0.30245098 0.52671569 0.62745098
0.53137255 0.54656863 0.6495098
0.72058824 0.57058824 0.66838235
0.8754902 0.59901961 0.67745098
0.33333333 0.75637255 0.65392157
0.39448529 0.75196078 0.65343137
0.51960784 0.73039216 0.64607843
0.68431373 0.74963235 0.65294118
0.83823529 0.82745098 0.72794118
0.51764706 0.95686275 0.74705882
0.54313725 0.95735294 0.74607843
0.60392157 0.95784314 0.74019608
0.72205882 0.96617647 0.75490196
0.87647059 0.98235294 0.8
0.0078431373 0.31372549 0.74803922
0.0039215686 0.30098039 0.7627451
0.43039216 0.34705882 0.80098039
0.74019608 0.46470588 0.8247549
0.87058824 0.59411765 0.83333333
0.0078431373 0.42034314 0.77058824
0.021813725 0.4 0.78529412
0.49656863 0.45 0.80943627
0.74056373 0.53921569 0.8254902
0.84387255 0.63455882 0.8370098
0.069117647 0.59166667 0.77156863
0.28823529 0.59901961 0.78161765
0.53578431 0.61715686 0.81372549
0.7377451 0.71703431 0.8372549
0.84313725 0.77303922 0.84215686
0.37647059 0.82745098 0.81544118
0.43137255 0.82352941 0.81764706
0.57745098 0.82745098 0.82316176
0.72052696 0.84393382 0.83235294
0.83529412 0.88823529 0.84730392
0.58039216 0.97156863 0.84411765
0.60318627 0.9747549 0.84411765
0.65294118 0.9627451 0.8372549
0.70661765 0.9370098 0.8254902
0.87058824 0.98431373 0.85980392
0.20392157 0.52156863 0.92941176
0.30686275 0.51666667 0.92941176
0.56666667 0.5627451 0.91960784
0.7745098 0.72254902 0.9254902
0.86666667 0.82745098 0.92156863
0.3245098 0.60588235 0.92156863
0.42205882 0.61029412 0.9247549
0.58431373 0.63823529 0.92156863
0.76666667 0.75857843 0.92156863
0.84313725 0.82352941 0.91372549
0.42352941 0.76470588 0.90588235
0.4877451 0.77107843 0.91078431
0.60392157 0.76960784 0.91862745
0.75490196 0.83823529 0.91764706
0.85686275 0.90588235 0.92352941
0.45980392 0.90490196 0.90196078
0.48455882 0.89607843 0.89803922
0.58235294 0.89901961 0.90392157
0.74338235 0.91887255 0.91151961
0.84803922 0.94215686 0.91470588
0.70196078 0.99607843 0.92941176
0.68039216 0.98431373 0.90784314
0.73333333 0.99215686 0.9254902
0.80196078 0.98823529 0.92156863
0.87058824 0.99215686 0.9372549
