site/assets/luts/sha256-9ecd8ca358c9ef042e44dc9afe8a1d173fc4aa8109e295cfc7f02b127aa8f09a.cube
# LUTr-Schema-Version: 2
# LUTr-ID: sha256-9ecd8ca358c9ef042e44dc9afe8a1d173fc4aa8109e295cfc7f02b127aa8f09a
# LUTr-Title: ilford delta 100
# LUTr-Collection: Natron HaldCLUT
# LUTr-Collection-ID: natron-haldclut-presets
# LUTr-Source: https://github.com/NatronGitHub/clut
# LUTr-Retrieved: 2026-07-27
# LUTr-Source-File: submissions/natron-haldclut-presets/bw/ilford_delta_100.png
# LUTr-Source-Format: HALD-PNG
# LUTr-Source-SHA256: 9ecd8ca358c9ef042e44dc9afe8a1d173fc4aa8109e295cfc7f02b127aa8f09a
# LUTr-License: CC-BY-SA-4.0
# LUTr-License-URL: https://github.com/NatronGitHub/clut#license
# LUTr-License-Basis: repo-license-file
# LUTr-Transform-Class: film-emulation
# LUTr-Tags: creative, film, film-emulation, hald-clut, natron, png, cube
# LUTr-Input-Color-Space: srgb
# LUTr-Input-Gamut: rec709
# LUTr-Input-Transfer: srgb
# LUTr-Output-Color-Space: srgb
# LUTr-Output-Gamut: rec709
# LUTr-Output-Transfer: srgb
# LUTr-Color-Space-Confidence: assumed-display-referred
# LUTr-Domain-Normalized: true
# LUTr-Shaper: none
# LUTr-Original-Grid: 64x64x64
# LUTr-Conversion-Grid: 25x25x25
# LUTr-Conversion-Interpolation: trilinear
# LUTr-Conversion-Method: HALD-PNG LUT image decoded at 16-bit and sampled to 25x25x25 3D CUBE
# LUTr-Conversion-Tool: LUTr scripts/convert-all-to-cube.mjs 2.0.0
# LUTr-Conversion-Date: 2026-07-27
# LUTr-Note: Preserve this metadata and the upstream license notices when redistributing.
TITLE "ilford delta 100"
LUT_3D_SIZE 9
DOMAIN_MIN 0 0 0
DOMAIN_MAX 1 1 1
0.019607843 0.019607843 0.019607843
0.011764706 0.011764706 0.011764706
0.019607843 0.019607843 0.019607843
0.049509804 0.049509804 0.049509804
0.043137255 0.043137255 0.043137255
0.05 0.05 0.05
0.078431373 0.078431373 0.078431373
0.12058824 0.12058824 0.12058824
0.14901961 0.14901961 0.14901961
0.081372549 0.081372549 0.081372549
0.085294118 0.085294118 0.085294118
0.1004902 0.1004902 0.1004902
0.11470588 0.11470588 0.11470588
0.12573529 0.12573529 0.12573529
0.15245098 0.15245098 0.15245098
0.18333333 0.18333333 0.18333333
0.23823529 0.23823529 0.23823529
0.29558824 0.29558824 0.29558824
0.14607843 0.14607843 0.14607843
0.15306373 0.15306373 0.15306373
0.18823529 0.18823529 0.18823529
0.2127451 0.2127451 0.2127451
0.23431373 0.23431373 0.23431373
0.25919118 0.25919118 0.25919118
0.28823529 0.28823529 0.28823529
0.34411765 0.34411765 0.34411765
0.40196078 0.40196078 0.40196078
0.27892157 0.27892157 0.27892157
0.28645833 0.28645833 0.28645833
0.3057598 0.3057598 0.3057598
0.30729167 0.30729167 0.30729167
0.34117647 0.34117647 0.34117647
0.36329657 0.36329657 0.36329657
0.39117647 0.39117647 0.39117647
0.43008578 0.43008578 0.43008578
0.47401961 0.47401961 0.47401961
0.41568627 0.41568627 0.41568627
0.42720588 0.42720588 0.42720588
0.43529412 0.43529412 0.43529412
0.43848039 0.43848039 0.43848039
0.45 0.45 0.45
0.47132353 0.47132353 0.47132353
0.49901961 0.49901961 0.49901961
0.52794118 0.52794118 0.52794118
0.54901961 0.54901961 0.54901961
0.54313725 0.54313725 0.54313725
0.54558824 0.54558824 0.54558824
0.55061275 0.55061275 0.55061275
0.55490196 0.55490196 0.55490196
0.56593137 0.56593137 0.56593137
0.57843137 0.57843137 0.57843137
0.59362745 0.59362745 0.59362745
0.6127451 0.6127451 0.6127451
0.63186275 0.63186275 0.63186275
0.65490196 0.65490196 0.65490196
0.65490196 0.65490196 0.65490196
0.65784314 0.65784314 0.65784314
0.66176471 0.66176471 0.66176471
0.66813725 0.66813725 0.66813725
0.675 0.675 0.675
0.68921569 0.68921569 0.68921569
0.70539216 0.70539216 0.70539216
0.71960784 0.71960784 0.71960784
0.76666667 0.76666667 0.76666667
0.76617647 0.76617647 0.76617647
0.7622549 0.7622549 0.7622549
0.76666667 0.76666667 0.76666667
0.77058824 0.77058824 0.77058824
0.77420343 0.77420343 0.77420343
0.78872549 0.78872549 0.78872549
0.80147059 0.80147059 0.80147059
0.80147059 0.80147059 0.80147059
0.8745098 0.8745098 0.8745098
0.85490196 0.85490196 0.85490196
0.85098039 0.85098039 0.85098039
0.85882353 0.85882353 0.85882353
0.87647059 0.87647059 0.87647059
0.87058824 0.87058824 0.87058824
0.88431373 0.88431373 0.88431373
0.88186275 0.88186275 0.88186275
0.8745098 0.8745098 0.8745098
0.047058824 0.047058824 0.047058824
0.042647059 0.042647059 0.042647059
0.042279412 0.042279412 0.042279412
0.054411765 0.054411765 0.054411765
0.075735294 0.075735294 0.075735294
0.10980392 0.10980392 0.10980392
0.13333333 0.13333333 0.13333333
0.19558824 0.19558824 0.19558824
0.24558824 0.24558824 0.24558824
0.10441176 0.10441176 0.10441176
0.11133578 0.11133578 0.11133578
0.11568627 0.11568627 0.11568627
0.12775735 0.12775735 0.12775735
0.14877451 0.14877451 0.14877451
0.17963388 0.17963388 0.17963388
0.21911765 0.21911765 0.21911765
0.27696078 0.27696078 0.27696078
0.33480392 0.33480392 0.33480392
0.19215686 0.19215686 0.19215686
0.19215686 0.19215686 0.19215686
0.20398284 0.20398284 0.20398284
0.21862745 0.21862745 0.21862745
0.24595588 0.24595588 0.24595588
0.27634804 0.27634804 0.27634804
0.31090686 0.31090686 0.31090686
0.36300551 0.36300551 0.36300551
0.40931373 0.40931373 0.40931373
0.31127451 0.31127451 0.31127451
0.30980392 0.30980392 0.30980392
0.32696078 0.32696078 0.32696078
0.3372549 0.3372549 0.3372549
0.36191789 0.36191789 0.36191789
0.38241422 0.38241422 0.38241422
0.4113511 0.4113511 0.4113511
0.4504902 0.4504902 0.4504902
0.47941176 0.47941176 0.47941176
0.44656863 0.44656863 0.44656863
0.44656863 0.44656863 0.44656863
0.44485294 0.44485294 0.44485294
0.45064338 0.45064338 0.45064338
0.46740196 0.46740196 0.46740196
0.48685662 0.48685662 0.48685662
0.50882353 0.50882353 0.50882353
0.53357843 0.53357843 0.53357843
0.55269608 0.55269608 0.55269608
0.56096814 0.56096814 0.56096814
0.56078431 0.56078431 0.56078431
0.55704657 0.55704657 0.55704657
0.5587546 0.5587546 0.5587546
0.56976103 0.56976103 0.56976103
0.58315717 0.58315717 0.58315717
0.59742647 0.59742647 0.59742647
0.61666667 0.61666667 0.61666667
0.63578431 0.63578431 0.63578431
0.66262255 0.66262255 0.66262255
0.66176471 0.66176471 0.66176471
0.6580576 0.6580576 0.6580576
0.66176471 0.66176471 0.66176471
0.67334559 0.67334559 0.67334559
0.68492647 0.68492647 0.68492647
0.69402574 0.69402574 0.69402574
0.70926777 0.70926777 0.70926777
0.72438725 0.72438725 0.72438725
0.77359069 0.77359069 0.77359069
0.76661305 0.76661305 0.76661305
0.7546875 0.7546875 0.7546875
0.76256127 0.76256127 0.76256127
0.77990196 0.77990196 0.77990196
0.78578431 0.78578431 0.78578431
0.79264706 0.79264706 0.79264706
0.79754902 0.79754902 0.79754902
0.79405637 0.79405637 0.79405637
0.85882353 0.85882353 0.85882353
0.85098039 0.85098039 0.85098039
0.84607843 0.84607843 0.84607843
0.85098039 0.85098039 0.85098039
0.87058824 0.87058824 0.87058824
0.85753676 0.85753676 0.85753676
0.86875 0.86875 0.86875
0.87058824 0.87058824 0.87058824
0.86666667 0.86666667 0.86666667
0.065686275 0.065686275 0.065686275
0.074019608 0.074019608 0.074019608
0.081372549 0.081372549 0.081372549
0.081372549 0.081372549 0.081372549
0.10490196 0.10490196 0.10490196
0.13627451 0.13627451 0.13627451
0.17426471 0.17426471 0.17426471
0.26568627 0.26568627 0.26568627
0.32352941 0.32352941 0.32352941
0.14264706 0.14264706 0.14264706
0.14263174 0.14263174 0.14263174
0.15441176 0.15441176 0.15441176
0.16580882 0.16580882 0.16580882
0.18903186 0.18903186 0.18903186
0.22242647 0.22242647 0.22242647
0.26482843 0.26482843 0.26482843
0.32820159 0.32820159 0.32820159
0.3745098 0.3745098 0.3745098
0.24607843 0.24607843 0.24607843
0.24534314 0.24534314 0.24534314
0.25392157 0.25392157 0.25392157
0.2676777 0.2676777 0.2676777
0.29044118 0.29044118 0.29044118
0.32625613 0.32625613 0.32625613
0.36470588 0.36470588 0.36470588
0.40125613 0.40125613 0.40125613
0.41446078 0.41446078 0.41446078
0.35294118 0.35294118 0.35294118
0.35 0.35 0.35
0.35713848 0.35713848 0.35713848
0.37247243 0.37247243 0.37247243
0.40012255 0.40012255 0.40012255
0.42254902 0.42254902 0.42254902
0.45441176 0.45441176 0.45441176
0.48265931 0.48265931 0.48265931
0.49080882 0.49080882 0.49080882
0.48137255 0.48137255 0.48137255
0.47444853 0.47444853 0.47444853
0.47352941 0.47352941 0.47352941
0.47941176 0.47941176 0.47941176
0.4877451 0.4877451 0.4877451
0.50594363 0.50594363 0.50594363
0.53333333 0.53333333 0.53333333
0.55833333 0.55833333 0.55833333
0.57205882 0.57205882 0.57205882
0.5877451 0.5877451 0.5877451
0.58382353 0.58382353 0.58382353
0.57990196 0.57990196 0.57990196
0.57990196 0.57990196 0.57990196
0.58682598 0.58682598 0.58682598
0.59767157 0.59767157 0.59767157
0.61519608 0.61519608 0.61519608
0.63743873 0.63743873 0.63743873
0.65441176 0.65441176 0.65441176
0.68039216 0.68039216 0.68039216
0.67754289 0.67754289 0.67754289
0.67647059 0.67647059 0.67647059
0.67647059 0.67647059 0.67647059
0.68566176 0.68566176 0.68566176
0.69607843 0.69607843 0.69607843
0.70563725 0.70563725 0.70563725
0.71973039 0.71973039 0.71973039
0.73137255 0.73137255 0.73137255
0.77794118 0.77794118 0.77794118
0.77708333 0.77708333 0.77708333
0.76945466 0.76945466 0.76945466
0.77388174 0.77388174 0.77388174
0.78578431 0.78578431 0.78578431
0.79117647 0.79117647 0.79117647
0.7981924 0.7981924 0.7981924
0.80134804 0.80134804 0.80134804
0.80404412 0.80404412 0.80404412
0.85882353 0.85882353 0.85882353
0.85747549 0.85747549 0.85747549
0.85490196 0.85490196 0.85490196
0.84448529 0.84448529 0.84448529
0.86862745 0.86862745 0.86862745
0.86421569 0.86421569 0.86421569
0.87303922 0.87303922 0.87303922
0.87352941 0.87352941 0.87352941
0.88137255 0.88137255 0.88137255
0.10686275 0.10686275 0.10686275
0.11078431 0.11078431 0.11078431
0.12365196 0.12365196 0.12365196
0.14607843 0.14607843 0.14607843
0.16642157 0.16642157 0.16642157
0.19552696 0.19552696 0.19552696
0.23872549 0.23872549 0.23872549
0.30980392 0.30980392 0.30980392
0.38284314 0.38284314 0.38284314
0.20324755 0.20324755 0.20324755
0.20904565 0.20904565 0.20904565
0.21115196 0.21115196 0.21115196
0.23547028 0.23547028 0.23547028
0.24779412 0.24779412 0.24779412
0.28081342 0.28081342 0.28081342
0.33151042 0.33151042 0.33151042
0.37107843 0.37107843 0.37107843
0.41372549 0.41372549 0.41372549
0.30392157 0.30392157 0.30392157
0.31021752 0.31021752 0.31021752
0.31568627 0.31568627 0.31568627
0.32598039 0.32598039 0.32598039
0.34803922 0.34803922 0.34803922
0.37990196 0.37990196 0.37990196
0.41507353 0.41507353 0.41507353
0.4504902 0.4504902 0.4504902
0.45992647 0.45992647 0.45992647
0.4004902 0.4004902 0.4004902
0.4004902 0.4004902 0.4004902
0.41202512 0.41202512 0.41202512
0.42493873 0.42493873 0.42493873
0.43967525 0.43967525 0.43967525
0.46133578 0.46133578 0.46133578
0.49068627 0.49068627 0.49068627
0.50980392 0.50980392 0.50980392
0.51715686 0.51715686 0.51715686
0.50833333 0.50833333 0.50833333
0.50661765 0.50661765 0.50661765
0.51011029 0.51011029 0.51011029
0.51366422 0.51366422 0.51366422
0.52169118 0.52169118 0.52169118
0.54286152 0.54286152 0.54286152
0.56764706 0.56764706 0.56764706
0.5856924 0.5856924 0.5856924
0.59338235 0.59338235 0.59338235
0.61078431 0.61078431 0.61078431
0.60752911 0.60752911 0.60752911
0.60686275 0.60686275 0.60686275
0.60833333 0.60833333 0.60833333
0.6127451 0.6127451 0.6127451
0.62889859 0.62889859 0.62889859
0.64669118 0.64669118 0.64669118
0.66287531 0.66287531 0.66287531
0.67261029 0.67261029 0.67261029
0.70343137 0.70343137 0.70343137
0.70098039 0.70098039 0.70098039
0.6995098 0.6995098 0.6995098
0.70212929 0.70212929 0.70212929
0.70735294 0.70735294 0.70735294
0.71643689 0.71643689 0.71643689
0.72778799 0.72778799 0.72778799
0.73886336 0.73886336 0.73886336
0.75159314 0.75159314 0.75159314
0.79607843 0.79607843 0.79607843
0.79607843 0.79607843 0.79607843
0.79607843 0.79607843 0.79607843
0.79215686 0.79215686 0.79215686
0.8 0.8 0.8
0.80631127 0.80631127 0.80631127
0.81776961 0.81776961 0.81776961
0.82510723 0.82510723 0.82510723
0.83137255 0.83137255 0.83137255
0.87696078 0.87696078 0.87696078
0.88088235 0.88088235 0.88088235
0.88088235 0.88088235 0.88088235
0.8745098 0.8745098 0.8745098
0.88161765 0.88161765 0.88161765
0.88535539 0.88535539 0.88535539
0.90110294 0.90110294 0.90110294
0.89577206 0.89577206 0.89577206
0.91617647 0.91617647 0.91617647
0.16470588 0.16470588 0.16470588
0.17990196 0.17990196 0.17990196
0.18627451 0.18627451 0.18627451
0.20857843 0.20857843 0.20857843
0.2254902 0.2254902 0.2254902
0.26691176 0.26691176 0.26691176
0.30588235 0.30588235 0.30588235
0.37205882 0.37205882 0.37205882
0.44509804 0.44509804 0.44509804
0.26862745 0.26862745 0.26862745
0.29362745 0.29362745 0.29362745
0.29503676 0.29503676 0.29503676
0.29525123 0.29525123 0.29525123
0.31409314 0.31409314 0.31409314
0.34518995 0.34518995 0.34518995
0.37598039 0.37598039 0.37598039
0.42107843 0.42107843 0.42107843
0.46568627 0.46568627 0.46568627
0.38284314 0.38284314 0.38284314
0.38970588 0.38970588 0.38970588
0.38970588 0.38970588 0.38970588
0.39295343 0.39295343 0.39295343
0.41078431 0.41078431 0.41078431
0.43161765 0.43161765 0.43161765
0.45588235 0.45588235 0.45588235
0.49656863 0.49656863 0.49656863
0.51568627 0.51568627 0.51568627
0.45588235 0.45588235 0.45588235
0.45833333 0.45833333 0.45833333
0.46446078 0.46446078 0.46446078
0.47990196 0.47990196 0.47990196
0.48946078 0.48946078 0.48946078
0.50294118 0.50294118 0.50294118
0.52922794 0.52922794 0.52922794
0.54901961 0.54901961 0.54901961
0.56323529 0.56323529 0.56323529
0.54117647 0.54117647 0.54117647
0.54313725 0.54313725 0.54313725
0.54779412 0.54779412 0.54779412
0.55710784 0.55710784 0.55710784
0.56666667 0.56666667 0.56666667
0.5814951 0.5814951 0.5814951
0.6004902 0.6004902 0.6004902
0.6120098 0.6120098 0.6120098
0.61862745 0.61862745 0.61862745
0.6370098 0.6370098 0.6370098
0.6377451 0.6377451 0.6377451
0.6377451 0.6377451 0.6377451
0.64065564 0.64065564 0.64065564
0.65110294 0.65110294 0.65110294
0.66519608 0.66519608 0.66519608
0.67585784 0.67585784 0.67585784
0.68743873 0.68743873 0.68743873
0.6997549 0.6997549 0.6997549
0.72647059 0.72647059 0.72647059
0.72647059 0.72647059 0.72647059
0.72647059 0.72647059 0.72647059
0.72647059 0.72647059 0.72647059
0.7370098 0.7370098 0.7370098
0.74938725 0.74938725 0.74938725
0.75784314 0.75784314 0.75784314
0.76525735 0.76525735 0.76525735
0.78039216 0.78039216 0.78039216
0.81911765 0.81911765 0.81911765
0.81911765 0.81911765 0.81911765
0.81911765 0.81911765 0.81911765
0.8122549 0.8122549 0.8122549
0.825 0.825 0.825
0.83152574 0.83152574 0.83152574
0.84307598 0.84307598 0.84307598
0.84632353 0.84632353 0.84632353
0.84828431 0.84828431 0.84828431
0.89803922 0.89803922 0.89803922
0.90367647 0.90367647 0.90367647
0.9004902 0.9004902 0.9004902
0.88553922 0.88553922 0.88553922
0.9127451 0.9127451 0.9127451
0.90196078 0.90196078 0.90196078
0.90980392 0.90980392 0.90980392
0.91348039 0.91348039 0.91348039
0.9254902 0.9254902 0.9254902
0.24264706 0.24264706 0.24264706
0.27009804 0.27009804 0.27009804
0.26764706 0.26764706 0.26764706
0.3151348 0.3151348 0.3151348
0.31764706 0.31764706 0.31764706
0.33921569 0.33921569 0.33921569
0.38713235 0.38713235 0.38713235
0.43382353 0.43382353 0.43382353
0.49803922 0.49803922 0.49803922
0.33578431 0.33578431 0.33578431
0.36685049 0.36685049 0.36685049
0.37446385 0.37446385 0.37446385
0.38314951 0.38314951 0.38314951
0.40425858 0.40425858 0.40425858
0.41078431 0.41078431 0.41078431
0.44306066 0.44306066 0.44306066
0.48658088 0.48658088 0.48658088
0.52628676 0.52628676 0.52628676
0.44803922 0.44803922 0.44803922
0.45098039 0.45098039 0.45098039
0.45278799 0.45278799 0.45278799
0.46659007 0.46659007 0.46659007
0.47941176 0.47941176 0.47941176
0.48794424 0.48794424 0.48794424
0.51568627 0.51568627 0.51568627
0.54718137 0.54718137 0.54718137
0.5685049 0.5685049 0.5685049
0.51372549 0.51372549 0.51372549
0.51764706 0.51764706 0.51764706
0.52156863 0.52156863 0.52156863
0.52886029 0.52886029 0.52886029
0.54117647 0.54117647 0.54117647
0.55536918 0.55536918 0.55536918
0.5772212 0.5772212 0.5772212
0.59725797 0.59725797 0.59725797
0.61323529 0.61323529 0.61323529
0.58063725 0.58063725 0.58063725
0.59019608 0.59019608 0.59019608
0.59240196 0.59240196 0.59240196
0.5995098 0.5995098 0.5995098
0.61004902 0.61004902 0.61004902
0.62300858 0.62300858 0.62300858
0.63492647 0.63492647 0.63492647
0.65147059 0.65147059 0.65147059
0.66495098 0.66495098 0.66495098
0.66231618 0.66231618 0.66231618
0.66704197 0.66704197 0.66704197
0.66862745 0.66862745 0.66862745
0.67869179 0.67869179 0.67869179
0.69019608 0.69019608 0.69019608
0.69665288 0.69665288 0.69665288
0.70453431 0.70453431 0.70453431
0.72235754 0.72235754 0.72235754
0.73921569 0.73921569 0.73921569
0.7495098 0.7495098 0.7495098
0.7495098 0.7495098 0.7495098
0.7495098 0.7495098 0.7495098
0.76090686 0.76090686 0.76090686
0.77303922 0.77303922 0.77303922
0.77529105 0.77529105 0.77529105
0.78134191 0.78134191 0.78134191
0.79215686 0.79215686 0.79215686
0.80698529 0.80698529 0.80698529
0.83823529 0.83823529 0.83823529
0.8403799 0.8403799 0.8403799
0.8341299 0.8341299 0.8341299
0.84031097 0.84031097 0.84031097
0.85373775 0.85373775 0.85373775
0.85373775 0.85373775 0.85373775
0.85796569 0.85796569 0.85796569
0.86388634 0.86388634 0.86388634
0.86390931 0.86390931 0.86390931
0.90588235 0.90588235 0.90588235
0.90980392 0.90980392 0.90980392
0.90588235 0.90588235 0.90588235
0.90735294 0.90735294 0.90735294
0.91764706 0.91764706 0.91764706
0.90680147 0.90680147 0.90680147
0.90294118 0.90294118 0.90294118
0.91764706 0.91764706 0.91764706
0.9254902 0.9254902 0.9254902
0.38039216 0.38039216 0.38039216
0.39117647 0.39117647 0.39117647
0.39607843 0.39607843 0.39607843
0.43137255 0.43137255 0.43137255
0.46176471 0.46176471 0.46176471
0.43970588 0.43970588 0.43970588
0.47058824 0.47058824 0.47058824
0.50012255 0.50012255 0.50012255
0.5127451 0.5127451 0.5127451
0.44166667 0.44166667 0.44166667
0.4560049 0.4560049 0.4560049
0.45088848 0.45088848 0.45088848
0.47143076 0.47143076 0.47143076
0.48841912 0.48841912 0.48841912
0.50539216 0.50539216 0.50539216
0.52288603 0.52288603 0.52288603
0.54656863 0.54656863 0.54656863
0.56470588 0.56470588 0.56470588
0.51372549 0.51372549 0.51372549
0.51372549 0.51372549 0.51372549
0.52058824 0.52058824 0.52058824
0.53578431 0.53578431 0.53578431
0.54558824 0.54558824 0.54558824
0.55723039 0.55723039 0.55723039
0.57745098 0.57745098 0.57745098
0.60039828 0.60039828 0.60039828
0.61568627 0.61568627 0.61568627
0.5754902 0.5754902 0.5754902
0.5754902 0.5754902 0.5754902
0.58333333 0.58333333 0.58333333
0.58910846 0.58910846 0.58910846
0.59901961 0.59901961 0.59901961
0.61188725 0.61188725 0.61188725
0.62729779 0.62729779 0.62729779
0.64568015 0.64568015 0.64568015
0.66115196 0.66115196 0.66115196
0.625 0.625 0.625
0.63198529 0.63198529 0.63198529
0.64117647 0.64117647 0.64117647
0.64993873 0.64993873 0.64993873
0.6627451 0.6627451 0.6627451
0.67083333 0.67083333 0.67083333
0.68431373 0.68431373 0.68431373
0.6995098 0.6995098 0.6995098
0.71519608 0.71519608 0.71519608
0.69227941 0.69227941 0.69227941
0.69620098 0.69620098 0.69620098
0.70906863 0.70906863 0.70906863
0.72300858 0.72300858 0.72300858
0.73094363 0.73094363 0.73094363
0.72977941 0.72977941 0.72977941
0.74289216 0.74289216 0.74289216
0.76213235 0.76213235 0.76213235
0.78039216 0.78039216 0.78039216
0.77230392 0.77230392 0.77230392
0.77254902 0.77254902 0.77254902
0.77959559 0.77959559 0.77959559
0.79427083 0.79427083 0.79427083
0.79901961 0.79901961 0.79901961
0.79929534 0.79929534 0.79929534
0.80686275 0.80686275 0.80686275
0.8236826 0.8236826 0.8236826
0.83431373 0.83431373 0.83431373
0.85723039 0.85723039 0.85723039
0.85723039 0.85723039 0.85723039
0.85686275 0.85686275 0.85686275
0.86493566 0.86493566 0.86493566
0.8689951 0.8689951 0.8689951
0.87169118 0.87169118 0.87169118
0.87254902 0.87254902 0.87254902
0.88071385 0.88071385 0.88071385
0.88431373 0.88431373 0.88431373
0.91862745 0.91862745 0.91862745
0.92242647 0.92242647 0.92242647
0.92647059 0.92647059 0.92647059
0.92647059 0.92647059 0.92647059
0.92647059 0.92647059 0.92647059
0.925 0.925 0.925
0.91568627 0.91568627 0.91568627
0.93039216 0.93039216 0.93039216
0.93333333 0.93333333 0.93333333
0.4872549 0.4872549 0.4872549
0.48382353 0.48382353 0.48382353
0.46862745 0.46862745 0.46862745
0.49411765 0.49411765 0.49411765
0.51617647 0.51617647 0.51617647
0.52028186 0.52028186 0.52028186
0.55098039 0.55098039 0.55098039
0.57401961 0.57401961 0.57401961
0.58186275 0.58186275 0.58186275
0.5372549 0.5372549 0.5372549
0.52555147 0.52555147 0.52555147
0.52107843 0.52107843 0.52107843
0.54365043 0.54365043 0.54365043
0.55686275 0.55686275 0.55686275
0.5685432 0.5685432 0.5685432
0.59227941 0.59227941 0.59227941
0.61268382 0.61268382 0.61268382
0.61617647 0.61617647 0.61617647
0.58039216 0.58039216 0.58039216
0.57571998 0.57571998 0.57571998
0.58247549 0.58247549 0.58247549
0.59754902 0.59754902 0.59754902
0.60735294 0.60735294 0.60735294
0.61678922 0.61678922 0.61678922
0.63584559 0.63584559 0.63584559
0.65130208 0.65130208 0.65130208
0.66139706 0.66139706 0.66139706
0.62126225 0.62126225 0.62126225
0.62937347 0.62937347 0.62937347
0.64117647 0.64117647 0.64117647
0.65282629 0.65282629 0.65282629
0.6614277 0.6614277 0.6614277
0.66862745 0.66862745 0.66862745
0.67833946 0.67833946 0.67833946
0.69373468 0.69373468 0.69373468
0.7091299 0.7091299 0.7091299
0.66936275 0.66936275 0.66936275
0.67892157 0.67892157 0.67892157
0.69503676 0.69503676 0.69503676
0.70401348 0.70401348 0.70401348
0.71470588 0.71470588 0.71470588
0.7231924 0.7231924 0.7231924
0.7341299 0.7341299 0.7341299
0.74607843 0.74607843 0.74607843
0.76127451 0.76127451 0.76127451
0.7372549 0.7372549 0.7372549
0.74503676 0.74503676 0.74503676
0.7567402 0.7567402 0.7567402
0.7712546 0.7712546 0.7712546
0.77254902 0.77254902 0.77254902
0.78001685 0.78001685 0.78001685
0.79070159 0.79070159 0.79070159
0.80346967 0.80346967 0.80346967
0.81519608 0.81519608 0.81519608
0.8064951 0.8064951 0.8064951
0.81378676 0.81378676 0.81378676
0.82242647 0.82242647 0.82242647
0.83382353 0.83382353 0.83382353
0.83290441 0.83290441 0.83290441
0.8339614 0.8339614 0.8339614
0.84292279 0.84292279 0.84292279
0.85735294 0.85735294 0.85735294
0.86384804 0.86384804 0.86384804
0.87990196 0.87990196 0.87990196
0.88382353 0.88382353 0.88382353
0.89036458 0.89036458 0.89036458
0.89558824 0.89558824 0.89558824
0.89166667 0.89166667 0.89166667
0.89558824 0.89558824 0.89558824
0.90343137 0.90343137 0.90343137
0.90735294 0.90735294 0.90735294
0.90729167 0.90729167 0.90729167
0.9372549 0.9372549 0.9372549
0.94117647 0.94117647 0.94117647
0.94901961 0.94901961 0.94901961
0.95441176 0.95441176 0.95441176
0.94901961 0.94901961 0.94901961
0.95343137 0.95343137 0.95343137
0.95343137 0.95343137 0.95343137
0.9495098 0.9495098 0.9495098
0.94901961 0.94901961 0.94901961
0.54901961 0.54901961 0.54901961
0.54558824 0.54558824 0.54558824
0.54901961 0.54901961 0.54901961
0.55294118 0.55294118 0.55294118
0.54901961 0.54901961 0.54901961
0.5622549 0.5622549 0.5622549
0.60196078 0.60196078 0.60196078
0.63921569 0.63921569 0.63921569
0.63921569 0.63921569 0.63921569
0.58382353 0.58382353 0.58382353
0.5877451 0.5877451 0.5877451
0.59154412 0.59154412 0.59154412
0.59295343 0.59295343 0.59295343
0.59901961 0.59901961 0.59901961
0.60833333 0.60833333 0.60833333
0.63933824 0.63933824 0.63933824
0.65925245 0.65925245 0.65925245
0.6622549 0.6622549 0.6622549
0.61862745 0.61862745 0.61862745
0.63333333 0.63333333 0.63333333
0.64117647 0.64117647 0.64117647
0.65294118 0.65294118 0.65294118
0.6627451 0.6627451 0.6627451
0.66862745 0.66862745 0.66862745
0.6745098 0.6745098 0.6745098
0.68921569 0.68921569 0.68921569
0.69313725 0.69313725 0.69313725
0.65980392 0.65980392 0.65980392
0.67647059 0.67647059 0.67647059
0.69117647 0.69117647 0.69117647
0.70202206 0.70202206 0.70202206
0.71078431 0.71078431 0.71078431
0.7122549 0.7122549 0.7122549
0.71617647 0.71617647 0.71617647
0.72401961 0.72401961 0.72401961
0.72794118 0.72794118 0.72794118
0.71568627 0.71568627 0.71568627
0.72328431 0.72328431 0.72328431
0.74264706 0.74264706 0.74264706
0.75612745 0.75612745 0.75612745
0.75686275 0.75686275 0.75686275
0.75955882 0.75955882 0.75955882
0.76470588 0.76470588 0.76470588
0.77671569 0.77671569 0.77671569
0.79215686 0.79215686 0.79215686
0.7872549 0.7872549 0.7872549
0.79117647 0.79117647 0.79117647
0.80085784 0.80085784 0.80085784
0.80931373 0.80931373 0.80931373
0.80931373 0.80931373 0.80931373
0.81078431 0.81078431 0.81078431
0.81862745 0.81862745 0.81862745
0.83431373 0.83431373 0.83431373
0.84460784 0.84460784 0.84460784
0.84117647 0.84117647 0.84117647
0.84411765 0.84411765 0.84411765
0.84901961 0.84901961 0.84901961
0.85588235 0.85588235 0.85588235
0.86078431 0.86078431 0.86078431
0.86580882 0.86580882 0.86580882
0.87328431 0.87328431 0.87328431
0.88333333 0.88333333 0.88333333
0.88431373 0.88431373 0.88431373
0.89460784 0.89460784 0.89460784
0.89509804 0.89509804 0.89509804
0.90159314 0.90159314 0.90159314
0.90637255 0.90637255 0.90637255
0.91446078 0.91446078 0.91446078
0.92647059 0.92647059 0.92647059
0.93039216 0.93039216 0.93039216
0.93033088 0.93033088 0.93033088
0.92647059 0.92647059 0.92647059
0.9372549 0.9372549 0.9372549
0.94068627 0.94068627 0.94068627
0.94901961 0.94901961 0.94901961
0.95294118 0.95294118 0.95294118
0.9627451 0.9627451 0.9627451
0.97745098 0.97745098 0.97745098
0.98039216 0.98039216 0.98039216
0.96862745 0.96862745 0.96862745
0.96470588 0.96470588 0.96470588
