site/assets/luts/sha256-e1261d5558918732aa28ed6cadfa723d140aa30c7c72d00696ec0bfec54f784e.cube
# LUTr-Schema-Version: 2
# LUTr-ID: sha256-e1261d5558918732aa28ed6cadfa723d140aa30c7c72d00696ec0bfec54f784e
# LUTr-Title: green mono
# LUTr-Collection: Natron HaldCLUT
# LUTr-Collection-ID: natron-haldclut-presets
# LUTr-Source: https://github.com/NatronGitHub/clut
# LUTr-Retrieved: 2026-07-27
# LUTr-Source-File: submissions/natron-haldclut-presets/various/green_mono.png
# LUTr-Source-Format: HALD-PNG
# LUTr-Source-SHA256: e1261d5558918732aa28ed6cadfa723d140aa30c7c72d00696ec0bfec54f784e
# LUTr-License: CC-BY-SA-4.0
# LUTr-License-URL: https://github.com/NatronGitHub/clut#license
# LUTr-License-Basis: repo-license-file
# LUTr-Transform-Class: film-emulation
# LUTr-Tags: creative, film, film-emulation, hald-clut, natron, png, black-and-white, cube
# LUTr-Input-Color-Space: srgb
# LUTr-Input-Gamut: rec709
# LUTr-Input-Transfer: srgb
# LUTr-Output-Color-Space: srgb
# LUTr-Output-Gamut: rec709
# LUTr-Output-Transfer: srgb
# LUTr-Color-Space-Confidence: assumed-display-referred
# LUTr-Domain-Normalized: true
# LUTr-Shaper: none
# LUTr-Original-Grid: 64x64x64
# LUTr-Conversion-Grid: 25x25x25
# LUTr-Conversion-Interpolation: trilinear
# LUTr-Conversion-Method: HALD-PNG LUT image decoded at 16-bit and sampled to 25x25x25 3D CUBE
# LUTr-Conversion-Tool: LUTr scripts/convert-all-to-cube.mjs 2.0.0
# LUTr-Conversion-Date: 2026-07-27
# LUTr-Note: Preserve this metadata and the upstream license notices when redistributing.
TITLE "green mono"
LUT_3D_SIZE 5
DOMAIN_MIN 0 0 0
DOMAIN_MAX 1 1 1
0.0078431373 0.011764706 0.0078431373
0.073529412 0.14607843 0.092156863
0.12156863 0.34509804 0.30588235
0.32647059 0.62058824 0.35196078
0.8745098 0.87058824 0.67058824
0.015686275 0.019607843 0.015686275
0.088235294 0.16568627 0.10392157
0.13333333 0.37254902 0.33529412
0.39509804 0.65490196 0.39485294
0.90294118 0.88235294 0.74215686
0.025490196 0.033333333 0.019607843
0.093627451 0.19656863 0.11862745
0.13333333 0.40588235 0.39019608
0.45539216 0.68921569 0.40441176
0.91960784 0.89803922 0.77843137
0.047058824 0.062745098 0.035294118
0.097058824 0.21666667 0.14289216
0.14558824 0.43235294 0.40392157
0.52941176 0.71862745 0.45784314
0.94117647 0.92156863 0.82352941
0.047058824 0.058823529 0.035294118
0.1127451 0.24411765 0.16176471
0.16666667 0.45686275 0.39803922
0.62647059 0.75784314 0.50490196
0.94901961 0.92941176 0.85882353
0.026470588 0.043137255 0.02745098
0.084313725 0.17181373 0.10784314
0.12941176 0.37990196 0.34803922
0.39044118 0.64803922 0.38529412
0.91666667 0.88137255 0.75098039
0.035294118 0.050245098 0.030637255
0.092892157 0.18376225 0.11176471
0.13370098 0.40257353 0.38872549
0.4627451 0.68848039 0.40955882
0.90784314 0.89313725 0.75
0.037254902 0.054411765 0.031372549
0.10098039 0.20833333 0.1307598
0.14877451 0.42892157 0.40490196
0.5435049 0.72732843 0.44718137
0.93284314 0.91715686 0.81666667
0.047058824 0.068382353 0.039215686
0.10098039 0.22769608 0.14607843
0.17855392 0.46789216 0.39803922
0.61709559 0.75238971 0.49240196
0.94509804 0.93014706 0.85416667
0.058823529 0.07745098 0.047058824
0.10882353 0.25955882 0.18112745
0.20147059 0.49705882 0.38627451
0.70686275 0.79215686 0.55098039
0.95784314 0.94509804 0.89411765
0.023529412 0.029411765 0.017647059
0.089215686 0.19117647 0.1245098
0.13333333 0.39901961 0.38823529
0.44117647 0.68235294 0.41519608
0.92156863 0.89803922 0.78235294
0.034803922 0.052941176 0.033333333
0.10196078 0.21029412 0.13590686
0.15490196 0.43848039 0.39044118
0.53321078 0.72034314 0.45833333
0.92892157 0.90882353 0.80196078
0.043137255 0.062745098 0.039215686
0.10416667 0.23210784 0.15882353
0.1745098 0.46568627 0.3995098
0.61421569 0.75539216 0.5122549
0.94509804 0.92843137 0.84313725
0.055392157 0.093137255 0.051470588
0.10882353 0.26568627 0.19583333
0.20980392 0.50367647 0.38186275
0.71151961 0.79607843 0.55735294
0.95 0.9372549 0.86568627
0.060784314 0.1 0.058823529
0.12058824 0.28676471 0.21029412
0.23529412 0.5254902 0.37843137
0.75196078 0.81519608 0.59313725
0.97254902 0.95882353 0.91568627
0.047058824 0.070588235 0.043137255
0.097058824 0.2127451 0.13823529
0.15147059 0.4372549 0.40784314
0.52622549 0.71544118 0.45686275
0.9372549 0.91470588 0.82352941
0.043137255 0.066421569 0.039215686
0.10171569 0.2370098 0.16807598
0.17990196 0.46654412 0.38333333
0.61574755 0.75594363 0.5
0.93946078 0.92083333 0.82745098
0.054901961 0.080392157 0.047058824
0.1127451 0.25796569 0.17058824
0.20514706 0.49852941 0.39044118
0.70171569 0.7872549 0.54669118
0.95490196 0.93872549 0.87009804
0.059803922 0.099754902 0.056617647
0.11666667 0.28406863 0.20245098
0.23737745 0.53811275 0.37794118
0.7723652 0.82150735 0.60128676
0.97181373 0.95784314 0.91715686
0.066666667 0.11470588 0.058823529
0.12058824 0.31078431 0.24019608
0.27647059 0.57254902 0.36176471
0.80980392 0.84215686 0.64044118
0.98039216 0.98039216 0.95588235
0.050980392 0.066666667 0.043137255
0.10490196 0.23235294 0.16078431
0.15490196 0.45686275 0.40588235
0.65392157 0.76960784 0.5245098
0.9372549 0.91372549 0.80784314
0.054901961 0.08627451 0.050980392
0.10882353 0.25171569 0.17352941
0.21862745 0.50294118 0.38627451
0.68946078 0.78504902 0.55098039
0.95686275 0.94215686 0.87843137
0.062745098 0.1 0.052941176
0.12156863 0.28921569 0.21372549
0.24215686 0.53529412 0.37843137
0.75147059 0.81078431 0.59607843
0.97254902 0.96078431 0.91764706
0.070588235 0.12254902 0.070588235
0.11838235 0.31372549 0.26078431
0.2872549 0.58333333 0.3627451
0.84019608 0.85220588 0.65
0.97647059 0.97254902 0.94411765
0.070588235 0.1372549 0.074509804
0.1245098 0.33039216 0.27745098
0.30588235 0.59215686 0.36862745
0.85980392 0.86568627 0.67647059
0.98823529 0.98823529 0.98039216
