site/assets/luts/sha256-30569c1628b48eac1e7940fadf929901c07adf87be03d58012450bce8b81dee8.cube
# LUTr-Schema-Version: 2
# LUTr-ID: sha256-30569c1628b48eac1e7940fadf929901c07adf87be03d58012450bce8b81dee8
# LUTr-Title: polaroid px-680 +
# LUTr-Collection: Natron HaldCLUT
# LUTr-Collection-ID: natron-haldclut-presets
# LUTr-Source: https://github.com/NatronGitHub/clut
# LUTr-Retrieved: 2026-07-27
# LUTr-Source-File: submissions/natron-haldclut-presets/instant_consumer/polaroid_px-680_+.png
# LUTr-Source-Format: HALD-PNG
# LUTr-Source-SHA256: 30569c1628b48eac1e7940fadf929901c07adf87be03d58012450bce8b81dee8
# LUTr-License: CC-BY-SA-4.0
# LUTr-License-URL: https://github.com/NatronGitHub/clut#license
# LUTr-License-Basis: repo-license-file
# LUTr-Transform-Class: film-emulation
# LUTr-Tags: creative, film, film-emulation, hald-clut, natron, png, cube
# LUTr-Input-Color-Space: srgb
# LUTr-Input-Gamut: rec709
# LUTr-Input-Transfer: srgb
# LUTr-Output-Color-Space: srgb
# LUTr-Output-Gamut: rec709
# LUTr-Output-Transfer: srgb
# LUTr-Color-Space-Confidence: assumed-display-referred
# LUTr-Domain-Normalized: true
# LUTr-Shaper: none
# LUTr-Original-Grid: 64x64x64
# LUTr-Conversion-Grid: 25x25x25
# LUTr-Conversion-Interpolation: trilinear
# LUTr-Conversion-Method: HALD-PNG LUT image decoded at 16-bit and sampled to 25x25x25 3D CUBE
# LUTr-Conversion-Tool: LUTr scripts/convert-all-to-cube.mjs 2.0.0
# LUTr-Conversion-Date: 2026-07-27
# LUTr-Note: Preserve this metadata and the upstream license notices when redistributing.
TITLE "polaroid px-680 +"
LUT_3D_SIZE 9
DOMAIN_MIN 0 0 0
DOMAIN_MAX 1 1 1
0.12156863 0.22352941 0.21960784
0.13627451 0.22303922 0.21960784
0.19117647 0.22745098 0.21960784
0.28529412 0.22990196 0.21960784
0.46666667 0.24509804 0.21960784
0.72941176 0.2627451 0.21029412
0.88039216 0.36078431 0.20392157
0.9377451 0.47205882 0.22009804
0.98039216 0.5372549 0.25490196
0.12156863 0.24656863 0.22352941
0.14761029 0.24356618 0.22352941
0.20453431 0.24571078 0.22352941
0.31911765 0.24920343 0.22352941
0.49901961 0.27156863 0.21593137
0.74460784 0.31439951 0.21568627
0.86960784 0.39460784 0.20441176
0.93474265 0.48327206 0.21960784
0.97254902 0.56029412 0.27058824
0.11372549 0.27745098 0.22352941
0.15245098 0.27647059 0.22745098
0.20294118 0.27254902 0.2245098
0.34129902 0.29460784 0.22107843
0.55392157 0.32303922 0.21176471
0.74571078 0.37855392 0.20784314
0.86862745 0.44779412 0.20392157
0.93039216 0.52879902 0.22401961
0.97745098 0.60294118 0.29411765
0.071078431 0.35490196 0.22352941
0.11844363 0.35882353 0.22352941
0.21323529 0.36384804 0.22352941
0.35490196 0.3911152 0.22052696
0.55490196 0.43406863 0.20196078
0.75 0.48333333 0.19215686
0.85330882 0.5245098 0.19754902
0.91617647 0.58204657 0.23235294
0.94901961 0.61813725 0.27205882
0.0039215686 0.47254902 0.21568627
0.0078431373 0.48627451 0.21960784
0.15490196 0.48627451 0.22156863
0.34142157 0.49926471 0.21568627
0.54803922 0.54019608 0.2127451
0.73088235 0.59117647 0.20980392
0.83186275 0.60980392 0.20196078
0.89485294 0.62794118 0.22573529
0.9372549 0.65294118 0.25294118
0.011764706 0.59411765 0.22745098
0.011948529 0.59411765 0.2213848
0.1435049 0.59656863 0.22352941
0.36519608 0.6122549 0.23529412
0.54901961 0.6377451 0.23823529
0.70392157 0.67107843 0.25784314
0.81433824 0.70637255 0.2817402
0.87941176 0.70667892 0.3004902
0.93333333 0.72205882 0.32892157
0.13137255 0.69705882 0.24803922
0.18909314 0.70085784 0.25245098
0.29901961 0.69779412 0.26862745
0.41654412 0.70098039 0.2689951
0.56764706 0.71568627 0.29117647
0.69669118 0.73639706 0.32598039
0.79705882 0.75808824 0.36078431
0.86666667 0.77107843 0.39987745
0.92058824 0.79019608 0.43431373
0.41960784 0.77794118 0.35098039
0.43823529 0.78137255 0.35882353
0.4877451 0.77794118 0.3627451
0.54803922 0.78137255 0.36096814
0.62916667 0.78921569 0.3877451
0.72156863 0.79883578 0.42040441
0.78676471 0.81360294 0.44987745
0.85594363 0.82800245 0.48480392
0.90980392 0.83970588 0.51813725
0.63529412 0.85098039 0.4745098
0.65441176 0.85882353 0.48235294
0.66176471 0.85392157 0.48137255
0.67205882 0.84313725 0.47205882
0.70784314 0.84117647 0.48039216
0.77696078 0.86029412 0.52843137
0.82941176 0.86764706 0.55
0.86764706 0.86617647 0.55686275
0.89803922 0.85882353 0.55686275
0.12941176 0.22745098 0.23137255
0.14411765 0.22745098 0.22745098
0.19411765 0.23137255 0.22745098
0.30226716 0.23137255 0.23351716
0.51691176 0.24901961 0.23529412
0.73805147 0.29411765 0.24411765
0.87647059 0.39068627 0.25392157
0.93823529 0.47990196 0.26966912
0.98382353 0.56764706 0.31666667
0.13284314 0.24264706 0.23137255
0.15593597 0.24313725 0.23137255
0.21214767 0.2464614 0.23088235
0.3254902 0.24936428 0.23480392
0.5471201 0.27202819 0.2348652
0.75588235 0.32089461 0.23823529
0.86917892 0.41372549 0.25134804
0.9338848 0.50637255 0.27756587
0.97254902 0.58333333 0.32444853
0.13333333 0.27659314 0.23529412
0.15566789 0.27745098 0.23480392
0.22429534 0.2916973 0.23517157
0.36341912 0.30923713 0.23480392
0.58351716 0.3286152 0.22959559
0.76416973 0.39211091 0.23039216
0.86568627 0.4674326 0.24411765
0.93002451 0.54857537 0.27547488
0.96862745 0.60772059 0.33235294
0.11323529 0.3622549 0.23890931
0.13008578 0.36666667 0.23529412
0.22513787 0.38235294 0.23921569
0.3957644 0.41107537 0.23658088
0.59730392 0.45058211 0.22696078
0.75519301 0.48596048 0.22206648
0.85502451 0.5282935 0.2279565
0.91852022 0.58943781 0.2627068
0.95245098 0.62922794 0.3122549
0.0078431373 0.49362745 0.23504902
0.048008578 0.49405637 0.23480392
0.18970588 0.49754902 0.23872549
0.38121936 0.51583946 0.24264706
0.57487745 0.55355392 0.2377451
0.73259804 0.5890625 0.23422181
0.83057598 0.61078431 0.24001225
0.89856005 0.63180147 0.24430147
0.95833333 0.67990196 0.32426471
0.00625 0.60539216 0.23921569
0.021568627 0.60833333 0.23627451
0.20655637 0.61217831 0.24799326
0.3903799 0.62464001 0.25441176
0.56519608 0.64623162 0.26764706
0.7164905 0.67854626 0.29019608
0.81230086 0.69914216 0.3131587
0.87922794 0.71378676 0.32990196
0.92971814 0.72628676 0.36109069
0.20992647 0.70747549 0.27598039
0.2290288 0.70130208 0.27642463
0.3192402 0.70098039 0.2801777
0.44754902 0.70837929 0.30196078
0.59656863 0.72395833 0.32873775
0.69981618 0.73921569 0.35147059
0.7872549 0.75980392 0.38382353
0.86286765 0.77757353 0.41776961
0.92058824 0.79019608 0.44215686
0.44607843 0.78186275 0.3622549
0.45392157 0.78148744 0.35876991
0.50289522 0.78137255 0.37401961
0.56329657 0.78529412 0.38560049
0.64191176 0.79313725 0.40686275
0.72518382 0.80463388 0.43474265
0.79068627 0.81662071 0.46519608
0.85238971 0.82493873 0.49086244
0.89019608 0.83578431 0.51078431
0.65098039 0.85882353 0.48235294
0.64748775 0.85490196 0.48235294
0.66568627 0.85392157 0.48529412
0.69607843 0.85833333 0.50098039
0.72696078 0.85490196 0.50955882
0.7754902 0.86243873 0.53302696
0.82843137 0.8692402 0.5564951
0.87107843 0.87058824 0.57647059
0.89411765 0.87401961 0.59166667
0.13627451 0.22745098 0.24313725
0.15159314 0.23137255 0.23921569
0.20171569 0.23529412 0.24509804
0.29362745 0.23247549 0.25
0.53088235 0.21617647 0.26715686
0.75539216 0.25134804 0.28676471
0.88039216 0.41470588 0.32426471
0.93039216 0.52512255 0.36531863
0.96862745 0.60588235 0.40882353
0.14117647 0.24313725 0.24705882
0.16689645 0.24693627 0.25343137
0.22018995 0.2504902 0.25343137
0.33382353 0.25165441 0.2611826
0.55974265 0.26397059 0.28014706
0.78151042 0.32182904 0.30110294
0.87647059 0.44080882 0.32417279
0.92990196 0.54117647 0.36654412
0.96470588 0.61458333 0.40882353
0.14705882 0.27941176 0.25759804
0.18339461 0.29041054 0.26433824
0.23946078 0.30667892 0.26789216
0.3995098 0.32610294 0.27610294
0.6067402 0.35 0.29117647
0.78235294 0.40931373 0.29408701
0.86807598 0.5002451 0.32444853
0.92640931 0.57585784 0.36329657
0.96176471 0.63333333 0.40882353
0.16127451 0.38137255 0.27352941
0.1966299 0.39001225 0.27740502
0.25799632 0.40064338 0.27882966
0.43411458 0.43273591 0.28431373
0.63186275 0.47009804 0.28431373
0.77375919 0.49509804 0.28431373
0.85695466 0.54898897 0.3004902
0.91265319 0.60992647 0.3442402
0.95404412 0.65637255 0.39252451
0.1754902 0.52647059 0.28823529
0.17794118 0.51697304 0.27953431
0.26666667 0.51740196 0.2807598
0.42873775 0.54405637 0.29307598
0.62573529 0.58186275 0.29362745
0.75245098 0.59877451 0.30808824
0.83921569 0.61384804 0.31078431
0.90490196 0.6504902 0.33682598
0.95 0.68872549 0.39166667
0.13872549 0.62585784 0.29056373
0.18915441 0.61755515 0.28769914
0.30413603 0.62401961 0.29289216
0.44143689 0.63800551 0.30784314
0.59803922 0.66035539 0.32696078
0.72598039 0.68676471 0.34791667
0.8122549 0.69831495 0.36666667
0.87941176 0.71724877 0.38825061
0.93909314 0.72843137 0.39411765
0.28137255 0.70784314 0.31078431
0.30208333 0.7051777 0.30882353
0.39332108 0.71041667 0.32469363
0.49286152 0.71960784 0.34387255
0.60257353 0.72352941 0.36568627
0.70646446 0.74460784 0.39754902
0.78946078 0.7627451 0.41764706
0.86286765 0.77879902 0.44460784
0.92156863 0.79411765 0.47156863
0.46875 0.7814951 0.39264706
0.48431373 0.78137255 0.38180147
0.5314951 0.78443627 0.39635417
0.58578431 0.78952206 0.4160386
0.65753676 0.79534314 0.43363971
0.72892157 0.807981 0.45686275
0.79917279 0.81639093 0.48737745
0.85980392 0.82800245 0.51421569
0.89840686 0.83884804 0.5307598
0.65098039 0.85490196 0.49313725
0.64031863 0.84803922 0.48247549
0.65392157 0.84705882 0.48529412
0.69669118 0.85563725 0.50490196
0.72303922 0.85196078 0.51176471
0.77794118 0.86164216 0.54117647
0.8254902 0.8627451 0.55784314
0.87414216 0.87058824 0.58480392
0.9127451 0.88137255 0.60980392
0.15784314 0.23382353 0.28186275
0.19656863 0.24136029 0.2872549
0.2557598 0.24889706 0.29411765
0.36470588 0.26519608 0.31323529
0.52426471 0.24877451 0.3245098
0.75631127 0.23676471 0.3651348
0.87855392 0.36164216 0.39264706
0.92990196 0.52665441 0.44264706
0.96078431 0.64068627 0.49656863
0.17481618 0.25686275 0.29754902
0.20002298 0.25471814 0.29491422
0.28431373 0.27120098 0.31153493
0.37744332 0.28154871 0.31666667
0.57123162 0.28342525 0.34234069
0.77333793 0.29756434 0.37352941
0.88247549 0.40349265 0.39689032
0.92859222 0.54689798 0.44656863
0.96078431 0.64068627 0.48903186
0.15490196 0.30183824 0.30980392
0.19693627 0.30908395 0.31034007
0.28970588 0.32588848 0.33167892
0.43445159 0.34264706 0.34068627
0.62297794 0.37432598 0.36911765
0.77340686 0.41986826 0.39215686
0.86568627 0.52257966 0.4245098
0.91948529 0.60428922 0.46041667
0.95686275 0.68296569 0.50539216
0.17892157 0.3995098 0.32408088
0.20765165 0.39939491 0.32617188
0.31556373 0.41666667 0.34362745
0.48849571 0.45204504 0.36217065
0.66819853 0.49411765 0.38354779
0.77696078 0.52886029 0.38825827
0.85404412 0.59408701 0.42732843
0.90734528 0.64146752 0.44449295
0.94901961 0.6872549 0.48241422
0.21348039 0.51053922 0.3377451
0.27386642 0.51617647 0.34166667
0.37745098 0.53553922 0.35465686
0.49905025 0.56400123 0.3698223
0.64620098 0.59068627 0.38639706
0.76176471 0.61525735 0.3966299
0.840625 0.63572304 0.40643382
0.89485294 0.66813725 0.43008578
0.94117647 0.71029412 0.47132353
0.36219363 0.63033088 0.37107843
0.39337469 0.63266697 0.37193627
0.44186581 0.64030331 0.3745098
0.52122396 0.6522212 0.38013174
0.63581495 0.66887255 0.39586397
0.7303079 0.69068627 0.41960784
0.81571691 0.70620404 0.43526348
0.88278186 0.71966912 0.44725031
0.9372549 0.73872549 0.46372549
0.43627451 0.71237745 0.39227941
0.43356311 0.71176471 0.38125
0.46617647 0.71470588 0.38183211
0.54094669 0.72058824 0.39503676
0.63216912 0.73063725 0.41715686
0.7127451 0.75006127 0.44264706
0.79901961 0.76893382 0.46960784
0.87120098 0.78265931 0.49620098
0.92058824 0.79019608 0.50245098
0.52959559 0.78137255 0.43333333
0.540625 0.78167892 0.43118873
0.55667892 0.78443627 0.42784926
0.6122549 0.78921569 0.44509804
0.67156863 0.79705882 0.46528799
0.73756893 0.80882353 0.48694853
0.80330882 0.81752451 0.51230086
0.86813725 0.83235294 0.54117647
0.90569853 0.84001225 0.55214461
0.66519608 0.86127451 0.5122549
0.65704657 0.85098039 0.50441176
0.66911765 0.85159314 0.50539216
0.70140931 0.85490196 0.51709559
0.7372549 0.85882353 0.53529412
0.77794118 0.85490196 0.54509804
0.82058824 0.85306373 0.55845588
0.88235294 0.8745098 0.6
0.90196078 0.8745098 0.60392157
0.20392157 0.24509804 0.37058824
0.26348039 0.25465686 0.38039216
0.37254902 0.28333333 0.39558824
0.50588235 0.31372549 0.41372549
0.63137255 0.39215686 0.43137255
0.7627451 0.37647059 0.45441176
0.86617647 0.39852941 0.48039216
0.92205882 0.5 0.50220588
0.9627451 0.60588235 0.5254902
0.20588235 0.27205882 0.38970588
0.27107843 0.28290441 0.39188113
0.38167892 0.29558824 0.40637255
0.52156863 0.35670956 0.42833946
0.65379902 0.41164216 0.44276961
0.75612745 0.39960172 0.45818015
0.85735294 0.44185049 0.48265931
0.91813725 0.5377451 0.50808824
0.95686275 0.63259804 0.53137255
0.18333333 0.32843137 0.39754902
0.25085784 0.34375 0.40612745
0.37647059 0.36629902 0.42095588
0.56495098 0.43198529 0.44693627
0.68014706 0.48137255 0.46053922
0.77506127 0.48106618 0.4747549
0.85588235 0.53394608 0.49460784
0.91642157 0.60557598 0.51807598
0.94901961 0.65784314 0.53921569
0.16838235 0.42107843 0.40588235
0.20971201 0.42337623 0.40588235
0.34816176 0.44044118 0.4245098
0.55542279 0.49411765 0.4549326
0.69522059 0.56348039 0.47156863
0.77818627 0.56663603 0.48308824
0.84901961 0.62009804 0.51231618
0.90646446 0.65719975 0.52126225
0.94117647 0.69387255 0.54044118
0.22941176 0.52352941 0.40588235
0.28529412 0.5254902 0.40980392
0.38921569 0.54019608 0.42254902
0.5564951 0.57818627 0.45539216
0.6872549 0.61617647 0.47401961
0.77818627 0.65465686 0.48958333
0.84068627 0.6754902 0.50490196
0.89289216 0.70428922 0.52291667
0.93921569 0.73235294 0.53921569
0.33161765 0.62205882 0.41715686
0.37965686 0.62009804 0.41911765
0.46985294 0.63872549 0.43670343
0.59166667 0.65876225 0.45836397
0.68553922 0.68333333 0.4754902
0.76421569 0.70686275 0.49411765
0.83033088 0.72726716 0.50796569
0.88333333 0.74549632 0.52156863
0.93333333 0.75637255 0.52867647
0.47990196 0.71029412 0.44803922
0.50618873 0.71176471 0.44944853
0.56004902 0.71752451 0.45686275
0.62542892 0.72867647 0.46911765
0.67254902 0.73995098 0.47647059
0.74215686 0.75618873 0.49589461
0.81568627 0.7745098 0.51666667
0.87867647 0.78529412 0.53192402
0.92058824 0.79019608 0.53627451
0.58529412 0.78186275 0.48112745
0.58311887 0.78186275 0.47742034
0.60594363 0.7817402 0.47916667
0.64623162 0.79249387 0.49068627
0.69301471 0.80012255 0.50171569
0.74387255 0.80851716 0.51636029
0.80686275 0.82009804 0.5370098
0.87156863 0.83192402 0.56351103
0.91397059 0.83970588 0.57941176
0.67058824 0.85098039 0.53137255
0.67647059 0.85490196 0.53137255
0.68578431 0.85098039 0.53137255
0.70637255 0.85490196 0.5372549
0.73921569 0.85882353 0.54803922
0.77916667 0.85343137 0.55808824
0.82205882 0.85 0.57156863
0.87916667 0.87083333 0.60441176
0.92352941 0.88823529 0.63137255
0.325 0.27990196 0.48039216
0.36501225 0.28676471 0.49068627
0.48039216 0.29987745 0.5057598
0.62058824 0.3622549 0.51574755
0.71789216 0.49705882 0.52843137
0.7911152 0.5651348 0.54074755
0.85686275 0.55147059 0.55257353
0.90275735 0.57383578 0.55980392
0.94117647 0.61862745 0.56764706
0.32892157 0.30686275 0.5
0.38514859 0.32248775 0.50561428
0.49862132 0.34938725 0.51029412
0.626731 0.41588542 0.51966912
0.73636642 0.52990196 0.53480392
0.79737286 0.5694087 0.54411765
0.84117647 0.55945159 0.54803922
0.89883578 0.59237898 0.560072
0.95147059 0.64019608 0.57530637
0.33284314 0.38039216 0.50637255
0.36524203 0.37616422 0.51813725
0.49451593 0.40245098 0.51896446
0.65085784 0.46770833 0.53235294
0.73768382 0.56715686 0.54019608
0.79748775 0.60245098 0.54914216
0.84476103 0.61237745 0.55952819
0.89754902 0.63578431 0.56755515
0.94215686 0.66715686 0.57794118
0.25539216 0.4627451 0.49607843
0.3381204 0.47285539 0.50202972
0.46576287 0.49074755 0.51360294
0.62336091 0.5404565 0.53108915
0.73357843 0.61372549 0.54215686
0.79844516 0.659375 0.55196078
0.8372549 0.65545343 0.55980392
0.89025735 0.68026195 0.57127757
0.9372549 0.70686275 0.58431373
0.27009804 0.55245098 0.48921569
0.3372549 0.55637255 0.49191176
0.41623775 0.56323529 0.49730392
0.575 0.59607843 0.51911765
0.70992647 0.65110294 0.53786765
0.79509804 0.69362745 0.55542279
0.84166667 0.69681373 0.56372549
0.89093137 0.72156863 0.57435662
0.93578431 0.75490196 0.59362745
0.3627451 0.63578431 0.48284314
0.4 0.63670343 0.48529412
0.46914828 0.6421875 0.49105392
0.5877451 0.66153493 0.51127451
0.70318627 0.69390319 0.5333027
0.7872549 0.72969516 0.55253523
0.84056373 0.74204963 0.56372549
0.88706342 0.75998775 0.57480086
0.92794118 0.78333333 0.59209559
0.45196078 0.70723039 0.48921569
0.4717065 0.70503983 0.48590686
0.51590074 0.7083027 0.4893076
0.61473652 0.72352941 0.51127451
0.69607843 0.74068627 0.52965686
0.76810662 0.7595435 0.54757966
0.8296875 0.78443627 0.56488971
0.88641238 0.79364277 0.57156863
0.91764706 0.79852941 0.57610294
0.53676471 0.77616422 0.50833333
0.5627451 0.77616422 0.51207108
0.60085784 0.77954963 0.51870404
0.65265012 0.78873315 0.53008578
0.69901961 0.79525123 0.53529412
0.75754442 0.80618873 0.55233609
0.82798713 0.82838542 0.58088235
0.88333333 0.83390778 0.59068627
0.91372549 0.84540441 0.61372549
0.67205882 0.85490196 0.55833333
0.66519608 0.85098039 0.55686275
0.68137255 0.84644608 0.55735294
0.72101716 0.85882353 0.56709559
0.74191176 0.85343137 0.56617647
0.7872549 0.85490196 0.58094363
0.84448529 0.86948529 0.60821078
0.8846201 0.8745098 0.62156863
0.90980392 0.88235294 0.63529412
0.48823529 0.35392157 0.59019608
0.54522059 0.37904412 0.59411765
0.60882353 0.41053922 0.58627451
0.68480392 0.47156863 0.58627451
0.77303922 0.57745098 0.59411765
0.82990196 0.68382353 0.60490196
0.86470588 0.68921569 0.60490196
0.90257353 0.68921569 0.60894608
0.9372549 0.68529412 0.6127451
0.50919118 0.39117647 0.59411765
0.54048713 0.39857537 0.59411765
0.61654412 0.43921569 0.59402574
0.7129136 0.50424326 0.59411765
0.77922794 0.58474265 0.59705882
0.82990196 0.68293505 0.60490196
0.86056985 0.69178922 0.60554534
0.89473039 0.68964461 0.60894608
0.93235294 0.70441176 0.61666667
0.49509804 0.44607843 0.5879902
0.52598039 0.44705882 0.59181985
0.61354167 0.49338235 0.59019608
0.7104473 0.55333946 0.59411765
0.78137255 0.61862745 0.5995098
0.83072917 0.70098039 0.60836397
0.86470588 0.72352941 0.61366422
0.89816176 0.70784314 0.6127451
0.9254902 0.71887255 0.61666667
0.47610294 0.53088235 0.58051471
0.50908395 0.53272059 0.58382353
0.5875 0.55698529 0.58627451
0.69221814 0.59362745 0.59088542
0.76997549 0.65202206 0.59773284
0.8283701 0.71617647 0.60698529
0.86470588 0.73517157 0.61326593
0.89987745 0.73811275 0.61764706
0.93235294 0.7377451 0.62058824
0.31470588 0.58186275 0.55686275
0.38284314 0.58584559 0.55882353
0.49987745 0.59595588 0.56654412
0.6254902 0.625 0.57628676
0.74436275 0.66789216 0.58995098
0.81911765 0.7283701 0.60490196
0.86666667 0.75686275 0.61372549
0.89852941 0.76372549 0.61740196
0.9254902 0.76960784 0.6245098
0.40245098 0.65490196 0.55098039
0.43088235 0.65623468 0.55098039
0.48970588 0.65490196 0.55098039
0.58529412 0.66813725 0.5613511
0.69448529 0.69754902 0.57720588
0.80147059 0.7455576 0.60052083
0.86112132 0.78189338 0.61446078
0.89852941 0.79483762 0.625
0.9245098 0.8060049 0.63529412
0.47426471 0.71666667 0.54313725
0.48419118 0.71495098 0.54313725
0.51544118 0.7127451 0.54142157
0.59889706 0.72352941 0.55235907
0.68431373 0.74313725 0.56960784
0.77049632 0.76813725 0.59068627
0.84564951 0.79564951 0.61354167
0.89460784 0.81351103 0.6245098
0.9254902 0.82058824 0.62843137
0.47328431 0.76960784 0.53566176
0.49410233 0.76574755 0.53823529
0.55134804 0.77352941 0.54558824
0.60450368 0.77659314 0.5495098
0.68811275 0.79313725 0.56985294
0.76542586 0.81011029 0.58760723
0.83728554 0.82892157 0.61372549
0.89080882 0.84529718 0.63627451
0.91372549 0.85147059 0.63676471
0.61078431 0.84705882 0.57647059
0.62965686 0.85 0.57647059
0.64313725 0.84607843 0.57745098
0.68039216 0.84852941 0.58431373
0.74068627 0.85588235 0.59411765
0.79264706 0.85281863 0.60428922
0.85367647 0.87058824 0.6252451
0.89460784 0.87757353 0.64460784
0.90294118 0.87843137 0.64803922
0.66470588 0.52058824 0.65147059
0.68382353 0.51666667 0.65147059
0.72193627 0.54117647 0.65147059
0.77843137 0.60343137 0.65018382
0.82205882 0.65637255 0.64754902
0.85686275 0.72794118 0.64411765
0.8872549 0.77009804 0.64754902
0.90637255 0.77352941 0.64754902
0.9254902 0.76617647 0.64754902
0.6716299 0.53229167 0.65539216
0.68339461 0.53921569 0.64803922
0.7254902 0.56568627 0.64803922
0.77189798 0.61078431 0.64803922
0.82230392 0.67552083 0.64604779
0.86078431 0.73182445 0.6471201
0.88382353 0.76499694 0.64754902
0.90985754 0.78094363 0.65147059
0.91764706 0.77745098 0.65147059
0.6504902 0.56617647 0.64754902
0.6796875 0.57712929 0.64803922
0.72653186 0.60382966 0.65147059
0.77192096 0.64486826 0.65093444
0.81838235 0.69313725 0.64754902
0.86078431 0.74067096 0.65061275
0.8877451 0.77830882 0.65220588
0.90680147 0.79286152 0.65539216
0.91764706 0.78921569 0.65147059
0.63658088 0.61029412 0.64381127
0.65392157 0.61390931 0.64150582
0.69558824 0.63823529 0.64162071
0.75245098 0.65882353 0.64381127
0.80980392 0.70701593 0.64779412
0.85422794 0.74797794 0.65147059
0.8872549 0.78564645 0.65147059
0.90637255 0.80032935 0.65539216
0.9254902 0.79528186 0.65539216
0.55318627 0.65392157 0.62867647
0.58045343 0.65441176 0.62821691
0.64926471 0.65821078 0.63431373
0.70523897 0.67647059 0.63538603
0.78284314 0.7125 0.64362745
0.8377451 0.75563725 0.64525123
0.88333333 0.79926471 0.65147059
0.90680147 0.80637255 0.65539216
0.92156863 0.80661765 0.65931373
0.45373775 0.68609069 0.6127451
0.49283088 0.690625 0.61666667
0.52958027 0.68627451 0.61519608
0.60844822 0.69509804 0.61923254
0.72696078 0.72696078 0.62769608
0.8122549 0.7627451 0.64270833
0.8727788 0.80539216 0.65258885
0.90245098 0.81764706 0.65716912
0.92205882 0.82156863 0.66323529
0.49987745 0.73970588 0.60490196
0.51867341 0.74007353 0.60882353
0.56544118 0.74362745 0.60882353
0.61458333 0.74754902 0.6127451
0.67892157 0.75275735 0.61666667
0.75735294 0.775 0.63301164
0.85266544 0.81286765 0.65082721
0.90605086 0.83589154 0.65991115
0.92291667 0.84068627 0.66323529
0.53535539 0.79362745 0.60098039
0.5506587 0.79368873 0.60490196
0.5796875 0.79742647 0.60490196
0.64084712 0.80098039 0.60882353
0.67941176 0.80318627 0.61099877
0.75294118 0.81429994 0.62575827
0.83344056 0.82935049 0.64525123
0.9028799 0.8588848 0.66715686
0.92898284 0.86715686 0.67199755
0.56666667 0.85098039 0.60539216
0.58970588 0.85882353 0.6127451
0.59803922 0.83970588 0.60539216
0.63088235 0.83137255 0.60490196
0.67205882 0.83406863 0.60710784
0.7372549 0.84705882 0.62156863
0.84068627 0.85147059 0.64840686
0.89852941 0.86666667 0.66672794
0.92205882 0.87843137 0.67892157
0.78431373 0.69019608 0.69411765
0.7872549 0.69313725 0.69362745
0.79901961 0.69411765 0.68627451
0.82598039 0.71617647 0.68235294
0.85686275 0.74705882 0.68235294
0.88382353 0.78186275 0.68235294
0.90686275 0.81372549 0.68235294
0.91764706 0.82401961 0.6745098
0.92156863 0.83529412 0.67843137
0.78039216 0.69411765 0.69411765
0.78431373 0.69411765 0.69019608
0.80306373 0.7127451 0.69019608
0.82990196 0.72941176 0.68756127
0.86078431 0.75857843 0.68627451
0.88235294 0.77794118 0.67843137
0.90036765 0.79779412 0.67291667
0.91764706 0.83529412 0.67843137
0.92156863 0.83921569 0.67843137
0.78431373 0.70980392 0.69019608
0.78529412 0.70992647 0.69019608
0.79926471 0.72058824 0.69019608
0.82205882 0.73688725 0.68382353
0.84558824 0.74607843 0.67352941
0.87598039 0.77438725 0.67267157
0.90980392 0.81960784 0.68529412
0.91764706 0.83566176 0.68235294
0.92156863 0.84313725 0.68235294
0.7622549 0.72401961 0.69019608
0.76599265 0.72009804 0.68756127
0.78872549 0.72941176 0.68835784
0.81421569 0.7466299 0.68535539
0.85294118 0.77303922 0.68357843
0.87598039 0.78823529 0.67696078
0.90196078 0.8127451 0.67843137
0.91764706 0.83578431 0.68235294
0.9254902 0.84558824 0.68480392
0.75098039 0.74509804 0.69215686
0.74828431 0.73921569 0.68627451
0.76421569 0.74313725 0.68627451
0.78504902 0.74656863 0.67990196
0.83333333 0.77254902 0.68333333
0.86813725 0.79681373 0.67843137
0.89705882 0.82303922 0.68235294
0.91813725 0.84313725 0.68235294
0.9254902 0.84117647 0.68235294
0.67156863 0.75686275 0.67696078
0.67892157 0.75637255 0.68216912
0.70661765 0.75539216 0.68272059
0.75392157 0.76378676 0.68382353
0.80588235 0.77598039 0.68382353
0.85882353 0.80484069 0.68235294
0.88333333 0.82745098 0.68235294
0.91666667 0.84705882 0.68498775
0.92941176 0.84313725 0.68382353
0.64019608 0.78921569 0.67156863
0.64656863 0.78541667 0.6745098
0.65661765 0.78529412 0.67156863
0.67009804 0.77634804 0.66519608
0.74117647 0.78921569 0.67205882
0.82463235 0.80931373 0.68284314
0.8747549 0.82843137 0.68063725
0.91372549 0.85110294 0.68272059
0.94117647 0.86764706 0.70196078
0.66323529 0.83186275 0.67058824
0.67107843 0.83186275 0.6745098
0.67892157 0.82794118 0.6745098
0.70539216 0.83235294 0.675
0.74362745 0.83235294 0.68063725
0.78578431 0.83186275 0.67303922
0.83688725 0.83284314 0.65637255
0.9098652 0.86323529 0.68676471
0.95294118 0.88627451 0.71323529
0.72156863 0.88627451 0.69019608
0.68480392 0.86568627 0.67009804
0.72254902 0.8754902 0.68333333
0.7122549 0.8495098 0.6745098
0.77647059 0.88235294 0.69019608
0.81470588 0.88235294 0.69166667
0.85588235 0.86960784 0.68627451
0.90294118 0.86715686 0.69068627
0.94509804 0.88235294 0.70588235
