site/assets/luts/sha256-b1027d8067a6372b0a7758af5e2442dd2be07fc7e060f9071b5ab5cd022aa9eb.cube
# LUTr-Schema-Version: 2
# LUTr-ID: sha256-b1027d8067a6372b0a7758af5e2442dd2be07fc7e060f9071b5ab5cd022aa9eb
# LUTr-Title: polaroid px-100uv+ cold +++
# LUTr-Collection: Natron HaldCLUT
# LUTr-Collection-ID: natron-haldclut-presets
# LUTr-Source: https://github.com/NatronGitHub/clut
# LUTr-Retrieved: 2026-07-27
# LUTr-Source-File: submissions/natron-haldclut-presets/instant_consumer/polaroid_px-100uv+_cold_+++.png
# LUTr-Source-Format: HALD-PNG
# LUTr-Source-SHA256: b1027d8067a6372b0a7758af5e2442dd2be07fc7e060f9071b5ab5cd022aa9eb
# LUTr-License: CC-BY-SA-4.0
# LUTr-License-URL: https://github.com/NatronGitHub/clut#license
# LUTr-License-Basis: repo-license-file
# LUTr-Transform-Class: film-emulation
# LUTr-Tags: creative, film, film-emulation, hald-clut, natron, png, cool, cube
# LUTr-Input-Color-Space: srgb
# LUTr-Input-Gamut: rec709
# LUTr-Input-Transfer: srgb
# LUTr-Output-Color-Space: srgb
# LUTr-Output-Gamut: rec709
# LUTr-Output-Transfer: srgb
# LUTr-Color-Space-Confidence: assumed-display-referred
# LUTr-Domain-Normalized: true
# LUTr-Shaper: none
# LUTr-Original-Grid: 64x64x64
# LUTr-Conversion-Grid: 25x25x25
# LUTr-Conversion-Interpolation: trilinear
# LUTr-Conversion-Method: HALD-PNG LUT image decoded at 16-bit and sampled to 25x25x25 3D CUBE
# LUTr-Conversion-Tool: LUTr scripts/convert-all-to-cube.mjs 2.0.0
# LUTr-Conversion-Date: 2026-07-27
# LUTr-Note: Preserve this metadata and the upstream license notices when redistributing.
TITLE "polaroid px-100uv+ cold +++"
LUT_3D_SIZE 9
DOMAIN_MIN 0 0 0
DOMAIN_MAX 1 1 1
0.38039216 0.41176471 0.41176471
0.38431373 0.41568627 0.41568627
0.39215686 0.42352941 0.41960784
0.4 0.42745098 0.42352941
0.40392157 0.43137255 0.42745098
0.43676471 0.46176471 0.45245098
0.48333333 0.50686275 0.4872549
0.53431373 0.5504902 0.52205882
0.61960784 0.62745098 0.57647059
0.38823529 0.41960784 0.41568627
0.38823529 0.41960784 0.41954657
0.39607843 0.42647059 0.42352941
0.40392157 0.43137255 0.42745098
0.41151961 0.43897059 0.43308824
0.44197304 0.46568627 0.45637255
0.48431373 0.50686275 0.4872549
0.53131127 0.5504902 0.52205882
0.61568627 0.62401961 0.57254902
0.39509804 0.42352941 0.42254902
0.39215686 0.42352941 0.41997549
0.39607843 0.42745098 0.42352941
0.40637255 0.43529412 0.43137255
0.41372549 0.44117647 0.4372549
0.44607843 0.47205882 0.46029412
0.49191176 0.51176471 0.49117647
0.54215686 0.55784314 0.52598039
0.60784314 0.61568627 0.56862745
0.41029412 0.4377451 0.43382353
0.40637255 0.43560049 0.42990196
0.40245098 0.43137255 0.42745098
0.409375 0.43682598 0.43137255
0.42083333 0.44754902 0.44166667
0.45245098 0.47843137 0.46574755
0.48541667 0.50784314 0.4872549
0.55294118 0.56862745 0.53284314
0.62598039 0.63382353 0.57892157
0.43333333 0.46078431 0.44901961
0.43333333 0.46078431 0.45098039
0.43333333 0.45931373 0.44901961
0.43333333 0.45882353 0.44901961
0.45 0.4745098 0.46372549
0.47867647 0.50147059 0.48578431
0.51470588 0.53480392 0.50882353
0.57598039 0.59142157 0.5497549
0.65686275 0.66078431 0.59803922
0.47745098 0.50098039 0.48382353
0.47598039 0.4995098 0.47990196
0.47745098 0.4995098 0.48382353
0.47598039 0.49797794 0.48382353
0.47941176 0.50220588 0.48578431
0.51905637 0.53866422 0.5127451
0.56360294 0.57928922 0.53970588
0.61832108 0.62745098 0.5745098
0.68382353 0.68382353 0.60931373
0.53137255 0.54803922 0.51862745
0.52009804 0.53970588 0.51213235
0.52352941 0.54313725 0.51544118
0.52745098 0.54705882 0.5192402
0.54607843 0.56470588 0.53088235
0.56911765 0.58480392 0.54644608
0.61495098 0.62352941 0.57058824
0.67352941 0.67610294 0.60147059
0.72352941 0.71960784 0.63235294
0.64117647 0.64901961 0.58529412
0.6372549 0.64117647 0.58137255
0.63468137 0.64117647 0.58137255
0.62941176 0.6372549 0.58008578
0.64754902 0.65490196 0.58946078
0.66991422 0.67352941 0.60098039
0.69656863 0.69620098 0.61372549
0.74656863 0.73964461 0.640625
0.76911765 0.76078431 0.65490196
0.75294118 0.74509804 0.64705882
0.74901961 0.74509804 0.64656863
0.75294118 0.74509804 0.64705882
0.75686275 0.74901961 0.65098039
0.75686275 0.74901961 0.65098039
0.76470588 0.75686275 0.65098039
0.78431373 0.77352941 0.6627451
0.79607843 0.78431373 0.66666667
0.79215686 0.78039216 0.66666667
0.38039216 0.41176471 0.41176471
0.38431373 0.41568627 0.41568627
0.39509804 0.42352941 0.42254902
0.40392157 0.43137255 0.42745098
0.41715686 0.44289216 0.4370098
0.45214461 0.47567402 0.46390931
0.49987745 0.51948529 0.49865196
0.56476716 0.57696078 0.53817402
0.63088235 0.63872549 0.58039216
0.38823529 0.41960784 0.41568627
0.38823529 0.41960784 0.41954657
0.39607843 0.42732843 0.42352941
0.40392157 0.43137255 0.42745098
0.41715686 0.44289216 0.4372549
0.45588235 0.47941176 0.46421569
0.4995098 0.51948529 0.49627757
0.56127451 0.57658548 0.53769148
0.63045343 0.63829657 0.58039216
0.39607843 0.42732843 0.42352941
0.39473039 0.42352941 0.42340686
0.39901961 0.42745098 0.42352941
0.40784314 0.43529412 0.43137255
0.42536765 0.4526348 0.44485294
0.45405944 0.47909007 0.46403186
0.50343137 0.52303922 0.49865196
0.56519608 0.58088235 0.54123775
0.62696078 0.63480392 0.57990196
0.41029412 0.44166667 0.43382353
0.40637255 0.4377451 0.4312117
0.40341605 0.43382353 0.42905944
0.42267923 0.44833027 0.442356
0.4393076 0.46559436 0.45588235
0.47016697 0.49282322 0.47591146
0.51127451 0.53056066 0.50540748
0.5719133 0.58529412 0.54515931
0.64509804 0.6504902 0.5903799
0.43333333 0.4625 0.45098039
0.43333333 0.46078431 0.45098039
0.4372549 0.46470588 0.45294118
0.44224877 0.46593137 0.45612745
0.46164216 0.48517157 0.47156863
0.4895527 0.50931373 0.49077819
0.525 0.54117647 0.51666667
0.57331495 0.58875613 0.54779412
0.64166667 0.64926471 0.58872549
0.48529412 0.50863971 0.4877451
0.4812117 0.50332414 0.48537837
0.47708333 0.4995098 0.48382353
0.48529412 0.50704657 0.4877451
0.49598652 0.51559436 0.49558824
0.52666973 0.54540441 0.51666667
0.573269 0.58685662 0.54705882
0.62261029 0.63098958 0.5745098
0.66617647 0.67224265 0.60147059
0.55441176 0.57022059 0.53394608
0.54754902 0.56360294 0.53013174
0.54690564 0.56302083 0.52938113
0.54754902 0.56230086 0.53002451
0.56127451 0.57340686 0.53719363
0.58823529 0.60036765 0.55592831
0.63023897 0.63786765 0.57907475
0.68045343 0.68131127 0.60539216
0.72745098 0.72352941 0.63235294
0.65245098 0.65680147 0.59264706
0.64852941 0.65331648 0.58921569
0.64852941 0.6528799 0.58921569
0.64852941 0.6528799 0.58921569
0.6625 0.66617647 0.59727328
0.67979473 0.68134957 0.60602788
0.71311275 0.71155025 0.62521446
0.75130208 0.74656863 0.64449295
0.77254902 0.76127451 0.65539216
0.76029412 0.74901961 0.6504902
0.7598652 0.75202206 0.6504902
0.75686275 0.75 0.64803922
0.75294118 0.74509804 0.64705882
0.75098039 0.74509804 0.64705882
0.77009804 0.76078431 0.65490196
0.79215686 0.78039216 0.66666667
0.79607843 0.78431373 0.66666667
0.7877451 0.77647059 0.6627451
0.39509804 0.42254902 0.42254902
0.39509804 0.42598039 0.42254902
0.4 0.43039216 0.42647059
0.40392157 0.43382353 0.42745098
0.43088235 0.45686275 0.44901961
0.4692402 0.49166667 0.47892157
0.52254902 0.53897059 0.51372549
0.58431373 0.59607843 0.55257353
0.64607843 0.65 0.58823529
0.40257353 0.43125 0.42745098
0.40289522 0.43125 0.42745098
0.40358456 0.43137255 0.42745098
0.40945159 0.43713235 0.43137255
0.43627451 0.46066176 0.45238971
0.47205882 0.49460784 0.47958027
0.52598039 0.54215686 0.51397059
0.5933364 0.60392157 0.5575674
0.66262255 0.66654412 0.59987745
0.41151961 0.44215686 0.4375
0.41151961 0.44151348 0.43507966
0.41023284 0.43823529 0.43357843
0.42107843 0.44779412 0.44022672
0.44803922 0.47230392 0.46029412
0.48223039 0.50401348 0.48602941
0.52965686 0.5466299 0.51764706
0.59286152 0.60526961 0.55772059
0.66397059 0.66936275 0.5997549
0.42928922 0.45845588 0.44889706
0.42558211 0.45476409 0.44669118
0.42454044 0.45272672 0.44276961
0.43737745 0.46375613 0.45212929
0.45980392 0.48333333 0.46844363
0.49460784 0.51666667 0.49460784
0.53786765 0.5557598 0.52438725
0.59656863 0.60833333 0.56132047
0.67107843 0.675 0.60502451
0.45588235 0.48333333 0.46764706
0.45588235 0.48143382 0.46764706
0.45784314 0.48333333 0.46764706
0.46464461 0.4872549 0.47156863
0.47745098 0.5002451 0.48259804
0.50514706 0.52653186 0.50275735
0.55453431 0.56764706 0.53382353
0.61323529 0.62346814 0.57077206
0.65294118 0.65735294 0.59411765
0.51176471 0.53137255 0.50281863
0.50784314 0.52775735 0.50281863
0.50621936 0.52598039 0.50245098
0.51398591 0.53137255 0.50637255
0.52248775 0.53995098 0.51421569
0.54852941 0.56421569 0.53137255
0.59105392 0.60410539 0.55931373
0.64607843 0.65245098 0.58929228
0.69509804 0.69571078 0.61617647
0.58137255 0.59411765 0.55
0.57757353 0.59313725 0.54926471
0.57800245 0.5901348 0.54926471
0.57843137 0.59004289 0.54926471
0.58382353 0.59558824 0.55392157
0.61283701 0.62215074 0.5731924
0.65300245 0.6591299 0.59393382
0.6966299 0.6966299 0.61712623
0.74534314 0.73823529 0.64313725
0.67401961 0.67794118 0.60392157
0.66248468 0.66726409 0.59963235
0.66715686 0.67107843 0.60085784
0.675 0.675 0.60355392
0.67898284 0.68118873 0.60876225
0.69669118 0.69889706 0.61776961
0.72745098 0.72647059 0.63514093
0.7504902 0.74640012 0.64411765
0.77696078 0.76911765 0.65882353
0.75784314 0.75 0.65098039
0.76127451 0.75294118 0.65098039
0.76078431 0.75294118 0.65098039
0.76764706 0.75735294 0.65490196
0.76470588 0.75686275 0.65392157
0.77585784 0.76801471 0.65821078
0.78823529 0.78039216 0.66495098
0.80392157 0.79252451 0.67058824
0.80392157 0.79215686 0.67058824
0.42598039 0.45343137 0.44558824
0.42990196 0.45704657 0.4495098
0.42659314 0.45343137 0.44558824
0.43088235 0.4588848 0.4471201
0.45269608 0.47892157 0.46323529
0.49019608 0.50980392 0.49411765
0.5495098 0.56127451 0.52928922
0.61519608 0.62303922 0.56942402
0.67696078 0.67696078 0.60637255
0.42990196 0.45735294 0.4495098
0.43382353 0.45847886 0.45285692
0.43382353 0.46078431 0.45137868
0.43901654 0.46422335 0.45324755
0.45667892 0.48020833 0.46780025
0.49540441 0.51501225 0.49639246
0.55343137 0.56876532 0.53316483
0.62330729 0.63088235 0.57565104
0.68823529 0.68841912 0.61390931
0.43321078 0.46127451 0.45281863
0.4376685 0.46511949 0.45439645
0.44157475 0.46519608 0.45719975
0.4532935 0.47682292 0.46519608
0.47028186 0.49178922 0.47720588
0.5105239 0.5294424 0.50588235
0.56311275 0.57696078 0.54068627
0.63118873 0.63872549 0.57982537
0.7004902 0.7004902 0.62205882
0.44859069 0.47604167 0.46427696
0.44803922 0.47414982 0.46219363
0.44457721 0.47202819 0.45919118
0.46652114 0.49025735 0.47457108
0.48921569 0.50974265 0.48995098
0.52606464 0.54509804 0.51764706
0.57303922 0.58858762 0.54852941
0.64117647 0.64656863 0.5872549
0.7004902 0.70104167 0.62205882
0.48480392 0.50637255 0.4875
0.48480392 0.50701593 0.48676471
0.48676471 0.50906863 0.48823529
0.49779412 0.5176777 0.4950674
0.5189951 0.53639706 0.51029412
0.54705882 0.5627451 0.53091299
0.59068627 0.60245098 0.55906863
0.65245098 0.65637255 0.59322917
0.71348039 0.71151961 0.62794118
0.53480392 0.55196078 0.52003676
0.53872549 0.55521599 0.5221201
0.53872549 0.55680147 0.52395833
0.54867494 0.56378676 0.52941176
0.56498162 0.57870711 0.54117647
0.58333333 0.59509804 0.55349265
0.6209712 0.62941176 0.57653186
0.67560509 0.67929688 0.60741422
0.73033088 0.72640931 0.63529412
0.61715686 0.62794118 0.57022059
0.61323529 0.62401961 0.56911765
0.61617647 0.625 0.57242647
0.61715686 0.62794118 0.57414216
0.62132353 0.62971814 0.57720588
0.64016544 0.64693627 0.58829657
0.66813725 0.67316176 0.60168505
0.70646446 0.70638787 0.62107843
0.75392157 0.74607843 0.64705882
0.70557598 0.70557598 0.62273284
0.69803922 0.69820006 0.61881127
0.69773284 0.69773284 0.62009804
0.69773284 0.69773284 0.62009804
0.69803922 0.6997549 0.62040441
0.71267616 0.71256127 0.62725184
0.73788297 0.73524816 0.63970588
0.76078431 0.75422794 0.64803922
0.78333333 0.77303922 0.65931373
0.76323529 0.75539216 0.65098039
0.77058824 0.76060049 0.65490196
0.76960784 0.76139706 0.65551471
0.76862745 0.76078431 0.65490196
0.78284314 0.775 0.6627451
0.78578431 0.77794118 0.6627451
0.79607843 0.78431373 0.66666667
0.80784314 0.79607843 0.67107843
0.80784314 0.79607843 0.6745098
0.45294118 0.47647059 0.46862745
0.46421569 0.48431373 0.47426471
0.4745098 0.49558824 0.48039216
0.49656863 0.51617647 0.49338235
0.50686275 0.5254902 0.50196078
0.51911765 0.53676471 0.51323529
0.57696078 0.58823529 0.54852941
0.64828431 0.65392157 0.58897059
0.71176471 0.70784314 0.6254902
0.46078431 0.48602941 0.47254902
0.46816789 0.48823529 0.47647059
0.47395833 0.49356618 0.48039216
0.49157475 0.50995711 0.49142157
0.5060049 0.52267157 0.50098039
0.53137255 0.54715074 0.51951593
0.58866422 0.59993873 0.55569853
0.65762868 0.66151961 0.59460784
0.71936275 0.71740196 0.63112745
0.46666667 0.49166667 0.47843137
0.4745098 0.49797794 0.48357843
0.48737745 0.50735294 0.49117647
0.50042892 0.51856618 0.49932598
0.51323529 0.53161765 0.50833333
0.53805147 0.55692402 0.52665441
0.60318627 0.61470588 0.56556373
0.67310049 0.67518382 0.60416667
0.73529412 0.73088235 0.63921569
0.48088235 0.50441176 0.4875
0.49001225 0.51354167 0.49322917
0.50196078 0.52248775 0.50091912
0.51786152 0.53578431 0.51148897
0.53615196 0.55122549 0.52414216
0.56516544 0.58039216 0.54313725
0.62310049 0.63063725 0.57794118
0.68912377 0.68872549 0.61421569
0.73529412 0.73137255 0.6372549
0.51372549 0.53333333 0.50882353
0.51397059 0.53345588 0.50980392
0.50980392 0.53088235 0.50882353
0.53578431 0.55147059 0.52401961
0.56568627 0.57794118 0.54313725
0.59595588 0.6067402 0.56029412
0.64068627 0.64730392 0.5872549
0.69791667 0.69681373 0.61813725
0.74019608 0.73529412 0.64019608
0.55931373 0.57426471 0.5375
0.56568627 0.58137255 0.54206495
0.57291667 0.58529412 0.54534314
0.58532475 0.59782475 0.55291054
0.60906863 0.61691176 0.56715686
0.62794118 0.63477328 0.57717525
0.66268382 0.66660539 0.59748775
0.71243873 0.71011029 0.6247549
0.74779412 0.73995098 0.64313725
0.6504902 0.65588235 0.59215686
0.64411765 0.65153186 0.58823529
0.64705882 0.65416667 0.58970588
0.65827206 0.6627451 0.59558824
0.66740196 0.67034314 0.6
0.67898284 0.68063725 0.60686275
0.69620098 0.69730392 0.61519608
0.72591912 0.72457108 0.63229167
0.76519608 0.75735294 0.65147059
0.72671569 0.7245098 0.63382353
0.72129289 0.72058824 0.63186275
0.72058824 0.71862745 0.63186275
0.73106618 0.72769608 0.63397672
0.73627451 0.73235294 0.63786765
0.73627451 0.73235294 0.63783701
0.75416667 0.74828431 0.6473652
0.77769608 0.76789216 0.65738358
0.79264706 0.78088235 0.66495098
0.79411765 0.78235294 0.66666667
0.78627451 0.77647059 0.6625
0.78823529 0.77647059 0.6627451
0.79607843 0.78431373 0.66666667
0.7872549 0.77647059 0.6627451
0.79215686 0.78308824 0.66666667
0.8 0.78823529 0.67058824
0.80784314 0.79607843 0.6745098
0.80784314 0.79607843 0.6745098
0.53137255 0.5495098 0.51666667
0.54166667 0.55686275 0.52401961
0.55735294 0.56911765 0.53235294
0.5754902 0.58633578 0.54356618
0.58872549 0.59779412 0.55196078
0.5971201 0.60680147 0.55980392
0.6377451 0.64522059 0.58431373
0.69558824 0.69754902 0.61519608
0.74803922 0.74264706 0.64460784
0.54509804 0.56078431 0.52794118
0.5495098 0.5651731 0.5303079
0.56061581 0.57259498 0.5339614
0.5754902 0.5872549 0.54411765
0.59436275 0.60431985 0.55695466
0.60802696 0.61746324 0.56653646
0.64500613 0.65075061 0.58676471
0.69916513 0.69803922 0.61764706
0.75569853 0.75018382 0.64852941
0.55735294 0.57598039 0.53627451
0.56029412 0.57487745 0.53627451
0.56495098 0.57696078 0.54010417
0.57810968 0.58987439 0.54803922
0.59656863 0.60833333 0.56127451
0.60957414 0.62078738 0.56856618
0.65242034 0.65772059 0.59142157
0.71321998 0.71136642 0.6254902
0.75441176 0.74693627 0.64705882
0.57156863 0.5872549 0.54411765
0.57518382 0.58817402 0.54645374
0.57696078 0.58987439 0.54918811
0.58817402 0.59924939 0.55588235
0.61001838 0.61862745 0.56963848
0.62681526 0.63465839 0.5777114
0.68039216 0.6814951 0.60882353
0.72470895 0.71991422 0.63174786
0.76470588 0.75778186 0.65098039
0.58872549 0.6004902 0.55588235
0.58995098 0.60171569 0.55588235
0.59246324 0.60422794 0.55857843
0.60882353 0.61862745 0.56813725
0.62818627 0.63529412 0.57830882
0.65220588 0.65735294 0.59117647
0.69779412 0.69779412 0.61813725
0.73823529 0.73422181 0.63832721
0.77009804 0.76078431 0.65490196
0.61072304 0.62009804 0.56856618
0.61145067 0.62401961 0.57156863
0.61659007 0.62794118 0.57526042
0.63670343 0.64512102 0.58298866
0.66246936 0.6661152 0.59705882
0.68557751 0.68789062 0.60929075
0.71478248 0.71464461 0.62575061
0.75146293 0.74541207 0.64491422
0.77310049 0.76317402 0.65490196
0.68615196 0.68970588 0.61311275
0.67892157 0.68247549 0.60919118
0.68504902 0.68651961 0.61090686
0.69823836 0.69823836 0.61758578
0.71256127 0.71151961 0.62352941
0.73016238 0.72807904 0.63382353
0.7439951 0.74007353 0.64093137
0.76752451 0.75968137 0.65275735
0.78247549 0.77291667 0.66029412
0.74393382 0.73970588 0.64362745
0.74362745 0.73839614 0.64362745
0.74718137 0.74185049 0.64362745
0.75140165 0.74355852 0.64502911
0.76387868 0.75514706 0.6513174
0.77136949 0.7627451 0.65508578
0.77843137 0.77058824 0.65900735
0.79438572 0.78262102 0.66668964
0.80018382 0.78823529 0.66844363
0.79607843 0.78431373 0.66666667
0.8 0.78823529 0.67058824
0.80453431 0.79276961 0.6745098
0.80392157 0.78970588 0.67205882
0.80392157 0.78970588 0.67205882
0.80447304 0.79215686 0.67205882
0.80784314 0.79362745 0.6745098
0.81176471 0.79607843 0.6745098
0.81176471 0.79607843 0.6745098
0.63921569 0.64607843 0.58235294
0.64313725 0.65 0.58590686
0.65318627 0.65612745 0.58995098
0.66568627 0.66752451 0.59767157
0.68137255 0.68137255 0.60735294
0.69914216 0.70036765 0.61875
0.72941176 0.72843137 0.63627451
0.75428922 0.74914216 0.64718137
0.77254902 0.76470588 0.65490196
0.64607843 0.65379902 0.58884804
0.65 0.65392157 0.59019608
0.65848652 0.66176471 0.59368873
0.66942402 0.66960784 0.59964767
0.6846201 0.68480392 0.61109069
0.70036765 0.70036765 0.62058824
0.7245098 0.72095588 0.63238358
0.75833333 0.7504902 0.64840686
0.77647059 0.7682598 0.65882353
0.65392157 0.66176471 0.59411765
0.65857843 0.66534926 0.59696691
0.66550245 0.66862745 0.59803922
0.67745098 0.67974877 0.60588235
0.69031863 0.69178922 0.61629902
0.70082721 0.70036765 0.62058824
0.71838235 0.71666667 0.62843137
0.75450368 0.75039828 0.64718137
0.78137255 0.77254902 0.65882353
0.66568627 0.66960784 0.60098039
0.66942402 0.67348346 0.60196078
0.67564338 0.67882966 0.60588235
0.68428309 0.68644301 0.6123315
0.69601716 0.69656863 0.61715686
0.71320466 0.71199449 0.62487745
0.73198529 0.72791054 0.63517157
0.76078431 0.75294118 0.64840686
0.78431373 0.77352941 0.65943627
0.67352941 0.67745098 0.60588235
0.67481618 0.67873775 0.60588235
0.6807598 0.68431373 0.60980392
0.69142157 0.69338235 0.61666667
0.70441176 0.70514706 0.62083333
0.72083333 0.72034314 0.62879902
0.74754902 0.7435049 0.64375
0.77009804 0.76354167 0.65490196
0.78431373 0.77352941 0.65980392
0.68970588 0.69362745 0.61666667
0.68578431 0.68938419 0.61292892
0.69126838 0.69298407 0.61605392
0.70692402 0.70761336 0.62265625
0.72303922 0.72285539 0.63112745
0.74215686 0.73892463 0.64074755
0.7643076 0.75992647 0.65223652
0.77882966 0.76974571 0.65886949
0.78921569 0.77745098 0.6627451
0.72769608 0.7252451 0.63333333
0.71314338 0.71311275 0.62576593
0.71476716 0.71470588 0.62714461
0.73811275 0.73419118 0.63716299
0.75857843 0.75294118 0.64889706
0.77561275 0.76776961 0.65744485
0.78308824 0.77506127 0.66109069
0.79390319 0.78210784 0.66666667
0.8002451 0.78602941 0.66838235
0.77022059 0.7622549 0.65539216
0.76230086 0.75445772 0.6511489
0.75879289 0.7528799 0.64828431
0.78080576 0.77201287 0.65984988
0.79754902 0.78566176 0.66801471
0.79742647 0.78566176 0.66801471
0.8010723 0.78866422 0.67058824
0.81178002 0.79620098 0.6745098
0.8127451 0.79742647 0.6745098
0.8127451 0.79705882 0.6754902
0.80404412 0.79215686 0.67107843
0.80392157 0.79215686 0.67058824
0.81421569 0.8 0.67696078
0.81568627 0.8 0.67843137
0.81568627 0.8 0.67732843
0.81568627 0.8 0.67843137
0.81568627 0.8 0.67843137
0.81568627 0.8 0.67843137
0.73039216 0.72303922 0.63186275
0.73780637 0.73082108 0.63621324
0.74509804 0.73823529 0.64264706
0.75784314 0.75 0.65147059
0.76519608 0.75735294 0.65490196
0.77303922 0.76305147 0.65667892
0.77696078 0.76911765 0.65931373
0.77696078 0.76911765 0.65931373
0.78480392 0.77303922 0.6627451
0.74258578 0.73780637 0.6401348
0.74656097 0.74172794 0.64362745
0.75617341 0.74833027 0.64754902
0.76174173 0.75343137 0.65147059
0.76544118 0.75735294 0.65318627
0.77349112 0.76519608 0.65667892
0.77708333 0.76911765 0.65931373
0.78480392 0.77341452 0.6627451
0.79215686 0.78082108 0.66623775
0.75833333 0.75392157 0.65159314
0.75784314 0.75 0.64889706
0.76519608 0.75735294 0.65539216
0.76783088 0.75784314 0.65539216
0.77653186 0.76519608 0.65796569
0.77745098 0.7682598 0.65905331
0.77696078 0.76568627 0.65818015
0.78540135 0.77696078 0.6627451
0.8004902 0.78872549 0.66973039
0.75018382 0.74607843 0.64509804
0.74983915 0.74215686 0.64362745
0.75562194 0.74992341 0.64754902
0.76096048 0.75300245 0.65066636
0.7752451 0.76528799 0.65603554
0.78088235 0.76942402 0.65931373
0.78088235 0.77156863 0.65931373
0.79136029 0.78088235 0.66307445
0.80441176 0.79264706 0.67058824
0.75392157 0.74607843 0.64754902
0.75 0.74215686 0.64362745
0.7504902 0.74607843 0.6439951
0.75784314 0.7510723 0.64754902
0.76960784 0.76151961 0.65514706
0.78250613 0.77386642 0.66060049
0.78872549 0.78069853 0.66323529
0.79656863 0.78523284 0.66672794
0.80441176 0.79215686 0.67058824
0.76176471 0.75392157 0.65147059
0.75147059 0.74607843 0.64509804
0.75330882 0.7470435 0.64633885
0.76256893 0.7566636 0.65055147
0.77588848 0.76804534 0.65603554
0.78535539 0.77751225 0.66292892
0.79264706 0.78288909 0.66666667
0.80067402 0.78872549 0.67058824
0.80802696 0.79264706 0.67107843
0.78235294 0.77401961 0.66017157
0.76939338 0.76155025 0.65245098
0.76568627 0.75870098 0.65147059
0.78472733 0.77660846 0.66185662
0.79754902 0.78578431 0.66758578
0.80441176 0.79264706 0.67084865
0.80796569 0.7935049 0.67193627
0.81355699 0.80012255 0.67585784
0.81703431 0.8004902 0.67843137
0.8004902 0.78823529 0.67058824
0.78969822 0.78093597 0.66366422
0.78137255 0.77303922 0.6588848
0.79947151 0.7877068 0.66726409
0.81182598 0.79699755 0.6745098
0.8122549 0.79699755 0.67457108
0.81660539 0.80091912 0.67843137
0.82353707 0.80784314 0.68235294
0.82352941 0.80784314 0.68235294
0.80735294 0.79215686 0.6745098
0.81170343 0.79607843 0.6745098
0.81213235 0.8 0.6745098
0.81960784 0.80422794 0.67843137
0.82181373 0.80441176 0.67843137
0.82352941 0.80784314 0.68235294
0.82401961 0.80784314 0.68235294
0.82352941 0.80784314 0.68235294
0.82352941 0.80784314 0.68235294
0.81568627 0.8 0.67843137
0.79215686 0.78039216 0.66666667
0.79117647 0.77941176 0.66568627
0.81421569 0.79852941 0.67696078
0.80392157 0.79019608 0.67058824
0.80931373 0.79607843 0.6745098
0.81862745 0.80294118 0.67843137
0.80735294 0.79215686 0.6745098
0.80392157 0.78823529 0.67058824
0.78872549 0.77696078 0.66666667
0.79607843 0.78474265 0.67015931
0.79987745 0.78823529 0.67046569
0.80392157 0.79215686 0.67058824
0.79656863 0.78431373 0.66691176
0.8091299 0.79362745 0.6745098
0.81568627 0.8 0.67843137
0.81176471 0.79607843 0.6745098
0.80784314 0.79607843 0.67401961
0.77941176 0.77156863 0.66176471
0.79852941 0.78676471 0.66960784
0.81470588 0.80073529 0.67843137
0.8 0.78823529 0.67058824
0.79558824 0.78235294 0.66666667
0.81568627 0.8 0.67843137
0.81568627 0.8 0.67843137
0.81862745 0.80392157 0.67830882
0.82254902 0.80686275 0.67843137
0.81176471 0.79607843 0.6745098
0.8158701 0.80018382 0.67843137
0.81176471 0.79607843 0.6745098
0.80637255 0.79215686 0.67150735
0.81176471 0.79803922 0.67647059
0.81960784 0.80392157 0.67935049
0.81568627 0.80392157 0.67843137
0.82352941 0.80784314 0.67843137
0.82745098 0.81176471 0.68235294
0.80588235 0.79215686 0.67058824
0.80392157 0.79215686 0.67058824
0.81176471 0.79607843 0.6745098
0.80857843 0.79607843 0.6745098
0.80392157 0.79215686 0.67058824
0.8125 0.8 0.6745098
0.81176471 0.8 0.6745098
0.81960784 0.80392157 0.67843137
0.82352941 0.80784314 0.67843137
0.80392157 0.79215686 0.67058824
0.8036152 0.78952206 0.67058824
0.80784314 0.79607843 0.67169118
0.81176471 0.8 0.6745098
0.80931373 0.79607843 0.6745098
0.81807598 0.80392157 0.67843137
0.81960784 0.80502451 0.67843137
0.82371324 0.80784314 0.68020833
0.82745098 0.80784314 0.68235294
0.80392157 0.79215686 0.67058824
0.80392157 0.79215686 0.67058824
0.81102941 0.8 0.6745098
0.81960784 0.8057598 0.67843137
0.81960784 0.80441176 0.67843137
0.82745098 0.81176471 0.68235294
0.82745098 0.81176471 0.68235294
0.83529412 0.81568627 0.68627451
0.83235294 0.81568627 0.68627451
0.8 0.78823529 0.67058824
0.80735294 0.79558824 0.67058824
0.81568627 0.80306373 0.6745098
0.82352941 0.80784314 0.67843137
0.82352941 0.80784314 0.67843137
0.82745098 0.81176471 0.68235294
0.83137255 0.81176471 0.68370098
0.83137255 0.81176471 0.68627451
0.83137255 0.81176471 0.68627451
0.8 0.78823529 0.67058824
0.80784314 0.79558824 0.67058824
0.82254902 0.80686275 0.67843137
0.83137255 0.81568627 0.68235294
0.82745098 0.81176471 0.68235294
0.83284314 0.81568627 0.68627451
0.83431373 0.81568627 0.68627451
0.83137255 0.81176471 0.68627451
0.83137255 0.81176471 0.68627451
