site/assets/luts/sha256-881f1d7dafc1d93eb76a4278a3b5cd9a24f7e5967268a62b4fd027eebb938847.cube
# LUTr-Schema-Version: 2
# LUTr-ID: sha256-881f1d7dafc1d93eb76a4278a3b5cd9a24f7e5967268a62b4fd027eebb938847
# LUTr-Title: polaroid px-680 warm +
# LUTr-Collection: Natron HaldCLUT
# LUTr-Collection-ID: natron-haldclut-presets
# LUTr-Source: https://github.com/NatronGitHub/clut
# LUTr-Retrieved: 2026-07-27
# LUTr-Source-File: submissions/natron-haldclut-presets/instant_consumer/polaroid_px-680_warm_+.png
# LUTr-Source-Format: HALD-PNG
# LUTr-Source-SHA256: 881f1d7dafc1d93eb76a4278a3b5cd9a24f7e5967268a62b4fd027eebb938847
# LUTr-License: CC-BY-SA-4.0
# LUTr-License-URL: https://github.com/NatronGitHub/clut#license
# LUTr-License-Basis: repo-license-file
# LUTr-Transform-Class: film-emulation
# LUTr-Tags: creative, film, film-emulation, hald-clut, natron, png, warm, cube
# LUTr-Input-Color-Space: srgb
# LUTr-Input-Gamut: rec709
# LUTr-Input-Transfer: srgb
# LUTr-Output-Color-Space: srgb
# LUTr-Output-Gamut: rec709
# LUTr-Output-Transfer: srgb
# LUTr-Color-Space-Confidence: assumed-display-referred
# LUTr-Domain-Normalized: true
# LUTr-Shaper: none
# LUTr-Original-Grid: 64x64x64
# LUTr-Conversion-Grid: 25x25x25
# LUTr-Conversion-Interpolation: trilinear
# LUTr-Conversion-Method: HALD-PNG LUT image decoded at 16-bit and sampled to 25x25x25 3D CUBE
# LUTr-Conversion-Tool: LUTr scripts/convert-all-to-cube.mjs 2.0.0
# LUTr-Conversion-Date: 2026-07-27
# LUTr-Note: Preserve this metadata and the upstream license notices when redistributing.
TITLE "polaroid px-680 warm +"
LUT_3D_SIZE 9
DOMAIN_MIN 0 0 0
DOMAIN_MAX 1 1 1
0.31764706 0.23529412 0.1254902
0.31372549 0.23529412 0.1254902
0.33921569 0.23529412 0.1254902
0.39313725 0.23676471 0.11911765
0.54509804 0.24901961 0.11372549
0.70392157 0.26813725 0.10196078
0.83333333 0.31568627 0.10294118
0.91862745 0.39313725 0.1377451
0.94117647 0.41960784 0.15686275
0.31372549 0.25441176 0.1254902
0.32064951 0.25441176 0.1254902
0.34705882 0.25441176 0.12193627
0.42469363 0.25686275 0.12303922
0.55833333 0.26617647 0.10980392
0.70784314 0.28431373 0.10165441
0.83137255 0.34656863 0.1067402
0.91470588 0.41617647 0.14558824
0.96421569 0.48872549 0.1995098
0.30588235 0.2745098 0.12254902
0.325 0.28394608 0.12941176
0.35196078 0.28063725 0.12156863
0.44803922 0.30061275 0.11188725
0.58529412 0.31666667 0.10196078
0.7189951 0.34460784 0.10196078
0.82818627 0.3879902 0.091176471
0.90686275 0.45 0.14166667
0.94509804 0.49117647 0.17843137
0.30196078 0.34313725 0.12156863
0.325 0.35245098 0.1254902
0.36458333 0.36323529 0.1254902
0.45839461 0.38627451 0.11464461
0.61029412 0.42426471 0.079901961
0.71813725 0.43333333 0.074816176
0.81580882 0.45 0.075490196
0.89509804 0.49558824 0.12205882
0.94264706 0.55294118 0.19754902
0.29411765 0.44313725 0.11372549
0.32107843 0.44901961 0.12156863
0.35441176 0.45441176 0.11960784
0.44411765 0.47107843 0.11127451
0.57352941 0.5 0.1
0.70441176 0.53553922 0.081617647
0.80784314 0.55196078 0.093137255
0.87573529 0.55906863 0.11789216
0.93529412 0.61176471 0.20392157
0.30980392 0.54558824 0.1254902
0.32285539 0.55294118 0.12941176
0.36666667 0.55306373 0.13664216
0.44264706 0.56372549 0.13964461
0.55686275 0.59068627 0.15784314
0.67892157 0.62248775 0.16127451
0.78186275 0.65098039 0.17401961
0.85802696 0.66341912 0.2127451
0.89411765 0.675 0.24509804
0.35 0.64607843 0.17058824
0.35441176 0.64607843 0.16666667
0.4 0.64534314 0.18235294
0.46360294 0.65637255 0.20147059
0.54901961 0.675 0.22009804
0.65147059 0.69754902 0.24509804
0.74779412 0.72058824 0.26446078
0.83492647 0.75539216 0.32107843
0.88529412 0.78235294 0.36372549
0.4254902 0.73480392 0.25735294
0.44810049 0.73480392 0.27254902
0.4627451 0.7377451 0.26813725
0.5122549 0.74264706 0.29099265
0.59558824 0.76029412 0.32990196
0.66813725 0.77941176 0.36470588
0.74840686 0.79362745 0.3877451
0.80790441 0.81231618 0.42598039
0.84705882 0.82843137 0.47303922
0.56078431 0.83137255 0.41568627
0.56127451 0.82401961 0.40882353
0.57843137 0.82254902 0.41372549
0.6245098 0.8377451 0.44558824
0.67647059 0.85098039 0.47843137
0.72843137 0.86029412 0.50490196
0.77745098 0.87156863 0.54313725
0.8122549 0.87058824 0.56078431
0.85098039 0.89019608 0.62745098
0.31764706 0.23921569 0.13333333
0.31764706 0.23921569 0.13333333
0.33664216 0.23909314 0.13284314
0.41341912 0.23921569 0.13921569
0.5622549 0.23553922 0.14068627
0.71666667 0.27873775 0.13805147
0.83823529 0.34264706 0.15980392
0.91078431 0.42009804 0.20392157
0.96029412 0.48921569 0.2495098
0.31764706 0.25441176 0.1372549
0.32156863 0.25140931 0.13376225
0.35108762 0.2504902 0.13333333
0.42510723 0.2504902 0.13360141
0.57401961 0.26813725 0.14025735
0.72408088 0.30014553 0.13676471
0.83823529 0.36127451 0.15637255
0.91464461 0.4287454 0.19650735
0.95294118 0.50484069 0.25735294
0.31372549 0.28431373 0.1372549
0.32156863 0.28088235 0.13676471
0.36911765 0.2872549 0.13676471
0.45922181 0.30548407 0.13039216
0.59859069 0.32328431 0.12598039
0.73071385 0.35039828 0.1248315
0.83382353 0.40477941 0.15257353
0.91041667 0.46622243 0.18943015
0.95330882 0.53492647 0.2564951
0.31354167 0.35459559 0.13676471
0.33235294 0.36214767 0.14068627
0.37761949 0.36962316 0.14068627
0.46905637 0.38608303 0.13284314
0.60768995 0.40931373 0.12696078
0.72653186 0.43872549 0.1245098
0.82936581 0.46041667 0.12784926
0.89901961 0.51143536 0.18431373
0.93088235 0.54852941 0.22579657
0.325 0.45637255 0.14852941
0.33259804 0.46421569 0.14264706
0.38186275 0.47254902 0.14650735
0.46029412 0.48137255 0.14828431
0.59289216 0.51237745 0.14411765
0.71755515 0.55098039 0.1372549
0.81029412 0.5625 0.1463848
0.88091299 0.56541054 0.16492034
0.91421569 0.59828431 0.22328431
0.31893382 0.56096814 0.14871324
0.34803922 0.55735294 0.15782016
0.38204657 0.56288297 0.16078431
0.46434589 0.57537531 0.17089461
0.56844363 0.60196078 0.18651961
0.68517923 0.62941176 0.20085018
0.78921569 0.657981 0.22009804
0.85833333 0.66368719 0.24356618
0.90018382 0.675 0.26421569
0.35735294 0.65 0.18480392
0.38137255 0.6495098 0.20055147
0.4122549 0.64990809 0.20404412
0.47469363 0.66390931 0.22155331
0.55974265 0.68455882 0.24558824
0.65747549 0.70208333 0.26875
0.75490196 0.72843137 0.30147059
0.83147978 0.75098039 0.33900123
0.87745098 0.77156863 0.38026961
0.44509804 0.74264706 0.28780637
0.45331648 0.74264706 0.28560815
0.48235294 0.74656863 0.29558824
0.53529412 0.75392157 0.32156863
0.59926471 0.7620098 0.35098039
0.67420343 0.77783395 0.37189798
0.74460784 0.79448529 0.40686275
0.81273744 0.80968903 0.4372549
0.85747549 0.84319853 0.49515931
0.58382353 0.84656863 0.44215686
0.58431373 0.83921569 0.43872549
0.60196078 0.83823529 0.44166667
0.6372549 0.84295343 0.46047794
0.6745098 0.84313725 0.47647059
0.73088235 0.85539216 0.51158088
0.77757353 0.86801471 0.54656863
0.81617647 0.87493873 0.57303922
0.83578431 0.88235294 0.60392157
0.31764706 0.23921569 0.15196078
0.31372549 0.23529412 0.14117647
0.33921569 0.24142157 0.14705882
0.40870098 0.24068627 0.1622549
0.57058824 0.22647059 0.1745098
0.73468137 0.2495098 0.19558824
0.84117647 0.3372549 0.2375
0.91066176 0.4622549 0.30686275
0.94215686 0.53627451 0.35784314
0.31764706 0.25441176 0.16372549
0.33273591 0.2504902 0.15948223
0.35634191 0.25441176 0.15906863
0.43831189 0.26188725 0.17486213
0.58345588 0.27009804 0.18425245
0.73828125 0.30061275 0.21223958
0.83716299 0.38927696 0.25582108
0.91046262 0.4769761 0.30294118
0.94142157 0.54742647 0.35539216
0.31740196 0.27941176 0.16642157
0.34436275 0.29139093 0.17503064
0.38265931 0.3 0.1776348
0.47931985 0.31504289 0.18198529
0.61384804 0.33125 0.19117647
0.73912377 0.37438725 0.21550245
0.83431373 0.43823529 0.25612745
0.9028799 0.50465686 0.29987745
0.94117647 0.57034314 0.35
0.33627451 0.36531863 0.18909314
0.36153493 0.37205882 0.18909314
0.40281863 0.37818627 0.1895527
0.50110294 0.39522059 0.19558824
0.62291667 0.41176471 0.19166667
0.74215686 0.44068627 0.19594056
0.82647059 0.48370098 0.23397672
0.89094669 0.54362745 0.28872549
0.9372549 0.60147059 0.34154412
0.36029412 0.46862745 0.2004902
0.37279412 0.47254902 0.1995098
0.41666667 0.47610294 0.20392157
0.4838848 0.49007353 0.20808824
0.60735294 0.51715686 0.22254902
0.71764706 0.54356618 0.22665441
0.81066176 0.56764706 0.2504902
0.8778799 0.5879902 0.26715686
0.92303922 0.63382353 0.3254902
0.37843137 0.56703431 0.21421569
0.38814338 0.56934743 0.21519608
0.42389706 0.56887255 0.22251838
0.49411765 0.58333333 0.23333333
0.58676471 0.61029412 0.24926471
0.69644608 0.63688725 0.26856618
0.79362745 0.66504289 0.28786765
0.85833333 0.67107843 0.30614277
0.89656863 0.67745098 0.32156863
0.38651961 0.65392157 0.23431373
0.40870098 0.65784314 0.24304534
0.44828431 0.66078431 0.25784314
0.50588235 0.66960784 0.27778799
0.57598039 0.68480392 0.29534314
0.66617647 0.70147059 0.31519608
0.76041667 0.73063725 0.35294118
0.83137255 0.75539216 0.38186275
0.87058824 0.77156863 0.40196078
0.46323529 0.74656863 0.31470588
0.47575061 0.74656863 0.32287071
0.50701593 0.7504902 0.33688725
0.54901961 0.75525429 0.35637255
0.59754902 0.7622549 0.37205882
0.68236826 0.77530637 0.40548407
0.75147059 0.79411765 0.44080882
0.81272978 0.81323529 0.46813725
0.84411765 0.83333333 0.50012255
0.58823529 0.84705882 0.45784314
0.58566176 0.84056373 0.45147059
0.60269608 0.83823529 0.45294118
0.64129902 0.84313725 0.47377451
0.68235294 0.84901961 0.50147059
0.72696078 0.85098039 0.51764706
0.76960784 0.85416667 0.53627451
0.81617647 0.88529412 0.60110294
0.84215686 0.88235294 0.61568627
0.31764706 0.23529412 0.18676471
0.34577206 0.24313725 0.21648284
0.38762255 0.25281863 0.20772059
0.45392157 0.26764706 0.23333333
0.5627451 0.26519608 0.25
0.72107843 0.25545343 0.28333333
0.84460784 0.32414216 0.3127451
0.92028186 0.44099265 0.36942402
0.94117647 0.56764706 0.44705882
0.32401961 0.253125 0.21470588
0.34705882 0.25682445 0.22254902
0.39857537 0.27133885 0.22512255
0.46029412 0.28009344 0.23768382
0.59077819 0.29068627 0.26764706
0.74050245 0.31666667 0.29852941
0.84546569 0.38143382 0.33112745
0.90637255 0.49801624 0.40120251
0.93351716 0.58921569 0.45588235
0.3254902 0.30061275 0.23982843
0.35618873 0.30770527 0.24745711
0.41344975 0.31577819 0.25698529
0.51107537 0.34731924 0.27480086
0.62830882 0.3533701 0.29583333
0.74644608 0.39865196 0.32996324
0.83458946 0.4763174 0.37077206
0.89473039 0.56092218 0.4259038
0.92757353 0.62218137 0.46580882
0.34454657 0.3745098 0.2504902
0.37744332 0.38675705 0.26207108
0.43800551 0.40098039 0.27585784
0.52955729 0.42156863 0.29630821
0.64831495 0.4502451 0.31663603
0.74893536 0.49697457 0.34348192
0.8254902 0.53705576 0.37026654
0.88314185 0.5886106 0.40803462
0.92156863 0.64319853 0.45349265
0.38235294 0.46470588 0.26176471
0.40931373 0.47270221 0.26902574
0.4560049 0.48363971 0.28480392
0.53697917 0.51075368 0.31007966
0.63480392 0.54105392 0.32303922
0.73431373 0.57303922 0.33621324
0.81764706 0.5877451 0.35
0.87990196 0.62386642 0.38872549
0.91127451 0.66519608 0.425
0.45637255 0.58235294 0.30533088
0.46875766 0.58235294 0.31078431
0.49319853 0.5872549 0.31193321
0.54313725 0.60089614 0.32165288
0.61078431 0.62104779 0.33553922
0.70882353 0.64754902 0.35518536
0.79362745 0.66015625 0.37320772
0.8596201 0.67843903 0.39160539
0.89803922 0.68621324 0.39460784
0.46335784 0.66078431 0.32107843
0.47941176 0.66564032 0.32928922
0.49273897 0.66752451 0.32990196
0.53382353 0.67339154 0.33921569
0.60018382 0.68946078 0.35931373
0.68431373 0.71084559 0.38950674
0.77132353 0.73909314 0.42316176
0.83975184 0.76930147 0.4504902
0.87892157 0.77977941 0.46458333
0.49626225 0.74264706 0.36078431
0.50130974 0.74607843 0.36711857
0.52316176 0.7504902 0.37794118
0.56892616 0.7582644 0.40055913
0.62303922 0.76724877 0.42386642
0.68970588 0.78255208 0.45490196
0.75882353 0.80159314 0.47438725
0.81966912 0.82105545 0.50833333
0.853125 0.83480392 0.54626225
0.58431373 0.83137255 0.46666667
0.58370098 0.82683824 0.46409314
0.61041667 0.84497549 0.48272059
0.6377451 0.84313725 0.49209559
0.67843137 0.84509804 0.51176471
0.72843137 0.85637255 0.54356618
0.77745098 0.87058824 0.57647059
0.81617647 0.87077206 0.59705882
0.85245098 0.89166667 0.66029412
0.35686275 0.24901961 0.30588235
0.38137255 0.25637255 0.31372549
0.44754902 0.26960784 0.32107843
0.54338235 0.30441176 0.34828431
0.61960784 0.35196078 0.36568627
0.72794118 0.36004902 0.39289216
0.8245098 0.36176471 0.41862745
0.89877451 0.45073529 0.45343137
0.94313725 0.54117647 0.49019608
0.36666667 0.27769608 0.32892157
0.3872549 0.27898284 0.33262868
0.46194853 0.29852941 0.34368873
0.55735294 0.34117647 0.36283701
0.64264706 0.38664216 0.38210784
0.72735907 0.38063725 0.3981924
0.82579657 0.43229167 0.43253676
0.89678309 0.48529412 0.46495098
0.9372549 0.57573529 0.50931373
0.35931373 0.32696078 0.35980392
0.38964461 0.33204657 0.35980392
0.46764706 0.34803922 0.36764706
0.57279412 0.40098039 0.38731618
0.65637255 0.44019608 0.40784314
0.73694853 0.43658088 0.41966912
0.82561275 0.47107843 0.44705882
0.89136029 0.53805147 0.47849265
0.91617647 0.62107843 0.52647059
0.35539216 0.40931373 0.35955882
0.39132966 0.41461397 0.36461397
0.4620098 0.42671569 0.37886029
0.57720588 0.46151961 0.40683211
0.6745098 0.51838235 0.42769608
0.74439338 0.52769608 0.4455576
0.82156863 0.56194853 0.47205882
0.87573529 0.62401961 0.51265319
0.90392157 0.66666667 0.53480392
0.39607843 0.4872549 0.35196078
0.41544118 0.49227941 0.35906863
0.47352941 0.50465686 0.38137255
0.56029412 0.53088235 0.40441176
0.65490196 0.5627451 0.42745098
0.7442402 0.59852941 0.45539216
0.81960784 0.62598039 0.47892157
0.86629902 0.67120098 0.50735294
0.89901961 0.71176471 0.53921569
0.43627451 0.56397059 0.35441176
0.45695466 0.57352941 0.36632966
0.50220588 0.58382353 0.38033088
0.56715686 0.60594363 0.40272672
0.63590686 0.62781863 0.42389706
0.72647059 0.66004902 0.45588235
0.8004902 0.68186275 0.47401961
0.85802696 0.69476103 0.48005515
0.88284314 0.71568627 0.49779412
0.48921569 0.65735294 0.38333333
0.50496324 0.65974265 0.39332108
0.53039216 0.66556373 0.40208333
0.55980392 0.67408088 0.4067402
0.62745098 0.69436275 0.43651961
0.70661765 0.72107843 0.46893382
0.77843137 0.74129902 0.48970588
0.83878676 0.76544118 0.51219363
0.86029412 0.77156863 0.51960784
0.54411765 0.74264706 0.42843137
0.55560662 0.74656863 0.43820466
0.56734069 0.75042892 0.44430147
0.59730392 0.76078431 0.45916054
0.64362745 0.77193627 0.47254902
0.70235907 0.78547794 0.50269608
0.77248775 0.80588235 0.53921569
0.82359069 0.83278186 0.56397059
0.84313725 0.83970588 0.5754902
0.59803922 0.83333333 0.50392157
0.60980392 0.84509804 0.51740196
0.61470588 0.83529412 0.51568627
0.6377451 0.84166667 0.52205882
0.67941176 0.85 0.5372549
0.73480392 0.8627451 0.5745098
0.77401961 0.86666667 0.59852941
0.8122549 0.8747549 0.62794118
0.82941176 0.8745098 0.63921569
0.40686275 0.27205882 0.4504902
0.4504902 0.29656863 0.45422794
0.52193627 0.31237745 0.46580882
0.61029412 0.35238971 0.48339461
0.69436275 0.45392157 0.49460784
0.75882353 0.50686275 0.50876225
0.80441176 0.4942402 0.52303922
0.87401961 0.51617647 0.53952206
0.91617647 0.53382353 0.55343137
0.43351716 0.31207108 0.46832108
0.45075827 0.30988817 0.47254902
0.526394 0.33872549 0.47558211
0.61636029 0.38901654 0.49019608
0.7 0.48088235 0.50759804
0.76353401 0.53235294 0.51960784
0.80588235 0.50882353 0.52561275
0.87401961 0.53792892 0.54607843
0.90833333 0.57959559 0.56764706
0.41862745 0.35919118 0.48039216
0.45258885 0.36942402 0.48031556
0.52558211 0.39188113 0.4879902
0.62519914 0.44155944 0.50531556
0.71004902 0.52426471 0.51868873
0.76413909 0.56571691 0.53137255
0.81510417 0.55885417 0.53728554
0.86804534 0.57535233 0.55553002
0.90257353 0.62401961 0.58272059
0.38927696 0.43474265 0.47009804
0.42609528 0.43866422 0.47535999
0.51519608 0.45568321 0.49417892
0.61421569 0.49810049 0.50971967
0.70566789 0.57058824 0.52794118
0.76427696 0.61355699 0.54313725
0.81482843 0.60825674 0.55381434
0.86365656 0.62713695 0.56695772
0.88327206 0.6495098 0.57941176
0.40588235 0.5125 0.46323529
0.42769608 0.5125 0.45931373
0.47916667 0.51813725 0.47028186
0.58455882 0.55143995 0.49509804
0.68321078 0.59828431 0.51838235
0.75119485 0.64166667 0.54678309
0.81691176 0.65851716 0.56580882
0.8625 0.68063725 0.58186275
0.88823529 0.72745098 0.61397059
0.43976716 0.58480392 0.45
0.45441176 0.58088235 0.44607843
0.49607843 0.5877451 0.45709252
0.57387408 0.60931373 0.48024663
0.65640319 0.63431373 0.50413603
0.74466912 0.67534467 0.54313725
0.80905331 0.7006587 0.56395527
0.85147059 0.7254902 0.57715993
0.87058824 0.75680147 0.60686275
0.45943627 0.64178922 0.43039216
0.47329963 0.6470435 0.43484988
0.50833333 0.65530025 0.44451593
0.57875306 0.67513787 0.4722886
0.65667892 0.70012255 0.50502451
0.72643995 0.72830882 0.53967525
0.79114583 0.75079657 0.56372549
0.8410386 0.76844363 0.57647059
0.87205882 0.77990196 0.57610294
0.50833333 0.73529412 0.47322304
0.51976869 0.73743873 0.47303922
0.55121017 0.74287684 0.49166667
0.60521599 0.75605852 0.50686275
0.6629902 0.77196691 0.52711397
0.7198989 0.78921569 0.55814951
0.7745098 0.80926777 0.58903186
0.82401961 0.83208487 0.62007506
0.8504902 0.83627451 0.62745098
0.58823529 0.83921569 0.55196078
0.5995098 0.83921569 0.55441176
0.61568627 0.83921569 0.5564951
0.64650735 0.84460784 0.56617647
0.67892157 0.85220588 0.57328431
0.72843137 0.85245098 0.59901961
0.77352941 0.86605392 0.62928922
0.81243873 0.87947304 0.66544118
0.83137255 0.88235294 0.67598039
0.50196078 0.34509804 0.58039216
0.53186275 0.34448529 0.58823529
0.59215686 0.37843137 0.58823529
0.66813725 0.43811275 0.59509804
0.74264706 0.51421569 0.60686275
0.79460784 0.61997549 0.61470588
0.81985294 0.63921569 0.62328431
0.85968137 0.63443627 0.63431373
0.88137255 0.63823529 0.6372549
0.52058824 0.37058824 0.59215686
0.54195772 0.37961091 0.59509804
0.59672181 0.40441176 0.59923407
0.67598039 0.46617647 0.60183824
0.74589461 0.54632353 0.61078431
0.79460784 0.63324142 0.6217065
0.82515319 0.6575674 0.62647059
0.85153186 0.6466299 0.63431373
0.88480392 0.65735294 0.64509804
0.51470588 0.4254902 0.59901961
0.54313725 0.43615196 0.5989277
0.59534314 0.45392157 0.59509804
0.6685049 0.50490196 0.60211397
0.74926471 0.57696078 0.61470588
0.79460784 0.6526348 0.62729779
0.82432598 0.67254902 0.63039216
0.85539216 0.66712623 0.63823529
0.88921569 0.67720588 0.65294118
0.49068627 0.49313725 0.58370098
0.52518382 0.49404105 0.58858762
0.58247549 0.50863971 0.59509804
0.65183824 0.54656863 0.59901961
0.73897059 0.60551471 0.61078431
0.78892463 0.67473958 0.62794118
0.82478554 0.7067402 0.64117647
0.85539216 0.6877451 0.64178922
0.86458333 0.6935049 0.64791667
0.41862745 0.53872549 0.55637255
0.46078431 0.54307598 0.56011029
0.51360294 0.55441176 0.56960784
0.61409314 0.58308824 0.58829657
0.70931373 0.63014706 0.60269608
0.77297794 0.69068627 0.62886029
0.82340686 0.73578431 0.65036765
0.85098039 0.73033088 0.65428922
0.87892157 0.74068627 0.66862745
0.4495098 0.60821078 0.54693627
0.46668199 0.61015625 0.54693627
0.50655637 0.61176471 0.55422794
0.57205882 0.62708333 0.56917892
0.66323529 0.65490196 0.58903186
0.7532935 0.70519301 0.62365196
0.81390931 0.75098039 0.64653799
0.84250919 0.76507353 0.65735294
0.86176471 0.77892157 0.67757353
0.47745098 0.67965686 0.54240196
0.48324142 0.67352941 0.53553922
0.51311275 0.67352941 0.5370098
0.57735907 0.68667279 0.55159314
0.65281863 0.70588235 0.57647059
0.72855392 0.73704044 0.61029412
0.80098039 0.77941176 0.64889706
0.83578431 0.79941789 0.66617647
0.85710784 0.81764706 0.68627451
0.46090686 0.73186275 0.52230392
0.48098958 0.73823529 0.52841605
0.49693627 0.72781863 0.52058824
0.5631587 0.74474571 0.54154412
0.64191176 0.76176471 0.57071078
0.70939032 0.78325674 0.59938725
0.7745098 0.81372549 0.64252451
0.82401961 0.83627451 0.67254902
0.84313725 0.84411765 0.68921569
0.5372549 0.83039216 0.58333333
0.5439951 0.83529412 0.58921569
0.56372549 0.82720588 0.58823529
0.61715686 0.8435049 0.60196078
0.65833333 0.84313725 0.61127451
0.72107843 0.85637255 0.6377451
0.77352941 0.87156863 0.67034314
0.81666667 0.87487745 0.70257353
0.86666667 0.89705882 0.74901961
0.61813725 0.46911765 0.69215686
0.63627451 0.47297794 0.69564951
0.67794118 0.50735294 0.69166667
0.72745098 0.55165441 0.69509804
0.78308824 0.60931373 0.69558824
0.81979167 0.68235294 0.703125
0.83186275 0.74411765 0.70821078
0.85140931 0.73872549 0.71078431
0.86666667 0.73088235 0.71470588
0.62156863 0.49172794 0.69558824
0.63714001 0.49602482 0.69558824
0.67757353 0.51819853 0.69166667
0.72779565 0.56292892 0.69558824
0.78676471 0.62496936 0.70315564
0.82352941 0.68864124 0.70686275
0.83529412 0.74776348 0.70810355
0.85140931 0.75392157 0.71427696
0.86666667 0.74607843 0.71470588
0.61813725 0.53051471 0.69558824
0.63370098 0.53419118 0.69558824
0.67423407 0.54911152 0.69166667
0.72352941 0.58988971 0.69166667
0.77830882 0.63602941 0.69797794
0.81746324 0.70188419 0.70686275
0.83563113 0.76360294 0.71492034
0.85098039 0.76842831 0.71470588
0.86360294 0.76213235 0.71470588
0.59166667 0.56341912 0.68952206
0.61421569 0.5709329 0.69509804
0.65281863 0.5873315 0.68982843
0.70931373 0.61960784 0.69166667
0.77303922 0.6609375 0.70137868
0.8109758 0.71757812 0.70735294
0.83137255 0.77389706 0.71559436
0.84754902 0.77947304 0.71734069
0.8627451 0.77009804 0.72254902
0.54877451 0.61127451 0.67818627
0.54289216 0.61320466 0.67037377
0.60710784 0.62303922 0.678125
0.67239583 0.64093137 0.68382353
0.73394608 0.67267157 0.69264706
0.79451593 0.73299632 0.71078431
0.8245098 0.78578431 0.71862745
0.84163603 0.79509804 0.72254902
0.85318627 0.7872549 0.72254902
0.47598039 0.65147059 0.65147059
0.47647059 0.65114124 0.65259651
0.51536458 0.65409007 0.6589614
0.57471661 0.66017923 0.66000306
0.67941176 0.68939951 0.67735907
0.7627451 0.74068627 0.70079657
0.82026654 0.78970588 0.7208027
0.83815104 0.81259957 0.73039216
0.84332108 0.81372549 0.73039216
0.47941176 0.70882353 0.63627451
0.49578738 0.71139706 0.63949142
0.52598039 0.7127451 0.6450674
0.57378983 0.71662071 0.65058211
0.64093137 0.72751225 0.66335784
0.71185662 0.74125306 0.67990196
0.7966299 0.80235907 0.71473652
0.83534007 0.84460784 0.74558824
0.85098039 0.84754902 0.74558824
0.47990196 0.76666667 0.62598039
0.49939491 0.77058824 0.63333333
0.52892157 0.7745098 0.63998162
0.57052696 0.77579657 0.64117647
0.62745098 0.78036152 0.64856005
0.70067402 0.79362745 0.66268382
0.7743413 0.81835172 0.69183517
0.82794118 0.85582874 0.73743107
0.85931373 0.86372549 0.75
0.48039216 0.8122549 0.62941176
0.51764706 0.83523284 0.64803922
0.50159314 0.83492647 0.63639706
0.56764706 0.83676471 0.65196078
0.62352941 0.82916667 0.65416667
0.68676471 0.84901961 0.67892157
0.7627451 0.87843137 0.71568627
0.81666667 0.875 0.74215686
0.8627451 0.8745098 0.75343137
0.73333333 0.63529412 0.78039216
0.74068627 0.63431373 0.77990196
0.76078431 0.65 0.77647059
0.78676471 0.67303922 0.775
0.81568627 0.70980392 0.77647059
0.83284314 0.75196078 0.77254902
0.83921569 0.77647059 0.75196078
0.84754902 0.825 0.76568627
0.85490196 0.81568627 0.76078431
0.7372549 0.64705882 0.78088235
0.74417892 0.65392157 0.78425245
0.74938725 0.63921569 0.76519608
0.78939951 0.68351716 0.77696078
0.81348039 0.71519608 0.77598039
0.83137255 0.75557598 0.77224265
0.84313725 0.7995098 0.77242647
0.85098039 0.82052696 0.76911765
0.85490196 0.83823529 0.77598039
0.72647059 0.65784314 0.78333333
0.7370098 0.66409314 0.78308824
0.76004902 0.68088235 0.78455882
0.78345588 0.69558824 0.77647059
0.81029412 0.72696078 0.77647059
0.82892157 0.7627451 0.77254902
0.84093137 0.80098039 0.77254902
0.85098039 0.82389706 0.77242647
0.85490196 0.83137255 0.76862745
0.6995098 0.67303922 0.78039216
0.71666667 0.68106618 0.78449755
0.73382353 0.6877451 0.77585784
0.76709559 0.7028799 0.77156863
0.80196078 0.74044118 0.77769608
0.82015931 0.77009804 0.77254902
0.83921569 0.81127451 0.77708333
0.85098039 0.84001225 0.77677696
0.85490196 0.8495098 0.77892157
0.64117647 0.69607843 0.76862745
0.67745098 0.70539216 0.77401961
0.68578431 0.7 0.76127451
0.72965686 0.71029412 0.76715686
0.77941176 0.74705882 0.77647059
0.80784314 0.7752451 0.76985294
0.83186275 0.81666667 0.77647059
0.84705882 0.84313725 0.77647059
0.85490196 0.85098039 0.77647059
0.58284314 0.74019608 0.77401961
0.55226716 0.71764706 0.75018382
0.62561275 0.73051471 0.7622549
0.66617647 0.73572304 0.7622549
0.73578431 0.75490196 0.77254902
0.79963235 0.79025735 0.7848652
0.8245098 0.8245098 0.78039216
0.84754902 0.85508578 0.78449755
0.85882353 0.86421569 0.78578431
0.5245098 0.77352941 0.74803922
0.53382353 0.76666667 0.74117647
0.5745098 0.76960784 0.74803922
0.61813725 0.77745098 0.75980392
0.67254902 0.77843137 0.76372549
0.7567402 0.79816176 0.78125
0.80710784 0.83333333 0.78431373
0.83970588 0.85931373 0.78039216
0.85490196 0.8745098 0.78823529
0.55735294 0.82892157 0.75735294
0.565625 0.82935049 0.75692402
0.5872549 0.83713235 0.76911765
0.61832108 0.83020833 0.75704657
0.65882353 0.83431373 0.76666667
0.71256127 0.83235294 0.76127451
0.7627451 0.84754902 0.78431373
0.83235294 0.87457108 0.78866422
0.84803922 0.875 0.78480392
0.57254902 0.85882353 0.76470588
0.60686275 0.88578431 0.77990196
0.60392157 0.87058824 0.76862745
0.61813725 0.85637255 0.75833333
0.65490196 0.84901961 0.75490196
0.70882353 0.87745098 0.77941176
0.75882353 0.89019608 0.78921569
0.81666667 0.89460784 0.80441176
0.89803922 0.90196078 0.81960784
