site/assets/luts/sha256-9ea1784c312c13e45fcdb947bd67fff1236b50a2b8a9c23cf7bff00fa393c3c0.cube
# LUTr-Schema-Version: 2
# LUTr-ID: sha256-9ea1784c312c13e45fcdb947bd67fff1236b50a2b8a9c23cf7bff00fa393c3c0
# LUTr-Title: vibrant alien
# LUTr-Collection: Natron HaldCLUT
# LUTr-Collection-ID: natron-haldclut-presets
# LUTr-Source: https://github.com/NatronGitHub/clut
# LUTr-Retrieved: 2026-07-27
# LUTr-Source-File: submissions/natron-haldclut-presets/various/vibrant_alien.png
# LUTr-Source-Format: HALD-PNG
# LUTr-Source-SHA256: 9ea1784c312c13e45fcdb947bd67fff1236b50a2b8a9c23cf7bff00fa393c3c0
# LUTr-License: CC-BY-SA-4.0
# LUTr-License-URL: https://github.com/NatronGitHub/clut#license
# LUTr-License-Basis: repo-license-file
# LUTr-Transform-Class: film-emulation
# LUTr-Tags: creative, film, film-emulation, hald-clut, natron, png, cube
# LUTr-Input-Color-Space: srgb
# LUTr-Input-Gamut: rec709
# LUTr-Input-Transfer: srgb
# LUTr-Output-Color-Space: srgb
# LUTr-Output-Gamut: rec709
# LUTr-Output-Transfer: srgb
# LUTr-Color-Space-Confidence: assumed-display-referred
# LUTr-Domain-Normalized: true
# LUTr-Shaper: none
# LUTr-Original-Grid: 64x64x64
# LUTr-Conversion-Grid: 25x25x25
# LUTr-Conversion-Interpolation: trilinear
# LUTr-Conversion-Method: HALD-PNG LUT image decoded at 16-bit and sampled to 25x25x25 3D CUBE
# LUTr-Conversion-Tool: LUTr scripts/convert-all-to-cube.mjs 2.0.0
# LUTr-Conversion-Date: 2026-07-27
# LUTr-Note: Preserve this metadata and the upstream license notices when redistributing.
TITLE "vibrant alien"
LUT_3D_SIZE 25
DOMAIN_MIN 0 0 0
DOMAIN_MAX 1 1 1
0.0039215686 0 0.0039215686
0.028431373 0.0039215686 0.0078431373
0.052941176 0.0078431373 0.011764706
0.07745098 0.0078431373 0.011764706
0.11176471 0.0039215686 0.0098039216
0.13872549 0.0034313725 0.0073529412
0.1754902 0 0.0039215686
0.22303922 0.0053921569 0.0078431373
0.27058824 0.0078431373 0.0078431373
0.31813725 0.0078431373 0.011764706
0.37058824 0.0078431373 0.0078431373
0.425 0.0078431373 0.0078431373
0.48039216 0.0078431373 0.0078431373
0.54019608 0.0039215686 0.0083333333
0.59901961 0.0039215686 0.011764706
0.65833333 0.0039215686 0.0078431373
0.71764706 0.0078431373 0.0039215686
0.76666667 0.0078431373 0.0039215686
0.80686275 0.0078431373 0.0039215686
0.84509804 0.0078431373 0.0073529412
0.88039216 0.011764706 0.0058823529
0.91470588 0.011764706 0.0039215686
0.93921569 0.0088235294 0.0039215686
0.96519608 0.0039215686 0.0039215686
0.98823529 0 0.0039215686
0.0078431373 0.014215686 0.0078431373
0.029963235 0.010294118 0.012377451
0.052941176 0.0078431373 0.0089460784
0.080882353 0.0078431373 0.0093137255
0.11176471 0.0090686275 0.0078431373
0.14117647 0.012745098 0.0060661765
0.17647059 0.010294118 0.0057598039
0.22003676 0.010845588 0.0078431373
0.26666667 0.011764706 0.0078431373
0.31813725 0.010845588 0.011764706
0.36960784 0.0078431373 0.0078431373
0.42254902 0.0078431373 0.0078431373
0.47843137 0.0078431373 0.0058823529
0.54019608 0.0081495098 0.0078431373
0.60196078 0.013848039 0.0078431373
0.65833333 0.010294118 0.0048406863
0.71372549 0.0078431373 0.0014705882
0.7627451 0.009375 0.0024509804
0.80392157 0.010661765 0.0039215686
0.84509804 0.013909314 0.0039215686
0.88161765 0.011764706 0.0039215686
0.91519608 0.011764706 0.0039215686
0.94105392 0.0088235294 0.0039215686
0.96427696 0.0072916667 0.0039215686
0.98333333 0.0088235294 0.006372549
0.011764706 0.029411765 0.0078431373
0.032352941 0.022058824 0.0078431373
0.052941176 0.0125 0.006127451
0.080882353 0.013602941 0.0039215686
0.11176471 0.02254902 0.0068627451
0.14264706 0.025367647 0.0078431373
0.17745098 0.021568627 0.0049019608
0.21372549 0.016666667 0.0039215686
0.2627451 0.015686275 0.0078431373
0.31605392 0.012745098 0.012377451
0.36960784 0.012990196 0.0125
0.42107843 0.01372549 0.0078431373
0.4745098 0.012254902 0.0039215686
0.54019608 0.018137255 0.0042892157
0.60196078 0.025245098 0.0068627451
0.66041667 0.025490196 0.0039215686
0.71764706 0.025490196 0.0049019608
0.7627451 0.025490196 0.006004902
0.80465686 0.025490196 0.0039215686
0.84252451 0.021691176 0.0039215686
0.88039216 0.017156863 0.0039215686
0.9182598 0.012622549 0
0.93995098 0.012745098 0.0029411765
0.95882353 0.019117647 0.006004902
0.97647059 0.025490196 0.0078431373
0.0083333333 0.046078431 0.0078431373
0.028737745 0.038419118 0.0078431373
0.052941176 0.037254902 0.0039215686
0.080882353 0.037254902 0.0039215686
0.10833333 0.044117647 0.0039215686
0.14313725 0.046017157 0.0044117647
0.17745098 0.039215686 0.0074754902
0.21354167 0.034926471 0.0073529412
0.2627451 0.037254902 0.0078431373
0.31795343 0.041176471 0.0083333333
0.36960784 0.045098039 0.0082107843
0.42107843 0.045159314 0.0078431373
0.47843137 0.041666667 0.0075980392
0.54019608 0.042585784 0.0039215686
0.60196078 0.046078431 0.0039215686
0.6622549 0.047365196 0.0075367647
0.71764706 0.049509804 0.011764706
0.7627451 0.045772059 0.013051471
0.80784314 0.046078431 0.0068627451
0.84859069 0.046078431 0.0039215686
0.88210784 0.040196078 0.0073529412
0.91568627 0.03817402 0.0039215686
0.94191176 0.038480392 0.0039215686
0.95931373 0.039705882 0.0041053922
0.97598039 0.046078431 0.0078431373
0.0058823529 0.058823529 0.0078431373
0.029656863 0.063970588 0.0078431373
0.053921569 0.069117647 0.0073529412
0.080882353 0.068627451 0.0039215686
0.10686275 0.067647059 0.0019607843
0.14313725 0.068872549 0.0044117647
0.18088235 0.073529412 0.01127451
0.21960784 0.081127451 0.011029412
0.26666667 0.082352941 0.0078431373
0.31813725 0.08627451 0.0078431373
0.36960784 0.085294118 0.0078431373
0.4245098 0.078186275 0.0080882353
0.48235294 0.070588235 0.0049019608
0.53995098 0.066911765 0.0036764706
0.6 0.068627451 0.0039215686
0.66053922 0.079901961 0.0078431373
0.71764706 0.082352941 0.011764706
0.76397059 0.077205882 0.01372549
0.81176471 0.070098039 0.0078431373
0.85514706 0.068382353 0.0022058824
0.88529412 0.070588235 0.0068627451
0.9129902 0.080637255 0.0095588235
0.93921569 0.079411765 0.0078431373
0.96372549 0.069117647 0.0039215686
0.98235294 0.066666667 0.0039215686
0.016176471 0.11715686 0.011764706
0.028431373 0.11292892 0.011764706
0.05379902 0.11568627 0.0082107843
0.080453431 0.11317402 0.0048406863
0.10612745 0.11323529 0.0044117647
0.14264706 0.11715686 0.0083333333
0.18039216 0.12352941 0.014705882
0.22303922 0.128125 0.015686275
0.27058824 0.12794118 0.0083333333
0.31813725 0.12745098 0.0039215686
0.36973039 0.12365196 0.0039215686
0.42843137 0.12101716 0.0039215686
0.48455882 0.11936275 0.0039215686
0.53976716 0.11813725 0.00091911765
0.60110294 0.12034314 0.0039215686
0.66390931 0.12432598 0.0039215686
0.7254902 0.12745098 0.0039215686
0.76715686 0.1213848 0.0073529412
0.81262255 0.11666667 0.0044117647
0.85637255 0.11323529 0.0044117647
0.88602941 0.11887255 0.0083333333
0.91127451 0.125 0.011764706
0.93823529 0.12585784 0.011397059
0.96372549 0.12205882 0.006372549
0.98431373 0.12254902 0.0039215686
0.026470588 0.18921569 0.014705882
0.031004902 0.18284314 0.015318627
0.05 0.18504902 0.013970588
0.077083333 0.18823529 0.010906863
0.10588235 0.18480392 0.0078431373
0.13921569 0.18529412 0.0083333333
0.18039216 0.18921569 0.0125
0.22156863 0.1942402 0.015686275
0.26764706 0.19607843 0.011764706
0.31458333 0.19166667 0.0039215686
0.37058824 0.18823529 0.00098039216
0.42879902 0.19852941 0.0039215686
0.48627451 0.20686275 0.0039215686
0.54362745 0.20686275 0.0042892157
0.60196078 0.20465686 0.0078431373
0.66703431 0.19460784 0.0057598039
0.72647059 0.18627451 0
0.76875 0.18786765 0.0039215686
0.80882353 0.18897059 0.0078431373
0.84914216 0.18443627 0.0078431373
0.88284314 0.18872549 0.0083333333
0.91090686 0.20330882 0.0088235294
0.93823529 0.2127451 0.0078431373
0.96188725 0.22156863 0.0078431373
0.98039216 0.22156863 0.010784314
0.024509804 0.28284314 0.011764706
0.02935049 0.28584559 0.014215686
0.051102941 0.29068627 0.011397059
0.076960784 0.29442402 0.0065563725
0.10588235 0.29068627 0.0071078431
0.13872549 0.28707108 0.0083333333
0.17647059 0.29252451 0.011764706
0.21672794 0.3 0.015686275
0.2627451 0.30637255 0.011764706
0.31421569 0.30392157 0.0063112745
0.37022059 0.2942402 0.0039215686
0.42843137 0.29528186 0.0039215686
0.48553922 0.29828431 0.0039215686
0.54411765 0.29901961 0.0078431373
0.60196078 0.29448529 0.011764706
0.66317402 0.2877451 0.0087622549
0.72009804 0.28921569 0.0039215686
0.76666667 0.29068627 0.0053921569
0.80784314 0.28860294 0.0078431373
0.84901961 0.29019608 0.0078431373
0.8870098 0.29656863 0.0078431373
0.91256127 0.31078431 0.0078431373
0.93639706 0.31960784 0.0089460784
0.95980392 0.32058824 0.013235294
0.98039216 0.31911765 0.017156863
0.011764706 0.39607843 0.011764706
0.026960784 0.40392157 0.0093137255
0.052941176 0.40392157 0.0068627451
0.076960784 0.40392157 0.0039215686
0.10588235 0.4 0.0039215686
0.14264706 0.4 0.0078431373
0.17745098 0.4 0.011764706
0.21372549 0.40931373 0.011764706
0.25882353 0.41568627 0.011764706
0.31421569 0.40931373 0.0078431373
0.36960784 0.4 0.0039215686
0.425 0.39607843 0.0039215686
0.48235294 0.39607843 0.0039215686
0.54019608 0.39215686 0.0083333333
0.60196078 0.38823529 0.011764706
0.65980392 0.38431373 0.011764706
0.71372549 0.38823529 0.0078431373
0.76519608 0.39607843 0.0093137255
0.80784314 0.39607843 0.0068627451
0.85294118 0.4 0.0039215686
0.89411765 0.40196078 0.0039215686
0.91470588 0.41568627 0.0078431373
0.93823529 0.41960784 0.011764706
0.96127451 0.41960784 0.015686275
0.98039216 0.41568627 0.019607843
0.0024509804 0.50196078 0.0078431373
0.026960784 0.50196078 0.0078431373
0.053553922 0.49987745 0.0068627451
0.079595588 0.49068627 0.0039215686
0.10980392 0.48946078 0.0039215686
0.14528186 0.49411765 0.0078431373
0.1810049 0.49987745 0.0078431373
0.21617647 0.50588235 0.011764706
0.25882353 0.50980392 0.011764706
0.3127451 0.50343137 0.0078431373
0.36666667 0.50110294 0.0068627451
0.4245098 0.49932598 0.0039215686
0.48112745 0.49509804 0.0039215686
0.54019608 0.48823529 0.0080269608
0.60196078 0.4814951 0.011151961
0.65833333 0.47941176 0.0087622549
0.71372549 0.48480392 0.0078431373
0.76672794 0.49417892 0.0044730392
0.81176471 0.49901961 0.0039215686
0.85294118 0.49491422 0.0060661765
0.88823529 0.4997549 0.0071078431
0.91470588 0.50882353 0.0078431373
0.93884804 0.51617647 0.011151961
0.96372549 0.51617647 0.012316176
0.98431373 0.5122549 0.015686275
0.016666667 0.58333333 0.011764706
0.029779412 0.58333333 0.0078431373
0.054656863 0.58039216 0.0078431373
0.081372549 0.57781863 0.0039215686
0.11078431 0.57647059 0.0039215686
0.14313725 0.57647059 0.0042892157
0.18137255 0.58039216 0.0078431373
0.2182598 0.58970588 0.0078431373
0.25784314 0.59313725 0.0068627451
0.31090686 0.58970588 0.0068627451
0.36666667 0.58897059 0.0039215686
0.4245098 0.59375 0.00049019608
0.47990196 0.59068627 0.0019607843
0.53884804 0.58051471 0.0042892157
0.60098039 0.58210784 0.0068627451
0.65833333 0.58235294 0.0068627451
0.70980392 0.58529412 0.0039215686
0.76875 0.59166667 0.0033088235
0.81642157 0.59313725 0.0041666667
0.85343137 0.57340686 0.012254902
0.89019608 0.58970588 0.006372549
0.91862745 0.6004902 0.0044117647
0.94240196 0.60759804 0.0078431373
0.96580882 0.60686275 0.011764706
0.98529412 0.60392157 0.011764706
0.020588235 0.65588235 0.011764706
0.034620098 0.65588235 0.0080269608
0.057720588 0.65539216 0.0069852941
0.081372549 0.65882353 0.0039215686
0.10784314 0.65882353 0.00049019608
0.14313725 0.65839461 0.0039215686
0.18137255 0.65318627 0.0099264706
0.22009804 0.66127451 0.0073529412
0.25833333 0.66470588 0.0039215686
0.3127451 0.65998775 0.0039215686
0.36666667 0.65245098 0.0039215686
0.42107843 0.64901961 0.0039215686
0.47843137 0.64852941 0.0039215686
0.53627451 0.65196078 0.0039215686
0.60098039 0.6627451 0.0039215686
0.65490196 0.6627451 0.0039215686
0.70637255 0.65245098 0.0039215686
0.76550245 0.65667892 0.0036151961
0.81568627 0.65183824 0.0049019608
0.85300245 0.63382353 0.012193627
0.88848039 0.64852941 0.0078431373
0.91862745 0.66035539 0.0078431373
0.93958333 0.66458333 0.01127451
0.96390931 0.66452206 0.011764706
0.98431373 0.66421569 0.011764706
0.0098039216 0.71764706 0.0058823529
0.030882353 0.71642157 0.0039215686
0.056862745 0.7122549 0.0039215686
0.081372549 0.71176471 0.0039215686
0.10686275 0.71176471 0.0029411765
0.14093137 0.71372549 0.006127451
0.18039216 0.7122549 0.0098039216
0.21764706 0.70980392 0.011029412
0.2627451 0.70196078 0.0078431373
0.31421569 0.70833333 0.0039215686
0.36813725 0.70980392 0.0039215686
0.42107843 0.70637255 0.0036764706
0.47843137 0.70588235 0.0039215686
0.53970588 0.70784314 0.0078431373
0.59803922 0.71127451 0.0078431373
0.65441176 0.70710784 0.0078431373
0.70588235 0.70392157 0.0039215686
0.76127451 0.70514706 0.0039215686
0.81176471 0.7004902 0.0049019608
0.85294118 0.69044118 0.01127451
0.88823529 0.69803922 0.011764706
0.91862745 0.70833333 0.01372549
0.94264706 0.71176471 0.01372549
0.96372549 0.71053922 0.011764706
0.98039216 0.71372549 0.011764706
0.021078431 0.75882353 0.010784314
0.03560049 0.75588235 0.0076593137
0.056862745 0.74914216 0.0078431373
0.081372549 0.74221814 0.0078431373
0.11004902 0.73872549 0.0078431373
0.14264706 0.74313725 0.011764706
0.17732843 0.75343137 0.015686275
0.21764706 0.7495098 0.014215686
0.2627451 0.73872549 0.0078431373
0.31421569 0.74901961 0.0041053922
0.3692402 0.75931373 0.0029411765
0.42408088 0.76268382 0.00042892157
0.48210784 0.75833333 0.0058823529
0.54019608 0.75833333 0.0083333333
0.60196078 0.75833333 0.012132353
0.65441176 0.753125 0.011764706
0.70637255 0.75098039 0.0078431373
0.76390931 0.7536152 0.0041053922
0.81213235 0.7504902 0.0049019608
0.8495098 0.74319853 0.01127451
0.88602941 0.74240196 0.015441176
0.91862745 0.74607843 0.015686275
0.94313725 0.74914216 0.012745098
0.96390931 0.75459559 0.0099877451
0.98431373 0.75882353 0.0073529412
0.01372549 0.78627451 0.010784314
0.028431373 0.78284314 0.010784314
0.053921569 0.77426471 0.0078431373
0.081004902 0.76973039 0.0078431373
0.11176471 0.76960784 0.01127451
0.14007353 0.77365196 0.014828431
0.17647059 0.78063725 0.015686275
0.21764706 0.78137255 0.014215686
0.2627451 0.77352941 0.0078431373
0.31421569 0.77806373 0.0042892157
0.36666667 0.78235294 0.0039215686
0.42107843 0.78235294 0.0039215686
0.47843137 0.78235294 0.0078431373
0.54019608 0.78235294 0.012132353
0.59828431 0.78235294 0.018627451
0.65441176 0.78235294 0.015318627
0.70980392 0.78529412 0.011764706
0.76519608 0.79019608 0.0072303922
0.81176471 0.78897059 0.0071078431
0.84644608 0.77794118 0.01127451
0.88284314 0.76813725 0.012254902
0.91605392 0.76666667 0.015686275
0.94215686 0.77352941 0.011764706
0.96519608 0.78088235 0.0078431373
0.98529412 0.79117647 0.0039215686
0.014215686 0.80686275 0.011764706
0.028431373 0.80441176 0.015686275
0.052941176 0.80196078 0.0089460784
0.080882353 0.79901961 0.009129902
0.11176471 0.79901961 0.01372549
0.13872549 0.80079657 0.017463235
0.17647059 0.80294118 0.016666667
0.21764706 0.80294118 0.011764706
0.2627451 0.80441176 0.0078431373
0.31121324 0.80349265 0.0039215686
0.36666667 0.80085784 0.0053921569
0.4245098 0.79540441 0.0078431373
0.48112745 0.79754902 0.0078431373
0.53988971 0.79932598 0.012071078
0.59840686 0.80257353 0.019240196
0.65441176 0.80147059 0.015134804
0.70588235 0.80147059 0.011764706
0.76280637 0.8 0.0093137255
0.80968137 0.79754902 0.0099264706
0.846875 0.79540441 0.013051471
0.88308824 0.78651961 0.015686275
0.91519608 0.78204657 0.011764706
0.94215686 0.78872549 0.010661765
0.96317402 0.79454657 0.0078431373
0.975 0.79754902 0.0078431373
0.0078431373 0.81960784 0.0078431373
0.028431373 0.81715686 0.014215686
0.052941176 0.81568627 0.0078431373
0.080882353 0.81568627 0.01127451
0.11176471 0.81568627 0.01372549
0.14264706 0.81568627 0.015686275
0.17647059 0.81568627 0.015686275
0.22156863 0.81715686 0.010294118
0.2627451 0.81960784 0.0039215686
0.3127451 0.81960784 0.0039215686
0.36960784 0.81470588 0.0078431373
0.425 0.80833333 0.0078431373
0.48431373 0.80980392 0.0078431373
0.54411765 0.81568627 0.011764706
0.60196078 0.81568627 0.011764706
0.65441176 0.81421569 0.011764706
0.70588235 0.81176471 0.011764706
0.76127451 0.80784314 0.011764706
0.80784314 0.80686275 0.012745098
0.84901961 0.80392157 0.019117647
0.88431373 0.80196078 0.01372549
0.91911765 0.79607843 0.011764706
0.94313725 0.8 0.0078431373
0.95833333 0.80392157 0.0078431373
0.96470588 0.80392157 0.0078431373
0.0078431373 0.81960784 0.0078431373
0.028431373 0.81960784 0.0087622549
0.053921569 0.81960784 0.0088235294
0.084803922 0.81960784 0.011764706
0.11568627 0.81960784 0.011764706
0.14264706 0.81960784 0.013051471
0.17647059 0.81960784 0.011764706
0.21764706 0.82205882 0.0078431373
0.26519608 0.82352941 0.0078431373
0.31421569 0.82352941 0.0078431373
0.36568627 0.82144608 0.0078431373
0.42205882 0.81813725 0.0078431373
0.48382353 0.81887255 0.0078431373
0.54411765 0.81991422 0.0093137255
0.60196078 0.82205882 0.0093137255
0.65441176 0.81905637 0.0093137255
0.70833333 0.81568627 0.011764706
0.76464461 0.81421569 0.015686275
0.80784314 0.81421569 0.015686275
0.84558824 0.81421569 0.015686275
0.88235294 0.81421569 0.011764706
0.91942402 0.8127451 0.0075367647
0.94129902 0.81421569 0.0072303922
0.94803922 0.81421569 0.0078431373
0.95294118 0.81421569 0.010294118
0.0039215686 0.82352941 0.0078431373
0.028431373 0.82352941 0.0078431373
0.053921569 0.82058824 0.0078431373
0.084803922 0.82316176 0.010416667
0.11568627 0.82352941 0.011764706
0.14607843 0.82352941 0.010416667
0.17279412 0.8245098 0.0078431373
0.21458333 0.8245098 0.0057598039
0.26666667 0.82745098 0.0078431373
0.31458333 0.82745098 0.0078431373
0.36151961 0.82671569 0.0039215686
0.4192402 0.8245098 0.0073529412
0.47990196 0.82401961 0.0078431373
0.54007353 0.8245098 0.0078431373
0.59877451 0.82671569 0.0049019608
0.65477941 0.8245098 0.0078431373
0.70980392 0.8245098 0.011764706
0.76764706 0.82352941 0.015686275
0.81078431 0.82058824 0.015686275
0.84558824 0.82058824 0.012254902
0.88235294 0.82009804 0.0098039216
0.91911765 0.81960784 0.0049019608
0.94093137 0.81960784 0.0071078431
0.95183824 0.82058824 0.012132353
0.9627451 0.82058824 0.015686275
0.014705882 0.82352941 0.0078431373
0.029718137 0.82352941 0.0039215686
0.050490196 0.82352941 0.0039215686
0.084803922 0.82352941 0.0074142157
0.11568627 0.82352941 0.012990196
0.14307598 0.82444853 0.0078431373
0.17058824 0.82745098 0.0049019608
0.2127451 0.82745098 0.0039215686
0.26666667 0.82745098 0.0078431373
0.31568627 0.82745098 0.0056985294
0.36164216 0.82745098 0.0039215686
0.41666667 0.82745098 0.0043504902
0.4747549 0.82573529 0.0078431373
0.53584559 0.82745098 0.0078431373
0.59460784 0.82745098 0.0074754902
0.65459559 0.82745098 0.0078431373
0.70980392 0.82745098 0.011764706
0.76911765 0.82745098 0.015686275
0.81164216 0.82647059 0.014828431
0.84859069 0.82352941 0.011764706
0.88431373 0.82156863 0.0098039216
0.915625 0.81960784 0.0078431373
0.94227941 0.81960784 0.0078431373
0.9596201 0.82352941 0.013235294
0.97254902 0.82696078 0.019607843
0.02745098 0.82352941 0.0058823529
0.037745098 0.82352941 0.0039215686
0.051470588 0.82352941 0.0024509804
0.084313725 0.82352941 0.0056372549
0.11568627 0.82352941 0.0088235294
0.14264706 0.82352941 0.0098039216
0.17843137 0.82352941 0.0078431373
0.21838235 0.82352941 0.0078431373
0.26666667 0.82352941 0.0039215686
0.31691176 0.82352941 0.0039215686
0.36568627 0.82352941 0.0039215686
0.41715686 0.82352941 0.0039215686
0.47352941 0.82352941 0.0058823529
0.53235294 0.82745098 0.011764706
0.59117647 0.82745098 0.011764706
0.65122549 0.82671569 0.0098039216
0.70980392 0.8254902 0.011764706
0.76764706 0.82426471 0.01495098
0.8122549 0.82352941 0.013235294
0.85318627 0.82352941 0.011764706
0.88823529 0.81960784 0.0078431373
0.91470588 0.81960784 0.0078431373
0.93921569 0.82254902 0.0078431373
0.96176471 0.82352941 0.010539216
0.97647059 0.82352941 0.015686275
0.026960784 0.82352941 0.0078431373
0.033823529 0.82352941 0.0044117647
0.054289216 0.82352941 0.0078431373
0.084803922 0.82352941 0.0078431373
0.11519608 0.82352941 0.011764706
0.1466299 0.82352941 0.012193627
0.18431373 0.82352941 0.0088235294
0.22156863 0.82352941 0.0076593137
0.26617647 0.82352941 0.0039215686
0.31421569 0.82352941 0.0039215686
0.36568627 0.82352941 0
0.41715686 0.82352941 0
0.47230392 0.82352941 0.0058823529
0.53186275 0.82745098 0.011764706
0.59019608 0.82745098 0.015196078
0.65196078 0.82352941 0.011764706
0.71372549 0.82352941 0.011764706
0.76960784 0.82352941 0.011764706
0.81568627 0.82303922 0.011764706
0.85686275 0.81960784 0.0082720588
0.88823529 0.81960784 0.0078431373
0.91470588 0.81960784 0.0078431373
0.93921569 0.82352941 0.0078431373
0.96390931 0.82352941 0.0078431373
0.98088235 0.82352941 0.01127451
0.016666667 0.81960784 0.0078431373
0.03125 0.81960784 0.0078431373
0.054656863 0.81960784 0.0078431373
0.081862745 0.81960784 0.0078431373
0.11176471 0.81960784 0.011764706
0.14669118 0.81960784 0.015196078
0.18431373 0.81960784 0.0088235294
0.22009804 0.81960784 0.0039215686
0.25882353 0.81960784 0.00098039216
0.31029412 0.82022059 0.0018382353
0.36176471 0.82352941 0.0029411765
0.41409314 0.82352941 0.0030637255
0.47058824 0.82352941 0.0039215686
0.52843137 0.82365196 0.0079656863
0.59019608 0.8252451 0.011764706
0.65196078 0.82352941 0.011764706
0.71372549 0.82058824 0.0088235294
0.77414216 0.81960784 0.0078431373
0.81568627 0.81960784 0.0078431373
0.85686275 0.81960784 0.0078431373
0.88872549 0.81960784 0.0078431373
0.91470588 0.81960784 0.010784314
0.93921569 0.82352941 0.0085784314
0.96519608 0.82352941 0.0078431373
0.9872549 0.82352941 0.0049019608
0.006372549 0.81960784 0.0078431373
0.027879902 0.81960784 0.0078431373
0.051838235 0.81960784 0.0078431373
0.079411765 0.81960784 0.0078431373
0.11176471 0.81960784 0.011764706
0.14313725 0.81960784 0.015379902
0.1810049 0.81960784 0.011764706
0.22009804 0.81960784 0.006372549
0.25882353 0.81960784 0.0014705882
0.309375 0.81960784 0.0039215686
0.36176471 0.82242647 0.0039215686
0.41323529 0.82352941 0.0041053922
0.47132353 0.82352941 0.0039215686
0.53382353 0.82352941 0.0039215686
0.59448529 0.82352941 0.006372549
0.65196078 0.82352941 0.006372549
0.71372549 0.81960784 0.0078431373
0.77003676 0.81960784 0.0078431373
0.81176471 0.81960784 0.0082107843
0.85294118 0.81960784 0.0093137255
0.89019608 0.81960784 0.0078431373
0.91862745 0.81960784 0.0083333333
0.94031863 0.82254902 0.011764706
0.96519608 0.82352941 0.0087622549
0.98823529 0.82352941 0.0053921569
0.0039215686 0.81960784 0.0078431373
0.024509804 0.81960784 0.0078431373
0.049019608 0.81960784 0.0039215686
0.076960784 0.81960784 0.0073529412
0.11176471 0.81960784 0.011764706
0.14264706 0.81960784 0.012254902
0.18039216 0.81960784 0.012745098
0.22156863 0.81960784 0.0078431373
0.2627451 0.81960784 0.0039215686
0.31029412 0.81960784 0.0039215686
0.36176471 0.82058824 0.0078431373
0.41323529 0.82352941 0.0078431373
0.4745098 0.82352941 0.0039215686
0.53676471 0.82352941 0.0034313725
0.59901961 0.82352941 0
0.65441176 0.82352941 0.0039215686
0.70980392 0.81960784 0.0078431373
0.76911765 0.81960784 0.0078431373
0.81176471 0.81960784 0.0088235294
0.84901961 0.81960784 0.0078431373
0.89019608 0.81960784 0.0078431373
0.92254902 0.81960784 0.0083333333
0.94313725 0.81960784 0.011764706
0.96519608 0.82352941 0.010294118
0.98431373 0.82352941 0.0078431373
0.011764706 0.006372549 0.014215686
0.028431373 0.0072916667 0.014215686
0.052941176 0.0039215686 0.014215686
0.076960784 0.0039215686 0.015686275
0.10784314 0.0039215686 0.012990196
0.14136029 0.0039215686 0.014215686
0.17892157 0.0057598039 0.014215686
0.22303922 0.0069240196 0.014215686
0.27058824 0.0078431373 0.014215686
0.31813725 0.0078431373 0.014767157
0.36960784 0.0078431373 0.014215686
0.425 0.0078431373 0.014215686
0.48357843 0.0066176471 0.012990196
0.54411765 0.0036151961 0.010477941
0.60257353 0.0011029412 0.011764706
0.65833333 0.0039215686 0.010294118
0.71372549 0.0053921569 0.012745098
0.76519608 0.0078431373 0.013296569
0.80784314 0.0078431373 0.010294118
0.84901961 0.0078431373 0.011764706
0.88431373 0.0078431373 0.011764706
0.91519608 0.0078431373 0.010294118
0.94105392 0.0078431373 0.014215686
0.96427696 0.0039215686 0.014215686
