site/assets/luts/sha256-8e5efda97e44d046be111c04878df7871fa85e8c74f2eb49669efe2353f9d34e.cube
# LUTr-Schema-Version: 2
# LUTr-ID: sha256-8e5efda97e44d046be111c04878df7871fa85e8c74f2eb49669efe2353f9d34e
# LUTr-Title: polaroid time zero (expired) cold ---
# LUTr-Collection: Natron HaldCLUT
# LUTr-Collection-ID: natron-haldclut-presets
# LUTr-Source: https://github.com/NatronGitHub/clut
# LUTr-Retrieved: 2026-07-27
# LUTr-Source-File: submissions/natron-haldclut-presets/instant_consumer/polaroid_time_zero_(expired)_cold_---.png
# LUTr-Source-Format: HALD-PNG
# LUTr-Source-SHA256: 8e5efda97e44d046be111c04878df7871fa85e8c74f2eb49669efe2353f9d34e
# LUTr-License: CC-BY-SA-4.0
# LUTr-License-URL: https://github.com/NatronGitHub/clut#license
# LUTr-License-Basis: repo-license-file
# LUTr-Transform-Class: film-emulation
# LUTr-Tags: creative, film, film-emulation, hald-clut, natron, png, cool, cube
# LUTr-Input-Color-Space: srgb
# LUTr-Input-Gamut: rec709
# LUTr-Input-Transfer: srgb
# LUTr-Output-Color-Space: srgb
# LUTr-Output-Gamut: rec709
# LUTr-Output-Transfer: srgb
# LUTr-Color-Space-Confidence: assumed-display-referred
# LUTr-Domain-Normalized: true
# LUTr-Shaper: none
# LUTr-Original-Grid: 64x64x64
# LUTr-Conversion-Grid: 25x25x25
# LUTr-Conversion-Interpolation: trilinear
# LUTr-Conversion-Method: HALD-PNG LUT image decoded at 16-bit and sampled to 25x25x25 3D CUBE
# LUTr-Conversion-Tool: LUTr scripts/convert-all-to-cube.mjs 2.0.0
# LUTr-Conversion-Date: 2026-07-27
# LUTr-Note: Preserve this metadata and the upstream license notices when redistributing.
TITLE "polaroid time zero (expired) cold ---"
LUT_3D_SIZE 5
DOMAIN_MIN 0 0 0
DOMAIN_MAX 1 1 1
0.12941176 0.031372549 0.039215686
0.19607843 0.015686275 0.032352941
0.44509804 0.0058823529 0.015686275
0.7127451 0.0039215686 0.038235294
0.90980392 0.058823529 0.11372549
0.14803922 0.14215686 0.00098039216
0.26348039 0.16862745 0.015686275
0.48676471 0.15882353 0.0039215686
0.7252451 0.15416667 0.019607843
0.91372549 0.29019608 0.10588235
0.19607843 0.47843137 0
0.35392157 0.46617647 0.0039215686
0.5627451 0.49313725 0.0039215686
0.75980392 0.49705882 0.0039215686
0.91764706 0.51960784 0.045098039
0.40098039 0.70588235 0.0039215686
0.46789216 0.7127451 0
0.63039216 0.72058824 0.0078431373
0.81078431 0.72843137 0.10980392
0.94117647 0.74019608 0.32647059
0.63137255 0.92156863 0
0.66176471 0.91078431 0
0.75686275 0.91176471 0
0.89215686 0.90980392 0.1245098
0.98823529 0.90980392 0.48627451
0.1627451 0.0078431373 0.1245098
0.20416667 0.0046568627 0.12230392
0.46666667 0.0039215686 0.1877451
0.71764706 0.0125 0.20073529
0.91862745 0.2127451 0.2627451
0.17181373 0.15098039 0.1254902
0.28094363 0.18082108 0.14375
0.50098039 0.17634804 0.16176471
0.73308824 0.22334559 0.19019608
0.92769608 0.3254902 0.25563725
0.21960784 0.47647059 0.065196078
0.35294118 0.48627451 0.05122549
0.56862745 0.50196078 0.13186275
0.74987745 0.5 0.17867647
0.9254902 0.53137255 0.23970588
0.41176471 0.7127451 0.014705882
0.46985294 0.7120098 0.0037377451
0.63039216 0.72058824 0.025490196
0.80686275 0.72941176 0.2627451
0.93063725 0.74803922 0.40196078
0.61960784 0.90588235 0.090196078
0.65686275 0.90882353 0.049019608
0.73921569 0.90147059 0.0034313725
0.88848039 0.91470588 0.2502451
0.98823529 0.91372549 0.52843137
0.34313725 0.037254902 0.46078431
0.3872549 0.065196078 0.46813725
0.51666667 0.11372549 0.47058824
0.71666667 0.10245098 0.4872549
0.90784314 0.30196078 0.51764706
0.4004902 0.26421569 0.45392157
0.45441176 0.29509804 0.46789216
0.55098039 0.30661765 0.45808824
0.72806373 0.29215686 0.46801471
0.90539216 0.38627451 0.50588235
0.3872549 0.48333333 0.40784314
0.46470588 0.49705882 0.42132353
0.59264706 0.52009804 0.43284314
0.75735294 0.51960784 0.44779412
0.91764706 0.55392157 0.4627451
0.46519608 0.70343137 0.39656863
0.52120098 0.70588235 0.41568627
0.63137255 0.71862745 0.39264706
0.80294118 0.73235294 0.47058824
0.93872549 0.74803922 0.52352941
0.62941176 0.89803922 0.46862745
0.65931373 0.90343137 0.46127451
0.7372549 0.91372549 0.40196078
0.86960784 0.90882353 0.44215686
0.98431373 0.91764706 0.62941176
0.57647059 0.3254902 0.72941176
0.60196078 0.3370098 0.7379902
0.65588235 0.38284314 0.73627451
0.74877451 0.41176471 0.73235294
0.90294118 0.41470588 0.74411765
0.63333333 0.4620098 0.73333333
0.64675245 0.47616422 0.72941176
0.69362745 0.50196078 0.74019608
0.76035539 0.50238971 0.72310049
0.89705882 0.4754902 0.74705882
0.6377451 0.59460784 0.70980392
0.67352941 0.61176471 0.71372549
0.73602941 0.6370098 0.72156863
0.79509804 0.63909314 0.7254902
0.90539216 0.6 0.73676471
0.61936275 0.71764706 0.68529412
0.65140931 0.7245098 0.67916667
0.71176471 0.73039216 0.68247549
0.80778186 0.74877451 0.69730392
0.92647059 0.74803922 0.72254902
0.66862745 0.89705882 0.70588235
0.67867647 0.89240196 0.70171569
0.7254902 0.88137255 0.69607843
0.83823529 0.89583333 0.68014706
0.96862745 0.90882353 0.7754902
0.77254902 0.59215686 0.91764706
0.7754902 0.59607843 0.90882353
0.8 0.61176471 0.90784314
0.84019608 0.63627451 0.92058824
0.90196078 0.65098039 0.92156863
0.79215686 0.64901961 0.90980392
0.8 0.65392157 0.91372549
0.81666667 0.65686275 0.90882353
0.84607843 0.66862745 0.90784314
0.89803922 0.64803922 0.88529412
0.83137255 0.73333333 0.91176471
0.82401961 0.72598039 0.89705882
0.84901961 0.74215686 0.90588235
0.86764706 0.74313725 0.8995098
0.91764706 0.75294118 0.91764706
0.81078431 0.79019608 0.90686275
0.81151961 0.79411765 0.89877451
0.87696078 0.8127451 0.92205882
0.91078431 0.8372549 0.91764706
0.9372549 0.83235294 0.9127451
0.79215686 0.90980392 0.91372549
0.80784314 0.91470588 0.91862745
0.8372549 0.90784314 0.91176471
0.89509804 0.9127451 0.90980392
0.96862745 0.92156863 0.92941176
