site/assets/luts/sha256-b1027d8067a6372b0a7758af5e2442dd2be07fc7e060f9071b5ab5cd022aa9eb.cube
# LUTr-Schema-Version: 2
# LUTr-ID: sha256-b1027d8067a6372b0a7758af5e2442dd2be07fc7e060f9071b5ab5cd022aa9eb
# LUTr-Title: polaroid px-100uv+ cold +++
# LUTr-Collection: Natron HaldCLUT
# LUTr-Collection-ID: natron-haldclut-presets
# LUTr-Source: https://github.com/NatronGitHub/clut
# LUTr-Retrieved: 2026-07-27
# LUTr-Source-File: submissions/natron-haldclut-presets/instant_consumer/polaroid_px-100uv+_cold_+++.png
# LUTr-Source-Format: HALD-PNG
# LUTr-Source-SHA256: b1027d8067a6372b0a7758af5e2442dd2be07fc7e060f9071b5ab5cd022aa9eb
# LUTr-License: CC-BY-SA-4.0
# LUTr-License-URL: https://github.com/NatronGitHub/clut#license
# LUTr-License-Basis: repo-license-file
# LUTr-Transform-Class: film-emulation
# LUTr-Tags: creative, film, film-emulation, hald-clut, natron, png, cool, cube
# LUTr-Input-Color-Space: srgb
# LUTr-Input-Gamut: rec709
# LUTr-Input-Transfer: srgb
# LUTr-Output-Color-Space: srgb
# LUTr-Output-Gamut: rec709
# LUTr-Output-Transfer: srgb
# LUTr-Color-Space-Confidence: assumed-display-referred
# LUTr-Domain-Normalized: true
# LUTr-Shaper: none
# LUTr-Original-Grid: 64x64x64
# LUTr-Conversion-Grid: 25x25x25
# LUTr-Conversion-Interpolation: trilinear
# LUTr-Conversion-Method: HALD-PNG LUT image decoded at 16-bit and sampled to 25x25x25 3D CUBE
# LUTr-Conversion-Tool: LUTr scripts/convert-all-to-cube.mjs 2.0.0
# LUTr-Conversion-Date: 2026-07-27
# LUTr-Note: Preserve this metadata and the upstream license notices when redistributing.
TITLE "polaroid px-100uv+ cold +++"
LUT_3D_SIZE 25
DOMAIN_MIN 0 0 0
DOMAIN_MAX 1 1 1
0.38039216 0.41176471 0.41176471
0.38039216 0.41176471 0.41176471
0.38431373 0.4127451 0.4127451
0.38431373 0.41568627 0.41568627
0.38823529 0.41960784 0.41568627
0.39215686 0.41960784 0.41960784
0.39215686 0.42352941 0.41960784
0.39607843 0.42352941 0.42352941
0.39607843 0.42745098 0.42352941
0.4 0.42745098 0.42352941
0.4 0.42745098 0.4245098
0.4 0.43088235 0.42745098
0.40392157 0.43137255 0.42745098
0.40490196 0.43186275 0.42794118
0.42156863 0.44607843 0.43823529
0.43676471 0.46176471 0.45245098
0.45490196 0.47843137 0.4627451
0.46911765 0.49264706 0.4754902
0.48333333 0.50686275 0.4872549
0.49754902 0.52058824 0.49754902
0.51372549 0.53333333 0.50784314
0.53431373 0.5504902 0.52205882
0.56176471 0.57745098 0.53921569
0.59656863 0.60686275 0.55980392
0.61960784 0.62745098 0.57647059
0.38431373 0.41568627 0.41568627
0.38431373 0.41568627 0.41421569
0.38431373 0.41568627 0.41568627
0.38431373 0.41568627 0.41568627
0.38823529 0.41960784 0.41764706
0.39215686 0.42009804 0.41960784
0.39509804 0.42352941 0.42144608
0.39607843 0.42653186 0.42352941
0.39852941 0.42745098 0.42352941
0.4 0.42745098 0.42506127
0.40061275 0.43026961 0.42745098
0.40392157 0.43137255 0.42745098
0.40392157 0.43137255 0.42745098
0.40833333 0.43578431 0.43167892
0.42218137 0.44791667 0.44178922
0.43768382 0.46176471 0.45245098
0.45490196 0.47843137 0.4627451
0.46911765 0.49209559 0.47303922
0.48333333 0.50686275 0.4872549
0.49754902 0.52058824 0.49754902
0.51372549 0.53333333 0.50784314
0.53431373 0.5504902 0.52205882
0.56176471 0.57745098 0.53921569
0.59656863 0.60686275 0.55980392
0.61960784 0.62990196 0.57647059
0.38529412 0.41568627 0.41568627
0.38431373 0.41568627 0.41568627
0.38529412 0.41593137 0.41568627
0.38823529 0.4192402 0.41568627
0.39019608 0.41960784 0.41960784
0.39215686 0.42352941 0.41960784
0.39607843 0.42352941 0.42352941
0.39644608 0.42745098 0.42352941
0.4 0.42745098 0.4245098
0.40061275 0.43026961 0.42745098
0.40392157 0.43137255 0.42745098
0.40392157 0.43223039 0.42830882
0.40784314 0.43529412 0.43137255
0.4122549 0.43970588 0.43541667
0.4254902 0.45 0.44215686
0.43884804 0.46421569 0.45245098
0.45490196 0.47843137 0.46372549
0.46911765 0.49264706 0.47696078
0.48333333 0.50686275 0.4872549
0.49754902 0.52058824 0.49754902
0.51323529 0.53333333 0.50784314
0.53443627 0.5504902 0.52205882
0.56176471 0.57745098 0.53921569
0.59264706 0.60441176 0.55980392
0.62254902 0.63039216 0.57647059
0.38823529 0.41960784 0.41568627
0.38823529 0.41960784 0.41568627
0.38823529 0.41960784 0.41568627
0.38823529 0.41960784 0.41954657
0.39191176 0.42156863 0.41960784
0.39264706 0.42352941 0.42009804
0.39607843 0.42647059 0.42352941
0.39969363 0.42745098 0.42352941
0.4 0.43088235 0.42745098
0.40392157 0.43137255 0.42745098
0.40477941 0.43223039 0.43088235
0.40784314 0.43529412 0.43137255
0.41151961 0.43897059 0.43308824
0.41617647 0.44356618 0.43878676
0.42647059 0.45392157 0.44607843
0.44197304 0.46568627 0.45637255
0.45490196 0.47843137 0.46666667
0.47126225 0.49264706 0.47696078
0.48431373 0.50686275 0.4872549
0.49754902 0.52101716 0.49754902
0.51372549 0.53333333 0.50784314
0.53131127 0.5504902 0.52205882
0.56176471 0.57487745 0.53921569
0.58921569 0.603125 0.55618873
0.61568627 0.62401961 0.57254902
0.39019608 0.41960784 0.41960784
0.39019608 0.41960784 0.41960784
0.39019608 0.41960784 0.41960784
0.39019608 0.42132353 0.41960784
0.39215686 0.42352941 0.41960784
0.39264706 0.42352941 0.42352941
0.39607843 0.42745098 0.42352941
0.4 0.42745098 0.425
0.4 0.43137255 0.42745098
0.40392157 0.43137255 0.42745098
0.40784314 0.43529412 0.43137255
0.41127451 0.43872549 0.43308824
0.41372549 0.44117647 0.43627451
0.42009804 0.44730392 0.43970588
0.43039216 0.45735294 0.44803922
0.44460784 0.46813725 0.45637255
0.45882353 0.48235294 0.46666667
0.47303922 0.49509804 0.47696078
0.4872549 0.50784314 0.4872549
0.50122549 0.52107843 0.49754902
0.51666667 0.53627451 0.50980392
0.53431373 0.55367647 0.52205882
0.55784314 0.57401961 0.53627451
0.58676471 0.59901961 0.55514706
0.60980392 0.61960784 0.56862745
0.39215686 0.42352941 0.41960784
0.39215686 0.42352941 0.41960784
0.39215686 0.42352941 0.41960784
0.39215686 0.42352941 0.41960784
0.39215686 0.42352941 0.41960784
0.39607843 0.42401961 0.42352941
0.39607843 0.42745098 0.42352941
0.4 0.42892157 0.42530637
0.40392157 0.43137255 0.42745098
0.40422794 0.43382353 0.42990196
0.40784314 0.43529412 0.43137255
0.41127451 0.43878676 0.4348652
0.41372549 0.44117647 0.4372549
0.42009804 0.44754902 0.44313725
0.43345588 0.45784314 0.45
0.44479167 0.46991422 0.45900735
0.45882353 0.48235294 0.46666667
0.47303922 0.49656863 0.47696078
0.48823529 0.51078431 0.48860294
0.50496324 0.525 0.50147059
0.51960784 0.53921569 0.51176471
0.53823529 0.55741422 0.52297794
0.55882353 0.5745098 0.53664216
0.58480392 0.59656863 0.55226716
0.60784314 0.61568627 0.56862745
0.39509804 0.42352941 0.42254902
0.39509804 0.42352941 0.42254902
0.39215686 0.42352941 0.42254902
0.39215686 0.42352941 0.41997549
0.39215686 0.42352941 0.42254902
0.39607843 0.42659314 0.42352941
0.39607843 0.42745098 0.42352941
0.4 0.42892157 0.42745098
0.40392157 0.43137255 0.42745098
0.40637255 0.43529412 0.43137255
0.40784314 0.43529412 0.43137255
0.41176471 0.43921569 0.43529412
0.41372549 0.44117647 0.4372549
0.42009804 0.44754902 0.44313725
0.43431373 0.46004902 0.45
0.44607843 0.47205882 0.46029412
0.45882353 0.48235294 0.46960784
0.4754902 0.49840686 0.48051471
0.49191176 0.51176471 0.49117647
0.50539216 0.52757353 0.50147059
0.52156863 0.54117647 0.51176471
0.54215686 0.55784314 0.52598039
0.5627451 0.57843137 0.54019608
0.58664216 0.59901961 0.55441176
0.60784314 0.61568627 0.56862745
0.39607843 0.42745098 0.42352941
0.39607843 0.42745098 0.42352941
0.39607843 0.42745098 0.42352941
0.39607843 0.42745098 0.42352941
0.39607843 0.42745098 0.42352941
0.39607843 0.42745098 0.42352941
0.39901961 0.42745098 0.42352941
0.4 0.43137255 0.42745098
0.40392157 0.43137255 0.42745098
0.40784314 0.43529412 0.43137255
0.40821078 0.43627451 0.43235294
0.41176471 0.43921569 0.43529412
0.41372549 0.44117647 0.4372549
0.42058824 0.44754902 0.44362745
0.43431373 0.46115196 0.45036765
0.44852941 0.47205882 0.46029412
0.4627451 0.48627451 0.47058824
0.4754902 0.49810049 0.48088235
0.49117647 0.51176471 0.49117647
0.50539216 0.52714461 0.50147059
0.52156863 0.54117647 0.51372549
0.54607843 0.56176471 0.52647059
0.56997549 0.58345588 0.5435049
0.59117647 0.60386029 0.55680147
0.60931373 0.61960784 0.56862745
0.4 0.43137255 0.42745098
0.4 0.43137255 0.42745098
0.4 0.43137255 0.42745098
0.4 0.43137255 0.42401961
0.39803922 0.42745098 0.42352941
0.39656863 0.42745098 0.42352941
0.4 0.42745098 0.42352941
0.4 0.43137255 0.42745098
0.40392157 0.43137255 0.42745098
0.40784314 0.43529412 0.43137255
0.41176471 0.43921569 0.43529412
0.41176471 0.43921569 0.43529412
0.41568627 0.44313725 0.43921569
0.42058824 0.44754902 0.44362745
0.43431373 0.46176471 0.45392157
0.44852941 0.47598039 0.46421569
0.4627451 0.48627451 0.47058824
0.47303922 0.49656863 0.48088235
0.48823529 0.51078431 0.49117647
0.50490196 0.525 0.50147059
0.52156863 0.54117647 0.51372549
0.54656863 0.5622549 0.52990196
0.57352941 0.58921569 0.54705882
0.59901961 0.61078431 0.5622549
0.61568627 0.62352941 0.57254902
0.41029412 0.4377451 0.43382353
0.40876225 0.4377451 0.43229167
0.40637255 0.4377451 0.43137255
0.40637255 0.43560049 0.42990196
0.40392157 0.43382353 0.42990196
0.40245098 0.43351716 0.42745098
0.40245098 0.43137255 0.42745098
0.40091912 0.43137255 0.42745098
0.40392157 0.43137255 0.42745098
0.409375 0.43682598 0.43137255
0.41875 0.44509804 0.43872549
0.41973039 0.44558824 0.44166667
0.42083333 0.44754902 0.44166667
0.42665441 0.45392157 0.44754902
0.44068627 0.46568627 0.45637255
0.45245098 0.47843137 0.46574755
0.4627451 0.48872549 0.4745098
0.47303922 0.49656863 0.48088235
0.48541667 0.50784314 0.4872549
0.50116422 0.5245098 0.50116422
0.5247549 0.54436275 0.51495098
0.55294118 0.56862745 0.53284314
0.58198529 0.59558824 0.55098039
0.60931373 0.61715686 0.56862745
0.62598039 0.63382353 0.57892157
0.41666667 0.44705882 0.43921569
0.41666667 0.44705882 0.43921569
0.41666667 0.44411765 0.43848039
0.41580882 0.44411765 0.43627451
0.4127451 0.44215686 0.43578431
0.4122549 0.44007353 0.43235294
0.40882353 0.43627451 0.43235294
0.40735294 0.43480392 0.43026961
0.40490196 0.43235294 0.42843137
0.41237745 0.43982843 0.43480392
0.42132353 0.44730392 0.44093137
0.4245098 0.45196078 0.44669118
0.43039216 0.45784314 0.45
0.44068627 0.46421569 0.45637255
0.45098039 0.4745098 0.46348039
0.46127451 0.48480392 0.47205882
0.46764706 0.49411765 0.47843137
0.47732843 0.50085784 0.48296569
0.48333333 0.50686275 0.4879902
0.50453431 0.52536765 0.50110294
0.53235294 0.55 0.51862745
0.56188725 0.575 0.53823529
0.59019608 0.60196078 0.55588235
0.61678922 0.62647059 0.57438725
0.63627451 0.64019608 0.58529412
0.42352941 0.45441176 0.44313725
0.42352941 0.45441176 0.44313725
0.42352941 0.45441176 0.44313725
0.42303922 0.45441176 0.44313725
0.42303922 0.4504902 0.44264706
0.41911765 0.45 0.44221814
0.41911765 0.44656863 0.43872549
0.41911765 0.4463848 0.43872549
0.41911765 0.44656863 0.43872549
0.42156863 0.44901961 0.44136029
0.42794118 0.45453431 0.44669118
0.434375 0.45876225 0.45091912
0.44068627 0.46617647 0.45661765
0.45098039 0.4745098 0.46317402
0.46127451 0.48480392 0.47046569
0.47156863 0.49509804 0.478125
0.47794118 0.50147059 0.48578431
0.48578431 0.50931373 0.48970588
0.49546569 0.51813725 0.49718137
0.5122549 0.53572304 0.50876225
0.53897059 0.55833333 0.525
0.56917892 0.58480392 0.54215686
0.59669118 0.60845588 0.5622549
0.62598039 0.63382353 0.57922794
0.64656863 0.6504902 0.59166667
0.43333333 0.46078431 0.44901961
0.43333333 0.46078431 0.45098039
0.43333333 0.46078431 0.45098039
0.43333333 0.46078431 0.45098039
0.43333333 0.46078431 0.45
0.43333333 0.46078431 0.44901961
0.43333333 0.45931373 0.44901961
0.43333333 0.45955882 0.44901961
0.43333333 0.46078431 0.44901961
0.43333333 0.45882353 0.44901961
0.4372549 0.46176471 0.45343137
0.44289216 0.46813725 0.45857843
0.45 0.4745098 0.46372549
0.45931373 0.48480392 0.47083333
0.46960784 0.49313725 0.47794118
0.47867647 0.50147059 0.48578431
0.49019608 0.51176471 0.49215686
0.50171569 0.52328431 0.5
0.51470588 0.53480392 0.50882353
0.53063725 0.5502451 0.51911765
0.55098039 0.56862745 0.53333333
0.57598039 0.59142157 0.5497549
0.60686275 0.61715686 0.56715686
0.63382353 0.64019608 0.58455882
0.65686275 0.66078431 0.59803922
0.44411765 0.47156863 0.45931373
0.44411765 0.47156863 0.45931373
0.44497549 0.47156863 0.45931373
0.44754902 0.47156863 0.45931373
0.44754902 0.475 0.45931373
0.44754902 0.47457108 0.45980392
0.44803922 0.47156863 0.46323529
0.44803922 0.475 0.46323529
0.44803922 0.47156863 0.46323529
0.44754902 0.47107843 0.46078431
0.44754902 0.47107843 0.46017157
0.45055147 0.4745098 0.46323529
0.45735294 0.48088235 0.46911765
0.46764706 0.49117647 0.47849265
0.47794118 0.50147059 0.48578431
0.49215686 0.51354167 0.49430147
0.50637255 0.52598039 0.50245098
0.51715686 0.53676471 0.5127451
0.53223039 0.55061275 0.51911765
0.54859069 0.5651348 0.52941176
0.56568627 0.58112745 0.54362745
0.58676471 0.60196078 0.55741422
0.61715686 0.62598039 0.57463235
0.64411765 0.6504902 0.58988971
0.66323529 0.66715686 0.6004902
0.46078431 0.48529412 0.46960784
0.46176471 0.48529412 0.46960784
0.46176471 0.48529412 0.46960784
0.46176471 0.48529412 0.46960784
0.46176471 0.48529412 0.47352941
0.46176471 0.48529412 0.47352941
0.46397059 0.48529412 0.47352941
0.46470588 0.48529412 0.47352941
0.46176471 0.48529412 0.47352941
0.46115196 0.48529412 0.47291667
0.45784314 0.48137255 0.46960784
0.45784314 0.48137255 0.47046569
0.46421569 0.4877451 0.47598039
0.47794118 0.50147059 0.48578431
0.49191176 0.51397059 0.49240196
0.5057598 0.52598039 0.50245098
0.51960784 0.54019608 0.5127451
0.53443627 0.55232843 0.52303922
0.54828431 0.56544118 0.52941176
0.56568627 0.5814951 0.53970588
0.58235294 0.59656863 0.55392157
0.60306373 0.61482843 0.56470588
0.63063725 0.63921569 0.58137255
0.65441176 0.66078431 0.59473039
0.67352941 0.6745098 0.60392157
0.47745098 0.50098039 0.48382353
0.47653186 0.4995098 0.48045343
0.47598039 0.4995098 0.47990196
0.47598039 0.4995098 0.47990196
0.47598039 0.4995098 0.48112745
0.47616422 0.4995098 0.48382353
0.47745098 0.4995098 0.48382353
0.47745098 0.4995098 0.48382353
0.47745098 0.4995098 0.48382353
0.47598039 0.49797794 0.48382353
0.47352941 0.49669118 0.48137255
0.47352941 0.49558824 0.48118873
0.47941176 0.50220588 0.48578431
0.49215686 0.51194853 0.49215686
0.5057598 0.52598039 0.50245098
0.51905637 0.53866422 0.5127451
0.53480392 0.5504902 0.52303922
0.54810049 0.56470588 0.53241422
0.56360294 0.57928922 0.53970588
0.58088235 0.59442402 0.55
0.59828431 0.61004902 0.56029412
0.61832108 0.62745098 0.5745098
0.64264706 0.6504902 0.5877451
0.66715686 0.66960784 0.60147059
0.68382353 0.68382353 0.60931373
0.49411765 0.51372549 0.49411765
0.49166667 0.51372549 0.49411765
0.49019608 0.51372549 0.49019608
0.49019608 0.50980392 0.49019608
0.49019608 0.50980392 0.49019608
0.49019608 0.51372549 0.49411765
0.49313725 0.51372549 0.49411765
0.49411765 0.51519608 0.49558824
0.49411765 0.51372549 0.49411765
0.49411765 0.51372549 0.49411765
0.49019608 0.51372549 0.49411765
0.49362745 0.51372549 0.49411765
0.5 0.52156863 0.5
0.50637255 0.52941176 0.50588235
0.51960784 0.53627451 0.5127451
0.53235294 0.5504902 0.52303922
0.54509804 0.56470588 0.52941176
0.56176471 0.57745098 0.53970588
0.57843137 0.59313725 0.55
0.59509804 0.60735294 0.56029412
0.61568627 0.6254902 0.57058824
0.63627451 0.64362745 0.58088235
0.65686275 0.66078431 0.59509804
0.67745098 0.67990196 0.60539216
0.69411765 0.69411765 0.61568627
0.51078431 0.53039216 0.50441176
0.50833333 0.52886029 0.50441176
0.50625 0.52647059 0.50232843
0.503125 0.52401961 0.5004902
0.50367647 0.52401961 0.5004902
0.50441176 0.52432598 0.50226716
0.50796569 0.52757353 0.50441176
0.51078431 0.53094363 0.50833333
0.51078431 0.53186275 0.50833333
0.51078431 0.53039216 0.50833333
0.51115196 0.5307598 0.50833333
0.51470588 0.53431373 0.51047794
0.5245098 0.54338235 0.51544118
0.53088235 0.55 0.52040441
0.53786765 0.55686275 0.52585784
0.5466299 0.56323529 0.53186275
0.55931373 0.575 0.53970588
0.57598039 0.59074755 0.55
0.59509804 0.60625 0.56029412
0.61323529 0.62371324 0.57058824
0.63235294 0.64093137 0.58088235
0.65294118 0.65814951 0.59117647
0.67352941 0.67561275 0.60147059
0.69166667 0.69319853 0.61323529
0.70686275 0.70686275 0.62205882
0.53137255 0.54803922 0.51862745
0.52781863 0.54705882 0.51678922
0.52426471 0.54313725 0.51544118
0.52009804 0.53970588 0.51213235
0.51862745 0.53823529 0.51078431
0.51997549 0.53958333 0.51213235
0.52352941 0.54313725 0.51544118
0.52745098 0.54644608 0.51862745
0.52745098 0.54705882 0.51862745
0.52745098 0.54705882 0.5192402
0.52843137 0.54803922 0.52034314
0.53872549 0.5557598 0.52610294
0.54607843 0.56470588 0.53088235
0.55539216 0.57107843 0.53566176
0.5627451 0.57769608 0.54142157
0.56911765 0.58480392 0.54644608
0.57941176 0.59411765 0.55098039
0.59546569 0.60833333 0.56029412
0.61495098 0.62352941 0.57058824
0.63247549 0.64019608 0.58088235
0.65294118 0.65686275 0.59117647
0.67352941 0.67610294 0.60147059
0.69093137 0.69338235 0.61176471
0.71041667 0.70870098 0.62205882
0.72352941 0.71960784 0.63235294
0.55931373 0.575 0.53627451
0.55882353 0.575 0.53627451
0.55490196 0.57107843 0.53235294
0.55104167 0.56715686 0.53235294
0.55098039 0.56666667 0.53014706
0.55098039 0.56715686 0.53192402
0.55098039 0.56715686 0.53235294
0.55018382 0.56715686 0.53235294
0.54754902 0.56715686 0.53284314
0.54411765 0.56372549 0.53284314
0.55245098 0.57120098 0.53639706
0.5627451 0.57892157 0.540625
0.57303922 0.58897059 0.54828431
0.58333333 0.59859069 0.5528799
0.59362745 0.60539216 0.55894608
0.60214461 0.61207108 0.56390931
0.61029412 0.61862745 0.56764706
0.62303922 0.63106618 0.5745098
0.63970588 0.64669118 0.58468137
0.65729167 0.66127451 0.59460784
0.67696078 0.67916667 0.60539216
0.69411765 0.6971201 0.61568627
0.71433824 0.71090686 0.62598039
0.72990196 0.72598039 0.63235294
0.74068627 0.73627451 0.64264706
0.6 0.61176471 0.56078431
0.59754902 0.60857843 0.55882353
0.59509804 0.60539216 0.55686275
0.59215686 0.60392157 0.55490196
0.59215686 0.60392157 0.55490196
0.59215686 0.60392157 0.55490196
0.59215686 0.60392157 0.55637255
0.58946078 0.60318627 0.55612745
0.58627451 0.6 0.55490196
0.58431373 0.6 0.55490196
0.58823529 0.60245098 0.55686275
0.59558824 0.60931373 0.56078431
0.60686275 0.61960784 0.56666667
0.62009804 0.62990196 0.57303922
0.62892157 0.63676471 0.57941176
0.63602941 0.64264706 0.58186275
0.64117647 0.64901961 0.58431373
0.65147059 0.65735294 0.59068627
0.66666667 0.67009804 0.59901961
0.68529412 0.68578431 0.60931373
0.70392157 0.70294118 0.61960784
0.72034314 0.71813725 0.62965686
0.73627451 0.73235294 0.63676471
0.7504902 0.74264706 0.64509804
0.75882353 0.75098039 0.64901961
0.64117647 0.64901961 0.58529412
0.64117647 0.6463848 0.58186275
0.6372549 0.64460784 0.58137255
0.6372549 0.64117647 0.58137255
0.6372549 0.64289216 0.58137255
0.6372549 0.64117647 0.58137255
0.63468137 0.64117647 0.58137255
0.63333333 0.64117647 0.58137255
0.62990196 0.6372549 0.58137255
0.62941176 0.6372549 0.58008578
0.6307598 0.64080882 0.5814951
0.63768382 0.64509804 0.5848652
0.64754902 0.65490196 0.58946078
0.66035539 0.66427696 0.59705882
0.66458333 0.66813725 0.59705882
0.66991422 0.67352941 0.60098039
0.67647059 0.67990196 0.60490196
0.68627451 0.68627451 0.60863971
0.69656863 0.69620098 0.61372549
0.71378676 0.71029412 0.62352941
0.73063725 0.72647059 0.63382353
0.74656863 0.73964461 0.640625
0.75955882 0.75257353 0.6504902
0.76519608 0.75735294 0.65275735
0.76911765 0.76078431 0.65490196
0.68627451 0.68627451 0.60980392
0.68345588 0.68627451 0.60882353
0.68210784 0.68235294 0.60588235
0.68137255 0.68235294 0.60588235
0.68137255 0.68235294 0.60588235
0.68137255 0.68235294 0.60588235
0.67916667 0.68235294 0.60588235
0.67843137 0.68125 0.60588235
0.6745098 0.67843137 0.60490196
0.6745098 0.67843137 0.60490196
0.6754902 0.67941176 0.60588235
0.68223039 0.68578431 0.60968137
0.69215686 0.69264706 0.61372549
0.69816176 0.69816176 0.61764706
0.70122549 0.70122549 0.61764706
0.70625 0.70441176 0.62156863
0.71078431 0.71078431 0.62254902
0.7182598 0.71531863 0.62610294
0.72745098 0.72352941 0.63112745
0.74117647 0.73468137 0.6377451
0.75637255 0.74901961 0.64754902
0.76985294 0.76029412 0.65441176
0.7752451 0.76740196 0.65784314
0.7754902 0.76764706 0.65882353
0.77647059 0.76764706 0.65882353
0.72598039 0.72058824 0.63039216
0.72352941 0.71905637 0.63039216
0.72205882 0.71813725 0.63039216
0.72205882 0.71813725 0.63039216
0.72352941 0.71960784 0.63039216
0.72334559 0.71960784 0.63039216
0.72205882 0.71813725 0.63039216
0.72113971 0.71813725 0.63039216
0.71960784 0.71813725 0.63039216
0.71960784 0.71568627 0.63039216
0.71997549 0.7185049 0.63039216
0.72696078 0.72334559 0.63400735
0.73063725 0.72598039 0.63431373
0.73382353 0.7286152 0.63676471
0.73382353 0.72990196 0.63676471
0.73921569 0.73382353 0.63823529
0.74558824 0.7377451 0.64215686
0.75196078 0.74411765 0.64460784
0.75833333 0.7504902 0.64889706
0.76862745 0.75949755 0.65343137
0.78137255 0.77279412 0.66102941
0.78578431 0.77794118 0.66421569
0.78578431 0.77683824 0.66421569
0.78578431 0.77647059 0.6627451
0.78578431 0.77401961 0.6627451
0.75294118 0.74509804 0.64705882
0.74901961 0.74117647 0.64313725
0.74901961 0.74215686 0.64313725
0.74901961 0.74509804 0.64656863
0.75294118 0.74509804 0.64705882
0.75294118 0.74509804 0.64705882
0.75294118 0.74509804 0.64705882
0.75294118 0.74509804 0.64705882
0.75686275 0.74901961 0.65098039
0.75686275 0.74901961 0.65098039
0.76176471 0.75392157 0.65196078
0.76078431 0.75294118 0.65147059
0.75686275 0.74901961 0.65098039
0.75686275 0.74901961 0.65098039
0.75980392 0.75294118 0.65098039
0.76470588 0.75686275 0.65098039
0.76862745 0.76078431 0.65490196
0.775 0.76715686 0.65882353
0.78431373 0.77352941 0.6627451
0.79558824 0.78382353 0.66666667
0.79803922 0.78627451 0.67058824
0.79607843 0.78431373 0.66666667
0.79313725 0.78431373 0.66666667
0.79215686 0.78039216 0.66666667
0.79215686 0.78039216 0.66666667
0.38039216 0.41176471 0.41176471
0.38039216 0.41176471 0.41176471
0.38431373 0.4127451 0.41213235
0.38431373 0.41568627 0.41568627
0.38823529 0.41960784 0.41568627
0.39215686 0.41960784 0.41960784
0.39215686 0.42352941 0.41960784
0.39607843 0.425 0.42352941
0.39852941 0.42745098 0.42352941
0.4 0.42745098 0.42506127
0.40061275 0.43137255 0.42745098
0.40392157 0.43137255 0.42745098
0.40514706 0.43259804 0.42867647
0.41096814 0.43823529 0.43400735
0.425 0.45183824 0.44215686
0.44160539 0.4651348 0.45490196
0.45735294 0.48088235 0.46666667
0.47248775 0.49601716 0.47849265
0.48786765 0.50968137 0.48970588
0.5036152 0.52352941 0.5
0.52009804 0.53848039 0.51176471
0.54068627 0.55655637 0.52469363
0.56629902 0.58198529 0.54313725
0.59509804 0.60686275 0.5588848
0.61568627 0.625 0.57254902
0.38431373 0.41568627 0.41476716
0.38431373 0.41568627 0.41421569
0.38431373 0.41568627 0.41568627
0.38431373 0.41568627 0.41568627
0.38823529 0.41960784 0.41764706
0.39215686 0.42009804 0.41960784
0.39509804 0.42352941 0.42254902
0.39607843 0.42745098 0.42352941
0.4 0.42745098 0.42352941
0.4 0.42840839 0.42724418
0.40350797 0.43137255 0.42745098
0.40392157 0.43137255 0.42745098
0.40637255 0.43382353 0.42990196
0.41378676 0.43970588 0.43511795
0.42610294 0.4522212 0.44460784
0.44160539 0.4651348 0.45490196
0.45735294 0.48088235 0.46666667
0.47248775 0.49601716 0.47753523
0.48786765 0.50968137 0.48970588
0.5036152 0.52322304 0.5
0.52009804 0.53848039 0.51130515
0.54068627 0.55655637 0.52469363
0.56813725 0.58198529 0.54313725
0.59656863 0.60778186 0.56076134
0.61868873 0.62745098 0.575
0.38431373 0.41568627 0.41568627
0.38431373 0.41568627 0.41568627
0.38529412 0.41593137 0.41568627
0.38823529 0.4192402 0.41568627
0.39019608 0.41960784 0.41960784
0.39215686 0.42352941 0.41960784
0.39607843 0.42352941 0.42352941
0.39644608 0.42745098 0.42352941
0.4 0.42745098 0.4245098
0.40061275 0.43137255 0.42745098
0.40392157 0.43137255 0.42745098
0.40477941 0.43391544 0.43003983
0.40925245 0.43578431 0.43167892
0.41617647 0.44252451 0.43632047
0.42693015 0.45364583 0.44497549
0.44160539 0.46721814 0.45568321
0.45735294 0.48088235 0.46666667
0.47248775 0.49601716 0.47696078
0.48786765 0.50968137 0.48970588
0.50147059 0.52322304 0.5
