site/assets/luts/sha256-6c04c088d86cb5bc034f2c1f70fc26f53e07379579174c9952b9bff85121c876.cube
# LUTr-Schema-Version: 2
# LUTr-ID: sha256-6c04c088d86cb5bc034f2c1f70fc26f53e07379579174c9952b9bff85121c876
# LUTr-Title: polaroid time zero (expired) --
# LUTr-Collection: Natron HaldCLUT
# LUTr-Collection-ID: natron-haldclut-presets
# LUTr-Source: https://github.com/NatronGitHub/clut
# LUTr-Retrieved: 2026-07-27
# LUTr-Source-File: submissions/natron-haldclut-presets/instant_consumer/polaroid_time_zero_(expired)_--.png
# LUTr-Source-Format: HALD-PNG
# LUTr-Source-SHA256: 6c04c088d86cb5bc034f2c1f70fc26f53e07379579174c9952b9bff85121c876
# LUTr-License: CC-BY-SA-4.0
# LUTr-License-URL: https://github.com/NatronGitHub/clut#license
# LUTr-License-Basis: repo-license-file
# LUTr-Transform-Class: film-emulation
# LUTr-Tags: creative, film, film-emulation, hald-clut, natron, png, cube
# LUTr-Input-Color-Space: srgb
# LUTr-Input-Gamut: rec709
# LUTr-Input-Transfer: srgb
# LUTr-Output-Color-Space: srgb
# LUTr-Output-Gamut: rec709
# LUTr-Output-Transfer: srgb
# LUTr-Color-Space-Confidence: assumed-display-referred
# LUTr-Domain-Normalized: true
# LUTr-Shaper: none
# LUTr-Original-Grid: 64x64x64
# LUTr-Conversion-Grid: 25x25x25
# LUTr-Conversion-Interpolation: trilinear
# LUTr-Conversion-Method: HALD-PNG LUT image decoded at 16-bit and sampled to 25x25x25 3D CUBE
# LUTr-Conversion-Tool: LUTr scripts/convert-all-to-cube.mjs 2.0.0
# LUTr-Conversion-Date: 2026-07-27
# LUTr-Note: Preserve this metadata and the upstream license notices when redistributing.
TITLE "polaroid time zero (expired) --"
LUT_3D_SIZE 9
DOMAIN_MIN 0 0 0
DOMAIN_MAX 1 1 1
0.24705882 0.074509804 0.035294118
0.2745098 0.074509804 0.035294118
0.30490196 0.070588235 0.035294118
0.34705882 0.060294118 0.029901961
0.46666667 0.017647059 0.033333333
0.59411765 0 0.022058824
0.73431373 0.0039215686 0.015686275
0.87205882 0.012745098 0.0078431373
0.96862745 0.058823529 0.0078431373
0.25490196 0.10931373 0.027941176
0.27401961 0.10539216 0.027941176
0.3122549 0.10110294 0.024019608
0.36341912 0.090686275 0.023529412
0.4745098 0.059313725 0.021813725
0.60539216 0.0042892157 0.0065563725
0.7495098 0 0.0039215686
0.87647059 0.00006127451 0.00049019608
0.97205882 0.14705882 0
0.27352941 0.17254902 0.016666667
0.28786765 0.16568627 0.013112745
0.32647059 0.16102941 0.0080882353
0.39289216 0.16066176 0.0049019608
0.50392157 0.1627451 0.0078431373
0.62843137 0.15196078 0
0.77156863 0.13529412 0
0.87598039 0.16715686 0.0039215686
0.95686275 0.25098039 0
0.30441176 0.28039216 0.0014705882
0.34509804 0.29068627 0.0039215686
0.39117647 0.29852941 0.0039215686
0.46715686 0.29699755 0
0.56764706 0.29460784 0.0039215686
0.67745098 0.30637255 0
0.80147059 0.31311275 0.0039215686
0.88204657 0.33823529 0.0039215686
0.95686275 0.38235294 0
0.38627451 0.42941176 0
0.42083333 0.4372549 0
0.45539216 0.4372549 0
0.54068627 0.44117647 0
0.63137255 0.44901961 0
0.73137255 0.46617647 0
0.82205882 0.48137255 0.0039215686
0.89509804 0.49828431 0.0039215686
0.95882353 0.51764706 0.0019607843
0.46715686 0.5745098 0
0.49803922 0.5745098 0
0.54362745 0.57745098 0
0.60692402 0.58627451 0
0.68970588 0.59142157 0
0.76519608 0.60196078 0.0039215686
0.83872549 0.61862745 0
0.9004902 0.62334559 0.010784314
0.95294118 0.64117647 0
0.57156863 0.69803922 0
0.57156863 0.69411765 0
0.61568627 0.69313725 0
0.66507353 0.68529412 0.0039215686
0.725 0.68921569 0.0039215686
0.79215686 0.70428922 0.0039215686
0.85784314 0.72377451 0.0036764706
0.90772059 0.73933824 0.20061275
0.94509804 0.74019608 0.24313725
0.66029412 0.78970588 0.0039215686
0.66029412 0.78927696 0.0034926471
0.6814951 0.78529412 0.0042892157
0.725 0.77401961 0.0078431373
0.76936275 0.77598039 0.0078431373
0.82334559 0.78547794 0.012254902
0.87683824 0.79840686 0.0089460784
0.91905637 0.80098039 0.28333333
0.9495098 0.81617647 0.45980392
0.74117647 0.85882353 0
0.74509804 0.85539216 0.0039215686
0.75196078 0.84705882 0.010784314
0.77892157 0.84705882 0.010294118
0.81960784 0.85294118 0.0078431373
0.86421569 0.86372549 0.020588235
0.91078431 0.86568627 0.28921569
0.9377451 0.8504902 0.40147059
0.96470588 0.85882353 0.54509804
0.25882353 0.078431373 0.054411765
0.27058824 0.078431373 0.050490196
0.28970588 0.070588235 0.050490196
0.36029412 0.05245098 0.050490196
0.46642157 0.025 0.05
0.60324755 0.0076593137 0.048713235
0.75 0 0.03872549
0.87254902 0.0039215686 0.042647059
0.96421569 0.069607843 0.05
0.25882353 0.10147059 0.042708333
0.27401961 0.098039216 0.043512561
0.30736826 0.10099571 0.042662377
0.3754902 0.092869179 0.047058824
0.48921569 0.063449755 0.042647059
0.61817555 0.0254519 0.034620098
0.75997243 0.017156863 0.026531863
0.88382353 0.020036765 0.027879902
0.96519608 0.1471201 0.041727941
0.2692402 0.1627451 0.024509804
0.2919424 0.16960784 0.024019608
0.33112745 0.16240809 0.027941176
0.4073989 0.16729473 0.024019608
0.52009804 0.165625 0.014889706
0.64148284 0.15453431 0.00098039216
0.77843137 0.15291054 0
0.8877451 0.19068627 0.023161765
0.95392157 0.25453431 0.016176471
0.31813725 0.28676471 0.015379902
0.339928 0.28805147 0.0078431373
0.39509804 0.29571078 0.016651348
0.47885263 0.30153186 0.01127451
0.57647059 0.30245098 0.0039215686
0.68363205 0.30606618 0.0039215686
0.79986213 0.31127451 0.0039215686
0.8877451 0.34215686 0.0052083333
0.95324755 0.37843137 0
0.38431373 0.43137255 0.0056372549
0.41887255 0.4372549 0.0056372549
0.46470588 0.44313725 0.0039215686
0.55196078 0.44509804 0
0.64007353 0.45208333 0
0.73186275 0.4622549 0.0039215686
0.82015931 0.47254902 0.0039215686
0.89558824 0.4924326 0.008057598
0.95294118 0.51372549 0.0058823529
0.46323529 0.57794118 0
0.4939568 0.57839308 0
0.53823529 0.57843137 0
0.60637255 0.58154871 0.0039215686
0.68578431 0.58832721 0.0017156863
0.7705193 0.60251225 0.0011795343
0.84246324 0.62189032 0.0081648284
0.90294118 0.63333333 0.013051471
0.94852941 0.64068627 0.0014705882
0.56470588 0.68933824 0.0078431373
0.5754902 0.69701287 0.0039215686
0.60808824 0.69378064 0.0029105392
0.66176471 0.68921569 0.0078431373
0.73284314 0.69313725 0.0078431373
0.79603248 0.70632659 0.0065104167
0.85784314 0.7254902 0.011397059
0.9064951 0.73696385 0.22884498
0.9442402 0.74448529 0.27745098
0.65980392 0.78529412 0.011764706
0.66404718 0.7857307 0.011764706
0.68627451 0.78186275 0.0083333333
0.7250383 0.77401961 0.0099877451
0.77303922 0.77794118 0.015686275
0.82551317 0.78966759 0.012254902
0.87696078 0.80050551 0.073360907
0.92254902 0.80447304 0.30931373
0.94901961 0.81617647 0.46672794
0.72892157 0.84705882 0.019607843
0.73719363 0.85098039 0.0074142157
0.75588235 0.85355392 0.018382353
0.78284314 0.85226716 0.010294118
0.81568627 0.85098039 0.017892157
0.86207108 0.86060049 0.061458333
0.91078431 0.85882353 0.30147059
0.94166667 0.85533088 0.43719363
0.96127451 0.85882353 0.53823529
0.27745098 0.078431373 0.080392157
0.27794118 0.078431373 0.08002451
0.30490196 0.074509804 0.086029412
0.36605392 0.064215686 0.088848039
0.47401961 0.030392157 0.10539216
0.61911765 0.011764706 0.11470588
0.76078431 0.0022058824 0.12328431
0.88419118 0.0013480392 0.11997549
0.97254902 0.097058824 0.13431373
0.27745098 0.10134804 0.07745098
0.28828125 0.10134804 0.080392157
0.32610294 0.10211397 0.08872549
0.38186275 0.093550858 0.088357843
0.50796569 0.079411765 0.097794118
0.6372549 0.033838848 0.099387255
0.77512255 0.0012561275 0.099509804
0.89155944 0.024984681 0.10735294
0.97169118 0.16666667 0.13039216
0.2875 0.15710784 0.070343137
0.31127451 0.16302083 0.075735294
0.35275735 0.17254902 0.081311275
0.43048407 0.17352941 0.091421569
0.54240196 0.16715686 0.084313725
0.6627451 0.15196078 0.077359069
0.7903799 0.15808824 0.082414216
0.89558824 0.20306373 0.085753676
0.96568627 0.27377451 0.10784314
0.32696078 0.29215686 0.047671569
0.34594056 0.29068627 0.046568627
0.3989277 0.29460784 0.051378676
0.49252451 0.29921875 0.063587623
0.59460784 0.30392157 0.06495098
0.69290748 0.30637255 0.030514706
0.80211397 0.31896446 0.026746324
0.89509804 0.34669118 0.037132353
0.95294118 0.38529412 0.068995098
0.38284314 0.43529412 0.017647059
0.41348039 0.44117647 0.010477941
0.46360294 0.44313725 0.0039215686
0.55245098 0.44852941 0.014154412
0.65294118 0.45955882 0.013480392
0.74148284 0.46813725 0.014215686
0.81580882 0.46948529 0.012254902
0.89528186 0.48480392 0.011948529
0.9504902 0.51715686 0.041176471
0.47046569 0.57843137 0.0039215686
0.49609375 0.57843137 0.0039215686
0.53823529 0.5817402 0
0.60637255 0.58235294 0.0043351716
0.69675245 0.59215686 0.0096813725
0.78134191 0.61026348 0.0032322304
0.84656863 0.62193627 0.082352941
0.90030637 0.62784926 0.1004902
0.95147059 0.64117647 0.087254902
0.57156863 0.69240196 0.012009804
0.58262868 0.70058211 0.0079656863
0.60563725 0.69803922 0.0071078431
0.66470588 0.69525123 0.010324755
0.73431373 0.70098039 0.0078431373
0.79718137 0.70882353 0.0078431373
0.86151961 0.72604167 0.11813725
0.90640319 0.73627451 0.29568015
0.94117647 0.74019608 0.32647059
0.65637255 0.78186275 0.011764706
0.66384804 0.78566176 0.011764706
0.68284314 0.78566176 0.0078431373
0.72011336 0.78186275 0.010462623
0.77181373 0.78835784 0.017647059
0.82303922 0.79355086 0.016176471
0.87760417 0.79715074 0.1879902
0.91862745 0.80490196 0.37843137
0.94558824 0.81617647 0.50061275
0.75588235 0.8627451 0.16470588
0.75257353 0.86237745 0.12218137
0.76568627 0.85980392 0.1129902
0.78223039 0.85882353 0.02622549
0.81764706 0.86029412 0.04754902
0.86066176 0.8627451 0.14289216
0.90392157 0.85882353 0.33235294
0.94166667 0.85490196 0.47193627
0.96372549 0.85784314 0.55882353
0.30833333 0.064215686 0.15245098
0.33805147 0.085784314 0.16795343
0.36654412 0.092647059 0.1745098
0.40833333 0.087806373 0.1745098
0.49926471 0.058088235 0.18063725
0.64754902 0.0078431373 0.2127451
0.775 0.0039215686 0.23431373
0.88756127 0.018443627 0.24540441
0.96470588 0.18382353 0.26862745
0.34019608 0.1153799 0.16029412
0.35212163 0.11666667 0.16840533
0.38890931 0.12242647 0.17777267
0.43627451 0.11978401 0.17952665
0.52417279 0.095098039 0.18186275
0.65497089 0.028125 0.20853248
0.78285846 0.036764706 0.22838542
0.88887102 0.12834712 0.23988971
0.96881127 0.25821078 0.26078431
0.37316176 0.17242647 0.16813725
0.38088235 0.17976409 0.17058824
0.42463235 0.19460784 0.18235294
0.48333333 0.19522059 0.18688725
0.56550245 0.1877451 0.18927696
0.68186275 0.17401961 0.19716605
0.80505515 0.19295343 0.20885417
0.89920343 0.2292739 0.21920956
0.96862745 0.3067402 0.24215686
0.36752451 0.28039216 0.14852941
0.3986443 0.29902727 0.15166973
0.43875613 0.29355086 0.15490196
0.52001379 0.306947 0.16568627
0.60909926 0.31467525 0.16813725
0.7151731 0.31721814 0.16666667
0.81901042 0.33157169 0.1801011
0.89932598 0.36128217 0.19741881
0.9622549 0.41280637 0.22794118
0.4127451 0.42303922 0.11029412
0.42637868 0.43897059 0.11617647
0.490625 0.44448529 0.11911765
0.57346814 0.45735294 0.1122549
0.67009804 0.46985294 0.15723039
0.74849877 0.46593137 0.16865809
0.82775735 0.47647059 0.1588848
0.89901961 0.49803922 0.14623162
0.95735294 0.53063725 0.20882353
0.47947304 0.57598039 0.079411765
0.50533088 0.58082108 0.070412071
0.5506587 0.58875613 0.083946078
0.61444547 0.59411765 0.036190257
0.70045956 0.60318627 0.057383578
0.7838848 0.61672794 0.15637255
0.8504902 0.62696078 0.24650735
0.90245098 0.62978707 0.22990196
0.94117647 0.6372549 0.21133578
0.57941176 0.69705882 0.085784314
0.58920037 0.70551471 0.066681985
0.61556373 0.70098039 0.049969363
0.66176471 0.70159314 0.020297181
0.72420343 0.71127451 0.017095588
0.79718137 0.71560968 0.10821078
0.85995711 0.72889093 0.27735907
0.90245098 0.74134498 0.39820772
0.94056373 0.74019608 0.39803922
0.66403186 0.78547794 0.1245098
0.67171415 0.78939951 0.11137408
0.6893076 0.7894761 0.090563725
0.71667433 0.79313725 0.051593137
0.76127451 0.79362745 0.024479167
0.82150735 0.79772518 0.12634038
0.87561275 0.80098039 0.30338542
0.91421569 0.80533088 0.43529412
0.94136029 0.8127451 0.54981618
0.75784314 0.85735294 0.31127451
0.76323529 0.86127451 0.31403186
0.77218137 0.85943627 0.30036765
0.79068627 0.85882353 0.27254902
0.81764706 0.85955882 0.21421569
0.85637255 0.85790441 0.25098039
0.89901961 0.8560049 0.39068627
0.93431373 0.85882353 0.5127451
0.96617647 0.8627451 0.61960784
0.43333333 0.094117647 0.30980392
0.42769608 0.070833333 0.30808824
0.46911765 0.09754902 0.32156863
0.51078431 0.092892157 0.33970588
0.56666667 0.098039216 0.31960784
0.66862745 0.03995098 0.32107843
0.79019608 0.0078431373 0.36666667
0.8877451 0.071323529 0.39852941
0.95882353 0.21764706 0.41176471
0.45441176 0.13235294 0.31740196
0.46960784 0.1377451 0.33091299
0.48854167 0.13970588 0.32769608
0.53210784 0.15186887 0.33333333
0.58982843 0.14583333 0.32843137
0.67794118 0.11004902 0.32401961
0.79491422 0.044914216 0.37303922
0.89074755 0.14335172 0.39286152
0.9625 0.26911765 0.40588235
0.49313725 0.21666667 0.32401961
0.50655637 0.2245098 0.32512255
0.53676471 0.24313725 0.32941176
0.57205882 0.25269608 0.3348652
0.62647059 0.25 0.33602941
0.71035539 0.22401961 0.33848039
0.81458333 0.21568627 0.36458333
0.89509804 0.26838235 0.37977941
0.95931373 0.34509804 0.39852941
0.49754902 0.31960784 0.30735294
0.51804534 0.3270527 0.30931373
0.56164216 0.35392157 0.31985294
0.60882353 0.3627451 0.32745098
0.66323529 0.36642157 0.33186275
0.73504902 0.34901961 0.32454044
0.82610294 0.36568627 0.34258578
0.90229779 0.39093137 0.35848652
0.94117647 0.4254902 0.36740196
0.49705882 0.44215686 0.28431373
0.52205882 0.44534314 0.28419118
0.56715686 0.45441176 0.28897059
0.6192402 0.47009804 0.30441176
0.6995098 0.48431373 0.31960784
0.76764706 0.49019608 0.32683824
0.83970588 0.49093137 0.31887255
0.89595588 0.52009804 0.33762255
0.94509804 0.55784314 0.36078431
0.54068627 0.58235294 0.26519608
0.56308211 0.58308824 0.26985294
0.59375 0.5877451 0.27310049
0.64093137 0.60122549 0.28599877
0.71642157 0.61176471 0.2935049
0.7872549 0.62821691 0.33630515
0.84901961 0.63014706 0.38210784
0.89852941 0.62941176 0.36004902
0.92941176 0.64362745 0.35367647
0.59852941 0.69313725 0.28186275
0.60974265 0.69705882 0.27640931
0.64681373 0.70563725 0.30061275
0.67818627 0.70882353 0.28057598
0.73406863 0.71642157 0.26446078
0.79901961 0.72420343 0.2995098
0.85612745 0.73308824 0.41078431
0.89852941 0.73976716 0.47647059
0.92598039 0.72990196 0.47107843
0.68578431 0.78578431 0.35637255
0.69727328 0.78921569 0.35245098
0.71219363 0.78921569 0.35
0.73284314 0.79142157 0.33152574
0.76936275 0.7932598 0.2995098
0.81887255 0.79313725 0.31063113
0.87248775 0.80098039 0.41525735
0.91029412 0.80882353 0.52135417
0.94142157 0.81323529 0.60784314
0.76666667 0.85882353 0.45882353
0.76813725 0.85661765 0.45269608
0.77598039 0.85784314 0.44117647
0.78235294 0.84583333 0.39852941
0.81862745 0.85882353 0.40686275
0.85122549 0.85490196 0.38259804
0.9 0.86323529 0.46666667
0.92990196 0.85882353 0.55490196
0.9627451 0.8627451 0.65882353
0.55098039 0.11029412 0.49117647
0.5622549 0.096568627 0.49901961
0.58921569 0.11862745 0.5064951
0.62346814 0.14748775 0.51807598
0.66789216 0.18333333 0.52401961
0.73229167 0.16868873 0.50294118
0.8129902 0.16727941 0.50808824
0.88756127 0.16764706 0.53235294
0.94509804 0.20931373 0.56813725
0.57401961 0.1872549 0.48939951
0.58808977 0.18333333 0.50275735
0.60796569 0.20085784 0.50672488
0.64178156 0.21189491 0.5178462
0.68161765 0.23382353 0.525
0.73480392 0.2446155 0.50042126
0.80663297 0.21556373 0.49299939
0.89101562 0.22434896 0.53578431
0.94362745 0.2877451 0.55490196
0.61127451 0.28382353 0.49007353
0.63039216 0.29540441 0.50124081
0.65269608 0.31577819 0.51323529
0.67610294 0.32492341 0.51738664
0.71341912 0.33848039 0.52297794
0.75637255 0.34460784 0.51262255
0.8263174 0.31617647 0.5189951
0.8930913 0.31260723 0.53564645
0.95147059 0.38529412 0.55490196
0.64209559 0.38431373 0.49117647
0.6580193 0.39705882 0.49724265
0.68056066 0.43114277 0.50163909
0.70343137 0.44650735 0.50782016
0.73676471 0.45098039 0.51908701
0.77883732 0.45 0.51248468
0.83480392 0.42009804 0.51286765
0.89590227 0.42450214 0.53039216
0.94264706 0.47156863 0.53878676
0.61446078 0.49117647 0.46568627
0.63284314 0.48030025 0.48112745
0.66948529 0.50140931 0.48529412
0.7127451 0.53042279 0.49044118
0.74215686 0.54816176 0.49338235
0.78771446 0.5549326 0.49509804
0.84509804 0.54509804 0.49901961
0.89500613 0.54338235 0.50824142
0.93578431 0.58235294 0.51446078
0.63333333 0.59258578 0.44356618
0.64577206 0.59944087 0.45441176
0.67185968 0.60980392 0.45833333
0.69838388 0.61487439 0.4622549
0.75 0.63014706 0.47132353
0.79244026 0.64209559 0.48335631
0.84434743 0.63664216 0.50147059
0.89460784 0.64166667 0.4977405
0.92996324 0.66023284 0.50147059
0.66666667 0.68921569 0.43186275
0.67022059 0.70194547 0.44705882
0.6903799 0.70098039 0.44852941
0.7216299 0.70098039 0.44938725
0.76109069 0.71121324 0.4627451
0.80045956 0.71568627 0.47941176
0.85220588 0.72512255 0.52545956
0.89549632 0.72810968 0.52334559
0.93272059 0.73958333 0.55526961
0.70471814 0.78560049 0.47794118
0.71439951 0.78529412 0.48373928
0.72383578 0.78578431 0.48529412
0.7495098 0.78921569 0.48829657
0.78685662 0.78936887 0.49877451
0.82156863 0.79313725 0.49411765
0.86475184 0.80098039 0.52694547
0.90641085 0.80925245 0.60071232
0.92598039 0.81636029 0.65508578
0.77009804 0.85098039 0.56911765
0.76470588 0.84558824 0.55980392
0.78223039 0.8567402 0.57487745
0.78229167 0.8411152 0.54319853
0.81960784 0.85882353 0.56078431
0.84944853 0.8627451 0.5377451
0.88615196 0.85392157 0.55110294
0.93020833 0.86305147 0.63167892
0.94117647 0.84705882 0.675
0.67352941 0.22941176 0.6627451
0.67990196 0.24742647 0.6627451
0.69534314 0.26470588 0.66593137
0.71421569 0.28235294 0.66666667
0.74068627 0.30441176 0.66862745
0.7810049 0.34460784 0.67058824
0.8254902 0.36764706 0.66666667
0.87892157 0.36666667 0.64411765
0.91176471 0.36666667 0.66568627
0.68872549 0.30281863 0.65625
0.69537377 0.30507047 0.6627451
0.70839461 0.32089461 0.66678922
0.72726716 0.33431373 0.67058824
0.75202206 0.36531863 0.67058824
0.78284314 0.39353554 0.67352941
0.82622549 0.40012255 0.64705882
0.88235294 0.38567708 0.64362745
0.92487745 0.40882353 0.67303922
0.71176471 0.38995098 0.65098039
0.71862745 0.39693627 0.65882353
0.73167892 0.41531863 0.6627451
0.75061275 0.43507966 0.66593137
0.76764706 0.45294118 0.67058824
0.79806985 0.47962623 0.6745098
0.83314951 0.47083333 0.65802696
0.87941176 0.45392157 0.64068627
0.93235294 0.46470588 0.67622549
0.7504902 0.51421569 0.65098039
0.75379902 0.52130821 0.65196078
0.76112132 0.52613358 0.65125613
0.77604167 0.54085478 0.65905331
0.79436275 0.55220588 0.66348039
0.81366422 0.56770833 0.67366728
0.84684436 0.5591299 0.66311275
0.88275123 0.5286152 0.64526654
0.91421569 0.5314951 0.66176471
0.73627451 0.5627451 0.63921569
0.75300245 0.57598039 0.64148284
0.76813725 0.59215686 0.64473039
0.78553922 0.61648284 0.64558824
0.80637255 0.63039216 0.65441176
0.82205882 0.64454657 0.66740196
0.84803922 0.6307598 0.66311275
0.88841912 0.60637255 0.66072304
0.90980392 0.59607843 0.65490196
0.72414216 0.63284314 0.62303922
0.73198529 0.6393076 0.626731
0.74724265 0.64733456 0.63161765
0.7705576 0.66473652 0.62904412
0.80294118 0.68406863 0.63553922
0.82636336 0.69643076 0.65010723
0.84969363 0.69460784 0.65113358
0.88284314 0.66668199 0.64692096
0.90637255 0.68137255 0.64595588
0.72034314 0.72058824 0.60588235
0.72438725 0.71666667 0.6033701
0.74295343 0.71666667 0.60226716
0.76519608 0.72331495 0.60716912
0.79509804 0.7314951 0.62022059
0.82533701 0.74129902 0.63737745
0.85349265 0.74074755 0.64705882
0.89068627 0.74044118 0.64368873
0.91740196 0.74313725 0.64240196
0.74754902 0.78137255 0.60526961
0.7501685 0.78137255 0.60880821
0.75441176 0.78575368 0.60882353
0.77247243 0.78578431 0.61648284
0.79816176 0.78553922 0.62009804
0.82507659 0.79313725 0.63592218
0.85658701 0.80260417 0.65110294
0.90251225 0.80969669 0.67414216
0.92205882 0.80539216 0.69264706
0.78529412 0.84803922 0.67058824
0.78137255 0.84264706 0.65784314
0.78921569 0.85098039 0.66642157
0.79313725 0.84595588 0.65943627
0.81764706 0.84803922 0.66568627
0.84460784 0.85490196 0.6685049
0.87843137 0.86176471 0.65490196
0.90943627 0.83884804 0.68970588
0.94117647 0.84803922 0.74313725
0.75784314 0.41470588 0.78186275
0.75784314 0.41764706 0.7783701
0.76482843 0.44117647 0.77009804
0.77745098 0.45410539 0.77009804
0.79068627 0.45980392 0.77205882
0.82009804 0.50588235 0.78235294
0.84019608 0.54411765 0.78921569
0.875 0.55153186 0.77751225
0.88627451 0.54411765 0.77009804
0.76568627 0.46421569 0.77401961
0.76868873 0.46029412 0.77401961
0.77351409 0.47156863 0.77401961
0.78743873 0.48649663 0.77794118
0.79852941 0.50931373 0.77401961
0.82140778 0.53890931 0.78186275
0.84459252 0.55845588 0.77719056
0.875 0.56666667 0.76666667
0.90496324 0.56317402 0.77401961
0.78431373 0.5372549 0.77144608
0.78506434 0.53676471 0.77009804
0.78887868 0.54387255 0.77009804
0.80039828 0.55654105 0.7769761
0.81439951 0.57579657 0.77794118
0.82794118 0.59397978 0.78186275
0.84718137 0.6 0.77447917
0.87107843 0.61214767 0.77352941
0.87941176 0.6 0.76629902
0.8004902 0.60980392 0.7627451
0.80441176 0.61421569 0.76982996
0.80833333 0.62193627 0.76848958
0.81569393 0.62990196 0.76881127
0.8252451 0.64273897 0.77401961
0.83852635 0.65693168 0.77971814
0.85401348 0.66475184 0.77794118
0.87134651 0.66331189 0.77616422
0.89442402 0.64215686 0.7627451
0.8127451 0.67009804 0.7622549
0.81075368 0.66639093 0.76053922
0.81770833 0.6754902 0.7625
0.82794118 0.69117647 0.77009804
0.83566176 0.69313725 0.77009804
0.8481924 0.70759804 0.78155637
0.86151961 0.7125 0.7810049
0.87913603 0.70269608 0.77352941
0.8997549 0.68578431 0.7622549
0.8036152 0.70226716 0.7591299
0.80155484 0.70457261 0.75533088
0.80727635 0.70870098 0.75464154
0.82384344 0.72616422 0.76244638
0.83970588 0.73357843 0.7622549
0.85294118 0.74443168 0.77321538
0.86747855 0.75525429 0.78489583
0.88327206 0.74883578 0.778125
0.90588235 0.73578431 0.7627451
0.78443627 0.7504902 0.73835784
0.78921569 0.74754902 0.74571078
0.79705882 0.75441176 0.75143995
0.81216299 0.75562194 0.75747549
0.83382353 0.76617647 0.75839461
0.85289522 0.77401961 0.76666667
0.86878064 0.78578431 0.77009804
0.89080882 0.78567708 0.77712929
0.91764706 0.76666667 0.77401961
0.79356618 0.80055147 0.73621324
0.79001991 0.79748775 0.73138021
0.79581801 0.79748775 0.73823529
0.80688572 0.80098039 0.745481
0.82598039 0.80140931 0.75447304
0.84901961 0.81040135 0.76636029
0.87205882 0.82069547 0.76666667
0.90643382 0.82800245 0.78197763
0.92598039 0.81715686 0.78627451
0.8122549 0.84754902 0.76617647
0.80833333 0.84362745 0.75882353
0.81617647 0.84705882 0.7622549
0.82794118 0.84675245 0.76617647
0.82745098 0.83529412 0.75441176
0.84883578 0.84460784 0.75851716
0.87205882 0.8627451 0.77794118
0.91078431 0.83970588 0.78284314
0.95245098 0.86617647 0.82401961
0.81568627 0.59215686 0.85490196
0.80392157 0.55980392 0.83872549
0.81960784 0.6 0.85490196
0.82598039 0.61176471 0.84705882
0.83333333 0.61960784 0.85490196
0.84705882 0.63872549 0.85980392
0.85980392 0.66176471 0.86568627
0.87843137 0.65539216 0.84754902
0.88627451 0.67843137 0.85882353
0.81960784 0.61127451 0.85490196
0.81954657 0.61464461 0.85484069
0.82352941 0.61519608 0.85110294
0.83118873 0.62696078 0.85490196
0.8372549 0.63897059 0.85490196
0.84705882 0.6504902 0.85704657
0.85931373 0.64362745 0.83921569
0.87843137 0.67800245 0.85490196
0.88627451 0.68578431 0.85882353
0.82745098 0.65392157 0.85490196
0.82659314 0.65343137 0.85147059
0.83112745 0.66176471 0.85392157
0.83676471 0.66102941 0.85098039
0.84313725 0.66960784 0.85098039
0.85245098 0.68137255 0.8567402
0.8627451 0.69313725 0.85490196
0.875 0.69767157 0.85147059
0.88529412 0.70882353 0.85882353
0.83529412 0.69117647 0.84705882
0.84166667 0.70637255 0.85704657
0.84105392 0.6995098 0.85
0.84705882 0.71078431 0.85343137
0.84705882 0.69852941 0.84117647
0.85882353 0.71617647 0.85398284
0.86727941 0.7254902 0.85343137
0.87892157 0.73216912 0.85735294
0.89803922 0.73578431 0.85882353
0.84705882 0.7372549 0.84901961
0.84705882 0.73137255 0.84705882
0.85098039 0.73578431 0.85098039
0.85490196 0.74240196 0.84901961
0.85882353 0.74313725 0.84901961
0.86740196 0.75490196 0.85759804
0.87696078 0.75882353 0.85882353
0.88676471 0.7627451 0.85882353
0.89803922 0.75882353 0.85490196
0.85343137 0.75833333 0.85490196
0.84705882 0.75833333 0.84705882
0.85392157 0.76164216 0.84754902
0.85882353 0.76378676 0.83829657
0.86666667 0.77328431 0.84509804
0.87506127 0.78186275 0.85251225
0.88664216 0.78578431 0.85821078
0.89803922 0.79362745 0.86715686
0.91372549 0.79362745 0.86911765
0.83529412 0.78137255 0.84705882
0.83321078 0.77977941 0.83259804
0.8375 0.78063725 0.83455882
0.85490196 0.78921569 0.85306373
0.86862745 0.79852941 0.85490196
0.88235294 0.80490196 0.85588235
0.89411765 0.8120098 0.85784314
0.9060049 0.81666667 0.86188725
0.92156863 0.82156863 0.87156863
0.83529412 0.82009804 0.85490196
0.83186275 0.81666667 0.84362745
0.83921569 0.82009804 0.84705882
0.84705882 0.82009804 0.85490196
0.86078431 0.82401961 0.85686275
0.87990196 0.82794118 0.86617647
0.89546569 0.83578431 0.86323529
0.91764706 0.84313725 0.8627451
0.9254902 0.84362745 0.86323529
0.83921569 0.85490196 0.85490196
0.84264706 0.8622549 0.8627451
0.83627451 0.85098039 0.82843137
0.8495098 0.85490196 0.85196078
0.8627451 0.85098039 0.8627451
0.87843137 0.84705882 0.8627451
0.89803922 0.85098039 0.87058824
0.91813725 0.85147059 0.86666667
0.94901961 0.87058824 0.88627451
