site/assets/luts/sha256-1b347b4c5afec78ad7f79103bf04b319e182b7133ffe2a8864c732a7003b7eea.cube
# LUTr-Schema-Version: 2
# LUTr-ID: sha256-1b347b4c5afec78ad7f79103bf04b319e182b7133ffe2a8864c732a7003b7eea
# LUTr-Title: Velvia Vivid v2
# LUTr-Collection: FilmSim
# LUTr-Collection-ID: sguyader-filmsim
# LUTr-Source: https://github.com/sguyader/FilmSim
# LUTr-Retrieved: 2026-07-27
# LUTr-Source-File: submissions/sguyader-filmsim/Velvia_Vivid_v2.tif
# LUTr-Source-Format: HALD-TIF
# LUTr-Source-SHA256: 1b347b4c5afec78ad7f79103bf04b319e182b7133ffe2a8864c732a7003b7eea
# LUTr-License: CC0-1.0
# LUTr-License-URL: https://github.com/sguyader/FilmSim/blob/master/LICENSE
# LUTr-License-Basis: repo-license-file
# LUTr-Transform-Class: film-emulation
# LUTr-Tags: creative, film, film-emulation, hald-clut, rawtherapee, tif, cube
# LUTr-Input-Color-Space: srgb
# LUTr-Input-Gamut: rec709
# LUTr-Input-Transfer: srgb
# LUTr-Output-Color-Space: srgb
# LUTr-Output-Gamut: rec709
# LUTr-Output-Transfer: srgb
# LUTr-Color-Space-Confidence: assumed-display-referred
# LUTr-Domain-Normalized: true
# LUTr-Shaper: none
# LUTr-Original-Grid: 144x144x144
# LUTr-Conversion-Grid: 25x25x25
# LUTr-Conversion-Interpolation: trilinear
# LUTr-Conversion-Method: HALD-TIF LUT image decoded at 16-bit and sampled to 25x25x25 3D CUBE
# LUTr-Conversion-Tool: LUTr scripts/convert-all-to-cube.mjs 2.0.0
# LUTr-Conversion-Date: 2026-07-27
# LUTr-Note: Preserve this metadata and the upstream license notices when redistributing.
TITLE "Velvia Vivid v2"
LUT_3D_SIZE 5
DOMAIN_MIN 0 0 0
DOMAIN_MAX 1 1 1
0 0 0
0.11516365 0.019539178 0
0.50779736 0.033249409 0
0.86128786 0.18467613 0
0.99606317 0.22667277 0
0.010616464 0.1933814 0.000072480354
0.2166619 0.21978237 0.0000066758221
0.55653658 0.25984588 0
0.86900702 0.26887922 0
0.99597925 0.31557183 0
0.066163119 0.55867094 0.00024414435
0.25660906 0.56258297 0.00015259022
0.5466392 0.54699397 0.000022888533
0.80056268 0.52747196 0
0.99589532 0.46501106 0
0 0.77843137 0.00036621653
0.20374514 0.77550927 0.00026607919
0.44447623 0.77944038 0.0001201648
0.7516022 0.75994411 0
0.99573892 0.76390478 0
0 0.99623102 0.0004882887
0.17726787 0.99625391 0.00041199359
0.44292363 0.99629969 0.00022888533
0.77888914 0.99632639 0.00013351644
0.99584955 0.9962005 0.48038453
0.025448234 0.0000076295109 0.069283589
0.19665732 0 0.20106336
0.46886206 0 0.22585069
0.82325093 0.17287423 0.22792592
0.99612421 0.026455329 0.085420005
9.5368887e-7 0.21509308 0.21984054
0.20350195 0.2025864 0.20313001
0.55127508 0.23003166 0.19331655
0.85992146 0.25691782 0.1459535
0.99597066 0.26475929 0.023028725
0 0.55084115 0.19848745
0.23540379 0.54304379 0.17590791
0.52965019 0.53255798 0.21701572
0.79674554 0.50864805 0.2019975
0.99589532 0.42983902 0
0 0.77162203 0.00036621653
0.16377747 0.77066262 0.00025606546
0.41371214 0.77163396 0.00012541009
0.74683828 0.75212148 0.10994244
0.99586862 0.7560111 0.20199512
0 0.99623102 0.0004882887
0.12628176 0.99627584 0.0004367895
0.43700313 0.99628443 0.00023651484
0.76025978 0.99633116 0.000060082399
0.99592584 0.99623102 0.53116655
0.00025177386 0 0.64061952
0.23173114 0 0.6385729
0.56765087 0 0.57200351
0.82783246 0.13962196 0.57384222
0.99624628 0.17972076 0.53274586
0.00014496071 0.17279889 0.55618944
0.25934234 0.24005112 0.65893511
0.59001011 0.23508526 0.59355688
0.8051709 0.30178292 0.5544337
0.99622148 0.24711986 0.48256847
0.14060426 0.5585832 0.5665713
0.2988241 0.54344911 0.55089933
0.49998093 0.50049973 0.49997902
0.79001488 0.48417639 0.45636206
0.99607843 0.43171206 0.36105516
0 0.7744564 0.41829557
0 0.76761988 0.39625868
0.41923209 0.74741264 0.3792649
0.7322652 0.73838216 0.41648308
0.9959411 0.73644045 0.44272908
0 0.99619287 0.33054093
0 0.99618524 0.32666514
0.42251469 0.99623865 0.30301366
0.72036889 0.99626726 0.19641413
0.99591058 0.99621576 0.65037003
0.00047302968 0 0.99612421
0.29044404 0 0.99591821
0.62640955 0 0.99580186
0.88027676 0 0.88042458
0.99641794 0.10734722 0.83059052
0.00029373617 0.19611276 0.99618524
0.29840615 0.22797503 0.99604958
0.63983558 0.18396944 0.99584096
0.86627232 0.18916419 0.86895981
0.996355 0.26680781 0.81020066
0.00012397955 0.51750591 0.84301518
0.17004177 0.48809081 0.82470912
0.53407626 0.51118772 0.92231727
0.81607347 0.46386187 0.81961309
0.9961986 0.48392081 0.75364309
0.11252384 0.76657797 0.77860971
0.27500834 0.75955906 0.7709566
0.49767252 0.74135433 0.74810502
0.71825694 0.71755527 0.71750591
0.99606699 0.70052071 0.67759213
0 0.99616236 0.69869917
0 0.99615091 0.69089418
0.095006485 0.99612993 0.66931983
0.75570783 0.99619383 0.72080568
0.99597162 0.99618524 0.81729992
0.47307546 0 0.99581903
0.56978714 0 0.99584192
0.71332113 0 0.99577325
0.84903105 0 0.99565881
0.99645991 0 0.99559014
0.48080415 0.18049897 0.99594491
0.53157187 0.22838941 0.99593347
0.69859236 0.23232624 0.99583047
0.84509422 0.022364004 0.99562161
0.99646754 0.14150454 0.9956054
0.00021362631 0.4510338 0.9962768
0.26878004 0.45108339 0.9961738
0.60175479 0.47648203 0.99602502
0.83129816 0.41400778 0.99588197
0.99636835 0.37887388 0.99574273
0.22175555 0.74408331 0.9963035
0.29887083 0.73628977 0.99625296
0.40242237 0.68402953 0.99617189
0.71616789 0.69335088 0.99605077
0.99622339 0.66699474 0.99584955
0.51557183 0.99610895 0.99624628
0.58493553 0.99612802 0.99625391
0.72069123 0.99611658 0.9962005
0.89065385 0.99613947 0.99610895
0.99615473 0.99615473 0.99615473
