site/assets/luts/sha256-b0244e372b50bec13c2762fcce0d0646dc027046ed75ea9bd39c27ad5ff6412c.cube
# LUTr-Schema-Version: 2
# LUTr-ID: sha256-b0244e372b50bec13c2762fcce0d0646dc027046ed75ea9bd39c27ad5ff6412c
# LUTr-Title: kodak t-max 3200
# LUTr-Collection: Natron HaldCLUT
# LUTr-Collection-ID: natron-haldclut-presets
# LUTr-Source: https://github.com/NatronGitHub/clut
# LUTr-Retrieved: 2026-07-27
# LUTr-Source-File: submissions/natron-haldclut-presets/bw/kodak_t-max_3200.png
# LUTr-Source-Format: HALD-PNG
# LUTr-Source-SHA256: b0244e372b50bec13c2762fcce0d0646dc027046ed75ea9bd39c27ad5ff6412c
# LUTr-License: CC-BY-SA-4.0
# LUTr-License-URL: https://github.com/NatronGitHub/clut#license
# LUTr-License-Basis: repo-license-file
# LUTr-Transform-Class: film-emulation
# LUTr-Tags: creative, film, film-emulation, hald-clut, natron, png, cube
# LUTr-Input-Color-Space: srgb
# LUTr-Input-Gamut: rec709
# LUTr-Input-Transfer: srgb
# LUTr-Output-Color-Space: srgb
# LUTr-Output-Gamut: rec709
# LUTr-Output-Transfer: srgb
# LUTr-Color-Space-Confidence: assumed-display-referred
# LUTr-Domain-Normalized: true
# LUTr-Shaper: none
# LUTr-Original-Grid: 64x64x64
# LUTr-Conversion-Grid: 25x25x25
# LUTr-Conversion-Interpolation: trilinear
# LUTr-Conversion-Method: HALD-PNG LUT image decoded at 16-bit and sampled to 25x25x25 3D CUBE
# LUTr-Conversion-Tool: LUTr scripts/convert-all-to-cube.mjs 2.0.0
# LUTr-Conversion-Date: 2026-07-27
# LUTr-Note: Preserve this metadata and the upstream license notices when redistributing.
TITLE "kodak t-max 3200"
LUT_3D_SIZE 5
DOMAIN_MIN 0 0 0
DOMAIN_MAX 1 1 1
0.011764706 0.011764706 0.011764706
0.014705882 0.014705882 0.014705882
0.054901961 0.054901961 0.054901961
0.096078431 0.096078431 0.096078431
0.16862745 0.16862745 0.16862745
0.15784314 0.15784314 0.15784314
0.16470588 0.16470588 0.16470588
0.21862745 0.21862745 0.21862745
0.26593137 0.26593137 0.26593137
0.39313725 0.39313725 0.39313725
0.41764706 0.41764706 0.41764706
0.42892157 0.42892157 0.42892157
0.46666667 0.46666667 0.46666667
0.53039216 0.53039216 0.53039216
0.58039216 0.58039216 0.58039216
0.70098039 0.70098039 0.70098039
0.7127451 0.7127451 0.7127451
0.72843137 0.72843137 0.72843137
0.74730392 0.74730392 0.74730392
0.76666667 0.76666667 0.76666667
0.89411765 0.89411765 0.89411765
0.90980392 0.90980392 0.90980392
0.90784314 0.90784314 0.90784314
0.90980392 0.90980392 0.90980392
0.92941176 0.92941176 0.92941176
0.023529412 0.023529412 0.023529412
0.055147059 0.055147059 0.055147059
0.071568627 0.071568627 0.071568627
0.16176471 0.16176471 0.16176471
0.30882353 0.30882353 0.30882353
0.18235294 0.18235294 0.18235294
0.19926471 0.19926471 0.19926471
0.24509804 0.24509804 0.24509804
0.32647059 0.32647059 0.32647059
0.42843137 0.42843137 0.42843137
0.46176471 0.46176471 0.46176471
0.46139706 0.46139706 0.46139706
0.50098039 0.50098039 0.50098039
0.55784314 0.55784314 0.55784314
0.61568627 0.61568627 0.61568627
0.72745098 0.72745098 0.72745098
0.72377451 0.72377451 0.72377451
0.74019608 0.74019608 0.74019608
0.75661765 0.75661765 0.75661765
0.78161765 0.78161765 0.78161765
0.90196078 0.90196078 0.90196078
0.9127451 0.9127451 0.9127451
0.91372549 0.91372549 0.91372549
0.9254902 0.9254902 0.9254902
0.94215686 0.94215686 0.94215686
0.092156863 0.092156863 0.092156863
0.099019608 0.099019608 0.099019608
0.13431373 0.13431373 0.13431373
0.21764706 0.21764706 0.21764706
0.35882353 0.35882353 0.35882353
0.26078431 0.26078431 0.26078431
0.27365196 0.27365196 0.27365196
0.3245098 0.3245098 0.3245098
0.40098039 0.40098039 0.40098039
0.50980392 0.50980392 0.50980392
0.53333333 0.53333333 0.53333333
0.53112745 0.53112745 0.53112745
0.56568627 0.56568627 0.56568627
0.60490196 0.60490196 0.60490196
0.66568627 0.66568627 0.66568627
0.74803922 0.74803922 0.74803922
0.75392157 0.75392157 0.75392157
0.76691176 0.76691176 0.76691176
0.7872549 0.7872549 0.7872549
0.80637255 0.80637255 0.80637255
0.91372549 0.91372549 0.91372549
0.9127451 0.9127451 0.9127451
0.92745098 0.92745098 0.92745098
0.9372549 0.9372549 0.9372549
0.95294118 0.95294118 0.95294118
0.1627451 0.1627451 0.1627451
0.21470588 0.21470588 0.21470588
0.28333333 0.28333333 0.28333333
0.32843137 0.32843137 0.32843137
0.49607843 0.49607843 0.49607843
0.38014706 0.38014706 0.38014706
0.39773284 0.39773284 0.39773284
0.44877451 0.44877451 0.44877451
0.50980392 0.50980392 0.50980392
0.59215686 0.59215686 0.59215686
0.62058824 0.62058824 0.62058824
0.61960784 0.61960784 0.61960784
0.63823529 0.63823529 0.63823529
0.67794118 0.67794118 0.67794118
0.71519608 0.71519608 0.71519608
0.79509804 0.79509804 0.79509804
0.8 0.8 0.8
0.80686275 0.80686275 0.80686275
0.81997549 0.81997549 0.81997549
0.84509804 0.84509804 0.84509804
0.94215686 0.94215686 0.94215686
0.93529412 0.93529412 0.93529412
0.94313725 0.94313725 0.94313725
0.95294118 0.95294118 0.95294118
0.93333333 0.93333333 0.93333333
0.36862745 0.36862745 0.36862745
0.39117647 0.39117647 0.39117647
0.38627451 0.38627451 0.38627451
0.55392157 0.55392157 0.55392157
0.63529412 0.63529412 0.63529412
0.54117647 0.54117647 0.54117647
0.56102941 0.56102941 0.56102941
0.58431373 0.58431373 0.58431373
0.62254902 0.62254902 0.62254902
0.66862745 0.66862745 0.66862745
0.71568627 0.71568627 0.71568627
0.71764706 0.71764706 0.71764706
0.71764706 0.71764706 0.71764706
0.73970588 0.73970588 0.73970588
0.77058824 0.77058824 0.77058824
0.83333333 0.83333333 0.83333333
0.8372549 0.8372549 0.8372549
0.84509804 0.84509804 0.84509804
0.86078431 0.86078431 0.86078431
0.87254902 0.87254902 0.87254902
0.95294118 0.95294118 0.95294118
0.95686275 0.95686275 0.95686275
0.9745098 0.9745098 0.9745098
0.94509804 0.94509804 0.94509804
0.93333333 0.93333333 0.93333333
