site/assets/luts/sha256-82b0fcc53b1ab2dd4a6fe8b3cd863b30632d4d252eea722fa77d3650fa6db62e.cube
# LUTr-Schema-Version: 2
# LUTr-ID: sha256-82b0fcc53b1ab2dd4a6fe8b3cd863b30632d4d252eea722fa77d3650fa6db62e
# LUTr-Title: kodak ektachrome 100 vs
# LUTr-Collection: Natron HaldCLUT
# LUTr-Collection-ID: natron-haldclut-presets
# LUTr-Source: https://github.com/NatronGitHub/clut
# LUTr-Retrieved: 2026-07-27
# LUTr-Source-File: submissions/natron-haldclut-presets/colorslide/kodak_ektachrome_100_vs.png
# LUTr-Source-Format: HALD-PNG
# LUTr-Source-SHA256: 82b0fcc53b1ab2dd4a6fe8b3cd863b30632d4d252eea722fa77d3650fa6db62e
# LUTr-License: CC-BY-SA-4.0
# LUTr-License-URL: https://github.com/NatronGitHub/clut#license
# LUTr-License-Basis: repo-license-file
# LUTr-Transform-Class: film-emulation
# LUTr-Tags: creative, film, film-emulation, hald-clut, natron, png, cube
# LUTr-Input-Color-Space: srgb
# LUTr-Input-Gamut: rec709
# LUTr-Input-Transfer: srgb
# LUTr-Output-Color-Space: srgb
# LUTr-Output-Gamut: rec709
# LUTr-Output-Transfer: srgb
# LUTr-Color-Space-Confidence: assumed-display-referred
# LUTr-Domain-Normalized: true
# LUTr-Shaper: none
# LUTr-Original-Grid: 64x64x64
# LUTr-Conversion-Grid: 25x25x25
# LUTr-Conversion-Interpolation: trilinear
# LUTr-Conversion-Method: HALD-PNG LUT image decoded at 16-bit and sampled to 25x25x25 3D CUBE
# LUTr-Conversion-Tool: LUTr scripts/convert-all-to-cube.mjs 2.0.0
# LUTr-Conversion-Date: 2026-07-27
# LUTr-Note: Preserve this metadata and the upstream license notices when redistributing.
TITLE "kodak ektachrome 100 vs"
LUT_3D_SIZE 9
DOMAIN_MIN 0 0 0
DOMAIN_MAX 1 1 1
0 0 0
0.05 0.0078431373 0.011764706
0.14117647 0 0.0029411765
0.26323529 0.0078431373 0.0078431373
0.43137255 0.0019607843 0.0019607843
0.5995098 0.0078431373 0.0078431373
0.75392157 0.0039215686 0.0078431373
0.92009804 0 0.0039215686
0.99607843 0 0
0.046078431 0.073039216 0.03872549
0.072610294 0.061764706 0.030882353
0.18370098 0.064215686 0.023161765
0.31078431 0.05 0.0053921569
0.46985294 0.038480392 0
0.63039216 0.034803922 0.0039215686
0.76960784 0.023039216 0.0039215686
0.92401961 0.0069240196 0
0.99215686 0 0
0.092156863 0.18823529 0.081372549
0.13039216 0.18823529 0.076593137
0.2372549 0.18112745 0.057843137
0.36421569 0.16973039 0.038112745
0.51078431 0.15588235 0.02254902
0.65735294 0.13872549 0.026470588
0.79509804 0.1 0.018627451
0.92732843 0.066176471 0.014215686
0.99607843 0.026470588 0
0.13039216 0.34166667 0.14754902
0.18970588 0.33400735 0.13658088
0.28823529 0.32990196 0.12316176
0.4122549 0.32297794 0.10441176
0.54558824 0.31151961 0.082598039
0.68131127 0.28529412 0.067647059
0.82022059 0.25686275 0.071568627
0.95508578 0.21764706 0.06372549
0.98823529 0.19215686 0.080392157
0.23333333 0.48039216 0.18039216
0.28676471 0.48039216 0.18039216
0.36372549 0.48235294 0.17892157
0.4622549 0.47647059 0.15245098
0.58039216 0.46862745 0.13921569
0.70906863 0.45735294 0.12818627
0.83186275 0.43039216 0.1372549
0.96642157 0.40343137 0.14338235
0.99215686 0.39215686 0.15490196
0.37058824 0.62303922 0.23039216
0.39332108 0.6254902 0.22892157
0.4495098 0.62696078 0.22316176
0.53578431 0.62303922 0.19264706
0.63382353 0.61519608 0.17745098
0.75392157 0.61372549 0.17156863
0.87745098 0.59497549 0.15796569
0.98676471 0.57303922 0.16519608
0.99754902 0.54705882 0.22401961
0.48235294 0.76568627 0.28333333
0.50833333 0.76470588 0.28039216
0.55098039 0.76470588 0.27181373
0.62598039 0.76862745 0.25625
0.71764706 0.76568627 0.23137255
0.81139706 0.75968137 0.20833333
0.92328431 0.75 0.18504902
0.99264706 0.73039216 0.18137255
1 0.70784314 0.19901961
0.62990196 0.88039216 0.32205882
0.64074755 0.88431373 0.32205882
0.6682598 0.88811275 0.31813725
0.7245098 0.89558824 0.30422794
0.78970588 0.89779412 0.28921569
0.86862745 0.88805147 0.27009804
0.97193627 0.88419118 0.23921569
0.99699755 0.88431373 0.20833333
1 0.88039216 0.17794118
0.79215686 0.98039216 0.35686275
0.81127451 0.99166667 0.36078431
0.83039216 0.98823529 0.35686275
0.84166667 0.97647059 0.34264706
0.8745098 0.96470588 0.32352941
0.97009804 0.98823529 0.3254902
1 0.9872549 0.30098039
1 0.97647059 0.26617647
1 1 0.25098039
0.0078431373 0.0078431373 0.057843137
0.023039216 0.00049019608 0.030392157
0.12696078 0.0078431373 0.03125
0.2504902 0.0042279412 0.025183824
0.42745098 0.0039215686 0.017647059
0.59558824 0.0039215686 0.015686275
0.74264706 0 0.011642157
0.90490196 0 0.011335784
0.99607843 0 0.011764706
0.019178922 0.065196078 0.065686275
0.069056373 0.057414216 0.064330576
0.16803002 0.049402574 0.052619485
0.30165441 0.046078431 0.037905944
0.45661765 0.036519608 0.028186275
0.61862745 0.023307292 0.026654412
0.76590074 0.010416667 0.0078431373
0.90925245 0.0039215686 0.01127451
0.98823529 0.0034313725 0.01127451
0.073039216 0.19080882 0.12291667
0.12642463 0.18737745 0.12254902
0.21519608 0.17647059 0.10857843
0.34620098 0.16216299 0.08872549
0.49485294 0.15220588 0.072916667
0.64430147 0.13186275 0.067647059
0.78440564 0.089276961 0.043259804
0.92745098 0.051148897 0.029411765
0.98823529 0.033455882 0.025980392
0.11893382 0.3377451 0.18186275
0.16452206 0.331947 0.17401961
0.27259498 0.32976409 0.15539216
0.39558824 0.31721814 0.13591452
0.52907475 0.30759804 0.12686887
0.66420803 0.2877451 0.1254902
0.80481005 0.25404412 0.11617647
0.93529412 0.21187194 0.10882353
0.99460784 0.19117647 0.10882353
0.23946078 0.48039216 0.20514706
0.27181373 0.48045343 0.20098039
0.35637255 0.48039216 0.190625
0.45407475 0.48023897 0.17858456
0.56997549 0.46470588 0.16973039
0.69681373 0.45612745 0.1736826
0.82598039 0.43204657 0.1692402
0.94947917 0.3995098 0.1872549
0.99607843 0.3879902 0.19289216
0.37058824 0.62518382 0.2341299
0.38921569 0.62522212 0.2341299
0.44473039 0.62696078 0.22740502
0.52952665 0.62677696 0.20648744
0.63529412 0.62034314 0.19871324
0.75 0.61519608 0.1872549
0.86778493 0.59852941 0.19692096
0.98282016 0.57172947 0.22277114
0.99785539 0.55637255 0.25294118
0.48627451 0.76470588 0.28333333
0.50539216 0.76470588 0.28296569
0.55098039 0.76862745 0.27328431
0.62352941 0.76470588 0.25625
0.71243873 0.76470588 0.23431373
0.81029412 0.75747549 0.22144608
0.91960784 0.75294118 0.20352328
0.98480392 0.73382353 0.22207414
1 0.71078431 0.26078431
0.62254902 0.89172794 0.32598039
0.6372549 0.89167433 0.32297794
0.66813725 0.89865196 0.3216299
0.71846661 0.8995098 0.30814951
0.79191176 0.89607843 0.29114583
0.87367494 0.89068627 0.27369026
0.95813419 0.88786765 0.24678309
1 0.88898591 0.21563266
1 0.87303922 0.21770833
0.80392157 0.98823529 0.36470588
0.81219363 0.98866422 0.36427696
0.82561275 0.98468137 0.35686275
0.86047794 0.98480392 0.34901961
0.91593137 0.99044118 0.34093137
0.97205882 0.99393382 0.3245098
0.99313725 0.98811275 0.29705882
1 0.9877451 0.26960784
1 0.98823529 0.25098039
0 0.0029411765 0.11862745
0.023161765 0.0078431373 0.12254902
0.088970588 0.0078431373 0.10784314
0.22830882 0.0039215686 0.087622549
0.41813725 0.0039215686 0.075980392
0.5877451 0.0039215686 0.060784314
0.73529412 0 0.048284314
0.89656863 0 0.042034314
0.99607843 0 0.034313725
0.015318627 0.06127451 0.14558824
0.051256127 0.053921569 0.14301471
0.14142157 0.045833333 0.13079044
0.27941176 0.045588235 0.1143076
0.43376225 0.033823529 0.09442402
0.5962163 0.016758578 0.071691176
0.75355392 0.0039215686 0.056740196
0.90370711 0 0.045955882
0.99963235 0 0.033333333
0.054166667 0.18014706 0.19901961
0.10597426 0.17647059 0.19252451
0.18431373 0.17328431 0.18357843
0.31752451 0.15625 0.16372549
0.4685049 0.14105392 0.14607843
0.62193627 0.11936275 0.12941176
0.76887255 0.092401961 0.10490196
0.90919118 0.053553922 0.085784314
1 0.019607843 0.068382353
0.064093137 0.32806373 0.24938725
0.1265625 0.32602635 0.24915748
0.23023897 0.31985294 0.23431373
0.36078431 0.3105239 0.2254902
0.4995098 0.30006127 0.21519608
0.64463848 0.28529412 0.19693627
0.78939951 0.2497549 0.1786152
0.920144 0.20067402 0.1622549
0.99215686 0.17892157 0.15833333
0.19852941 0.475 0.26715686
0.23351716 0.47720588 0.27107843
0.31372549 0.47352941 0.27352941
0.4245098 0.47254902 0.27352941
0.5502451 0.46715686 0.25931373
0.66764706 0.45392157 0.26231618
0.80294118 0.42512255 0.26176471
0.92922794 0.40343137 0.26636029
0.98823529 0.38872549 0.25882353
0.34117647 0.62696078 0.27941176
0.36524203 0.62696078 0.28982843
0.42352941 0.62613358 0.28789828
0.50801164 0.62303922 0.2814951
0.61550245 0.61942402 0.27107843
0.72768076 0.61188725 0.27843137
0.83995098 0.59276961 0.2955576
0.95831801 0.57161458 0.3127451
0.99607843 0.56421569 0.32610294
0.48406863 0.76764706 0.29019608
0.49852941 0.76862745 0.29019608
0.54148284 0.76642157 0.28455882
0.61210172 0.7625 0.28121936
0.69987745 0.76470588 0.2752451
0.80324755 0.76124387 0.26666667
0.90410539 0.75128676 0.27769608
0.97205882 0.73385417 0.31617647
0.99779412 0.71470588 0.35955882
0.62696078 0.88039216 0.32990196
0.6377451 0.88039216 0.32604167
0.67181373 0.88811275 0.32205882
0.72058824 0.90022978 0.31144301
0.79191176 0.9 0.30134804
0.8803462 0.89541973 0.27156863
0.95870098 0.89212623 0.25870098
0.99607843 0.8959712 0.25932904
1 0.87316176 0.28431373
0.82156863 0.99901961 0.36862745
0.81323529 0.98872549 0.36470588
0.83921569 0.99289216 0.36078431
0.85821078 0.98333333 0.34901961
0.91764706 0.99019608 0.34117647
0.96164216 0.99215686 0.31727941
0.98823529 0.99117647 0.29313725
1 0.99215686 0.27401961
1 0.98921569 0.25490196
0.0039215686 0.022058824 0.21911765
0.015196078 0.019607843 0.21176471
0.060784314 0.0045343137 0.18480392
0.20441176 0.0039215686 0.16176471
0.38039216 0.0039215686 0.14534314
0.55784314 0.0039215686 0.12745098
0.72647059 0 0.099019608
0.88872549 0 0.092463235
0.99215686 0 0.087254902
0.0039215686 0.059987745 0.23431373
0.016773897 0.043466605 0.22665441
0.11041667 0.041666667 0.21479779
0.25226716 0.035975797 0.19404871
0.40808824 0.04028799 0.17215074
0.57414982 0.017708333 0.14754902
0.73825061 0.011642157 0.12107843
0.88868719 0.0034313725 0.096185662
0.9995098 0 0.083517157
0.023039216 0.17254902 0.29166667
0.06171875 0.17254902 0.2877451
0.14684436 0.16773897 0.27598039
0.28517157 0.1551011 0.25392157
0.44166667 0.13039216 0.22359069
0.59705882 0.10845588 0.2004902
0.75110294 0.074754902 0.17022059
0.90352328 0.055974265 0.14381127
0.99816176 0.049019608 0.12953431
0.046997549 0.31960784 0.35196078
0.082781863 0.32205882 0.34418658
0.17830882 0.31527267 0.34166667
0.32655484 0.30392157 0.32318474
0.47254902 0.29387255 0.30367647
0.61519608 0.28045343 0.2877451
0.76637561 0.24509804 0.26009498
0.90913756 0.20214461 0.2330193
0.99852941 0.17996324 0.21709559
0.12254902 0.46862745 0.38823529
0.17040441 0.47254902 0.38848039
0.26844363 0.46881127 0.38321078
0.38529412 0.46078431 0.37870711
0.51004902 0.45686275 0.37267157
0.63829657 0.44754902 0.36121324
0.77395833 0.42530637 0.35392157
0.92025123 0.39696691 0.33841912
0.99607843 0.36544118 0.31911765
0.27058824 0.61519608 0.40104167
0.30772825 0.61992188 0.40980392
0.37709865 0.6209712 0.39693627
0.46813725 0.61519608 0.40140931
0.57282475 0.6127451 0.40588235
0.6872549 0.60196078 0.40435049
0.8087163 0.5877451 0.41325061
0.93376225 0.56764706 0.40748315
0.99460784 0.56084559 0.41029412
0.44019608 0.76286765 0.3817402
0.45935968 0.76314338 0.38748468
0.50294118 0.76204044 0.38526348
0.57536765 0.75723039 0.38829657
0.6627451 0.75723039 0.3995098
0.75833333 0.75248162 0.40943627
0.86127451 0.73933824 0.41764706
0.96576287 0.72598039 0.43788297
0.98468137 0.71470588 0.44754902
0.62432598 0.89803922 0.33872549
0.63213082 0.89589461 0.33841912
0.66458333 0.90245098 0.329856
0.71685049 0.90343137 0.32823989
0.78765319 0.90416667 0.32224265
0.8587546 0.89246324 0.34100031
0.94803922 0.89603248 0.33913909
0.97922794 0.8817019 0.38633578
1 0.86697304 0.45392157
0.8127451 0.99068627 0.36470588
0.82512255 0.99246324 0.36501225
0.82303922 0.98480392 0.36078431
0.85974265 0.98670343 0.35686275
0.92916667 0.99387255 0.34828431
0.96525735 0.99123775 0.32886029
0.99276961 0.98823529 0.29705882
1 0.99393382 0.28449755
1 0.98823529 0.28088235
0 0.011764706 0.30392157
0 0.0078431373 0.28284314
0.051960784 0.0039215686 0.25490196
0.19534314 0.0053921569 0.23872549
0.37058824 0.0039215686 0.20980392
0.53627451 0 0.18480392
0.71519608 0 0.16470588
0.87279412 0 0.14852941
0.98039216 0 0.14117647
0 0.049019608 0.32254902
0.007567402 0.04185049 0.31476716
0.076470588 0.040012255 0.30018382
0.2254902 0.030882353 0.2763174
0.39289216 0.021078431 0.24534314
0.55677083 0.01127451 0.21436887
0.72101716 0.0039215686 0.18284314
0.87668505 0.0039215686 0.15594363
0.98235294 0.0039215686 0.15073529
0.010784314 0.16862745 0.38039216
0.030943627 0.16764706 0.37953431
0.12512255 0.15723039 0.36397059
0.25968137 0.15245098 0.3463848
0.41470588 0.13553922 0.31495098
0.57064951 0.11960784 0.28327206
0.73235294 0.076470588 0.2442402
0.88823529 0.037990196 0.20588235
0.99215686 0.014705882 0.18137255
0.037254902 0.31421569 0.45147059
0.027696078 0.31813725 0.44543505
0.14215686 0.31029412 0.43768382
0.2879902 0.30199142 0.41908701
0.44166667 0.2932598 0.39595588
0.58655025 0.2801777 0.37254902
0.74411765 0.2471201 0.34454657
0.89053309 0.1981924 0.30784314
0.99093137 0.15588235 0.27647059
0.05 0.46078431 0.50392157
0.08504902 0.46164216 0.50208333
0.19656863 0.46470588 0.49632353
0.32904412 0.45465686 0.48039216
0.47205882 0.45294118 0.47352941
0.61372549 0.44301471 0.45539216
0.75392157 0.42426471 0.43627451
0.90134804 0.38455882 0.4064951
0.99607843 0.35 0.38627451
0.18259804 0.60735294 0.54264706
0.22794118 0.60842525 0.54264706
0.30435049 0.61072304 0.53903186
0.40346201 0.6049326 0.52696078
0.52757353 0.60245098 0.52242647
0.64806985 0.59065564 0.51519608
0.77990196 0.57990196 0.50294118
0.91063113 0.56372549 0.49901961
0.99730392 0.54215686 0.49068627
0.35686275 0.75147059 0.54460784
0.38639706 0.75147059 0.54215686
0.43529412 0.75134804 0.54264706
0.51268382 0.75202206 0.55
0.60882353 0.74681373 0.54313725
0.70784314 0.7403799 0.54534314
0.825 0.72990196 0.54129902
0.93719363 0.71470588 0.55392157
0.99264706 0.70490196 0.55392157
0.5625 0.89411765 0.48186275
0.58164828 0.89653799 0.47401961
0.61372549 0.89264706 0.47653186
0.6745098 0.89745711 0.45833333
0.73125 0.89068627 0.48223039
0.80392157 0.88587623 0.51721814
0.89264706 0.88039216 0.53468137
0.97423407 0.86933211 0.54880515
0.99607843 0.86127451 0.55269608
0.83529412 1 0.37254902
0.8254902 0.99215686 0.37058824
0.82843137 0.98627451 0.36127451
0.88651961 0.99607843 0.36151961
0.9245098 0.99411765 0.35686275
0.94926471 0.99607843 0.33848039
0.98676471 0.99215686 0.34460784
1 0.99607843 0.34803922
1 0.99411765 0.38431373
0 0.0039215686 0.37009804
0.0039215686 0.0078431373 0.35588235
0.006372549 0.0028186275 0.32941176
0.1528799 0.0039215686 0.30637255
0.33186275 0 0.27696078
0.51862745 0 0.24852941
0.6939951 0 0.22757353
0.85980392 0 0.20422794
0.975 0 0.19117647
0.0034313725 0.041666667 0.40588235
0.0078431373 0.046507353 0.39981618
0.038204657 0.026960784 0.37901348
0.19001991 0.02689185 0.35311734
0.35490196 0.020343137 0.32175245
0.53137255 0.0039215686 0.28333333
0.69731924 0.0075827206 0.25245098
0.85980392 0.0039215686 0.22677696
0.98020833 0 0.19509804
0.0039215686 0.16041667 0.46519608
0.017999387 0.15923713 0.46519608
0.087377451 0.14947917 0.4504902
0.22156863 0.14042586 0.42536765
0.38382353 0.1278799 0.39620098
0.54275429 0.11040135 0.36323529
0.70621936 0.071813725 0.31988358
0.87071078 0.031816789 0.27789522
0.97892157 0.012867647 0.24411765
0.015134804 0.31421569 0.54209559
0.019784007 0.30637255 0.53645067
0.096645221 0.29914216 0.52585784
0.24818474 0.29460784 0.50400582
0.40833333 0.28406863 0.48357843
0.56127451 0.26626072 0.45377604
0.71467525 0.23984375 0.42291667
0.87560509 0.19411765 0.37824755
0.98431373 0.15741422 0.34607843
0.018137255 0.45882353 0.59803922
0.023192402 0.45686275 0.6004902
0.12573529 0.45686275 0.59362745
0.27745098 0.4504902 0.5778799
0.43578431 0.44509804 0.56188725
0.58823529 0.43409926 0.53823529
0.728125 0.41519608 0.51464461
0.88333333 0.38226103 0.48357843
0.98823529 0.34656863 0.45931373
0.07689951 0.6028799 0.65294118
0.11911765 0.60477175 0.653125
0.22293199 0.60343137 0.64787071
0.35302543 0.5995098 0.63723192
0.4823223 0.59503676 0.62230392
0.61407016 0.58258272 0.60680147
0.75294118 0.57542892 0.59166667
0.89490656 0.55980392 0.57457108
0.98676471 0.53284314 0.56121324
0.2627451 0.74178922 0.68884804
0.29598652 0.73811275 0.68137255
0.36372549 0.7439951 0.67662377
0.45931373 0.74192708 0.67421875
0.55490196 0.7372549 0.67052696
0.66395527 0.72800245 0.66214767
0.78455882 0.71853554 0.65591299
0.91119792 0.70997243 0.64773284
0.98676471 0.69901961 0.64227941
0.47794118 0.8754902 0.6504902
0.4966299 0.87883732 0.65375306
0.53475797 0.88088235 0.66836703
0.58971354 0.87910539 0.67256434
0.67049632 0.87686887 0.65793505
0.75325521 0.87156863 0.66058517
0.85796569 0.86911765 0.65744485
0.94601716 0.85949755 0.67761183
1 0.8495098 0.69773284
0.80882353 0.99607843 0.43088235
0.82015931 0.99626225 0.43112745
0.82794118 0.99362745 0.44031863
0.85876225 0.99362745 0.45006127
0.9125 0.99681373 0.44240196
0.95061275 0.99460784 0.46415441
0.9754902 0.99117647 0.51911765
0.99509804 0.9908701 0.54718137
1 0.98676471 0.61911765
0 0.0039215686 0.42254902
0.0034313725 0.0035539216 0.41727941
0.011519608 0.0039215686 0.40759804
0.11176471 0.0039215686 0.38272059
0.30490196 0.0039215686 0.35147059
0.49301471 0 0.3185049
0.67230392 0 0.29509804
0.84595588 0 0.2685049
0.95588235 0 0.24803922
0 0.020098039 0.47953431
0 0.042156863 0.47323836
0.028523284 0.02879902 0.45784314
0.14713542 0.023529412 0.42990196
0.32794118 0.015196078 0.39123775
0.50842525 0.0077971814 0.3564951
0.67843137 0.0073529412 0.3200674
0.85343137 0.0022518382 0.27843137
0.96813725 0 0.24901961
0 0.15759804 0.55294118
0 0.14938725 0.54613971
0.054901961 0.14436275 0.5307598
0.17867647 0.13235294 0.5002451
0.34987745 0.12254902 0.46764706
0.52340686 0.10343137 0.43137255
0.68645833 0.064338235 0.38529412
0.84175858 0.028952206 0.34019608
0.97083333 0.0068627451 0.29877451
0 0.30637255 0.63137255
0.0037990196 0.30637255 0.6234375
0.062009804 0.30217525 0.60802696
0.20490196 0.29137561 0.58085172
0.37401961 0.28284314 0.56029412
0.53823529 0.26444547 0.52610294
0.69509804 0.23161765 0.48556985
0.85245098 0.19278493 0.44361213
0.96764706 0.1622549 0.41139706
0.010784314 0.45686275 0.69313725
0.0039215686 0.45839461 0.69270833
0.056495098 0.45330882 0.6810049
0.21887255 0.44901961 0.66397059
0.39852941 0.44093137 0.64681373
0.55735294 0.42794118 0.61813725
0.70980392 0.4127451 0.5872549
0.86464461 0.3877451 0.55857843
0.97598039 0.35735294 0.52892157
0.011764706 0.59803922 0.74705882
0.012791054 0.59742647 0.75098039
0.13360907 0.59757966 0.73995098
0.2916973 0.58981311 0.72745098
0.44050245 0.58627451 0.71207108
0.57984069 0.57636336 0.69215686
0.72110907 0.57153799 0.67487745
0.87598039 0.55232843 0.64963235
0.97977941 0.53284314 0.63272059
0.15686275 0.73333333 0.78921569
0.17815564 0.73397672 0.79313725
0.28572304 0.73651961 0.78848039
0.39117647 0.73106618 0.78247549
0.50490196 0.72647059 0.77071078
0.62254902 0.72202819 0.75968137
0.74981618 0.71372549 0.74583333
0.88835784 0.70572917 0.73134191
0.98823529 0.69411765 0.71936275
0.39411765 0.86875 0.80367647
0.41666667 0.86862745 0.80579044
0.46063113 0.87254902 0.81078431
0.52745098 0.86776961 0.79411765
0.61390931 0.86519608 0.79129902
0.70228248 0.86438419 0.79462316
0.80741422 0.85735294 0.79473039
0.91862745 0.8495098 0.77941176
0.99215686 0.84558824 0.77205882
0.69019608 0.99215686 0.72058824
0.70245098 0.99215686 0.70686275
0.69730392 0.98259804 0.71936275
0.74411765 0.98823529 0.72487745
0.75931373 0.97745098 0.75196078
0.81531863 0.96421569 0.75931373
0.87696078 0.94926471 0.76838235
0.9495098 0.9622549 0.79571078
1 0.98137255 0.78137255
0 0.015686275 0.51470588
0 0.0078431373 0.49166667
0 0.0039215686 0.47254902
0.077144608 0.0039215686 0.44558824
0.26372549 0.0034313725 0.41862745
0.46844363 0.0039215686 0.39166667
0.65551471 0 0.35294118
0.82990196 0 0.31807598
0.94509804 0 0.29509804
0 0.039583333 0.54601716
0 0.053921569 0.5537454
0.0029411765 0.034803922 0.53296569
0.10931373 0.027780331 0.4995098
0.29705882 0.014981618 0.45710784
0.48471967 0.0077818627 0.42254902
0.65899203 0.0073529412 0.37821691
0.82990196 0.0034926471 0.3245098
0.95245098 0.00042892157 0.29068627
0 0.16078431 0.62647059
0 0.14928002 0.62293199
0.021476716 0.14365809 0.60257353
0.12732843 0.12579657 0.56507353
0.32401961 0.11881127 0.52965686
0.50208333 0.095098039 0.48890931
0.66259191 0.065471814 0.44411765
0.8332261 0.02254902 0.39051777
0.9567402 0.0078431373 0.35196078
0 0.30637255 0.7
0 0.29806219 0.7
0.024984681 0.29446998 0.67598039
0.13540901 0.28565411 0.64901961
0.33348652 0.27892157 0.62156863
0.5127451 0.26176471 0.59051011
0.67075674 0.22904412 0.55044424
0.82248775 0.19046415 0.50520833
0.93265931 0.15637255 0.46783088
0 0.45269608 0.76960784
0.0015012255 0.45269608 0.76810662
0.010661765 0.44883578 0.75839461
0.15358456 0.44117647 0.74102328
0.35441176 0.4372549 0.7125
0.52647059 0.42794118 0.68578431
0.67892157 0.40686275 0.65637255
0.83039216 0.37990196 0.61443015
0.95686275 0.35294118 0.58137255
0.009129902 0.59019608 0.83167892
0.016827512 0.591322 0.82401961
0.043382353 0.5877451 0.81928615
0.2142693 0.58283548 0.80802696
0.38823529 0.58097426 0.79420956
0.5495098 0.57598039 0.76855852
0.69178922 0.56421569 0.74413297
0.84509804 0.54846814 0.71078431
0.95814951 0.5286152 0.68903186
0.041911765 0.72904412 0.88835784
0.070833333 0.73026961 0.88530944
0.16770833 0.73030025 0.87879902
0.3213848 0.72904412 0.86582414
0.45208333 0.72512255 0.85894608
0.58762255 0.72046569 0.84413297
0.71838235 0.71372549 0.8265625
0.85441176 0.69852941 0.80588235
0.96948529 0.68676471 0.78419118
0.27800245 0.86427696 0.91960784
0.31508119 0.86078431 0.9350337
0.37463235 0.86421569 0.92397365
0.45980392 0.86051624 0.91149663
0.54754902 0.86078431 0.91271446
0.65610447 0.85686275 0.89607843
0.76868873 0.8495098 0.88109681
0.8886106 0.84558058 0.88028493
0.9838848 0.8377451 0.86819853
0.58627451 0.9877451 0.92401961
0.60404412 0.9877451 0.91660539
0.61115196 0.98088235 0.91262255
0.65588235 0.98204657 0.91145833
0.70710784 0.98431373 0.92009804
0.76973039 0.9841299 0.92401961
0.85098039 0.97977941 0.91580882
0.93731618 0.97647059 0.91966912
0.98823529 0.98039216 0.91960784
0 0 0.56862745
0 0.0039215686 0.52990196
0.0039215686 0.0068627451 0.51372549
0.075 0.0078431373 0.49313725
0.24901961 0 0.45098039
0.45588235 0 0.44411765
0.64607843 0 0.3745098
0.82598039 0 0.32892157
0.94509804 0 0.30196078
0 0.032843137 0.59460784
0 0.045588235 0.58676471
0 0.024019608 0.56458333
0.096568627 0.017830882 0.53400735
0.27401961 0.0056372549 0.49142157
0.46501225 0.0039215686 0.45557598
0.64901961 0.0025735294 0.40784314
0.81121324 0.0039215686 0.35104167
0.9372549 0.0039215686 0.32058824
0 0.16764706 0.67156863
0 0.14938725 0.65821078
0.011519608 0.13333333 0.63431373
0.10882353 0.1245098 0.60281863
0.29803922 0.11764706 0.56764706
0.48333333 0.087745098 0.51960784
0.64730392 0.056862745 0.47745098
0.82120098 0.032352941 0.41188725
0.95196078 0.0078431373 0.37843137
0 0.3 0.75
0.0037377451 0.29460784 0.72745098
0.01372549 0.28676471 0.72598039
0.09307598 0.27984069 0.69754902
0.29607843 0.27107843 0.66348039
0.490625 0.25784314 0.62941176
0.65477941 0.22941176 0.58247549
0.82647059 0.19050245 0.52677696
0.94901961 0.13872549 0.48039216
0 0.44705882 0.79803922
0 0.44901961 0.80563725
0.0068627451 0.44509804 0.80392157
0.09877451 0.44117647 0.78186275
0.32058824 0.43333333 0.75196078
0.50294118 0.42401961 0.72843137
0.66960784 0.40882353 0.67892157
0.83382353 0.38161765 0.65196078
0.95490196 0.34705882 0.61176471
0.0014705882 0.59019608 0.85539216
0.0073529412 0.58805147 0.85539216
0.012867647 0.58051471 0.85784314
0.14852941 0.58235294 0.85300245
0.35833333 0.57916667 0.83382353
0.52254902 0.5745098 0.80931373
0.67696078 0.56384804 0.77990196
0.82598039 0.54381127 0.74852941
0.9504902 0.51715686 0.71176471
0.0039215686 0.72254902 0.93529412
0.018014706 0.72254902 0.93529412
0.056862745 0.72254902 0.93137255
0.24644608 0.71973039 0.91360294
0.41813725 0.71764706 0.90441176
0.55686275 0.71470588 0.88578431
0.69901961 0.70980392 0.86397059
0.84656863 0.69117647 0.83382353
0.95686275 0.67941176 0.81078431
0.20588235 0.85686275 0.97696078
0.25055147 0.85686275 0.98039216
0.31838235 0.85686275 0.9817402
0.40294118 0.85343137 0.97383578
0.51372549 0.85686275 0.96936275
0.62322304 0.85557598 0.95490196
0.75428922 0.84816176 0.92990196
0.86960784 0.8377451 0.91421569
0.96470588 0.83382353 0.90294118
0.52941176 0.98039216 0.99607843
0.54411765 0.98382353 0.99607843
0.5627451 0.97941176 0.99215686
0.61127451 0.98676471 0.99852941
0.6745098 0.98235294 0.99215686
0.74166667 0.98186275 0.99215686
0.80490196 0.96764706 0.99117647
0.9004902 0.96911765 0.98823529
0.98039216 0.97647059 0.98039216
