site/assets/luts/sha256-7c35fe7ce6efe4380844499d4ccc5d6c5ec650e6d4885e4451020f8bf162082f.cube
# LUTr-Schema-Version: 2
# LUTr-ID: sha256-7c35fe7ce6efe4380844499d4ccc5d6c5ec650e6d4885e4451020f8bf162082f
# LUTr-Title: goldfx bright spring breeze
# LUTr-Collection: Natron HaldCLUT
# LUTr-Collection-ID: natron-haldclut-presets
# LUTr-Source: https://github.com/NatronGitHub/clut
# LUTr-Retrieved: 2026-07-27
# LUTr-Source-File: submissions/natron-haldclut-presets/picturefx/goldfx_bright_spring_breeze.png
# LUTr-Source-Format: HALD-PNG
# LUTr-Source-SHA256: 7c35fe7ce6efe4380844499d4ccc5d6c5ec650e6d4885e4451020f8bf162082f
# LUTr-License: CC-BY-SA-4.0
# LUTr-License-URL: https://github.com/NatronGitHub/clut#license
# LUTr-License-Basis: repo-license-file
# LUTr-Transform-Class: film-emulation
# LUTr-Tags: creative, film, film-emulation, hald-clut, natron, png, cube
# LUTr-Input-Color-Space: srgb
# LUTr-Input-Gamut: rec709
# LUTr-Input-Transfer: srgb
# LUTr-Output-Color-Space: srgb
# LUTr-Output-Gamut: rec709
# LUTr-Output-Transfer: srgb
# LUTr-Color-Space-Confidence: assumed-display-referred
# LUTr-Domain-Normalized: true
# LUTr-Shaper: none
# LUTr-Original-Grid: 64x64x64
# LUTr-Conversion-Grid: 25x25x25
# LUTr-Conversion-Interpolation: trilinear
# LUTr-Conversion-Method: HALD-PNG LUT image decoded at 16-bit and sampled to 25x25x25 3D CUBE
# LUTr-Conversion-Tool: LUTr scripts/convert-all-to-cube.mjs 2.0.0
# LUTr-Conversion-Date: 2026-07-27
# LUTr-Note: Preserve this metadata and the upstream license notices when redistributing.
TITLE "goldfx bright spring breeze"
LUT_3D_SIZE 25
DOMAIN_MIN 0 0 0
DOMAIN_MAX 1 1 1
0.0078431373 0.011764706 0.011764706
0.028431373 0.03627451 0.032352941
0.049019608 0.042156863 0.039215686
0.069607843 0.035784314 0.031862745
0.10588235 0.045098039 0.041176471
0.14264706 0.059313725 0.047058824
0.17745098 0.066666667 0.048039216
0.21617647 0.075980392 0.045588235
0.25882353 0.082352941 0.047058824
0.31029412 0.082352941 0.054901961
0.35784314 0.078431373 0.06372549
0.40539216 0.071078431 0.063235294
0.45098039 0.056862745 0.058823529
0.49215686 0.042647059 0.050980392
0.5372549 0.043137255 0.053921569
0.58627451 0.047058824 0.054901961
0.63137255 0.039215686 0.054901961
0.67892157 0.045588235 0.058823529
0.73039216 0.059803922 0.066666667
0.78186275 0.074019608 0.070588235
0.82352941 0.094117647 0.080392157
0.86029412 0.11862745 0.08627451
0.89803922 0.14607843 0.093137255
0.94460784 0.19166667 0.11421569
0.98823529 0.23529412 0.1372549
0.014215686 0.050490196 0.03872549
0.028431373 0.057781863 0.047487745
0.051470588 0.066176471 0.053431373
0.079411765 0.066176471 0.046078431
0.1129902 0.072794118 0.052205882
0.146875 0.07567402 0.057352941
0.1810049 0.075490196 0.054411765
0.21764706 0.077512255 0.045588235
0.26127451 0.082352941 0.044607843
0.3127451 0.084803922 0.053431373
0.36421569 0.089705882 0.06372549
0.40588235 0.07432598 0.070588235
0.45098039 0.063235294 0.063970588
0.50116422 0.06127451 0.057352941
0.54362745 0.058946078 0.059803922
0.58927696 0.048958333 0.057352941
0.63382353 0.036764706 0.05245098
0.67892157 0.042218137 0.057352941
0.72647059 0.052941176 0.06372549
0.77794118 0.085294118 0.074019608
0.82156863 0.10882353 0.083578431
0.85508578 0.11672794 0.086580882
0.89411765 0.1442402 0.090196078
0.94215686 0.18866422 0.10876225
0.98823529 0.23137255 0.13088235
0.020588235 0.090196078 0.060784314
0.026593137 0.090196078 0.067647059
0.054901961 0.095098039 0.061764706
0.084803922 0.098039216 0.052328431
0.11764706 0.098039216 0.052941176
0.15183824 0.10110294 0.060171569
0.18602941 0.10122549 0.059068627
0.22218137 0.099877451 0.049509804
0.26764706 0.10196078 0.047058824
0.31911765 0.10735294 0.054411765
0.37058824 0.11568627 0.062009804
0.41470588 0.098039216 0.069240196
0.46127451 0.090686275 0.075
0.51678922 0.098406863 0.075490196
0.55955882 0.098039216 0.075490196
0.6 0.079411765 0.066176471
0.64117647 0.060784314 0.060784314
0.68529412 0.066176471 0.067156863
0.73039216 0.073529412 0.071813725
0.775 0.10306373 0.078063725
0.82205882 0.13284314 0.088235294
0.85784314 0.14509804 0.091176471
0.89803922 0.1627451 0.091176471
0.94276961 0.20392157 0.11127451
0.99803922 0.26568627 0.14803922
0.023529412 0.13137255 0.077941176
0.033639706 0.13351716 0.075796569
0.056004902 0.13884804 0.069117647
0.074019608 0.13921569 0.058823529
0.1122549 0.13921569 0.058578431
0.15441176 0.13921569 0.062745098
0.18909314 0.13921569 0.062745098
0.22892157 0.13921569 0.054718137
0.2745098 0.13921569 0.054411765
0.32598039 0.13970588 0.058333333
0.37696078 0.13970588 0.058946078
0.42751225 0.13143382 0.066176471
0.48333333 0.13529412 0.074754902
0.534375 0.13621324 0.078431373
0.57683824 0.13541667 0.078431373
0.61715686 0.1254902 0.080085784
0.65784314 0.11862745 0.081372549
0.69932598 0.11764706 0.087745098
0.74411765 0.12794118 0.089215686
0.78186275 0.14209559 0.089215686
0.82720588 0.16323529 0.091911765
0.86764706 0.17990196 0.094546569
0.89901961 0.2 0.097916667
0.94803922 0.23578431 0.12009804
0.99901961 0.27696078 0.14460784
0.029411765 0.17254902 0.084313725
0.036519608 0.17377451 0.081127451
0.042156863 0.17647059 0.074019608
0.058088235 0.17818627 0.065196078
0.10196078 0.17843137 0.066666667
0.15122549 0.17818627 0.066176471
0.19264706 0.17647059 0.062745098
0.23406863 0.1745098 0.056127451
0.28431373 0.17647059 0.058823529
0.33578431 0.17647059 0.062745098
0.3872549 0.1745098 0.063235294
0.44240196 0.17647059 0.072058824
0.49803922 0.17647059 0.076470588
0.5495098 0.17279412 0.078431373
0.59411765 0.17401961 0.083333333
0.6372549 0.1745098 0.093627451
0.6745098 0.17254902 0.10196078
0.71568627 0.17058824 0.10833333
0.75637255 0.17990196 0.10931373
0.79607843 0.19362745 0.10416667
0.8372549 0.20196078 0.099019608
0.87401961 0.21666667 0.1004902
0.90882353 0.24068627 0.1122549
0.9504902 0.27107843 0.13039216
0.99607843 0.30588235 0.15294118
0.035784314 0.20931373 0.08627451
0.039705882 0.20980392 0.083823529
0.043627451 0.21323529 0.077573529
0.047058824 0.21366422 0.071507353
0.096078431 0.21544118 0.071078431
0.14748775 0.21672794 0.070098039
0.19509804 0.21066176 0.059803922
0.23921569 0.20931373 0.054901961
0.29460784 0.21323529 0.059313725
0.35 0.21764706 0.066973039
0.40196078 0.2189951 0.071568627
0.45686275 0.22156863 0.078860294
0.5122549 0.22156863 0.084558824
0.56372549 0.22254902 0.087254902
0.61262255 0.22647059 0.09497549
0.65392157 0.22990196 0.10520833
0.69509804 0.22647059 0.11764706
0.73253676 0.22469363 0.1254902
0.77352941 0.23529412 0.12058824
0.81121324 0.24558824 0.11378676
0.8497549 0.25539216 0.11029412
0.88039216 0.26176471 0.11121324
0.91384804 0.27806373 0.12107843
0.95275735 0.30569853 0.13854167
0.9754902 0.31764706 0.14460784
0.046078431 0.24019608 0.08627451
0.05 0.24411765 0.082720588
0.053921569 0.24730392 0.081372549
0.06127451 0.25098039 0.081372549
0.1 0.25490196 0.085294118
0.15012255 0.25453431 0.08002451
0.19828431 0.24803922 0.067401961
0.24705882 0.24460784 0.056127451
0.30490196 0.25098039 0.062745098
0.3627451 0.25735294 0.067279412
0.41568627 0.2627451 0.075490196
0.46715686 0.26617647 0.085784314
0.51960784 0.26813725 0.091666667
0.5745098 0.27401961 0.09754902
0.63161765 0.28137255 0.11519608
0.6745098 0.28529412 0.11421569
0.71568627 0.28431373 0.12156863
0.75441176 0.28321078 0.1254902
0.79313725 0.29313725 0.12156863
0.82879902 0.3004902 0.12058824
0.86323529 0.30833333 0.12205882
0.88848039 0.30723039 0.1310049
0.92156863 0.32352941 0.13137255
0.94718137 0.33247549 0.14031863
0.96568627 0.33823529 0.14313725
0.054901961 0.275 0.082352941
0.058823529 0.27800245 0.082352941
0.065196078 0.28321078 0.08627451
0.073713235 0.29019608 0.089889706
0.099264706 0.29068627 0.090931373
0.15 0.29068627 0.089705882
0.19901961 0.28823529 0.079411765
0.2528799 0.28823529 0.068137255
0.31372549 0.29215686 0.064215686
0.36911765 0.29852941 0.065196078
0.42058824 0.30392157 0.075857843
0.47205882 0.30784314 0.089705882
0.52696078 0.31519608 0.09754902
0.58480392 0.3254902 0.10765931
0.64264706 0.33578431 0.11311275
0.69025735 0.33676471 0.11911765
0.73235294 0.33823529 0.1254902
0.77352941 0.33823529 0.12696078
0.8122549 0.34669118 0.12696078
0.84313725 0.35245098 0.13069853
0.8754902 0.36029412 0.13480392
0.90882353 0.36452206 0.13872549
0.93786765 0.37291667 0.14558824
0.96421569 0.39068627 0.15980392
0.99264706 0.40637255 0.17303922
0.062745098 0.30588235 0.082352941
0.069117647 0.3122549 0.08627451
0.074509804 0.31862745 0.090196078
0.078431373 0.32156863 0.090196078
0.092156863 0.3254902 0.094117647
0.14362745 0.3254902 0.090196078
0.20196078 0.32941176 0.08627451
0.25833333 0.33088235 0.080882353
0.31372549 0.33333333 0.074509804
0.36911765 0.3372549 0.070588235
0.41666667 0.34215686 0.079411765
0.46813725 0.34852941 0.089705882
0.5254902 0.35686275 0.1
0.5872549 0.36911765 0.11029412
0.64607843 0.37941176 0.11666667
0.70392157 0.38823529 0.12156863
0.74901961 0.38823529 0.1254902
0.79019608 0.39068627 0.12941176
0.82254902 0.39705882 0.13333333
0.85343137 0.40343137 0.1372549
0.88823529 0.40980392 0.14313725
0.92352941 0.41568627 0.14901961
0.95098039 0.42254902 0.15588235
0.97303922 0.43431373 0.17009804
0.99607843 0.45098039 0.18431373
0.073039216 0.34460784 0.084803922
0.079411765 0.35006127 0.089644608
0.084803922 0.35490196 0.093014706
0.08872549 0.35637255 0.094117647
0.092647059 0.35882353 0.096568627
0.14019608 0.36292892 0.093933824
0.20196078 0.36666667 0.092647059
0.25833333 0.37058824 0.08872549
0.31127451 0.3745098 0.084803922
0.36427696 0.37542892 0.080882353
0.41666667 0.37879902 0.08125
0.46783088 0.38363971 0.089705882
0.52352941 0.39485294 0.1
0.58039216 0.40392157 0.10765931
0.63517157 0.41066176 0.11482843
0.68872549 0.41666667 0.11911765
0.73480392 0.42303922 0.12303922
0.77990196 0.42640931 0.1254902
0.82009804 0.43541667 0.12977941
0.85098039 0.4408701 0.1346201
0.88504902 0.44779412 0.13995098
0.92303922 0.45735294 0.15214461
0.95490196 0.46617647 0.16617647
0.97794118 0.47886029 0.18186275
0.99607843 0.49460784 0.19852941
0.082352941 0.38039216 0.090196078
0.086887255 0.38615196 0.093014706
0.092156863 0.39142157 0.098284314
0.098529412 0.39473039 0.10159314
0.11078431 0.39754902 0.10294118
0.14852941 0.40036765 0.10294118
0.2 0.40392157 0.10220588
0.25441176 0.40784314 0.099019608
0.30588235 0.41176471 0.095098039
0.36029412 0.41470588 0.091176471
0.4127451 0.41568627 0.087254902
0.46421569 0.41862745 0.089705882
0.51421569 0.42647059 0.09754902
0.56519608 0.4307598 0.10625
0.61666667 0.43406863 0.1127451
0.66960784 0.44264706 0.11703431
0.72352941 0.45392157 0.11764706
0.76960784 0.46127451 0.12058824
0.81151961 0.47058824 0.1245098
0.84558824 0.47708333 0.12928922
0.88235294 0.48431373 0.14166667
0.92316176 0.49865196 0.15882353
0.95857843 0.5127451 0.17941176
0.98823529 0.52512255 0.19276961
0.99705882 0.53333333 0.20392157
0.089705882 0.41813725 0.093627451
0.096078431 0.421875 0.097855392
0.10245098 0.42683824 0.10281863
0.10882353 0.42990196 0.1088848
0.125 0.43553922 0.11151961
0.15833333 0.43817402 0.11280637
0.20637255 0.44154412 0.10931373
0.25441176 0.44509804 0.10569853
0.30588235 0.44558824 0.10539216
0.35735294 0.4495098 0.10147059
0.40539216 0.45036765 0.097426471
0.45343137 0.4533701 0.093627451
0.49877451 0.45343137 0.097794118
0.54761029 0.45435049 0.10245098
0.59607843 0.45784314 0.10894608
0.65147059 0.46685049 0.11372549
0.70686275 0.48088235 0.11372549
0.76145833 0.49509804 0.11372549
0.80698529 0.50404412 0.11519608
0.84509804 0.51176471 0.12843137
0.88235294 0.52377451 0.14509804
0.92352941 0.54019608 0.16568627
0.96470588 0.55686275 0.18590686
0.99969363 0.57028186 0.2036152
1 0.57107843 0.20735294
0.1 0.44901961 0.098039216
0.10637255 0.45539216 0.10318627
0.1127451 0.46127451 0.10882353
0.11936275 0.46470588 0.11348039
0.12941176 0.46862745 0.11764706
0.15882353 0.47254902 0.11764706
0.20686275 0.47598039 0.11568627
0.25441176 0.47916667 0.11568627
0.30196078 0.48039216 0.11176471
0.34754902 0.48284314 0.11176471
0.39509804 0.48480392 0.10784314
0.44264706 0.48823529 0.10784314
0.48627451 0.48529412 0.10490196
0.52965686 0.48039216 0.10416667
0.57941176 0.48186275 0.10588235
0.63161765 0.48848039 0.10980392
0.69019608 0.50392157 0.11176471
0.74607843 0.51936275 0.11176471
0.79803922 0.53431373 0.11323529
0.83921569 0.54656863 0.12671569
0.87843137 0.55686275 0.14117647
0.92352941 0.5752451 0.16568627
0.96470588 0.59411765 0.19166667
0.99313725 0.61544118 0.22279412
1 0.6254902 0.23529412
0.10637255 0.47990196 0.10196078
0.11666667 0.48676471 0.10833333
0.12340686 0.49656863 0.11384804
0.12990196 0.49993873 0.11807598
0.13406863 0.50171569 0.12181373
0.15882353 0.50392157 0.12205882
0.20392157 0.50735294 0.12205882
0.24852941 0.51127451 0.12205882
0.29362745 0.51127451 0.12205882
0.33743873 0.51372549 0.12205882
0.38480392 0.51911765 0.11813725
0.43284314 0.52303922 0.11813725
0.47794118 0.51936275 0.11617647
0.51960784 0.51476716 0.11372549
0.56458333 0.50870098 0.10735294
0.61617647 0.5127451 0.10998775
0.67745098 0.52696078 0.11764706
0.73284314 0.54332108 0.11764706
0.78431373 0.55980392 0.1189951
0.83278186 0.57696078 0.12506127
0.87647059 0.58995098 0.1372549
0.92009804 0.61029412 0.16519608
0.96470588 0.63088235 0.18958333
0.98333333 0.65686275 0.23480392
1 0.68088235 0.27254902
0.12352941 0.51764706 0.10588235
0.13382353 0.52794118 0.11519608
0.14019608 0.5372549 0.12083333
0.14669118 0.54105392 0.1245098
0.15098039 0.54117647 0.12843137
0.17083333 0.54411765 0.13235294
0.20392157 0.54191176 0.13235294
0.24215686 0.54215686 0.13235294
0.28333333 0.53823529 0.13235294
0.33026961 0.54460784 0.13235294
0.37818627 0.55098039 0.12843137
0.42598039 0.5564951 0.12843137
0.47156863 0.55686275 0.12794118
0.51580882 0.55245098 0.12438725
0.56372549 0.54901961 0.12058824
0.61127451 0.54901961 0.12058824
0.65980392 0.55098039 0.12058824
0.71617647 0.56703431 0.1245098
0.76764706 0.58431373 0.12622549
0.82205882 0.60392157 0.12843137
0.87009804 0.62156863 0.13480392
0.91458333 0.63566176 0.15196078
0.96691176 0.66176471 0.1747549
0.98578431 0.6877451 0.22107843
0.99705882 0.71470588 0.26568627
0.13333333 0.55735294 0.10833333
0.14362745 0.56672794 0.11617647
0.15428922 0.57438725 0.12254902
0.16194853 0.58216912 0.12941176
0.16813725 0.58627451 0.13406863
0.19264706 0.58627451 0.13743873
0.22352941 0.58627451 0.14056373
0.25349265 0.58088235 0.14264706
0.28529412 0.57598039 0.14264706
0.3283701 0.57996324 0.13872549
0.37352941 0.58517157 0.13872549
0.42107843 0.58872549 0.13872549
0.46789216 0.59264706 0.13872549
0.51439951 0.58872549 0.13480392
0.56372549 0.58627451 0.13125
0.61127451 0.58627451 0.13088235
0.65882353 0.5877451 0.13088235
0.70637255 0.59810049 0.13180147
0.75784314 0.61531863 0.13480392
0.80655637 0.63106618 0.13694853
0.85392157 0.64289216 0.13995098
0.90557598 0.66292892 0.15343137
0.95686275 0.6872549 0.16556373
0.97947304 0.71378676 0.20441176
1 0.74705882 0.24558824
0.13333333 0.58431373 0.10196078
0.14754902 0.59705882 0.1122549
0.16176471 0.60882353 0.12254902
0.17205882 0.61911765 0.13284314
0.18235294 0.62745098 0.13921569
0.20980392 0.62794118 0.14166667
0.24411765 0.63137255 0.14803922
0.27892157 0.63137255 0.15294118
0.30980392 0.62745098 0.15686275
0.33921569 0.62352941 0.1504902
0.38039216 0.6245098 0.14901961
0.42156863 0.62745098 0.14901961
0.46666667 0.62745098 0.14705882
0.5122549 0.62352941 0.14509804
0.56372549 0.62352941 0.14117647
0.61127451 0.62745098 0.1372549
0.65882353 0.63137255 0.14117647
0.70392157 0.64166667 0.14362745
0.75294118 0.65196078 0.14901961
0.79411765 0.65882353 0.14509804
0.83921569 0.66862745 0.14509804
0.88872549 0.6872549 0.15343137
0.9372549 0.70686275 0.16372549
0.96372549 0.73529412 0.19656863
0.98431373 0.76078431 0.21568627
0.15392157 0.63578431 0.11617647
0.16905637 0.65 0.12647059
0.18235294 0.66029412 0.13468137
0.19509804 0.66930147 0.14313725
0.20980392 0.67696078 0.15196078
0.2341299 0.67892157 0.15539216
0.27156863 0.68223039 0.16115196
0.30435049 0.68284314 0.16715686
0.33431373 0.67892157 0.16960784
0.35827206 0.6716299 0.16323529
0.39460784 0.66862745 0.15931373
0.43431373 0.66862745 0.15931373
0.47696078 0.66985294 0.15857843
0.52205882 0.67322304 0.1591299
0.56433824 0.67107843 0.1560049
0.61280637 0.67107843 0.15091912
0.65637255 0.67254902 0.14754902
0.70091912 0.68284314 0.15392157
0.74865196 0.69460784 0.15931373
0.7841299 0.69344363 0.15539216
0.825 0.69705882 0.15294118
0.87205882 0.70998775 0.15557598
0.92022059 0.72843137 0.16372549
0.95042892 0.75386029 0.18425245
0.97352941 0.7754902 0.19705882
0.16960784 0.68431373 0.1245098
0.18921569 0.69852941 0.1377451
0.20955882 0.71176471 0.15171569
0.22598039 0.72303922 0.16127451
0.24901961 0.73284314 0.16862745
0.26752451 0.73382353 0.17046569
0.29313725 0.73039216 0.17254902
0.33186275 0.73186275 0.18137255
0.36764706 0.73431373 0.18627451
0.37941176 0.71801471 0.175
0.40980392 0.71372549 0.16960784
0.45098039 0.71470588 0.17046569
0.49656863 0.72156863 0.1745098
0.54068627 0.72647059 0.17708333
0.57745098 0.72279412 0.17377451
0.61752451 0.72254902 0.1685049
0.65588235 0.71862745 0.16176471
0.6995098 0.725 0.16458333
0.74926471 0.73823529 0.17352941
0.78419118 0.73860294 0.16973039
0.82009804 0.73676471 0.16421569
0.86213235 0.74264706 0.16568627
0.90906863 0.75294118 0.16666667
0.95306373 0.79387255 0.19362745
0.99411765 0.84117647 0.22254902
0.21372549 0.74607843 0.14803922
0.23743873 0.76372549 0.16568627
0.24522059 0.76973039 0.17120098
0.25637255 0.77745098 0.17892157
0.28455882 0.7877451 0.18921569
0.30441176 0.78829657 0.19068627
0.31727941 0.77794118 0.18382353
0.36145833 0.78333333 0.19675245
0.39117647 0.78186275 0.1995098
0.39754902 0.76390931 0.18529412
0.43039216 0.75968137 0.1807598
0.47457108 0.7661152 0.18682598
0.52034314 0.77598039 0.19509804
0.55741422 0.77794118 0.19466912
0.59252451 0.77401961 0.18860294
0.62892157 0.77254902 0.18363971
0.66960784 0.77009804 0.17941176
0.71470588 0.77775735 0.18547794
0.75637255 0.78590686 0.18737745
0.79368873 0.78970588 0.1872549
0.83088235 0.79338235 0.18333333
0.87205882 0.79803922 0.18333333
0.91360294 0.80441176 0.1872549
0.95851716 0.828125 0.2
0.98529412 0.85882353 0.22009804
0.26666667 0.81372549 0.17843137
0.29877451 0.83553922 0.20343137
0.30098039 0.83676471 0.20490196
0.29240196 0.83333333 0.19828431
0.32352941 0.83921569 0.20784314
0.34166667 0.83872549 0.20931373
0.34705882 0.82843137 0.19901961
0.38553922 0.82941176 0.20931373
0.41372549 0.8254902 0.21176471
0.42720588 0.81519608 0.20147059
0.45980392 0.81666667 0.20294118
0.50735294 0.8252451 0.21127451
0.54705882 0.83235294 0.21568627
0.58210784 0.83112745 0.21176471
0.61470588 0.82745098 0.20833333
0.6495098 0.82352941 0.20318627
0.68823529 0.82745098 0.20392157
0.73455882 0.83382353 0.20784314
0.77990196 0.84313725 0.21176471
0.81617647 0.84681373 0.21372549
0.85392157 0.85 0.20882353
0.88602941 0.85318627 0.20588235
0.925 0.85637255 0.20637255
0.96691176 0.8622549 0.20661765
0.9745098 0.87058824 0.21372549
0.34313725 0.88823529 0.21960784
0.36550245 0.90147059 0.23737745
0.37254902 0.90404412 0.24460784
0.36421569 0.90098039 0.23290441
0.38235294 0.90318627 0.23406863
0.39852941 0.9004902 0.23670343
0.40232843 0.89019608 0.23235294
0.44546569 0.89491422 0.24613971
0.48578431 0.89754902 0.25686275
0.49754902 0.8872549 0.24705882
0.50845588 0.87879902 0.23443627
0.54454657 0.88529412 0.23621324
0.57818627 0.88921569 0.23627451
0.61084559 0.88921569 0.23241422
0.64852941 0.88627451 0.23284314
0.68216912 0.88547794 0.23106618
0.71911765 0.88921569 0.22892157
0.76243873 0.89558824 0.23235294
0.80539216 0.90183824 0.23333333
0.85876225 0.90490196 0.24846814
0.89607843 0.90661765 0.25098039
0.91709559 0.90539216 0.24411765
0.94754902 0.91568627 0.23247549
0.97481618 0.91415441 0.24203431
0.98480392 0.9245098 0.24019608
0.38039216 0.93333333 0.21960784
0.44583333 0.95882353 0.27463235
0.46519608 0.96740196 0.29093137
0.44313725 0.96323529 0.27107843
0.43284314 0.9627451 0.25735294
0.46323529 0.9627451 0.27009804
0.45122549 0.95808824 0.25441176
0.51544118 0.95992647 0.2872549
0.55784314 0.96568627 0.30196078
0.57254902 0.96262255 0.29607843
0.56446078 0.95220588 0.27058824
0.60625 0.9504902 0.27867647
0.61519608 0.94901961 0.26176471
0.64803922 0.94840686 0.25931373
0.69215686 0.95392157 0.26568627
0.72291667 0.95098039 0.26421569
0.74607843 0.95490196 0.25294118
0.79411765 0.95882353 0.25588235
0.83578431 0.9627451 0.25637255
0.92009804 0.96875 0.29656863
0.94264706 0.96470588 0.29509804
0.95784314 0.96029412 0.28823529
0.98308824 0.97745098 0.26764706
0.99301471 0.97107843 0.27977941
0.99901961 0.99019608 0.26372549
0.54166667 1 0.33627451
0.56335784 0.99607843 0.35220588
0.57193627 0.99669118 0.35686275
0.57610294 0.99656863 0.36207108
0.56421569 0.98578431 0.35
0.58480392 0.98970588 0.35655637
0.60330882 0.98272059 0.36164216
0.61954657 0.97383578 0.36372549
0.65686275 1 0.37009804
0.67132353 0.9966299 0.36734069
0.68553922 0.98835784 0.35833333
0.72959559 0.99901961 0.36942402
0.73602941 0.98014706 0.35784314
0.76256127 0.98235294 0.35637255
0.79203431 0.9877451 0.34938725
0.83719363 0.97941176 0.35778186
0.85441176 0.97941176 0.34558824
0.89620098 0.98878676 0.35104167
0.92132353 0.98492647 0.35355392
0.96311275 0.99607843 0.35606618
0.96691176 0.98431373 0.35392157
0.97971814 0.97040441 0.36421569
0.99411765 0.97941176 0.35318627
1 0.98192402 0.36458333
1 0.98186275 0.37892157
0.57254902 1 0.36078431
0.67647059 1 0.4377451
0.66764706 1 0.42647059
0.69166667 1 0.44411765
0.69019608 1 0.44313725
0.71127451 0.99901961 0.4504902
0.70490196 0.99411765 0.43823529
0.73627451 0.99509804 0.44803922
0.76470588 1 0.45490196
0.78872549 1 0.45588235
0.7372549 0.99019608 0.39803922
0.84460784 0.99901961 0.46323529
0.84901961 0.99607843 0.45098039
0.89166667 1 0.46666667
0.86470588 0.99411765 0.40980392
0.94901961 0.99852941 0.4495098
0.95686275 0.99607843 0.43137255
0.97254902 0.99607843 0.42647059
0.99901961 0.99901961 0.45196078
0.98872549 0.99264706 0.42843137
0.99411765 0.98627451 0.43529412
0.9995098 0.97647059 0.44313725
0.99901961 0.97647059 0.44509804
1 0.97647059 0.44019608
1 0.97647059 0.45882353
0.014215686 0.03627451 0.042647059
0.024509804 0.046568627 0.049938725
0.045098039 0.050980392 0.051960784
0.071752451 0.050183824 0.050490196
0.10588235 0.051470588 0.053921569
0.14050245 0.059313725 0.059987745
0.17683824 0.069607843 0.06372549
0.21372549 0.075980392 0.06127451
0.25882353 0.082352941 0.06372549
0.31029412 0.078982843 0.067647059
0.35686275 0.075612745 0.069117647
0.40165441 0.070772059 0.070588235
0.4497549 0.060784314 0.068382353
0.4963848 0.056066176 0.068137255
0.54301471 0.059803922 0.070098039
0.58927696 0.059803922 0.07064951
0.63382353 0.045588235 0.067647059
0.67892157 0.048590686 0.067647059
0.72647059 0.056862745 0.070098039
0.77941176 0.079901961 0.084129902
0.81764706 0.092156863 0.0875
0.8504902 0.11011029 0.090502451
0.8935049 0.14509804 0.10245098
0.94852941 0.19859069 0.12303922
0.99852941 0.24803922 0.14362745
0.014215686 0.051409314 0.051409314
0.021484375 0.058126532 0.054986213
0.045848652 0.063587623 0.058287377
0.076041667 0.069125306 0.060477941
0.11056985 0.073284314 0.064522059
0.14516697 0.075490196 0.067647059
0.179519 0.073958333 0.065165441
0.21498928 0.076554841 0.062254902
0.25974265 0.082352941 0.06372549
0.31217065 0.081433824 0.067647059
0.35816483 0.079810049 0.069117647
0.3995098 0.071882659 0.070588235
0.44656863 0.062285539 0.069117647
0.49993873 0.066482843 0.068681066
0.54800858 0.070327819 0.069898897
0.59172794 0.062867647 0.070098039
0.63529412 0.042218137 0.065196078
0.67704504 0.045013787 0.065540748
0.72401961 0.051639093 0.066176471
0.77334559 0.075735294 0.077941176
0.81397059 0.093995098 0.085539216
0.84957108 0.10717678 0.090310968
0.89327512 0.14200368 0.099509804
0.94250153 0.19074755 0.11911765
0.98970588 0.23621324 0.13633578
0.019607843 0.087745098 0.068259804
0.023039216 0.088128064 0.067647059
0.048008578 0.094730392 0.063817402
0.080882353 0.1011489 0.067279412
0.11525735 0.10269608 0.068627451
0.15147059 0.099142157 0.072074142
0.18556985 0.098314951 0.070281863
