site/assets/luts/sha256-54a78105210c75d542012d21786078b23e050bab163df23ebc6a6d9215be4773.cube
# LUTr-Schema-Version: 2
# LUTr-ID: sha256-54a78105210c75d542012d21786078b23e050bab163df23ebc6a6d9215be4773
# LUTr-Title: polaroid 690 cold +
# LUTr-Collection: Natron HaldCLUT
# LUTr-Collection-ID: natron-haldclut-presets
# LUTr-Source: https://github.com/NatronGitHub/clut
# LUTr-Retrieved: 2026-07-27
# LUTr-Source-File: submissions/natron-haldclut-presets/instant_pro/polaroid_690_cold_+.png
# LUTr-Source-Format: HALD-PNG
# LUTr-Source-SHA256: 54a78105210c75d542012d21786078b23e050bab163df23ebc6a6d9215be4773
# LUTr-License: CC-BY-SA-4.0
# LUTr-License-URL: https://github.com/NatronGitHub/clut#license
# LUTr-License-Basis: repo-license-file
# LUTr-Transform-Class: film-emulation
# LUTr-Tags: creative, film, film-emulation, hald-clut, natron, png, cool, cube
# LUTr-Input-Color-Space: srgb
# LUTr-Input-Gamut: rec709
# LUTr-Input-Transfer: srgb
# LUTr-Output-Color-Space: srgb
# LUTr-Output-Gamut: rec709
# LUTr-Output-Transfer: srgb
# LUTr-Color-Space-Confidence: assumed-display-referred
# LUTr-Domain-Normalized: true
# LUTr-Shaper: none
# LUTr-Original-Grid: 64x64x64
# LUTr-Conversion-Grid: 25x25x25
# LUTr-Conversion-Interpolation: trilinear
# LUTr-Conversion-Method: HALD-PNG LUT image decoded at 16-bit and sampled to 25x25x25 3D CUBE
# LUTr-Conversion-Tool: LUTr scripts/convert-all-to-cube.mjs 2.0.0
# LUTr-Conversion-Date: 2026-07-27
# LUTr-Note: Preserve this metadata and the upstream license notices when redistributing.
TITLE "polaroid 690 cold +"
LUT_3D_SIZE 5
DOMAIN_MIN 0 0 0
DOMAIN_MAX 1 1 1
0.0039215686 0.21176471 0.21176471
0.038235294 0.20784314 0.20784314
0.3627451 0.18235294 0.2
0.72254902 0.044117647 0.19509804
0.98431373 0 0.17254902
0.0039215686 0.25980392 0.20490196
0.11568627 0.26372549 0.19779412
0.48921569 0.28088235 0.18676471
0.79411765 0.22745098 0.17254902
0.99313725 0.14313725 0.16470588
0 0.48039216 0.17647059
0.091176471 0.47156863 0.1627451
0.49607843 0.53137255 0.11568627
0.8372549 0.58088235 0.078921569
0.99215686 0.59215686 0.17058824
0.012745098 0.74411765 0.12352941
0.07377451 0.73651961 0.079411765
0.49313725 0.74411765 0.043627451
0.79534314 0.77058824 0.015196078
0.99411765 0.78627451 0.19901961
0.4627451 0.92941176 0.35294118
0.49411765 0.91470588 0.31176471
0.63921569 0.91372549 0.29607843
0.82647059 0.93431373 0.3627451
0.96470588 0.95294118 0.42745098
0 0.20392157 0.24705882
0.065686275 0.20171569 0.2754902
0.36519608 0.16862745 0.26862745
0.68823529 0.0046568627 0.26078431
0.97254902 0 0.21862745
0 0.2629902 0.28921569
0.099632353 0.26427696 0.28939951
0.47634804 0.23284314 0.28186275
0.7723652 0.109375 0.25588235
0.99142157 0.022303922 0.23308824
0 0.52156863 0.31127451
0.043995098 0.50968137 0.29117647
0.52598039 0.54313725 0.28014706
0.83921569 0.58455882 0.30784314
0.99362745 0.57941176 0.3245098
0.0046568627 0.75882353 0.28529412
0.072058824 0.75508578 0.26691176
0.48970588 0.75526961 0.24803922
0.80073529 0.77058824 0.27843137
0.97745098 0.78333333 0.36470588
0.44705882 0.92941176 0.45588235
0.50073529 0.9245098 0.44338235
0.64166667 0.92598039 0.41862745
0.81789216 0.93333333 0.44681373
0.95 0.95294118 0.50882353
0 0.19607843 0.54117647
0.039215686 0.19460784 0.58333333
0.5 0.11862745 0.62745098
0.74705882 0.015686275 0.54068627
0.96666667 0 0.49803922
0 0.26862745 0.56078431
0.0078431373 0.27401961 0.59705882
0.52892157 0.27279412 0.63578431
0.76960784 0.20208333 0.55343137
0.96029412 0.0093137255 0.49068627
0 0.54509804 0.60980392
0.068382353 0.54852941 0.61764706
0.54313725 0.59215686 0.64607843
0.80465686 0.48970588 0.58039216
0.98823529 0.38235294 0.49803922
0.05 0.78627451 0.62941176
0.25171569 0.77892157 0.61531863
0.50955882 0.77058824 0.58897059
0.79509804 0.77990196 0.60882353
0.97352941 0.79460784 0.68039216
0.46862745 0.92941176 0.68235294
0.49754902 0.92254902 0.65980392
0.62941176 0.92156863 0.63627451
0.79656863 0.9254902 0.63578431
0.9372549 0.94901961 0.69607843
0.0078431373 0.20098039 0.85098039
0.021813725 0.18455882 0.86936275
0.54509804 0.14460784 0.89460784
0.85 0.14240196 0.9
0.98431373 0.19313725 0.84411765
0.0049019608 0.28921569 0.85392157
0.0080882353 0.28057598 0.86495098
0.55355392 0.30870098 0.88872549
0.83829657 0.36550245 0.8966299
0.97941176 0.34117647 0.83333333
0 0.48529412 0.82058824
0.021936275 0.50784314 0.82941176
0.53063725 0.58235294 0.86495098
0.8127451 0.65 0.88235294
0.94803922 0.56127451 0.81813725
0.25465686 0.78333333 0.85220588
0.36868873 0.78161765 0.85392157
0.59607843 0.78259804 0.86507353
0.81004902 0.80367647 0.88296569
0.92671569 0.78921569 0.86397059
0.6 0.93431373 0.88137255
0.61764706 0.93186275 0.88039216
0.68970588 0.93382353 0.87303922
0.79093137 0.92720588 0.85392157
0.91078431 0.95 0.86470588
0.33333333 0.29803922 0.99607843
0.44705882 0.30196078 0.99705882
0.63137255 0.32941176 0.98823529
0.85 0.43823529 0.98823529
0.97647059 0.55294118 0.98823529
0.38627451 0.41568627 0.99215686
0.47181373 0.42058824 0.99240196
0.64166667 0.45 0.98431373
0.84142157 0.5627451 0.98823529
0.95196078 0.61666667 0.98137255
0.35098039 0.60784314 0.98431373
0.45833333 0.62647059 0.98382353
0.64313725 0.65 0.98333333
0.83578431 0.70833333 0.98039216
0.96078431 0.74117647 0.98039216
0.40294118 0.77941176 0.96862745
0.46470588 0.78014706 0.96936275
0.57745098 0.77058824 0.95588235
0.80906863 0.80220588 0.96397059
0.94803922 0.85588235 0.97647059
0.68235294 0.94117647 0.96470588
0.7127451 0.94901961 0.96862745
0.75098039 0.9372549 0.95294118
0.84019608 0.94803922 0.95980392
0.89411765 0.94901961 0.94901961
