site/assets/luts/sha256-3d4e878a5b5ab3093172ac830972b9f343afdb69da57319c05c9875718efca79.cube
# LUTr-Schema-Version: 2
# LUTr-ID: sha256-3d4e878a5b5ab3093172ac830972b9f343afdb69da57319c05c9875718efca79
# LUTr-Title: fade
# LUTr-Collection: Natron HaldCLUT
# LUTr-Collection-ID: natron-haldclut-presets
# LUTr-Source: https://github.com/NatronGitHub/clut
# LUTr-Retrieved: 2026-07-27
# LUTr-Source-File: submissions/natron-haldclut-presets/various/fade.png
# LUTr-Source-Format: HALD-PNG
# LUTr-Source-SHA256: 3d4e878a5b5ab3093172ac830972b9f343afdb69da57319c05c9875718efca79
# LUTr-License: CC-BY-SA-4.0
# LUTr-License-URL: https://github.com/NatronGitHub/clut#license
# LUTr-License-Basis: repo-license-file
# LUTr-Transform-Class: film-emulation
# LUTr-Tags: creative, film, film-emulation, hald-clut, natron, png, cube
# LUTr-Input-Color-Space: srgb
# LUTr-Input-Gamut: rec709
# LUTr-Input-Transfer: srgb
# LUTr-Output-Color-Space: srgb
# LUTr-Output-Gamut: rec709
# LUTr-Output-Transfer: srgb
# LUTr-Color-Space-Confidence: assumed-display-referred
# LUTr-Domain-Normalized: true
# LUTr-Shaper: none
# LUTr-Original-Grid: 64x64x64
# LUTr-Conversion-Grid: 25x25x25
# LUTr-Conversion-Interpolation: trilinear
# LUTr-Conversion-Method: HALD-PNG LUT image decoded at 16-bit and sampled to 25x25x25 3D CUBE
# LUTr-Conversion-Tool: LUTr scripts/convert-all-to-cube.mjs 2.0.0
# LUTr-Conversion-Date: 2026-07-27
# LUTr-Note: Preserve this metadata and the upstream license notices when redistributing.
TITLE "fade"
LUT_3D_SIZE 9
DOMAIN_MIN 0 0 0
DOMAIN_MAX 1 1 1
0.22745098 0.30980392 0.38039216
0.32401961 0.33431373 0.39166667
0.39803922 0.35490196 0.39313725
0.46764706 0.37794118 0.38676471
0.54117647 0.3627451 0.39215686
0.64117647 0.36078431 0.40931373
0.74509804 0.34901961 0.41568627
0.87254902 0.35686275 0.41176471
1 0.36862745 0.41568627
0.29362745 0.45245098 0.36862745
0.35147059 0.45294118 0.37604167
0.40980392 0.44546569 0.3995098
0.47922794 0.45459559 0.39822304
0.55833333 0.42769608 0.40735294
0.66029412 0.43480392 0.41697304
0.77990196 0.45306373 0.4310049
0.90343137 0.46170343 0.44613971
0.99215686 0.47254902 0.45441176
0.28627451 0.52647059 0.39607843
0.34803922 0.53431373 0.40257353
0.42377451 0.54681373 0.41078431
0.49865196 0.55392157 0.425
0.58921569 0.5495098 0.43823529
0.69571078 0.55 0.44105392
0.80710784 0.55710784 0.44779412
0.93468137 0.56997549 0.47794118
0.99901961 0.57745098 0.48529412
0.28333333 0.61519608 0.4127451
0.35784314 0.62040441 0.41942402
0.43909314 0.62598039 0.44448529
0.51960784 0.63780637 0.4495098
0.60833333 0.64411765 0.44828431
0.71121324 0.64656863 0.45098039
0.82598039 0.65441176 0.47438725
0.94442402 0.66243873 0.48382353
1 0.66764706 0.48382353
0.31960784 0.70392157 0.45490196
0.38137255 0.70588235 0.4377451
0.45441176 0.70931373 0.44607843
0.53284314 0.72205882 0.4495098
0.62843137 0.73137255 0.46078431
0.73578431 0.73529412 0.46151961
0.84901961 0.74313725 0.47303922
0.96053922 0.75098039 0.48406863
1 0.75490196 0.48039216
0.34117647 0.78872549 0.4377451
0.39901961 0.79393382 0.46011029
0.46973039 0.80441176 0.46813725
0.55392157 0.81617647 0.47205882
0.65294118 0.83063725 0.47843137
0.76813725 0.82941176 0.47843137
0.87990196 0.83186275 0.49019608
0.97922794 0.84001225 0.49852941
1 0.84754902 0.50343137
0.34117647 0.88627451 0.45588235
0.41176471 0.89056373 0.4689951
0.4872549 0.9 0.47916667
0.57598039 0.91519608 0.49411765
0.67352941 0.93676471 0.48676471
0.79509804 0.93272059 0.49901961
0.90980392 0.93553922 0.50220588
1 0.93088235 0.50343137
1 0.95686275 0.52156863
0.31078431 0.98823529 0.45931373
0.43382353 0.98431373 0.50196078
0.50821078 0.98382353 0.49803922
0.59215686 0.99393382 0.49656863
0.69852941 0.97279412 0.51004902
0.82745098 0.98609069 0.51813725
0.94019608 0.99252451 0.52990196
0.99607843 0.9783701 0.53339461
1 1 0.53333333
0.33333333 0.98823529 0.47058824
0.4377451 0.99607843 0.49411765
0.51960784 1 0.50588235
0.60588235 1 0.50833333
0.7254902 0.99215686 0.52352941
0.85686275 0.99607843 0.53480392
0.98823529 1 0.5372549
0.99607843 0.9995098 0.54117647
0.99607843 0.99607843 0.5372549
0.26127451 0.30588235 0.41421569
0.33278186 0.32457108 0.42647059
0.39411765 0.33664216 0.44080882
0.45980392 0.3473652 0.45
0.53529412 0.34166667 0.45
0.63363971 0.34295343 0.45784314
0.75159314 0.3564951 0.46519608
0.87647059 0.36911765 0.47352941
0.97303922 0.38039216 0.48137255
0.25484069 0.41372549 0.43339461
0.33578431 0.40380668 0.44166667
0.40845588 0.42225797 0.45379902
0.475 0.43709406 0.46476716
0.5622549 0.44681373 0.47261029
0.66662837 0.4591682 0.47714461
0.78284314 0.45343137 0.48480392
0.90343137 0.46476716 0.49264706
0.98823529 0.46954657 0.5004902
0.30343137 0.52941176 0.45772059
0.35882353 0.52156863 0.46465993
0.4252451 0.53639706 0.47245711
0.49803922 0.55183824 0.48092831
0.5877451 0.55410539 0.48915441
0.69509804 0.55749081 0.49584865
0.81467525 0.56470588 0.50413603
0.93828125 0.57389706 0.51263787
0.99901961 0.58002451 0.5192402
0.31715686 0.61519608 0.47567402
0.375 0.61884957 0.48102788
0.43909314 0.62630208 0.49276961
0.51960784 0.63964461 0.50091146
0.60818015 0.64656863 0.50471814
0.71421569 0.65129442 0.50870864
0.83903186 0.66020221 0.51948529
0.96252298 0.66982996 0.52827053
1 0.67371324 0.52843137
0.3 0.7 0.48946078
0.375 0.70392157 0.49463848
0.45441176 0.71170343 0.51004902
0.53872549 0.72279412 0.5125
0.63137255 0.73137255 0.52058824
0.7372549 0.73921569 0.5231924
0.86685049 0.75079657 0.53278186
0.97742034 0.75536152 0.54215686
1 0.75882353 0.54215686
0.32352941 0.79264706 0.50245098
0.39221814 0.79973192 0.51403186
0.47193627 0.80441176 0.52553615
0.55380668 0.8122549 0.52971814
0.65260417 0.82401961 0.53756127
0.76678156 0.8276348 0.5400046
0.8877451 0.83247549 0.54836091
0.99234069 0.84362745 0.55953585
0.99607843 0.85147059 0.56127451
0.35196078 0.89056373 0.52156863
0.41862745 0.90196078 0.52918199
0.49114583 0.90085784 0.53982843
0.56911765 0.90753676 0.54924939
0.67512255 0.92261029 0.55569853
0.79901961 0.93717831 0.56078431
0.91862745 0.93308824 0.56853554
0.99607843 0.92401961 0.5751685
0.99607843 0.94068627 0.58039216
0.35386029 0.97303922 0.53278186
0.4338848 0.98468903 0.54443934
0.51090686 0.98909314 0.56286765
0.60327053 0.99452359 0.56421569
0.71029412 0.98844975 0.57135417
0.83382353 0.99188879 0.57986366
0.95680147 0.99264706 0.5877451
0.99607843 0.98872549 0.59155178
0.99607843 0.99307598 0.59117647
0.37598039 0.9877451 0.53627451
0.44607843 0.99215686 0.55539216
0.51482843 1 0.56764706
0.61519608 1 0.5754902
0.72916667 0.99607843 0.57745098
0.85294118 0.99607843 0.58872549
0.9754902 1 0.59901961
0.99607843 0.99607843 0.59509804
0.99607843 0.99607843 0.59117647
0.28235294 0.31078431 0.49117647
0.33627451 0.3254902 0.49607843
0.39019608 0.31985294 0.50392157
0.45980392 0.34693627 0.51531863
0.53921569 0.34852941 0.52107843
0.64080882 0.35294118 0.52683824
0.75686275 0.36470588 0.53431373
0.87647059 0.36568627 0.53921569
0.94607843 0.37647059 0.54705882
0.28345588 0.42340686 0.50968137
0.33964461 0.41666667 0.5115962
0.40588235 0.42527574 0.52218137
0.47467831 0.43368566 0.53088235
0.5622549 0.44172794 0.53523284
0.66421569 0.45137868 0.54283088
0.7828125 0.45735294 0.55061275
0.90735294 0.45816483 0.55758272
0.99509804 0.46078431 0.5622549
0.2997549 0.52352941 0.52745098
0.36053922 0.5265625 0.53394608
0.4252451 0.53259804 0.54215686
0.49865196 0.54791667 0.55281863
0.58921569 0.55073529 0.55784314
0.69901961 0.55903799 0.56204044
0.81838235 0.56623775 0.57058824
0.94445466 0.58051471 0.57870711
1 0.58823529 0.58235294
0.31605392 0.61372549 0.54889706
0.36991422 0.61911765 0.55093444
0.44080882 0.6301777 0.55845588
0.52015931 0.63872549 0.56666667
0.60980392 0.64730392 0.57150735
0.71960784 0.65565257 0.57843137
0.84996936 0.66617647 0.58673407
0.96881127 0.67401961 0.59434743
0.99607843 0.67794118 0.59411765
0.32941176 0.70294118 0.56029412
0.38872549 0.70735294 0.56660539
0.45833333 0.71936275 0.57598039
0.54338235 0.72745098 0.58039216
0.63529412 0.73161765 0.58529412
0.74117647 0.74191176 0.59270833
0.87303922 0.75147059 0.60159314
1 0.75533088 0.60784314
1 0.7627451 0.60931373
0.32745098 0.78872549 0.57389706
0.39836091 0.79742647 0.58146446
0.47696078 0.81210172 0.59102328
0.5583027 0.81617647 0.59411765
0.65563725 0.82009804 0.5995098
0.76813725 0.82941176 0.60588235
0.89139093 0.83970588 0.61492034
0.99241728 0.84964767 0.62495404
0.99607843 0.85539216 0.6254902
0.33137255 0.8870098 0.58946078
0.40343137 0.89699755 0.59859069
0.49234069 0.90784314 0.60686275
0.57303922 0.9120098 0.61372549
0.68333333 0.91764706 0.62009804
0.80294118 0.93287377 0.62647059
0.92254902 0.93602941 0.63688725
0.99607843 0.92781863 0.64126838
0.99215686 0.94215686 0.64509804
0.36519608 0.98872549 0.61323529
0.43468137 0.98480392 0.61796875
0.50821078 0.98480392 0.62598039
0.6 0.99511336 0.62990196
0.71421569 0.99270833 0.63768382
0.83639706 0.99446998 0.64655331
0.96911765 0.98970588 0.65621936
0.99607843 0.98872549 0.65960478
0.99607843 0.99129902 0.65686275
0.38431373 0.99607843 0.61372549
0.44215686 0.99607843 0.62144608
0.51862745 0.99607843 0.63333333
0.62095588 1 0.64473039
0.73333333 1 0.65245098
0.85196078 0.99607843 0.65625
0.9754902 1 0.66397059
0.99607843 0.99607843 0.66078431
0.99607843 0.99215686 0.65980392
0.27598039 0.31372549 0.55784314
0.33627451 0.32941176 0.56568627
0.39803922 0.34840686 0.57610294
0.46709559 0.35386029 0.58474265
0.54240196 0.34779412 0.58921569
0.64509804 0.35833333 0.59705882
0.76372549 0.38039216 0.60490196
0.88039216 0.3723652 0.60882353
0.96029412 0.37254902 0.6127451
0.26452206 0.41764706 0.57303922
0.3281633 0.42532935 0.58072151
0.4057598 0.43086703 0.58909314
0.48056832 0.43118873 0.59656863
0.55873162 0.42573529 0.60064338
0.66421569 0.43743873 0.60833333
0.78382353 0.45436581 0.61617647
0.90735294 0.46109069 0.62289369
0.99362745 0.46323529 0.62824755
0.30245098 0.5254902 0.59497549
0.35932904 0.53426777 0.60053615
0.4268076 0.54163603 0.60873162
0.50071998 0.54215686 0.61568627
0.58529412 0.54117647 0.61960784
0.6944087 0.54938725 0.62745098
0.81608456 0.5635723 0.63645833
0.93792892 0.57794118 0.64448529
0.99215686 0.58529412 0.65196078
0.29558824 0.61519608 0.60974265
0.36372549 0.62585018 0.61648284
0.44080882 0.63419118 0.62414216
0.51807598 0.63872549 0.6314568
0.60952819 0.64656863 0.63627451
0.72052696 0.65461857 0.6446921
0.8495098 0.66248468 0.65546875
0.97647059 0.671875 0.6622549
0.99761029 0.67156863 0.66372549
0.30710784 0.69730392 0.62254902
0.38293505 0.70750613 0.63039216
0.45833333 0.71960784 0.63823529
0.54019608 0.7247549 0.64338235
0.63529412 0.73296569 0.64865196
0.74509804 0.74313725 0.65857843
0.87683824 0.75196078 0.66764706
0.9895527 0.75931373 0.67745098
1 0.7627451 0.67867647
0.32457108 0.78872549 0.64074755
0.3908701 0.8 0.64773284
0.4754902 0.8122549 0.65588235
0.56568627 0.81617647 0.65680147
0.66197917 0.82401961 0.66053922
0.77205882 0.82851562 0.66911765
0.8995098 0.84068627 0.6814951
0.99645374 0.85153952 0.69129136
0.99852941 0.86470588 0.69417892
0.35134804 0.89166667 0.66053922
0.41262255 0.90036765 0.66804534
0.48897059 0.91320466 0.67254902
0.58203125 0.91727941 0.67647059
0.69117647 0.91666667 0.68363971
0.81139706 0.92136949 0.69215686
0.93431373 0.92809436 0.70073529
0.99986213 0.93920037 0.70784314
0.99607843 0.97009804 0.71531863
0.36832108 0.96715686 0.67598039
0.43721661 0.96960784 0.68376225
0.50821078 0.98823529 0.69117647
0.60599724 0.98369332 0.69773284
0.71813725 0.97303922 0.70343137
0.84650735 0.97831648 0.71096814
0.96421569 0.97026654 0.71862745
0.99607843 0.98529412 0.72254902
0.99607843 0.99607843 0.72254902
0.35441176 0.99852941 0.68578431
0.44528186 0.99822304 0.69117647
0.52928922 0.99607843 0.69901961
0.62395833 0.99607843 0.71078431
0.73872549 0.99607843 0.71862745
0.86862745 0.99607843 0.72346814
0.99375 1 0.73039216
0.99607843 0.99607843 0.72647059
0.99607843 0.99607843 0.72254902
0.24509804 0.31764706 0.62352941
0.33578431 0.32352941 0.63308824
0.39656863 0.33137255 0.63921569
0.47009804 0.34362745 0.64828431
0.54313725 0.34901961 0.65686275
0.6502451 0.35833333 0.6627451
0.76470588 0.36862745 0.66666667
0.88627451 0.38848039 0.6747549
0.98235294 0.38235294 0.68039216
0.26053922 0.4254902 0.64093137
0.33949142 0.4254902 0.64705882
0.41341912 0.43333333 0.65441176
0.48547794 0.43357843 0.66161152
0.5622549 0.43161765 0.66629902
0.66813725 0.43903186 0.67043505
0.79209559 0.45827206 0.67886029
0.92040441 0.48284314 0.69362745
0.97818627 0.48259804 0.69754902
0.30588235 0.53431373 0.6622549
0.37009804 0.53823529 0.66795343
0.4377451 0.54828431 0.67389706
0.50563725 0.55110294 0.68137255
0.59215686 0.54117647 0.68308824
0.69240196 0.54828431 0.69044118
0.81862745 0.56568627 0.70122549
0.93952206 0.57745098 0.71017157
0.99852941 0.58284314 0.72058824
0.32720588 0.62303922 0.67843137
0.38455882 0.62696078 0.68152574
0.44601716 0.63480392 0.68841912
0.52107843 0.63918505 0.69411765
0.6129902 0.64460784 0.70122549
0.72598039 0.6528799 0.71072304
0.8495098 0.66243873 0.72101716
0.975 0.67401961 0.72794118
0.99730392 0.67401961 0.72941176
0.32058824 0.70294118 0.68823529
0.38504902 0.71164216 0.69693627
0.45661765 0.71960784 0.70343137
0.53713235 0.72867647 0.70845588
0.63921569 0.7372549 0.71176471
0.75110294 0.7442402 0.72230392
0.88039216 0.75098039 0.73333333
0.99007353 0.7627451 0.74117647
1 0.76666667 0.74509804
0.30220588 0.79019608 0.6995098
0.38823529 0.80033701 0.71234681
0.47585784 0.8158701 0.72126225
0.56253064 0.82178309 0.72303922
0.66678922 0.82794118 0.72757353
0.77990196 0.83455882 0.73480392
0.90735294 0.83970588 0.74546569
0.99656863 0.85548407 0.75471814
1 0.86715686 0.76078431
0.34803922 0.90147059 0.71862745
0.415625 0.90845588 0.72904412
0.49522059 0.91617647 0.73651961
0.58995098 0.9127451 0.74215686
0.69509804 0.9127451 0.74607843
0.81078431 0.92843137 0.75055147
0.93039216 0.93419118 0.75821078
1 0.94803922 0.76862745
1 0.975 0.78039216
0.36446078 0.96348039 0.7372549
0.43406863 0.98431373 0.74466912
0.51691176 0.984375 0.75208333
0.61544118 0.98480392 0.75949755
0.72598039 0.98786765 0.76519608
0.84378064 0.98284314 0.76976103
0.95876225 0.975 0.77303922
0.99215686 0.98872549 0.77843137
0.99583333 0.99607843 0.77647059
0.36078431 0.99215686 0.74901961
0.44926471 0.99215686 0.75294118
0.53480392 0.99607843 0.76470588
0.62696078 0.99730392 0.76862745
0.73333333 0.99705882 0.77254902
0.86470588 0.99607843 0.78039216
0.98088235 0.99362745 0.78823529
0.98848039 0.99215686 0.78039216
0.99215686 0.99215686 0.77647059
0.28627451 0.32401961 0.69166667
0.33627451 0.33578431 0.69705882
0.40196078 0.35404412 0.7060049
0.46372549 0.34509804 0.7127451
0.54313725 0.34828431 0.72058824
0.65238971 0.36078431 0.72598039
0.76409314 0.36470588 0.73235294
0.88137255 0.37696078 0.73627451
0.97009804 0.39215686 0.74019608
0.25863971 0.42156863 0.70833333
0.34362745 0.43290441 0.71574755
0.41715686 0.44064032 0.72023591
0.48448989 0.44117647 0.72794118
0.56681985 0.43743873 0.73195466
0.67028186 0.44147518 0.73578431
0.79166667 0.45597426 0.74375
0.91519608 0.47330729 0.75196078
0.96960784 0.48088235 0.75539216
0.26482843 0.53431373 0.72352941
0.36188725 0.54541973 0.73331801
0.43627451 0.55137868 0.73875613
0.5122549 0.55 0.74203431
0.59883578 0.55330882 0.74859069
0.70294118 0.55963542 0.75549939
0.82757353 0.56568627 0.7629902
0.95147059 0.57375919 0.77071078
0.99754902 0.57745098 0.77732843
0.31323529 0.62696078 0.74264706
0.37892157 0.63136489 0.74803922
0.44901961 0.63872549 0.75196078
0.5227788 0.64414063 0.75741422
0.61764706 0.6504902 0.7629902
0.73471967 0.65737592 0.77248775
0.86297488 0.66757047 0.78223039
0.98578431 0.67579657 0.7872549
1 0.68039216 0.790625
0.34117647 0.71053922 0.75392157
0.39255515 0.71945466 0.76348039
0.46029412 0.72665441 0.76856618
0.53872549 0.73409926 0.77156863
0.64154412 0.73995098 0.77585784
0.76032475 0.74705882 0.78406863
0.88308824 0.75196078 0.79307598
0.99460784 0.76666667 0.79917279
1 0.77132353 0.80294118
0.34264706 0.79656863 0.76519608
0.40441176 0.80833333 0.77518382
0.47654718 0.82009804 0.78088235
0.5651348 0.82401961 0.78480392
0.66617647 0.83186275 0.78872549
0.78047641 0.84152114 0.79509804
0.90735294 0.84362745 0.80461091
0.99951746 0.85980392 0.81488971
1 0.87254902 0.82401961
0.32561275 0.90134804 0.77830882
0.41421569 0.90968137 0.7872549
0.49607843 0.92058824 0.79828431
0.58872549 0.91666667 0.8
0.69240196 0.92493873 0.80392157
0.80617341 0.94817708 0.81176471
0.93529412 0.94675245 0.81642157
1 0.95998775 0.82781863
1 0.97095588 0.83823529
0.35147059 0.9627451 0.79509804
0.43562347 0.9838848 0.80310202
0.51911765 0.97910539 0.81223958
0.61550245 0.9838848 0.81911765
0.72000613 0.99264706 0.82254902
0.8354856 0.99754902 0.82765012
0.95998775 0.98978248 0.8317402
0.9937117 0.99215686 0.82892157
0.99215686 0.99215686 0.83645833
0.38823529 0.99215686 0.81078431
0.44969363 0.98823529 0.81078431
0.53823529 0.99607843 0.8254902
0.6254902 1 0.82647059
0.73333333 1 0.82647059
0.86917892 1 0.84307598
0.97291667 0.99607843 0.85
0.98039216 0.99215686 0.83805147
0.98823529 0.99215686 0.83039216
0.25490196 0.33921569 0.75098039
0.34019608 0.32843137 0.75833333
0.40588235 0.35196078 0.76666667
0.46764706 0.34718137 0.7745098
0.54705882 0.34705882 0.77990196
0.64865196 0.35625 0.78627451
0.76470588 0.36936275 0.79411765
0.89215686 0.37904412 0.79803922
0.99215686 0.38235294 0.80196078
0.27732843 0.42573529 0.77095588
0.34722733 0.43376225 0.77676164
0.41715686 0.44117647 0.78186275
0.48529412 0.44117647 0.78622855
0.57401961 0.44509804 0.79362745
0.67058824 0.44117647 0.79767157
0.79166667 0.45343137 0.80281863
0.92391238 0.47428002 0.81329657
0.98921569 0.4817402 0.81764706
0.28602941 0.53431373 0.78529412
0.3627451 0.54607843 0.79601716
0.4370098 0.55 0.80098039
0.5122549 0.54745711 0.80490196
0.60343137 0.56323529 0.81311275
0.71078431 0.56531863 0.81764706
0.83259804 0.56470588 0.82156863
0.95073529 0.57297794 0.8296875
0.99607843 0.57843137 0.83333333
0.31654412 0.62696078 0.80196078
0.37941176 0.63841912 0.80975797
0.45196078 0.64264706 0.81727941
0.52647059 0.64656863 0.82156863
0.62843137 0.65441176 0.828125
0.74244792 0.66072304 0.83333333
0.86657475 0.66654412 0.83970588
0.98578431 0.67794118 0.84540441
1 0.67794118 0.84509804
0.31372549 0.71323529 0.81372549
0.38633578 0.72303922 0.82156863
0.4622549 0.73137255 0.82941176
0.54601716 0.73921569 0.83529412
0.64926471 0.74362745 0.84117647
0.76715686 0.74724265 0.84761029
0.89178922 0.75490196 0.85257353
0.9903799 0.76715686 0.85839461
1 0.7745098 0.86078431
0.30257353 0.79693627 0.82156863
0.39460784 0.81626838 0.83069853
0.478125 0.82438725 0.8372549
0.56490502 0.83053002 0.84509804
0.66813725 0.83578431 0.85140931
0.7877451 0.8444087 0.85686275
0.91436887 0.84754902 0.86470588
1 0.860769 0.87369792
1 0.87647059 0.87977941
0.36078431 0.91372549 0.84215686
0.42647059 0.92058824 0.84828431
0.49295343 0.93235294 0.85612745
0.58409926 0.92405025 0.85686275
0.69607843 0.9307598 0.86115196
0.81139706 0.94840686 0.86960784
0.93425245 0.94957108 0.87689951
0.99607843 0.96179534 0.88440564
1 0.98357843 0.90098039
0.37659314 0.98958333 0.86421569
0.4448989 0.9778799 0.86507353
0.51902574 0.98033088 0.87233456
0.61171875 0.9955576 0.87683824
0.72230392 0.99264706 0.87647059
0.8377451 1 0.87824755
0.95309436 0.99607843 0.88661152
0.99522059 0.99215686 0.88431373
0.99607843 0.99215686 0.89473039
0.39215686 0.99901961 0.87156863
0.45784314 0.99607843 0.87512255
0.53137255 1 0.87941176
0.61127451 1 0.87941176
0.73333333 1 0.87941176
0.86801471 1 0.88762255
0.97745098 1 0.89436275
0.98835784 0.99607843 0.8872549
0.99607843 0.99215686 0.88823529
0.25490196 0.36029412 0.8127451
0.34019608 0.33731618 0.81966912
0.40588235 0.34117647 0.82708333
0.47401961 0.34901961 0.83235294
0.55098039 0.34558824 0.83970588
0.65165441 0.36078431 0.84558824
0.76862745 0.37647059 0.85196078
0.88780637 0.3901348 0.86072304
0.98823529 0.41960784 0.86764706
0.30704657 0.43535539 0.834375
0.35140931 0.43327206 0.83534773
0.41764706 0.4377451 0.83970588
0.49068627 0.44401042 0.84409467
0.57401961 0.45386029 0.85196078
0.6745098 0.44997702 0.85539216
0.79558824 0.46213235 0.86335784
0.93001685 0.48007813 0.87462469
0.99515931 0.48872549 0.8754902
0.28982843 0.52953431 0.84019608
0.36617647 0.54558824 0.85409007
0.4370098 0.54681373 0.85854779
0.51041667 0.54813113 0.86141238
0.60447304 0.55588235 0.86764706
0.71470588 0.56678922 0.87487745
0.83431373 0.57717525 0.88370098
0.95833333 0.58229167 0.88794424
0.99215686 0.58566176 0.89117647
0.31323529 0.62303922 0.8596201
0.37941176 0.63476563 0.86560202
0.45085784 0.64264706 0.87394301
0.53137255 0.64810049 0.88155637
0.63054534 0.65833333 0.88848039
0.74547335 0.66011029 0.89099265
0.86519608 0.67009804 0.89278493
0.98008578 0.67794118 0.89160539
0.99607843 0.67794118 0.89479167
0.30808824 0.70784314 0.87156863
0.39074755 0.72328431 0.87938113
0.46617647 0.73529412 0.88854167
0.54666054 0.74295343 0.89500613
0.64901961 0.74705882 0.89987745
0.77254902 0.75098039 0.90245098
0.89215686 0.75882353 0.9004902
0.99093137 0.77058824 0.90245098
1 0.7745098 0.90441176
0.31127451 0.80018382 0.8723652
0.4026348 0.8213848 0.88719363
0.4814951 0.83517157 0.89460784
0.56421569 0.83444393 0.90294118
0.66813725 0.83651961 0.91078431
0.79392616 0.84601716 0.91176471
0.91703431 0.85147059 0.91029412
1 0.85996477 0.90998775
1 0.87107843 0.91158088
0.34852941 0.90833333 0.87990196
0.42254902 0.9243413 0.8907935
0.4971201 0.93235294 0.90318627
0.58471201 0.93284314 0.91015625
0.69901961 0.94044118 0.90637255
0.81862745 0.95012255 0.92334559
0.93541667 0.95346201 0.92561275
1 0.97274816 0.929519
1 0.9754902 0.92291667
0.37794118 0.98529412 0.90735294
0.44699755 0.98518689 0.91029412
0.51568627 0.99607843 0.91646752
0.60557598 1 0.9196921
0.72205882 0.99607843 0.91400123
0.84558824 0.99607843 0.92565104
0.95315564 0.99558824 0.92990196
0.99607843 0.99558824 0.92984069
1 0.99215686 0.9254902
0.39264706 0.99215686 0.90637255
0.46133578 0.99957108 0.90637255
0.52046569 1 0.90894608
0.60324755 1 0.91813725
0.73308824 0.99607843 0.91593137
0.87224265 1 0.92567402
0.99607843 1 0.93333333
0.99607843 0.99515931 0.92898284
0.99607843 0.99215686 0.9254902
0.23529412 0.31764706 0.86666667
0.33578431 0.32941176 0.87401961
0.40588235 0.3372549 0.8754902
0.47401961 0.35539216 0.87205882
0.55882353 0.4 0.86666667
0.65539216 0.37107843 0.89166667
0.77745098 0.38627451 0.90980392
0.9 0.41176471 0.92156863
1 0.38039216 0.9254902
0.30539216 0.44509804 0.88578431
0.359375 0.4372549 0.87843137
0.42107843 0.44031863 0.87843137
0.49099265 0.44932598 0.88449755
0.57794118 0.47107843 0.8995098
0.67990196 0.46127451 0.90557598
0.79558824 0.46470588 0.90980392
0.91378676 0.46862745 0.9254902
0.98431373 0.48088235 0.9254902
0.32941176 0.53431373 0.88921569
0.37585784 0.54595588 0.88235294
0.4372549 0.54607843 0.88921569
0.5122549 0.55 0.90098039
0.60882353 0.55784314 0.91323529
0.71188725 0.56507353 0.92009804
0.83823529 0.58431373 0.91372549
0.96862745 0.59227941 0.92977941
0.99901961 0.59215686 0.93333333
0.30735294 0.61911765 0.90441176
0.37107843 0.62824755 0.90441176
0.45085784 0.64166667 0.92303922
0.53676471 0.6504902 0.92457108
0.62671569 0.65833333 0.92794118
0.74019608 0.66078431 0.92156863
0.86127451 0.67107843 0.92009804
0.98137255 0.68186275 0.92941176
0.99607843 0.68186275 0.92941176
0.3 0.70784314 0.91176471
0.38872549 0.72132353 0.91960784
0.47009804 0.73480392 0.9254902
0.5504902 0.74044118 0.92941176
0.64803922 0.75 0.92941176
0.76862745 0.75490196 0.9254902
0.88823529 0.7627451 0.92941176
0.99656863 0.7745098 0.92941176
1 0.77843137 0.92941176
0.32303922 0.8004902 0.88627451
0.40245098 0.81960784 0.91715686
0.48872549 0.83578431 0.9254902
0.56715686 0.8372549 0.92941176
0.66813725 0.83651961 0.93333333
0.79258578 0.84362745 0.92941176
0.92242647 0.85147059 0.92941176
0.99754902 0.86372549 0.9254902
1 0.88039216 0.9254902
0.32941176 0.90098039 0.90686275
0.41029412 0.92022059 0.92156863
0.50294118 0.93235294 0.9254902
0.59227941 0.94227941 0.93333333
0.69509804 0.94656863 0.93333333
0.82401961 0.94803922 0.92941176
0.95 0.93921569 0.93333333
1 0.95147059 0.93333333
1 0.98823529 0.93333333
0.32598039 1 0.93333333
0.42647059 0.98915441 0.92941176
0.51862745 0.98088235 0.9254902
0.5995098 0.98694853 0.92941176
0.71593137 0.99607843 0.93333333
0.85343137 0.99607843 0.93333333
0.96813725 0.97990196 0.93333333
0.99607843 0.98823529 0.93333333
1 0.99215686 0.92941176
0.36862745 1 0.93333333
0.46176471 1 0.92941176
0.51666667 0.99607843 0.92254902
0.5995098 0.99607843 0.9254902
0.72352941 0.99607843 0.93333333
0.87009804 0.99607843 0.93333333
0.99313725 0.99607843 0.93333333
0.99607843 0.99215686 0.93284314
0.99607843 0.98823529 0.92941176
