site/assets/luts/sha256-4546a96192f2595e8ce4613e0962a337581ea75ad577501f95ee3d0e60a659cf.cube
# LUTr-Schema-Version: 2
# LUTr-ID: sha256-4546a96192f2595e8ce4613e0962a337581ea75ad577501f95ee3d0e60a659cf
# LUTr-Title: fuji 400h +
# LUTr-Collection: Natron HaldCLUT
# LUTr-Collection-ID: natron-haldclut-presets
# LUTr-Source: https://github.com/NatronGitHub/clut
# LUTr-Retrieved: 2026-07-27
# LUTr-Source-File: submissions/natron-haldclut-presets/negative_new/fuji_400h_+.png
# LUTr-Source-Format: HALD-PNG
# LUTr-Source-SHA256: 4546a96192f2595e8ce4613e0962a337581ea75ad577501f95ee3d0e60a659cf
# LUTr-License: CC-BY-SA-4.0
# LUTr-License-URL: https://github.com/NatronGitHub/clut#license
# LUTr-License-Basis: repo-license-file
# LUTr-Transform-Class: film-emulation
# LUTr-Tags: creative, film, film-emulation, hald-clut, natron, png, cube
# LUTr-Input-Color-Space: srgb
# LUTr-Input-Gamut: rec709
# LUTr-Input-Transfer: srgb
# LUTr-Output-Color-Space: srgb
# LUTr-Output-Gamut: rec709
# LUTr-Output-Transfer: srgb
# LUTr-Color-Space-Confidence: assumed-display-referred
# LUTr-Domain-Normalized: true
# LUTr-Shaper: none
# LUTr-Original-Grid: 64x64x64
# LUTr-Conversion-Grid: 25x25x25
# LUTr-Conversion-Interpolation: trilinear
# LUTr-Conversion-Method: HALD-PNG LUT image decoded at 16-bit and sampled to 25x25x25 3D CUBE
# LUTr-Conversion-Tool: LUTr scripts/convert-all-to-cube.mjs 2.0.0
# LUTr-Conversion-Date: 2026-07-27
# LUTr-Note: Preserve this metadata and the upstream license notices when redistributing.
TITLE "fuji 400h +"
LUT_3D_SIZE 5
DOMAIN_MIN 0 0 0
DOMAIN_MAX 1 1 1
0.078431373 0.074509804 0.02745098
0.27352941 0.096078431 0.02745098
0.6 0.011764706 0.015686275
0.87352941 0.024509804 0
1 0.23529412 0
0.056862745 0.24607843 0.045098039
0.24803922 0.25171569 0.028676471
0.58627451 0.25245098 0.0053921569
0.85416667 0.29117647 0.0039215686
0.99215686 0.36960784 0.0039215686
0 0.51764706 0.0039215686
0.1372549 0.50588235 0.015686275
0.53333333 0.5245098 0.011764706
0.80196078 0.55147059 0.0039215686
0.99215686 0.55882353 0.0039215686
0.0029411765 0.7372549 0.15588235
0.20906863 0.73651961 0.18259804
0.48235294 0.72843137 0.16617647
0.73235294 0.74411765 0.041176471
0.92745098 0.77647059 0.0078431373
0.38431373 0.93333333 0.47843137
0.43823529 0.9254902 0.48627451
0.56666667 0.93333333 0.51372549
0.72843137 0.94901961 0.52156863
0.88627451 0.94901961 0.47843137
0.12941176 0.094117647 0.21960784
0.28921569 0.095098039 0.21862745
0.61127451 0.0078431373 0.24068627
0.87745098 0.087009804 0.25661765
0.99607843 0.26960784 0.28823529
0.042156863 0.28235294 0.23112745
0.29944853 0.26997549 0.23406863
0.62058824 0.27205882 0.225
0.85882353 0.30980392 0.2372549
0.98823529 0.37328431 0.25
0.033823529 0.55 0.25833333
0.26164216 0.53272059 0.25588235
0.54460784 0.54068627 0.2245098
0.80980392 0.55196078 0.15723039
0.98872549 0.56960784 0.15294118
0.06127451 0.74803922 0.31495098
0.27941176 0.74730392 0.33235294
0.50061275 0.7377451 0.33296569
0.74019608 0.75251225 0.29485294
0.94901961 0.76862745 0.24240196
0.41372549 0.95196078 0.54215686
0.45686275 0.94215686 0.54117647
0.57303922 0.93382353 0.56813725
0.73235294 0.95 0.56764706
0.92058824 0.95196078 0.53921569
0.19215686 0.11372549 0.53529412
0.36862745 0.1004902 0.54705882
0.63823529 0.052941176 0.55686275
0.87156863 0.011764706 0.55294118
0.99803922 0.25882353 0.55686275
0.16078431 0.27843137 0.54313725
0.36666667 0.2877451 0.54742647
0.6372549 0.29142157 0.56446078
0.86176471 0.31176471 0.56078431
0.99607843 0.41470588 0.57401961
0.02254902 0.57058824 0.56666667
0.32598039 0.55710784 0.55784314
0.60833333 0.58235294 0.58431373
0.82058824 0.58039216 0.56446078
0.97843137 0.59705882 0.56862745
0.32647059 0.78088235 0.59068627
0.41066176 0.77745098 0.58921569
0.57083333 0.7625 0.57892157
0.75061275 0.75821078 0.55367647
0.96470588 0.76813725 0.53431373
0.46078431 0.94313725 0.64901961
0.47892157 0.94264706 0.63872549
0.59411765 0.93333333 0.65294118
0.74754902 0.94313725 0.66470588
0.90980392 0.95882353 0.65490196
0.4127451 0.17058824 0.76764706
0.50686275 0.17769608 0.76764706
0.69313725 0.21764706 0.77941176
0.86642157 0.28848039 0.78039216
0.99215686 0.30882353 0.76862745
0.39313725 0.31470588 0.76372549
0.49417892 0.31936275 0.76544118
0.67843137 0.36078431 0.7754902
0.85710784 0.41133578 0.7872549
0.9872549 0.42647059 0.76764706
0.2622549 0.51029412 0.74411765
0.39068627 0.52083333 0.75490196
0.61960784 0.56544118 0.76691176
0.82806373 0.61213235 0.7872549
0.98578431 0.62941176 0.77892157
0.32941176 0.77941176 0.7747549
0.41470588 0.77922794 0.7745098
0.59509804 0.77438725 0.77230392
0.80140931 0.79883578 0.79044118
0.96936275 0.7997549 0.7745098
0.47745098 0.97352941 0.79117647
0.52647059 0.96470588 0.79411765
0.64558824 0.95588235 0.79509804
0.78039216 0.95294118 0.79338235
0.94705882 0.95490196 0.79117647
0.62352941 0.41176471 0.94509804
0.66666667 0.42843137 0.94705882
0.75490196 0.45098039 0.93529412
0.88529412 0.53823529 0.94117647
0.98431373 0.57647059 0.94117647
0.61862745 0.49607843 0.94509804
0.65 0.49607843 0.93333333
0.75 0.53186275 0.94313725
0.88063725 0.5872549 0.94411765
0.99215686 0.61176471 0.93823529
0.57058824 0.62745098 0.94313725
0.61127451 0.63333333 0.94264706
0.71666667 0.64509804 0.92941176
0.86323529 0.68431373 0.93627451
0.97647059 0.71764706 0.94313725
0.46176471 0.76862745 0.9372549
0.50612745 0.76691176 0.94019608
0.62843137 0.76764706 0.94166667
0.82156863 0.79901961 0.9372549
0.98823529 0.83333333 0.94901961
0.4627451 0.96470588 0.94901961
0.50784314 0.95294118 0.95196078
0.6254902 0.96470588 0.95882353
0.79901961 0.96372549 0.94117647
0.99215686 0.97647059 0.94117647
