site/assets/luts/sha256-fd8ea766f4a2f27bd90979be3526afe2eb2f1f848dad45b3886f81b25ea50f42.cube
# LUTr-Schema-Version: 2
# LUTr-ID: sha256-fd8ea766f4a2f27bd90979be3526afe2eb2f1f848dad45b3886f81b25ea50f42
# LUTr-Title: kodak portra 800 -
# LUTr-Collection: Natron HaldCLUT
# LUTr-Collection-ID: natron-haldclut-presets
# LUTr-Source: https://github.com/NatronGitHub/clut
# LUTr-Retrieved: 2026-07-27
# LUTr-Source-File: submissions/natron-haldclut-presets/negative_new/kodak_portra_800_-.png
# LUTr-Source-Format: HALD-PNG
# LUTr-Source-SHA256: fd8ea766f4a2f27bd90979be3526afe2eb2f1f848dad45b3886f81b25ea50f42
# LUTr-License: CC-BY-SA-4.0
# LUTr-License-URL: https://github.com/NatronGitHub/clut#license
# LUTr-License-Basis: repo-license-file
# LUTr-Transform-Class: film-emulation
# LUTr-Tags: creative, film, film-emulation, hald-clut, natron, png, cube
# LUTr-Input-Color-Space: srgb
# LUTr-Input-Gamut: rec709
# LUTr-Input-Transfer: srgb
# LUTr-Output-Color-Space: srgb
# LUTr-Output-Gamut: rec709
# LUTr-Output-Transfer: srgb
# LUTr-Color-Space-Confidence: assumed-display-referred
# LUTr-Domain-Normalized: true
# LUTr-Shaper: none
# LUTr-Original-Grid: 64x64x64
# LUTr-Conversion-Grid: 25x25x25
# LUTr-Conversion-Interpolation: trilinear
# LUTr-Conversion-Method: HALD-PNG LUT image decoded at 16-bit and sampled to 25x25x25 3D CUBE
# LUTr-Conversion-Tool: LUTr scripts/convert-all-to-cube.mjs 2.0.0
# LUTr-Conversion-Date: 2026-07-27
# LUTr-Note: Preserve this metadata and the upstream license notices when redistributing.
TITLE "kodak portra 800 -"
LUT_3D_SIZE 25
DOMAIN_MIN 0 0 0
DOMAIN_MAX 1 1 1
0.019607843 0.050980392 0.039215686
0.042647059 0.038235294 0.036764706
0.07254902 0.021568627 0.026470588
0.1004902 0.0049019608 0.016176471
0.15098039 0.0078431373 0.015686275
0.20245098 0.0078431373 0.011764706
0.25098039 0.0049019608 0.0049019608
0.3122549 0 0.0039215686
0.38039216 0 0.0078431373
0.44607843 0 0.0078431373
0.50392157 0 0.0078431373
0.56568627 0 0.0078431373
0.62745098 0 0.0078431373
0.68088235 0 0.0039215686
0.72843137 0 0.00098039216
0.77598039 0 0
0.82352941 0 0
0.87254902 0.0039215686 0
0.91764706 0.0039215686 0
0.94803922 0.0078431373 0
0.96666667 0.011764706 0
0.97696078 0.015686275 0
0.99117647 0.015686275 0
0.99754902 0.029411765 0
1 0.090196078 0
0.017156863 0.053431373 0.043137255
0.03872549 0.047058824 0.039215686
0.069607843 0.041666667 0.030392157
0.098039216 0.035110294 0.016176471
0.14705882 0.037990196 0.015686275
0.19852941 0.038541667 0.015502451
0.25 0.037254902 0.010661765
0.31078431 0.028860294 0.0078431373
0.37794118 0.01127451 0.0078431373
0.44215686 0.00091911765 0.0078431373
0.50147059 0 0.0078431373
0.5653799 0.0037377451 0.010294118
0.62745098 0 0.0066176471
0.68088235 0 0.0039215686
0.72941176 0 0
0.77751225 0 0
0.82745098 0.0024509804 0
0.87254902 0.0039215686 0
0.91764706 0.0039215686 0
0.95018382 0.0073529412 0
0.96862745 0.016911765 0.0039215686
0.98333333 0.022365196 0.0034313725
0.99178922 0.035661765 0
0.99908088 0.066115196 0
1 0.12107843 0
0.015686275 0.062745098 0.043137255
0.033823529 0.065686275 0.036764706
0.064705882 0.069607843 0.026470588
0.095588235 0.066666667 0.016176471
0.14264706 0.072058824 0.016176471
0.19460784 0.074509804 0.016666667
0.24828431 0.074509804 0.015931373
0.30796569 0.067034314 0.014583333
0.37254902 0.054901961 0.010784314
0.43541667 0.029901961 0.0096813725
0.49681373 0.0125 0.011764706
0.56164216 0.0099264706 0.0083333333
0.62647059 0.0019607843 0.0058823529
0.68088235 0 0
0.72941176 0.00073529412 0
0.77990196 0.0049019608 0
0.82745098 0.0049019608 0
0.87316176 0.0088235294 0
0.91764706 0.0049019608 0
0.95147059 0.013112745 0
0.97156863 0.031372549 0.0034313725
0.98872549 0.052083333 0.0034313725
0.99509804 0.080392157 0
1 0.11237745 0
1 0.15588235 0
0.011764706 0.096568627 0.039215686
0.024816176 0.099019608 0.039215686
0.050857843 0.1004902 0.026470588
0.081372549 0.10392157 0.019178922
0.13014706 0.10808824 0.015931373
0.18425245 0.11182598 0.019607843
0.2442402 0.11482843 0.019607843
0.30686275 0.10637255 0.015686275
0.36862745 0.099509804 0.0078431373
0.43302696 0.088909314 0.0017769608
0.49607843 0.073529412 0.0044117647
0.55784314 0.055943627 0.0044117647
0.62009804 0.034068627 0.0039215686
0.67745098 0.024571078 0.0034313725
0.72843137 0.02879902 0.0037990196
0.77990196 0.025490196 0.0037377451
0.82745098 0.029411765 0
0.87285539 0.03939951 0.0039215686
0.91764706 0.041176471 0
0.94803922 0.054901961 0.0034313725
0.96862745 0.081372549 0.0036764706
0.98872549 0.10441176 0.0039215686
0.99607843 0.12928922 0
1 0.16145833 0
1 0.18676471 0
0.0078431373 0.13137255 0.035294118
0.012254902 0.13137255 0.033333333
0.034313725 0.13529412 0.026470588
0.068872549 0.13897059 0.020098039
0.11176471 0.14313725 0.014705882
0.16789216 0.14730392 0.013970588
0.23676471 0.15588235 0.015686275
0.30098039 0.15735294 0.012990196
0.36470588 0.14705882 0.0078431373
0.42769608 0.14509804 0.0026960784
0.48823529 0.14019608 0.0024509804
0.55171569 0.1245098 0.0039215686
0.61176471 0.10980392 0.0039215686
0.66764706 0.10171569 0.0078431373
0.7245098 0.10196078 0.0078431373
0.77598039 0.10588235 0.0039215686
0.82745098 0.11372549 0.0019607843
0.86985294 0.11764706 0.0012254902
0.91176471 0.12156863 0.0039215686
0.95122549 0.13235294 0.0056372549
0.97156863 0.15294118 0.0039215686
0.98529412 0.17156863 0.0039215686
0.99558824 0.18872549 0.0024509804
1 0.20955882 0
1 0.22156863 0
0.0039215686 0.1622549 0.031372549
0.0034313725 0.1622549 0.02745098
0.01752451 0.16629902 0.024019608
0.043688725 0.17359069 0.023590686
0.088970588 0.17622549 0.0095588235
0.15594363 0.1872549 0.0078431373
0.23186275 0.20134804 0.011642157
0.29479167 0.20490196 0.0078431373
0.36029412 0.20245098 0.0078431373
0.42254902 0.20245098 0.0044117647
0.48431373 0.20294118 0.0039215686
0.54607843 0.19607843 0.0039215686
0.60147059 0.18578431 0.0078431373
0.65778186 0.17996324 0.0078431373
0.71948529 0.18039216 0.0074754902
0.78008578 0.18560049 0.0024509804
0.82745098 0.19558824 0
0.86470588 0.19981618 0.0039215686
0.90588235 0.20392157 0.0049019608
0.9504902 0.21078431 0.0078431373
0.97647059 0.22843137 0.0078431373
0.98872549 0.23872549 0.0039215686
0.99522059 0.24852941 0.00085784314
1 0.25686275 0
1 0.26078431 0
0.0039215686 0.20294118 0.038235294
0 0.20294118 0.035416667
0.0056372549 0.20514706 0.035294118
0.0037990196 0.20870098 0.024142157
0.064705882 0.21715686 0.016666667
0.13578431 0.22843137 0.010784314
0.21176471 0.24534314 0.010784314
0.28578431 0.25539216 0.0078431373
0.35392157 0.25784314 0.0078431373
0.41862745 0.26078431 0.0078431373
0.47769608 0.26176471 0.0039215686
0.53933824 0.26090686 0.0039215686
0.59460784 0.25490196 0.006372549
0.65098039 0.25294118 0.0074754902
0.7127451 0.25588235 0.0039215686
0.77732843 0.25723039 0
0.82058824 0.26470588 0
0.85784314 0.26862745 0.0039215686
0.89901961 0.27254902 0.0041666667
0.94019608 0.27610294 0.0074754902
0.97303922 0.28676471 0.0078431373
0.98872549 0.29362745 0.0039215686
0.99607843 0.30098039 0
1 0.30306373 0
1 0.30490196 0
0.0039215686 0.24656863 0.05245098
0.0039215686 0.24656863 0.048529412
0.0033088235 0.24938725 0.043995098
0.0052083333 0.2526348 0.037254902
0.035539216 0.25882353 0.026960784
0.099816176 0.26942402 0.023223039
0.17512255 0.28333333 0.017769608
0.25441176 0.29754902 0.013235294
0.33921569 0.30784314 0.0078431373
0.40631127 0.31176471 0.0054534314
0.46384804 0.30931373 0.0039215686
0.52892157 0.31305147 0.0039215686
0.58872549 0.3120098 0.0039215686
0.64589461 0.31078431 0.0039215686
0.70637255 0.31323529 0.0039215686
0.76182598 0.31378676 0.0039215686
0.81029412 0.31715686 0.0039215686
0.84993873 0.32107843 0.003002451
0.88872549 0.325 0.0039215686
0.92990196 0.32892157 0.0039215686
0.96593137 0.33872549 0.0039215686
0.98872549 0.34509804 0.0039215686
0.99607843 0.35147059 0
1 0.35245098 0
1 0.35245098 0
0.0039215686 0.29019608 0.062745098
0.0039215686 0.29411765 0.058823529
0.0049019608 0.29509804 0.053921569
0.0078431373 0.29803922 0.04754902
0.01372549 0.30196078 0.035294118
0.050490196 0.30637255 0.026960784
0.12941176 0.32058824 0.023529412
0.21568627 0.33480392 0.019607843
0.29803922 0.34901961 0.011764706
0.37401961 0.35294118 0.0053921569
0.45 0.36078431 0.0039215686
0.52205882 0.36470588 0.0039215686
0.58431373 0.36470588 0.0039215686
0.64166667 0.36519608 0.0039215686
0.69705882 0.36862745 0.0039215686
0.74852941 0.36862745 0.0039215686
0.8 0.37254902 0.0039215686
0.84264706 0.37647059 0.0039215686
0.88235294 0.37647059 0.0039215686
0.92009804 0.38039216 0.0039215686
0.95882353 0.38823529 0.0039215686
0.98529412 0.39656863 0.0034313725
0.99901961 0.4 0
1 0.40147059 0
1 0.40392157 0
0.0039215686 0.33529412 0.066666667
0.0039215686 0.33682598 0.065196078
0.0078431373 0.34166667 0.060661765
0.0056985294 0.34313725 0.053921569
0.0046568627 0.34313725 0.043627451
0.0071078431 0.34381127 0.034497549
0.087867647 0.35833333 0.032352941
0.1745098 0.37205882 0.025980392
0.25931373 0.38235294 0.015686275
0.33829657 0.39019608 0.0053921569
0.42463235 0.40355392 0.0039215686
0.51115196 0.41960784 0.0039215686
0.57916667 0.42401961 0.00073529412
0.63529412 0.42254902 0.0039215686
0.68676471 0.42009804 0.0039215686
0.73823529 0.42101716 0.0039215686
0.79215686 0.42401961 0.0039215686
0.8372549 0.43131127 0.0039215686
0.87561275 0.43468137 0.0039215686
0.91323529 0.43792892 0.0039215686
0.95294118 0.43970588 0.0014705882
0.9877451 0.44540441 0.0012867647
0.99963235 0.45085784 0
1 0.45294118 0
1 0.45539216 0
0.0029411765 0.37647059 0.066666667
0.0039215686 0.38039216 0.067279412
0.0039215686 0.38431373 0.067892157
0.0039215686 0.38688725 0.068627451
0.00049019608 0.38431373 0.065686275
0.006127451 0.38468137 0.064705882
0.055882353 0.39338235 0.049264706
0.13333333 0.40441176 0.03872549
0.21960784 0.41470588 0.024509804
0.3064951 0.42598039 0.0057598039
0.39705882 0.44191176 0
0.48676471 0.46470588 0
0.57009804 0.47990196 0
0.62414216 0.47536765 0.0030637255
0.6754902 0.47230392 0.0039215686
0.72696078 0.47267157 0.0039215686
0.77843137 0.47843137 0.0039215686
0.82745098 0.48517157 0.0039215686
0.86568627 0.48823529 0.0039215686
0.9060049 0.49117647 0.00036764706
0.94411765 0.49509804 0
0.98884804 0.49509804 0
1 0.49901961 0
1 0.50294118 0
1 0.50686275 0
0 0.41764706 0.066666667
0 0.42156863 0.076470588
0 0.4254902 0.086151961
0 0.4254902 0.092218137
0.00024509804 0.4254902 0.087990196
0.00049019608 0.42506127 0.074019608
0.014828431 0.425 0.059436275
0.093443627 0.43529412 0.045588235
0.18578431 0.4495098 0.031372549
0.2745098 0.45980392 0.014215686
0.36360294 0.475 0.0039215686
0.45588235 0.49558824 0.0034926471
0.5370098 0.51029412 0.0017156863
0.60435049 0.5161152 0.00049019608
0.65882353 0.51568627 0.0039215686
0.70980392 0.51568627 0.0039215686
0.76176471 0.52303922 0.0039215686
0.80686275 0.52990196 0.00018382353
0.84803922 0.53529412 0
0.88921569 0.53915441 0
0.93382353 0.54264706 0
0.97849265 0.54264706 0
0.99914216 0.54571078 0
1 0.55067402 0
1 0.55098039 0
0 0.45882353 0.096078431
0 0.45882353 0.097303922
0 0.46078431 0.10245098
0 0.46078431 0.10759804
0 0.46078431 0.098039216
0 0.45882353 0.085784314
0.0029411765 0.45735294 0.071568627
0.068137255 0.46617647 0.060539216
0.15490196 0.47647059 0.045098039
0.24436275 0.48995098 0.019362745
0.33382353 0.50343137 0.0034313725
0.41985294 0.52083333 0.0019607843
0.49803922 0.53627451 0.0039215686
0.57205882 0.54926471 0.0039215686
0.6377451 0.55637255 0.00098039216
0.68970588 0.55759804 0.0012254902
0.74117647 0.56470588 0
0.7875 0.57254902 0
0.83382353 0.57892157 0
0.87843137 0.58382353 0
0.92352941 0.58431373 0
0.96421569 0.58651961 0
0.98921569 0.58970588 0
0.99607843 0.59215686 0
0.99607843 0.59215686 0
0 0.4995098 0.12696078
0 0.4995098 0.12665441
0 0.4995098 0.12291667
0 0.49650735 0.1221201
0.00049019608 0.49583333 0.1127451
0.0039215686 0.49515931 0.1028799
0.0073529412 0.49166667 0.093014706
0.037561275 0.49313725 0.080085784
0.1245098 0.50735294 0.059803922
0.21715686 0.51764706 0.028921569
0.30477941 0.52892157 0.00012254902
0.38284314 0.54601716 0.0034926471
0.45710784 0.5620098 0.006127451
0.53180147 0.57800245 0.0044117647
0.60686275 0.59129902 0.0039215686
0.67058824 0.5995098 0
0.7245098 0.60588235 0
0.77254902 0.61372549 0
0.82303922 0.6185049 0
0.86813725 0.62156863 0
0.91323529 0.6254902 0
0.95392157 0.62941176 0
0.98186275 0.63235294 0
0.99215686 0.63333333 0
0.99607843 0.63333333 0
0 0.53431373 0.13431373
0 0.53431373 0.13333333
0 0.53431373 0.13308824
0 0.53345588 0.13235294
0.0039215686 0.53039216 0.12647059
0.00098039216 0.52647059 0.12009804
0.00024509804 0.52573529 0.10980392
0.011029412 0.52585784 0.098529412
0.10392157 0.53431373 0.080392157
0.19656863 0.54852941 0.05245098
0.28112745 0.55882353 0.026470588
0.35539216 0.57303922 0.020588235
0.42941176 0.58921569 0.017647059
0.50343137 0.60539216 0.0087009804
0.57647059 0.61887255 0.0041666667
0.64460784 0.63198529 0
0.70784314 0.64411765 0
0.75931373 0.6504902 0
0.80980392 0.65661765 0
0.86041667 0.66237745 0
0.90441176 0.66519608 0
0.94362745 0.66715686 0
0.97156863 0.67352941 0
0.99031863 0.6745098 0
0.99607843 0.6745098 0
0 0.57058824 0.12941176
0 0.57058824 0.13186275
0 0.57058824 0.13578431
0 0.56930147 0.13872549
0 0.56666667 0.13872549
0 0.56648284 0.13578431
0 0.5627451 0.12843137
0.013664216 0.56366422 0.1221201
0.08872549 0.56911765 0.10637255
0.17653186 0.57941176 0.084252451
0.26017157 0.58970588 0.065196078
0.34001225 0.60343137 0.050490196
0.41078431 0.61544118 0.030147059
0.48235294 0.63106618 0.0060661765
0.54987745 0.64509804 0.0024509804
0.61672794 0.65931373 0.0039215686
0.68333333 0.67107843 0.0039215686
0.74264706 0.68382353 0.0039215686
0.79840686 0.69166667 0
0.85098039 0.69822304 0
0.89730392 0.70122549 0
0.9372549 0.70655637 0
0.96568627 0.71078431 0
0.98970588 0.71421569 0
0.99607843 0.71421569 0
0 0.60784314 0.1372549
0 0.60784314 0.14362745
0 0.60784314 0.15
0 0.60784314 0.15637255
0 0.60784314 0.15686275
0 0.60784314 0.15294118
0.0029411765 0.60392157 0.15
0.017647059 0.60392157 0.14362745
0.082352941 0.60784314 0.13333333
0.16470588 0.61421569 0.1127451
0.24705882 0.62058824 0.092156863
0.32598039 0.63088235 0.068137255
0.39215686 0.64509804 0.035294118
0.46176471 0.65588235 0
0.52352941 0.66960784 0
0.58921569 0.68382353 0.0039215686
0.65882353 0.69803922 0.0039215686
0.7245098 0.71078431 0.0039215686
0.78235294 0.72254902 0.0039215686
0.84019608 0.73284314 0
0.89215686 0.73921569 0
0.93088235 0.74509804 0
0.96176471 0.74901961 0
0.99117647 0.7504902 0
0.99607843 0.75294118 0
0.006372549 0.65294118 0.16568627
0.00091911765 0.64901961 0.16268382
0 0.64901961 0.16666667
0.0012867647 0.64901961 0.17322304
0.0039215686 0.64901961 0.17622549
0.0039215686 0.64901961 0.17352941
0.0039215686 0.64901961 0.17107843
0.016176471 0.64509804 0.16813725
0.082352941 0.64656863 0.15392157
0.16470588 0.6504902 0.13578431
0.24644608 0.65539216 0.11666667
0.31960784 0.66421569 0.094791667
0.38504902 0.67598039 0.058333333
0.45128676 0.68841912 0.026654412
0.50931373 0.69767157 0.0069852941
0.575 0.71078431 0.0039215686
0.64215686 0.72254902 0.0039215686
0.70784314 0.73621324 0.0039215686
0.76531863 0.74987745 0.0039215686
0.82383578 0.76341912 0.0026348039
0.88382353 0.77720588 0
0.92696078 0.78253676 0
0.95894608 0.78382353 0
0.99117647 0.78682598 0
1 0.7877451 0
0.0088235294 0.69411765 0.19509804
0.0039215686 0.69056373 0.18835784
0 0.69019608 0.18627451
0 0.69019608 0.19019608
0.0029411765 0.69019608 0.19362745
0 0.68627451 0.18529412
0 0.68627451 0.18137255
0.015196078 0.68627451 0.17745098
0.08627451 0.68627451 0.16960784
0.16678922 0.68627451 0.15747549
0.24632353 0.69093137 0.14117647
0.31813725 0.7004902 0.11801471
0.38431373 0.71078431 0.095588235
0.45 0.72205882 0.069240196
0.50490196 0.72916667 0.038235294
0.56176471 0.7377451 0.0125
0.62647059 0.74803922 0.0039215686
0.69117647 0.7622549 0.0035539216
0.7497549 0.77647059 0.0039215686
0.80821078 0.79056373 0.00036764706
0.86862745 0.80637255 0
0.91727941 0.81470588 0
0.95196078 0.81691176 0
0.98921569 0.82193627 0
1 0.82254902 0
0.011764706 0.73872549 0.22205882
0.0053921569 0.73284314 0.21568627
0.0029411765 0.73137255 0.21066176
0 0.73137255 0.21029412
0 0.73137255 0.21078431
0 0.72745098 0.20245098
0 0.72745098 0.19252451
0.012745098 0.72959559 0.18627451
0.093627451 0.72745098 0.17990196
0.17352941 0.72745098 0.17303922
0.24963235 0.73137255 0.1627451
0.31856618 0.73872549 0.14810049
0.38602941 0.74558824 0.12965686
0.45 0.75588235 0.11078431
0.50784314 0.76580882 0.080392157
0.56029412 0.77077206 0.044607843
0.61568627 0.77892157 0.010784314
0.67401961 0.78952206 0.009497549
0.73492647 0.80355392 0.0029411765
0.790625 0.81764706 0
0.84632353 0.82843137 0
0.89705882 0.83866422 0
0.9377451 0.84460784 0
0.97892157 0.85098039 0
0.99656863 0.85735294 0
0.011764706 0.78039216 0.24901961
0.0053921569 0.77720588 0.24264706
0.0014705882 0.77401961 0.23627451
0 0.77254902 0.23137255
0 0.77254902 0.22843137
0.0019607843 0.77034314 0.21911765
0.0034313725 0.77058824 0.21078431
0.029411765 0.77254902 0.20514706
0.12352941 0.76862745 0.20392157
0.21691176 0.76862745 0.20465686
0.28529412 0.77254902 0.2
0.33504902 0.77622549 0.19093137
0.39705882 0.78627451 0.1745098
0.45563725 0.79632353 0.15539216
0.50882353 0.7995098 0.12647059
0.56421569 0.80539216 0.1002451
0.61764706 0.81372549 0.082352941
0.66715686 0.82083333 0.036029412
0.71862745 0.83039216 0
0.77181373 0.84264706 0
0.8254902 0.85294118 0.00098039216
0.88063725 0.8629902 0.0039215686
0.92352941 0.87156863 0.0039215686
0.96544118 0.88186275 0
0.99607843 0.88823529 0
0.011764706 0.82598039 0.27990196
0.0053921569 0.82334559 0.27175245
0 0.82156863 0.26409314
0 0.81813725 0.25729167
0.0041666667 0.81789216 0.25465686
0.019791667 0.81421569 0.25343137
0.065318627 0.81421569 0.2564951
0.12156863 0.81403186 0.25588235
0.18480392 0.81372549 0.24558824
0.26341912 0.81372549 0.24509804
0.31911765 0.81507353 0.24411765
0.36029412 0.81807598 0.23382353
0.40857843 0.82352941 0.22181373
0.46176471 0.83290441 0.20202206
0.51323529 0.83713235 0.18909314
0.56881127 0.84264706 0.18284314
0.62401961 0.85245098 0.16078431
0.6754902 0.85900735 0.11617647
0.72107843 0.86470588 0.080514706
0.7627451 0.87156863 0.049080882
0.81323529 0.87794118 0.027941176
0.86470588 0.88817402 0.0047794118
0.91323529 0.89803922 0.0039215686
0.95459559 0.90833333 0.0039215686
0.99901961 0.91862745 0.00049019608
0.011764706 0.87058824 0.30784314
0.0083333333 0.86997549 0.30232843
0.0022058824 0.86960784 0.29558824
0.030147059 0.86580882 0.3004902
0.05245098 0.86617647 0.30539216
0.10171569 0.86531863 0.30833333
0.16176471 0.86176471 0.3125
0.21752451 0.85882353 0.31127451
0.27058824 0.85882353 0.30098039
0.3122549 0.85845588 0.29791667
0.35882353 0.86176471 0.29803922
0.39705882 0.86531863 0.2877451
0.43431373 0.86666667 0.27892157
0.47794118 0.87107843 0.27144608
0.53235294 0.87745098 0.26691176
0.58578431 0.88272059 0.26127451
0.63823529 0.89019608 0.24607843
0.68578431 0.89656863 0.21237745
0.72843137 0.90196078 0.18431373
0.76666667 0.90551471 0.15931373
0.80980392 0.90882353 0.10637255
0.85441176 0.91519608 0.041421569
0.90514706 0.92328431 0.0046568627
0.94411765 0.93284314 0.0050245098
0.97843137 0.93921569 0.0068627451
0.11960784 0.91568627 0.36323529
0.12941176 0.91323529 0.3598652
0.13137255 0.90784314 0.3560049
0.16194853 0.91158088 0.36519608
0.20171569 0.91323529 0.37622549
0.23020833 0.91145833 0.375
0.27193627 0.90784314 0.37389706
0.31268382 0.90392157 0.36868873
0.34607843 0.90392157 0.36568627
0.37696078 0.90539216 0.36715686
0.4185049 0.90931373 0.37009804
0.45294118 0.91145833 0.36501225
0.48578431 0.91176471 0.36078431
0.52205882 0.91568627 0.35637255
0.56911765 0.91960784 0.34607843
0.60882353 0.92052696 0.33823529
0.65 0.92598039 0.32794118
0.69754902 0.93290441 0.30784314
0.7377451 0.9377451 0.28333333
0.7723652 0.93903186 0.26488971
0.81176471 0.94362745 0.23382353
0.85686275 0.9495098 0.175
0.8995098 0.95306373 0.098529412
0.9377451 0.95643382 0.049632353
0.97254902 0.96372549 0.0053921569
0.29019608 0.95294118 0.42745098
0.28921569 0.9504902 0.425
0.2754902 0.94509804 0.41960784
0.28921569 0.94509804 0.42352941
0.32156863 0.94901961 0.43137255
0.34215686 0.94852941 0.43088235
0.35882353 0.94215686 0.4245098
0.37941176 0.94117647 0.41960784
0.40392157 0.94117647 0.41960784
0.43480392 0.94509804 0.42598039
0.46568627 0.94901961 0.43137255
0.49656863 0.94901961 0.43137255
0.52745098 0.94901961 0.42745098
0.55833333 0.95294118 0.42647059
0.59313725 0.95 0.40980392
0.62794118 0.9504902 0.39852941
0.66666667 0.95686275 0.38823529
0.70784314 0.96470588 0.38578431
0.74117647 0.96470588 0.36666667
0.775 0.96813725 0.3495098
0.81568627 0.97058824 0.32352941
0.86078431 0.98088235 0.30539216
0.89803922 0.98039216 0.24313725
0.93529412 0.98039216 0.17892157
0.96862745 0.98039216 0.10588235
0.017156863 0.050980392 0.043137255
0.040196078 0.041605392 0.040134804
0.069607843 0.021568627 0.033088235
0.1004902 0.003125 0.027818627
0.15098039 0.0058823529 0.032107843
0.19981618 0.0078431373 0.03872549
0.25 0.0067401961 0.037254902
0.3122549 0.0039215686 0.032414216
0.38039216 0.0024509804 0.026960784
0.44215686 0 0.018137255
0.50392157 0 0.016666667
0.56568627 0 0.020281863
0.62426471 0.0024509804 0.024509804
0.68088235 0 0.020098039
0.72941176 0 0.010906863
0.77751225 0 0.0054534314
0.82745098 0 0.0024509804
0.87254902 0.0023897059 0
0.91764706 0.0039215686 0
0.95147059 0.0073529412 0
0.97058824 0.011764706 0.0019607843
0.98088235 0.011764706 0
0.99117647 0.011764706 0
1 0.025428922 0
1 0.090196078 0
0.015686275 0.050980392 0.040134804
0.03627451 0.044607843 0.039560355
0.067846201 0.039828431 0.035294118
0.098039216 0.034321385 0.028308824
0.14705882 0.033884804 0.032843137
0.19852941 0.033884804 0.0386106
0.25 0.032322304 0.037254902
0.31078431 0.022832414 0.032988664
0.37647059 0.0088235294 0.025428922
0.43970588 0 0.014560355
0.50110294 0 0.013112745
0.56224724 0 0.020098039
0.62426471 0.0024509804 0.024509804
0.68088235 0 0.020098039
0.72941176 0 0.010217525
0.77969516 0 0.002221201
0.82745098 0 0
0.87254902 0.0014705882 0
0.91803002 0.00059742647 0
0.95166207 0.0073529412 0
0.97254902 0.01372549 0.0039215686
0.98633578 0.018627451 0
0.99468444 0.032843137 0
1 0.063641238 0
1 0.12107843 0
0.011764706 0.059926471 0.043137255
0.030269608 0.064215686 0.039139093
0.064705882 0.067126225 0.035294118
0.095588235 0.066896446 0.02611826
0.14393382 0.069914216 0.028737745
0.19460784 0.072058824 0.032935049
0.24690564 0.072671569 0.034803922
0.30727635 0.062745098 0.03203125
0.37193627 0.046568627 0.025980392
0.43431373 0.021507353 0.014675245
0.49681373 0.0079656863 0.01127451
0.56171875 0.0080729167 0.020098039
0.62352941 0.0059436275 0.024816176
0.68088235 0.0006127451 0.019286152
0.73235294 0.0023590686 0.0068014706
0.78340993 0.00036764706 0
0.83137255 0.0020833333 0
0.875 0.0056832108 0
0.92156863 0.0024509804 0
0.95196078 0.010202206 0
0.97254902 0.029656863 0.0037377451
0.99117647 0.046798407 0.0012867647
0.99653799 0.077420343 0
1 0.11237745 0
1 0.15294118 0
0.011764706 0.096078431 0.043811275
0.021078431 0.098713235 0.044293811
0.053125 0.1026348 0.041314338
0.083984375 0.10610447 0.034803922
0.13210784 0.10808824 0.030790441
0.18752298 0.11241575 0.030882353
0.245144 0.11642157 0.02958027
0.30552237 0.10765931 0.025980392
0.36862745 0.097365196 0.019607843
0.43431373 0.086458333 0.010845588
0.49554228 0.070588235 0.013863358
0.55741422 0.053063725 0.020121017
0.62009804 0.035539216 0.022303922
0.6778799 0.027182904 0.015908395
0.73235294 0.020925245 0.0045343137
0.78401501 0.017830882 0.0026271446
0.83137255 0.023039216 0
0.875 0.03683364 0.0023897059
0.92028186 0.037745098 0
0.95196078 0.052389706 0
0.97107843 0.080147059 0.0036764706
0.98903186 0.10365349 0.0035922181
0.99791667 0.1276348 0
1 0.1627451 0
1 0.18890931 0
0.011764706 0.13259804 0.05245098
0.015716912 0.13259804 0.050490196
0.039767157 0.13590686 0.049264706
0.073529412 0.14215686 0.041176471
0.11629902 0.14473039 0.037009804
0.17303922 0.14966299 0.030974265
0.23903186 0.16041667 0.020894608
0.30021446 0.15612745 0.017892157
