site/assets/luts/sha256-ecba29a42fefc598707fa123038bf991ec5255442575c1d422b0776104927979.cube
# LUTr-Schema-Version: 2
# LUTr-ID: sha256-ecba29a42fefc598707fa123038bf991ec5255442575c1d422b0776104927979
# LUTr-Title: fuji 800z ++
# LUTr-Collection: Natron HaldCLUT
# LUTr-Collection-ID: natron-haldclut-presets
# LUTr-Source: https://github.com/NatronGitHub/clut
# LUTr-Retrieved: 2026-07-27
# LUTr-Source-File: submissions/natron-haldclut-presets/negative_new/fuji_800z_++.png
# LUTr-Source-Format: HALD-PNG
# LUTr-Source-SHA256: ecba29a42fefc598707fa123038bf991ec5255442575c1d422b0776104927979
# LUTr-License: CC-BY-SA-4.0
# LUTr-License-URL: https://github.com/NatronGitHub/clut#license
# LUTr-License-Basis: repo-license-file
# LUTr-Transform-Class: film-emulation
# LUTr-Tags: creative, film, film-emulation, hald-clut, natron, png, cube
# LUTr-Input-Color-Space: srgb
# LUTr-Input-Gamut: rec709
# LUTr-Input-Transfer: srgb
# LUTr-Output-Color-Space: srgb
# LUTr-Output-Gamut: rec709
# LUTr-Output-Transfer: srgb
# LUTr-Color-Space-Confidence: assumed-display-referred
# LUTr-Domain-Normalized: true
# LUTr-Shaper: none
# LUTr-Original-Grid: 64x64x64
# LUTr-Conversion-Grid: 25x25x25
# LUTr-Conversion-Interpolation: trilinear
# LUTr-Conversion-Method: HALD-PNG LUT image decoded at 16-bit and sampled to 25x25x25 3D CUBE
# LUTr-Conversion-Tool: LUTr scripts/convert-all-to-cube.mjs 2.0.0
# LUTr-Conversion-Date: 2026-07-27
# LUTr-Note: Preserve this metadata and the upstream license notices when redistributing.
TITLE "fuji 800z ++"
LUT_3D_SIZE 9
DOMAIN_MIN 0 0 0
DOMAIN_MAX 1 1 1
0.12156863 0.13333333 0.094117647
0.14362745 0.12107843 0.081862745
0.24313725 0.15196078 0.08627451
0.39019608 0.11519608 0.08627451
0.55294118 0.066666667 0.082352941
0.73039216 0.0078431373 0.073039216
0.86960784 0.0049019608 0.051960784
0.95833333 0.023529412 0.058823529
1 0.11372549 0.0039215686
0.098039216 0.16372549 0.09754902
0.14068627 0.16764706 0.097610294
0.23235294 0.16764706 0.083333333
0.38265931 0.17107843 0.083639706
0.54730392 0.15294118 0.080882353
0.72922794 0.12941176 0.080882353
0.87352941 0.12316176 0.032230392
0.96917892 0.14705882 0.027512255
0.99607843 0.19852941 0.015686275
0.089215686 0.23137255 0.1127451
0.12757353 0.24019608 0.11666667
0.20882353 0.25196078 0.10980392
0.36973039 0.28419118 0.090196078
0.53333333 0.28578431 0.068137255
0.70637255 0.27022059 0.027941176
0.85661765 0.27745098 0.015686275
0.97058824 0.28664216 0.0039215686
1 0.31372549 0
0.090196078 0.33284314 0.1372549
0.11862745 0.32156863 0.13596814
0.18921569 0.33578431 0.12438725
0.34460784 0.38719363 0.08627451
0.53455882 0.43186275 0.025735294
0.68970588 0.41617647 0.0053921569
0.83345588 0.41617647 0.0096813725
0.94411765 0.42598039 0.0039215686
1 0.4372549 0
0.058823529 0.4254902 0.14901961
0.1127451 0.41985294 0.15098039
0.18529412 0.42156863 0.14705882
0.30514706 0.45661765 0.12892157
0.49411765 0.52156863 0.073529412
0.69093137 0.56397059 0.0098039216
0.82303922 0.5504902 0.0093137255
0.92892157 0.55294118 0.0039215686
0.98823529 0.55098039 0
0.080392157 0.53529412 0.17401961
0.13155637 0.53137255 0.17794118
0.20637255 0.52022059 0.18002451
0.3 0.53480392 0.1754902
0.43406863 0.58014706 0.14289216
0.64172794 0.63878676 0.094117647
0.80931373 0.67352941 0.027573529
0.92175245 0.67518382 0.0086397059
0.97107843 0.66470588 0
0.17843137 0.64313725 0.21470588
0.20980392 0.6435049 0.21519608
0.2754902 0.63627451 0.2252451
0.31727941 0.62034314 0.20870098
0.46372549 0.65980392 0.21372549
0.6004902 0.69571078 0.2
0.76078431 0.73259804 0.20196078
0.89852941 0.76421569 0.17120098
0.97352941 0.77941176 0.15294118
0.36372549 0.75833333 0.32303922
0.38682598 0.75882353 0.3245098
0.41237745 0.75453431 0.31519608
0.44987745 0.74362745 0.31035539
0.52941176 0.75073529 0.31764706
0.64019608 0.77647059 0.32941176
0.76127451 0.80637255 0.33970588
0.87689951 0.8372549 0.35294118
0.96813725 0.87156863 0.38382353
0.61176471 0.87843137 0.53333333
0.61960784 0.87843137 0.54068627
0.64215686 0.88235294 0.54901961
0.67598039 0.88382353 0.55980392
0.70196078 0.8745098 0.55686275
0.7627451 0.89313725 0.57058824
0.82254902 0.90294118 0.56764706
0.89509804 0.92598039 0.59215686
0.95294118 0.94509804 0.60784314
0.10245098 0.1372549 0.13676471
0.15098039 0.13731618 0.13627451
0.25085784 0.12598039 0.13933824
0.38872549 0.11127451 0.1341299
0.56029412 0.065686275 0.13970588
0.74068627 0.0078431373 0.13609069
0.87708333 0.015686275 0.11568627
0.96617647 0.019117647 0.10833333
0.99607843 0.076470588 0.1004902
0.10496324 0.17156863 0.14368873
0.14835325 0.1754902 0.14019608
0.2506587 0.17817096 0.14019608
0.38883272 0.17285539 0.14019608
0.55686275 0.15297181 0.13186275
0.741322 0.11072304 0.12794118
0.87725184 0.089996936 0.10902267
0.9734758 0.12445619 0.10006127
0.99607843 0.18333333 0.092585784
0.12107843 0.25196078 0.15502451
0.1453125 0.24782475 0.15200674
0.23590686 0.25845588 0.14727328
0.37262561 0.27696078 0.13319547
0.54528186 0.27653186 0.11519608
0.71711091 0.27242647 0.10396752
0.86268382 0.26960784 0.088939951
0.96665135 0.28578431 0.074387255
0.99607843 0.30980392 0.066544118
0.10343137 0.35196078 0.16403186
0.13986673 0.34019608 0.16746324
0.2127451 0.34091605 0.16433824
0.35490196 0.39245558 0.15158548
0.52990196 0.42009804 0.11014093
0.69743413 0.41617647 0.071254596
0.83530944 0.40980392 0.047058824
0.95536918 0.42159161 0.016467525
0.99607843 0.4372549 0.010416667
0.10686275 0.44852941 0.18357843
0.13627451 0.44068627 0.17815564
0.20422794 0.42892157 0.18186275
0.31207108 0.45965074 0.16960784
0.48970588 0.51838235 0.1375
0.69077819 0.56685049 0.074019608
0.82671569 0.55441176 0.026286765
0.93238358 0.5453125 0.00042892157
0.99215686 0.54901961 0.0056372549
0.12665441 0.54901961 0.19920343
0.16203278 0.54155944 0.20441176
0.21836703 0.52945772 0.20133272
0.29895067 0.53540135 0.19373468
0.45294118 0.58333333 0.1875
0.63314185 0.63333333 0.15821844
0.81122855 0.66911765 0.11560968
0.92565104 0.67123928 0.06372549
0.99607843 0.66911765 0.014154412
0.2192402 0.65490196 0.24460784
0.24897365 0.65355392 0.24852941
0.2877451 0.63884804 0.24451593
0.33877145 0.62686887 0.23555453
0.465625 0.65980392 0.24166667
0.61127451 0.69754902 0.23760723
0.76960784 0.73278186 0.23409926
0.91715686 0.77772672 0.22958027
0.98431373 0.77647059 0.20588235
0.38676471 0.76617647 0.34264706
0.39846814 0.7622549 0.34264706
0.425 0.75882353 0.34227941
0.47342218 0.74852941 0.34322151
0.54414828 0.75245098 0.34001225
0.64714308 0.77970282 0.35081955
0.77254902 0.80980392 0.36361826
0.88425245 0.84117647 0.38382353
0.97598039 0.87156863 0.40594363
0.6004902 0.87107843 0.53333333
0.61127451 0.8745098 0.53719363
0.64215686 0.88235294 0.55294118
0.65919118 0.87028186 0.54675245
0.70784314 0.87843137 0.56838235
0.7658701 0.89381127 0.58235294
0.82647059 0.90686275 0.59007353
0.89509804 0.93284314 0.60686275
0.94901961 0.94117647 0.60735294
0.1127451 0.1372549 0.20882353
0.16372549 0.1372549 0.22022059
0.25882353 0.13333333 0.22058824
0.40870098 0.10318627 0.23198529
0.59852941 0.025490196 0.23529412
0.77107843 0.0039215686 0.24031863
0.89215686 0.0039215686 0.22965686
0.9817402 0.0039215686 0.22352941
1 0.029411765 0.22254902
0.11029412 0.18333333 0.21666667
0.15637255 0.18639706 0.22333027
0.25995711 0.18716299 0.2245098
0.42463235 0.16507353 0.23198529
0.59895833 0.11323529 0.23933824
0.76346507 0.05067402 0.23431373
0.89641544 0.0296875 0.22723652
0.98039216 0.093137255 0.22254902
1 0.16519608 0.22647059
0.10073529 0.26887255 0.2252451
0.16237745 0.27717525 0.22870711
0.26397059 0.28082108 0.23235294
0.4122549 0.28235294 0.23538603
0.57757353 0.27561275 0.22953431
0.73979779 0.26210172 0.22352941
0.87824755 0.24142157 0.21642157
0.98455882 0.27337623 0.21078431
0.99607843 0.30269608 0.21642157
0.10686275 0.38860294 0.24264706
0.17437194 0.38435968 0.24375
0.25628064 0.37965686 0.24767157
0.38246017 0.39744179 0.24221814
0.5591299 0.42297794 0.22426471
0.71372549 0.40856311 0.20392157
0.85245098 0.41026348 0.19901961
0.95453431 0.4180913 0.18345588
0.99215686 0.43627451 0.18811275
0.14558824 0.49803922 0.26176471
0.19148284 0.48633578 0.26764706
0.25943627 0.47022059 0.25980392
0.34356618 0.47671569 0.24742647
0.52132353 0.52941176 0.24411765
0.69901961 0.55251225 0.22622549
0.82892157 0.54693627 0.19742647
0.93866422 0.54117647 0.15545343
0.99558824 0.54509804 0.15245098
0.19754902 0.58566176 0.28835784
0.23212316 0.58123468 0.28079044
0.28082108 0.56194853 0.27414216
0.33702512 0.54604779 0.26450674
0.47322304 0.58921569 0.26311275
0.65196078 0.63826593 0.26329657
0.81617647 0.66703431 0.24592525
0.92856924 0.66844363 0.2189951
0.98541667 0.66470588 0.18566176
0.28333333 0.67647059 0.31568627
0.30082721 0.66862745 0.31210172
0.33014706 0.66102941 0.30171569
0.38590686 0.64396446 0.29779412
0.47071078 0.65698529 0.28946078
0.61740196 0.69414828 0.30490196
0.77585784 0.73627451 0.31746324
0.91703431 0.77965686 0.33235294
0.98431373 0.77647059 0.31372549
0.41666667 0.77352941 0.39252451
0.42930453 0.770481 0.3995098
0.44840686 0.76666667 0.38259804
0.49705882 0.76020221 0.39375
0.55833333 0.75876225 0.39436275
0.65551471 0.77941176 0.40441176
0.76519608 0.80588235 0.41372549
0.87990196 0.84068627 0.43988971
0.97953431 0.87156863 0.46727941
0.63039216 0.88921569 0.57843137
0.62696078 0.88235294 0.57144608
0.64803922 0.88210784 0.57426471
0.6754902 0.88235294 0.58186275
0.70882353 0.8754902 0.58284314
0.76372549 0.89019608 0.59620098
0.82941176 0.90588235 0.60514706
0.89509804 0.91605392 0.60196078
0.95294118 0.94509804 0.63529412
0.13823529 0.13970588 0.32205882
0.19362745 0.14509804 0.32745098
0.28627451 0.15012255 0.33713235
0.41770833 0.14810049 0.35098039
0.62034314 0.048039216 0.36789216
0.80735294 0.006372549 0.38327206
0.92696078 0.0039215686 0.38088235
0.98872549 0.0039215686 0.36488971
1 0.084313725 0.36127451
0.14215686 0.19148284 0.33137255
0.19030331 0.18731618 0.33498775
0.29264706 0.19419424 0.34178922
0.42676164 0.1868796 0.35852482
0.61452206 0.12843137 0.37564338
0.80533088 0.044784007 0.38480392
0.9217065 0.051516544 0.37634804
0.99264706 0.097219669 0.36911765
1 0.175 0.36666667
0.10245098 0.26666667 0.34215686
0.17155331 0.27928922 0.34719669
0.27539828 0.28697917 0.35364583
0.43915441 0.29094669 0.3685049
0.63137255 0.2713848 0.37977941
0.7932598 0.25562194 0.38370098
0.90916054 0.25226716 0.37123162
0.98578431 0.27647059 0.36580882
0.99607843 0.30588235 0.36911765
0.042095588 0.41378676 0.3627451
0.1618796 0.41617647 0.36900276
0.28762255 0.41190257 0.3705576
0.42738971 0.4122549 0.37753523
0.6004902 0.42325368 0.37303922
0.75118719 0.41191023 0.36645987
0.87745098 0.41548713 0.35868566
0.96439185 0.43046109 0.35588235
0.99607843 0.43970588 0.35490196
0.17205882 0.54877451 0.38039216
0.22034314 0.54148284 0.38627451
0.32647059 0.53878676 0.38602941
0.41001838 0.51639093 0.38088235
0.55526961 0.54473039 0.37855392
0.73259804 0.5627451 0.375
0.84283088 0.5497549 0.35245098
0.94068627 0.55039828 0.33832721
0.99607843 0.55220588 0.33578431
0.28866422 0.63284314 0.40588235
0.3122549 0.6321538 0.39423254
0.38291973 0.62352941 0.39895833
0.42395833 0.59328278 0.38382353
0.52619485 0.60392157 0.37377451
0.69279259 0.65657935 0.39466912
0.82643995 0.67530637 0.39068627
0.92903646 0.66851256 0.35490196
0.99613971 0.65686275 0.32493873
0.36715686 0.70919118 0.42205882
0.38970588 0.71029412 0.43039216
0.41617647 0.69785539 0.41559436
0.46182598 0.68013174 0.40723039
0.50612745 0.66427696 0.38664216
0.63627451 0.69823836 0.40085784
0.78431373 0.74108456 0.42797181
0.91034007 0.77585784 0.44710478
0.97953431 0.78039216 0.43480392
0.47352941 0.79215686 0.48137255
0.48563879 0.79001225 0.48400735
0.5004902 0.78247549 0.47303922
0.52977175 0.77127757 0.46010263
0.57215074 0.75989583 0.4502451
0.66303615 0.77892157 0.47120864
0.76799939 0.80618873 0.49149816
0.87990196 0.84025735 0.51100643
0.97205882 0.86783088 0.53449755
0.64558824 0.89656863 0.62058824
0.62536765 0.87990196 0.59901961
0.65245098 0.88480392 0.60821078
0.6745098 0.87990196 0.60637255
0.7004902 0.87107843 0.60098039
0.76280637 0.88682598 0.62653186
0.8254902 0.89693627 0.62058824
0.89166667 0.91292892 0.62941176
0.94754902 0.94264706 0.66911765
0.18823529 0.15294118 0.4627451
0.23014706 0.15833333 0.4627451
0.32156863 0.1627451 0.47009804
0.45220588 0.16470588 0.48480392
0.61568627 0.11372549 0.50784314
0.79509804 0.031862745 0.52745098
0.92745098 0.0083333333 0.53431373
0.99828431 0.010539216 0.51519608
0.99803922 0.16666667 0.50784314
0.175 0.20294118 0.46642157
0.22843137 0.19926471 0.46838235
0.32751225 0.20245098 0.47965686
0.45989583 0.21029412 0.49313725
0.61678922 0.18995098 0.51458333
0.80147059 0.094761029 0.52622549
0.9379902 0.07622549 0.52745098
0.99221814 0.15839461 0.52328431
1 0.23259804 0.51789216
0.11862745 0.26568627 0.47401961
0.18308824 0.28308824 0.47640931
0.31176471 0.29730392 0.48921569
0.46158088 0.30226716 0.50269608
0.62426471 0.30465686 0.52794118
0.79362745 0.284375 0.52941176
0.91495098 0.28370098 0.52745098
0.9872549 0.31740196 0.52352941
0.99607843 0.36078431 0.52352941
0.039460784 0.39460784 0.48088235
0.14509804 0.39779412 0.48667279
0.29540441 0.40410539 0.49656863
0.44905025 0.42401961 0.50879289
0.61801471 0.43333333 0.52022059
0.78875613 0.44405637 0.53676471
0.89460784 0.44969363 0.52604167
0.97696078 0.45916054 0.52745098
0.99607843 0.47328431 0.52990196
0.082352941 0.56176471 0.51078431
0.20318627 0.55906863 0.51384804
0.3375 0.56691176 0.52181373
0.45906863 0.56862745 0.52941176
0.60735294 0.56960784 0.53480392
0.74509804 0.56862745 0.52867647
0.85808824 0.56519608 0.51470588
0.95110294 0.57622549 0.51948529
0.99215686 0.57254902 0.5127451
0.34901961 0.67941176 0.53921569
0.36504289 0.67245711 0.5379902
0.44332108 0.67401961 0.53921569
0.51421569 0.65631127 0.53529412
0.57512255 0.63296569 0.51617647
0.70952819 0.65808824 0.52303922
0.83045343 0.66807598 0.525
0.92892157 0.67484681 0.50520833
0.99289216 0.66911765 0.49460784
0.46176471 0.74607843 0.55784314
0.47518382 0.74564951 0.55398284
0.50539216 0.7377451 0.55036765
0.54509804 0.72426471 0.53958333
0.57843137 0.69852941 0.50906863
0.6596201 0.70539216 0.51427696
0.79901961 0.74620098 0.54803922
0.91507353 0.77898284 0.56599265
0.98872549 0.77647059 0.53823529
0.55857843 0.82303922 0.60906863
0.55441176 0.81862745 0.59096201
0.57261029 0.80821078 0.58480392
0.5989277 0.7995098 0.57303922
0.62401961 0.78321078 0.55245098
0.65995711 0.76942402 0.53226103
0.78008578 0.81029412 0.58382353
0.88382353 0.8448223 0.59947917
0.97720588 0.88235294 0.62892157
0.65098039 0.89803922 0.66666667
0.63382353 0.88088235 0.64754902
0.65686275 0.88382353 0.65245098
0.68995098 0.89142157 0.6627451
0.72745098 0.89509804 0.66568627
0.76495098 0.89093137 0.67009804
0.82401961 0.90392157 0.68235294
0.89093137 0.91568627 0.68382353
0.95882353 0.95490196 0.71960784
0.25 0.17009804 0.59803922
0.29234069 0.17616422 0.61078431
0.38333333 0.17352941 0.61482843
0.4966299 0.16378676 0.6254902
0.63480392 0.16495098 0.63921569
0.78382353 0.12598039 0.6598652
0.91617647 0.089215686 0.66470588
0.99246324 0.14460784 0.65814951
0.99607843 0.21862745 0.64117647
0.23970588 0.21256127 0.60539216
0.28970588 0.21209406 0.6093367
0.38333333 0.21773897 0.61372549
0.49754902 0.21862745 0.62382813
0.63587623 0.22990196 0.64304534
0.77709099 0.21930147 0.65778186
0.90401348 0.19705882 0.67156863
0.99607843 0.23088235 0.66437653
0.99607843 0.28756127 0.65422794
0.225 0.28872549 0.61372549
0.27365196 0.29502145 0.61698836
0.36862745 0.30058211 0.62239583
0.49607843 0.30778186 0.62941176
0.64191176 0.32297794 0.64601716
0.77912071 0.32996324 0.6557598
0.89623162 0.34329044 0.66332721
0.99486826 0.36421569 0.66862745
1 0.39963235 0.66580882
0.11072304 0.39019608 0.60196078
0.19694393 0.39166667 0.60980392
0.31922488 0.39604779 0.62133885
0.47794118 0.42009804 0.62794118
0.63284314 0.44313725 0.63848039
0.76421569 0.46617647 0.6620481
0.87976409 0.48284314 0.6716299
0.97580423 0.49773284 0.67254902
0.99607843 0.51415441 0.6716299
0.11323529 0.52916667 0.61960784
0.20768995 0.52990196 0.62083333
0.31623775 0.5286152 0.62261029
0.44874387 0.53112745 0.62990196
0.61593137 0.56813725 0.65085784
0.75098039 0.58308824 0.66862745
0.8622549 0.59319853 0.67132353
0.95695466 0.5995098 0.67254902
0.99411765 0.59681373 0.66862745
0.31372549 0.66715686 0.64901961
0.36715686 0.67156097 0.65140931
0.45245098 0.67185968 0.65294118
0.54215686 0.67165288 0.65686275
0.64068627 0.67303922 0.66397059
0.74859069 0.68284314 0.66862745
0.84321385 0.68754596 0.66317402
0.93620558 0.68657322 0.65686275
0.98578431 0.68192402 0.65686275
0.52389706 0.78382353 0.67745098
0.5317402 0.77856924 0.67285539
0.57218137 0.77267157 0.67536765
0.60833333 0.75997243 0.66830576
0.67334559 0.75906863 0.66917892
0.70931373 0.73169424 0.64241728
0.8189951 0.76335784 0.66988358
0.91216299 0.76893382 0.65742953
0.98860294 0.76764706 0.64068627
0.60441176 0.8495098 0.70686275
0.61133578 0.84558824 0.69901961
0.63823529 0.84563419 0.70344669
0.65735294 0.83479626 0.69050245
0.69344363 0.8270527 0.68446691
0.71078431 0.79479167 0.64430147
0.78439032 0.80620404 0.64946385
0.89119945 0.84826134 0.6872932
0.97205882 0.8627451 0.70343137
0.68235294 0.91764706 0.74019608
0.68743873 0.91519608 0.7377451
0.70159314 0.91617647 0.73872549
0.72512255 0.91783088 0.73982843
0.74338235 0.90882353 0.72867647
0.76764706 0.8877451 0.71366422
0.81519608 0.88590686 0.71482843
0.88596814 0.91029412 0.73676471
0.95931373 0.95539216 0.77009804
0.33333333 0.18235294 0.73627451
0.3745098 0.19485294 0.73321078
0.45073529 0.18921569 0.73333333
0.54901961 0.20098039 0.73909314
0.66372549 0.22107843 0.75196078
0.79473039 0.26519608 0.76519608
0.89803922 0.25392157 0.77965686
0.98137255 0.27794118 0.78039216
0.99705882 0.30490196 0.76862745
0.33982843 0.23529412 0.72561275
0.37843137 0.24373468 0.73333333
0.44632353 0.24019608 0.73526348
0.54652267 0.24313725 0.74113051
0.66470588 0.26568627 0.75245098
0.78688725 0.2886489 0.76372549
0.9010723 0.29604779 0.78259804
0.98517157 0.3122549 0.78431373
0.99607843 0.3622549 0.77904412
0.32671569 0.30686275 0.73333333
0.36372549 0.30784314 0.74117647
0.43866422 0.31960784 0.74019608
0.54463848 0.3310049 0.74411765
0.66764706 0.35281863 0.75404412
0.7830576 0.38354779 0.76534926
0.89313725 0.39846814 0.78039216
0.98023897 0.41326593 0.78811275
0.99926471 0.45294118 0.78333333
0.2627451 0.40686275 0.7254902
0.30949755 0.40833333 0.7323989
0.40768995 0.41617647 0.7372549
0.53088235 0.43085172 0.74411765
0.65343137 0.45557598 0.75018382
0.77202819 0.49030331 0.76372549
0.87953431 0.51029412 0.78023897
0.9689951 0.52869179 0.78365502
0.99607843 0.54411765 0.78333333
0.15294118 0.50147059 0.71911765
0.21795343 0.50238971 0.72175245
0.3495098 0.51887255 0.7254902
0.48719363 0.53198529 0.73658088
0.62647059 0.55367647 0.74730392
0.75857843 0.58382353 0.76372549
0.86568627 0.61286765 0.77855392
0.95392157 0.63014706 0.78376225
0.99215686 0.62892157 0.77794118
0.27818627 0.64840686 0.73737745
0.32781863 0.64558824 0.74108456
0.40980392 0.64742647 0.74558824
0.49520527 0.6415288 0.74497549
0.62444853 0.65226716 0.75128676
0.74460784 0.6754902 0.76482843
0.85453431 0.69941789 0.77784926
0.95 0.71875 0.79117647
0.99607843 0.71519608 0.78762255
0.47058824 0.77647059 0.76470588
0.49476103 0.77647059 0.7685049
0.55392157 0.7745098 0.77156863
0.6 0.77230392 0.76810662
0.68921569 0.77156863 0.77156863
0.76470588 0.7747549 0.77521446
0.83897059 0.77622549 0.7754902
0.92359069 0.78829657 0.7823223
0.98823529 0.79117647 0.77965686
0.64718137 0.87156863 0.79031863
0.65243566 0.87173713 0.79154412
0.67561275 0.86976103 0.79537377
0.71260723 0.87254902 0.7995098
0.74852941 0.86488971 0.79509804
0.78779105 0.85422794 0.78310355
0.81495098 0.82539828 0.7567402
0.9 0.85332414 0.77958027
0.9689951 0.86507353 0.78088235
0.70294118 0.9254902 0.80686275
0.71948529 0.94166667 0.81372549
0.7254902 0.92647059 0.80980392
0.75245098 0.93333333 0.81078431
0.7754902 0.92941176 0.80833333
0.80637255 0.92401961 0.80477941
0.8372549 0.91862745 0.79411765
0.89252451 0.92696078 0.7995098
0.9254902 0.9372549 0.80980392
0.46127451 0.24411765 0.84509804
0.49515931 0.26029412 0.84460784
0.54509804 0.27303922 0.84117647
0.6223652 0.26893382 0.84460784
0.71887255 0.28627451 0.84852941
0.8127451 0.32696078 0.85245098
0.90919118 0.37463235 0.86384804
0.98186275 0.40245098 0.86813725
0.99607843 0.40980392 0.86421569
0.46127451 0.29460784 0.84460784
0.49134498 0.28817402 0.84503676
0.54379596 0.29761029 0.84563419
0.62469363 0.31051624 0.84724265
0.72009804 0.32769608 0.85245098
0.80882353 0.37254902 0.8535769
0.90189951 0.41378676 0.8634038
0.97090227 0.425 0.87549786
0.99607843 0.43235294 0.87640931
0.45477941 0.35502451 0.84460784
0.48002451 0.35856311 0.84552696
0.53333333 0.36841299 0.84181985
0.61685049 0.37981005 0.85036765
0.71127451 0.40833333 0.84852941
0.80571385 0.42841605 0.85765931
0.90098039 0.46911765 0.86372549
0.97008272 0.49411765 0.86813725
0.99705882 0.50404412 0.87169118
0.42941176 0.44558824 0.84068627
0.44675245 0.44411765 0.84068627
0.51487439 0.4627451 0.84117647
0.60147059 0.47156863 0.84460784
0.70186887 0.48765319 0.84803922
0.80164675 0.52401195 0.85245098
0.88909314 0.55410539 0.85819547
0.96519608 0.5790288 0.87156863
0.99215686 0.59019608 0.87156863
0.33088235 0.51446078 0.8370098
0.38039216 0.53161765 0.83483456
0.47205882 0.54344363 0.83829657
0.57509191 0.55784314 0.84068627
0.68970588 0.58112745 0.84852941
0.78946078 0.60392157 0.85245098
0.87941176 0.63670343 0.85637255
0.95759804 0.65343137 0.86764706
0.99215686 0.66323529 0.86813725
0.31617647 0.62941176 0.83284314
0.35 0.62941176 0.83023131
0.41746324 0.62611826 0.83284314
0.51555607 0.63369332 0.83333333
0.63367034 0.64852941 0.83299632
0.76029412 0.67156863 0.84723499
0.86458333 0.71029412 0.8569087
0.94226409 0.72935049 0.86770833
0.99393382 0.7341299 0.87567402
0.44754902 0.75551471 0.84154412
0.47547488 0.75637255 0.84165135
0.5161152 0.75640319 0.8442402
0.57781863 0.75294118 0.84829963
0.64859069 0.74068627 0.84509804
0.72357537 0.74019608 0.84122243
0.83422181 0.77156863 0.8560049
0.93356311 0.79972426 0.86813725
0.98823529 0.80723039 0.87941176
0.59754902 0.86813725 0.86072304
0.60495558 0.86764706 0.86029412
0.64018076 0.86813725 0.86072304
0.68186275 0.86682751 0.86421569
0.73581495 0.86813725 0.86792279
0.80310968 0.87156863 0.87159161
0.86251532 0.86948529 0.87329963
0.91825214 0.86770833 0.87168352
0.98823529 0.88290441 0.88376225
0.74411765 0.95637255 0.88333333
0.70238971 0.9372549 0.87941176
0.73933824 0.94767157 0.88333333
0.77352941 0.94509804 0.88204657
0.80612745 0.94509804 0.88333333
0.84509804 0.94393382 0.8872549
0.87610294 0.93223039 0.87990196
0.9221201 0.94166667 0.87990196
0.95294118 0.93333333 0.88333333
0.62745098 0.38431373 0.94901961
0.62745098 0.39215686 0.93382353
0.66568627 0.40294118 0.94117647
0.71862745 0.40392157 0.93333333
0.78627451 0.42352941 0.93333333
0.85539216 0.45784314 0.93480392
0.92745098 0.50784314 0.9372549
0.98921569 0.55833333 0.94166667
0.99607843 0.55686275 0.9372549
0.61568627 0.41078431 0.9372549
0.63823529 0.41519608 0.94460784
0.66875 0.42169118 0.94117647
0.71832108 0.42892157 0.93333333
0.78063725 0.45 0.93137255
0.84754902 0.47696078 0.92696078
0.92365196 0.52340686 0.93345588
0.98431373 0.56464461 0.94117647
1 0.57205882 0.94117647
0.60882353 0.46078431 0.93431373
0.63382353 0.46862745 0.94031863
0.66176471 0.4747549 0.93333333
0.72438725 0.48970588 0.94301471
0.77745098 0.4995098 0.92941176
0.85392157 0.53137255 0.93688725
0.91862745 0.55416667 0.92769608
0.97352941 0.59595588 0.93737745
0.99313725 0.60686275 0.93823529
0.6 0.53284314 0.92941176
0.61519608 0.53284314 0.93333333
0.65355392 0.54362745 0.93541667
0.71617647 0.55392157 0.93872549
0.77058824 0.56102941 0.92941176
0.84270833 0.58284314 0.92941176
0.91176471 0.60490196 0.92843137
0.97352941 0.64656863 0.9372549
0.99068627 0.64558824 0.9372549
0.54509804 0.59215686 0.93333333
0.56985294 0.59779412 0.92941176
0.61078431 0.59803922 0.9254902
0.67990196 0.61029412 0.93063725
0.76470588 0.62843137 0.93529412
0.8370098 0.64460784 0.93333333
0.90392157 0.66715686 0.93333333
0.96519608 0.69044118 0.93504902
0.99607843 0.69803922 0.93529412
0.45833333 0.65539216 0.91617647
0.51029412 0.66176471 0.93333333
0.54289216 0.65894608 0.92365196
0.62702206 0.67352941 0.9254902
0.71666667 0.68455882 0.9254902
0.81960784 0.70490196 0.93878676
0.88284314 0.7254902 0.92941176
0.95214461 0.74803922 0.92892157
0.99607843 0.74803922 0.92009804
0.52156863 0.76470588 0.92647059
0.5254902 0.75992647 0.91617647
0.57352941 0.75686275 0.9254902
0.60894608 0.75686275 0.93578431
0.67990196 0.75294118 0.92843137
0.77414216 0.76519608 0.93443627
0.86372549 0.78333333 0.93627451
0.94595588 0.81372549 0.94595588
0.9872549 0.81764706 0.92941176
0.61764706 0.87598039 0.94166667
0.62886029 0.87205882 0.94068627
0.64718137 0.86813725 0.93382353
0.68186275 0.87224265 0.93658088
0.72254902 0.86642157 0.91053922
0.77254902 0.86421569 0.94264706
0.83382353 0.85637255 0.94129902
0.91427696 0.87205882 0.94117647
0.99166667 0.90294118 0.95245098
0.70196078 0.96078431 0.94509804
0.70539216 0.95294118 0.94509804
0.71372549 0.94313725 0.93529412
0.74754902 0.95588235 0.94264706
0.78431373 0.9627451 0.95098039
0.82254902 0.95196078 0.94264706
0.88431373 0.95686275 0.92843137
0.92990196 0.9495098 0.9377451
0.96078431 0.96078431 0.94509804
