site/assets/luts/sha256-0de31a701ecae2fe8165c8ad12d7c4f9570223d7b8bd57eb3fdd0ebaa6388d8c.cube
# LUTr-Schema-Version: 2
# LUTr-ID: sha256-0de31a701ecae2fe8165c8ad12d7c4f9570223d7b8bd57eb3fdd0ebaa6388d8c
# LUTr-Title: faded extreme
# LUTr-Collection: Natron HaldCLUT
# LUTr-Collection-ID: natron-haldclut-presets
# LUTr-Source: https://github.com/NatronGitHub/clut
# LUTr-Retrieved: 2026-07-27
# LUTr-Source-File: submissions/natron-haldclut-presets/various/faded_extreme.png
# LUTr-Source-Format: HALD-PNG
# LUTr-Source-SHA256: 0de31a701ecae2fe8165c8ad12d7c4f9570223d7b8bd57eb3fdd0ebaa6388d8c
# LUTr-License: CC-BY-SA-4.0
# LUTr-License-URL: https://github.com/NatronGitHub/clut#license
# LUTr-License-Basis: repo-license-file
# LUTr-Transform-Class: film-emulation
# LUTr-Tags: creative, film, film-emulation, hald-clut, natron, png, vintage, cube
# LUTr-Input-Color-Space: srgb
# LUTr-Input-Gamut: rec709
# LUTr-Input-Transfer: srgb
# LUTr-Output-Color-Space: srgb
# LUTr-Output-Gamut: rec709
# LUTr-Output-Transfer: srgb
# LUTr-Color-Space-Confidence: assumed-display-referred
# LUTr-Domain-Normalized: true
# LUTr-Shaper: none
# LUTr-Original-Grid: 64x64x64
# LUTr-Conversion-Grid: 25x25x25
# LUTr-Conversion-Interpolation: trilinear
# LUTr-Conversion-Method: HALD-PNG LUT image decoded at 16-bit and sampled to 25x25x25 3D CUBE
# LUTr-Conversion-Tool: LUTr scripts/convert-all-to-cube.mjs 2.0.0
# LUTr-Conversion-Date: 2026-07-27
# LUTr-Note: Preserve this metadata and the upstream license notices when redistributing.
TITLE "faded extreme"
LUT_3D_SIZE 25
DOMAIN_MIN 0 0 0
DOMAIN_MAX 1 1 1
0.015686275 0.015686275 0.015686275
0.0093137255 0.0093137255 0.0093137255
0.0029411765 0.0029411765 0.0029411765
0 0 0
0.0039215686 0.0039215686 0.0039215686
0.0044117647 0.0039215686 0.0039215686
0.010784314 0.0078431373 0.0078431373
0.013235294 0.011764706 0.013235294
0.015686275 0.011764706 0.015686275
0.015686275 0.011764706 0.011764706
0.015686275 0.0078431373 0.010784314
0.015686275 0.0078431373 0.0078431373
0.033333333 0.015686275 0.01372549
0.03872549 0.015196078 0.015196078
0.028431373 0.0078431373 0.0049019608
0.046078431 0.0078431373 0.0078431373
0.062745098 0.011764706 0.015686275
0.073039216 0.014215686 0.020588235
0.096078431 0.033333333 0.041176471
0.10980392 0.043627451 0.051470588
0.092156863 0.02745098 0.037254902
0.11127451 0.039705882 0.048039216
0.13039216 0.048039216 0.059803922
0.11617647 0.033823529 0.049509804
0.11372549 0.031372549 0.047058824
0.018137255 0.018137255 0.019607843
0.010845588 0.010845588 0.011764706
0.0029411765 0.0029411765 0.0029411765
0 0 0
0.0051470588 0.0051470588 0.0039215686
0.010784314 0.010294118 0.0081495098
0.015318627 0.011764706 0.011764706
0.018688725 0.012683824 0.015686275
0.022058824 0.011764706 0.015686275
0.022058824 0.011764706 0.011764706
0.021078431 0.010294118 0.011397059
0.022732843 0.012438725 0.010294118
0.040196078 0.020098039 0.020098039
0.055882353 0.025490196 0.025490196
0.049019608 0.015196078 0.015196078
0.053431373 0.013296569 0.013296569
0.062745098 0.0093137255 0.011764706
0.068504902 0.0096813725 0.015686275
0.09129902 0.027328431 0.035784314
0.10998775 0.041176471 0.049019608
0.10710784 0.034068627 0.045098039
0.12352941 0.046568627 0.057843137
0.14264706 0.060294118 0.071446078
0.15980392 0.075 0.086764706
0.17107843 0.08627451 0.098039216
0.020588235 0.020588235 0.023529412
0.014215686 0.014215686 0.017156863
0.0068627451 0.0068627451 0.0068627451
0.0035539216 0.0035539216 0
0.0098039216 0.0073529412 0.0053921569
0.015686275 0.010906863 0.0078431373
0.02254902 0.014705882 0.0125
0.028553922 0.016789216 0.014705882
0.031372549 0.015686275 0.014705882
0.028431373 0.011764706 0.011764706
0.035294118 0.017892157 0.017647059
0.048651961 0.028063725 0.024509804
0.055882353 0.025980392 0.024019608
0.068137255 0.031004902 0.030882353
0.069362745 0.021568627 0.025245098
0.076348039 0.023284314 0.024387255
0.071568627 0.015686275 0.019607843
0.10514706 0.043872549 0.049632353
0.1245098 0.057843137 0.065441176
0.14767157 0.074387255 0.081372549
0.15686275 0.080882353 0.089705882
0.19129902 0.11237745 0.12022059
0.19215686 0.10612745 0.11446078
0.24068627 0.15502451 0.16188725
0.25784314 0.17156863 0.17843137
0.026960784 0.026960784 0.02745098
0.019301471 0.020588235 0.017156863
0.010784314 0.010784314 0.010416667
0.0073529412 0.0069240196 0.0039215686
0.0078431373 0.0039215686 0.0022058824
0.012254902 0.0078431373 0.0039828431
0.029044118 0.018627451 0.014705882
0.029595588 0.014215686 0.010477941
0.031372549 0.011764706 0.011764706
0.055759804 0.034007353 0.03057598
0.072671569 0.048161765 0.044730392
0.07689951 0.046017157 0.042095588
0.071568627 0.032598039 0.029166667
0.09307598 0.050367647 0.046446078
0.12267157 0.072181373 0.069117647
0.14283088 0.087745098 0.085784314
0.15686275 0.098039216 0.098039216
0.17481618 0.11568627 0.11470588
0.1995098 0.13284314 0.13333333
0.22352941 0.15251225 0.15300245
0.22941176 0.15490196 0.15710784
0.26464461 0.18872549 0.18921569
0.27071078 0.18835784 0.18884804
0.29901961 0.21488971 0.21305147
0.33333333 0.24362745 0.24362745
0.031372549 0.033333333 0.02745098
0.029411765 0.029411765 0.024754902
0.018627451 0.018627451 0.016666667
0.020343137 0.018627451 0.016911765
0.028431373 0.023529412 0.018627451
0.026960784 0.018872549 0.014705882
0.054901961 0.043137255 0.035294118
0.071323529 0.054901961 0.045098039
0.084313725 0.064705882 0.054901961
0.10955882 0.084068627 0.073039216
0.12843137 0.097058824 0.085294118
0.14068627 0.10539216 0.09754902
0.14901961 0.10980392 0.10098039
0.17745098 0.13406863 0.1245098
0.19607843 0.14607843 0.13970588
0.22352941 0.16985294 0.16078431
0.23137255 0.17647059 0.16666667
0.2379902 0.17916667 0.17328431
0.26862745 0.20343137 0.19852941
0.28970588 0.21936275 0.21323529
0.31666667 0.24313725 0.2372549
0.33308824 0.25661765 0.24877451
0.33284314 0.25490196 0.24509804
0.34803922 0.26421569 0.25906863
0.41176471 0.31764706 0.31176471
0.035784314 0.043627451 0.024019608
0.050796569 0.054718137 0.041176471
0.074509804 0.074632353 0.062377451
0.084375 0.084436275 0.072610294
0.095588235 0.091666667 0.079411765
0.1028799 0.095465686 0.082291667
0.13039216 0.11948529 0.10379902
0.14558824 0.12892157 0.1127451
0.15637255 0.13627451 0.12009804
0.17481618 0.1473652 0.12873775
0.19901961 0.16715686 0.15110294
0.20294118 0.16715686 0.15496324
0.22965686 0.19019608 0.17794118
0.26317402 0.21954657 0.20428922
0.2622549 0.21482843 0.2
0.27279412 0.21819853 0.20435049
0.31421569 0.25882353 0.24264706
0.32530637 0.2627451 0.25030637
0.33958333 0.2745098 0.25968137
0.34601716 0.27585784 0.26317402
0.39362745 0.32083333 0.30686275
0.41819853 0.33976716 0.32401961
0.42120098 0.34105392 0.32401961
0.42708333 0.34344363 0.32726716
0.47009804 0.37598039 0.36372549
0.094117647 0.10196078 0.078431373
0.11237745 0.11740196 0.09375
0.13333333 0.13651961 0.11397059
0.15269608 0.15306373 0.13051471
0.16764706 0.16372549 0.14117647
0.17365196 0.16580882 0.1432598
0.18897059 0.17818627 0.15490196
0.20735294 0.19166667 0.16911765
0.2245098 0.20490196 0.17843137
0.25147059 0.22487745 0.19840686
0.26936275 0.2370098 0.21372549
0.28823529 0.24938725 0.23039216
0.31176471 0.26960784 0.25
0.33137255 0.28480392 0.2622549
0.33259804 0.28259804 0.25612745
0.36090686 0.30784314 0.28284314
0.38823529 0.32941176 0.30686275
0.39656863 0.33137255 0.31176471
0.41519608 0.34558824 0.32598039
0.44166667 0.3685049 0.34901961
0.4627451 0.38676471 0.36568627
0.47009804 0.39252451 0.3689951
0.47941176 0.40122549 0.3754902
0.50490196 0.42107843 0.39460784
0.53529412 0.44411765 0.41862745
0.175 0.17892157 0.15
0.18621324 0.19405637 0.16121324
0.18713235 0.19007353 0.16115196
0.21911765 0.21911765 0.18627451
0.23431373 0.22647059 0.19607843
0.24675245 0.23890931 0.20606618
0.27254902 0.25894608 0.225
0.28143382 0.26666667 0.23082108
0.29803922 0.27843137 0.24558824
0.32984069 0.30386029 0.26917892
0.35306373 0.32169118 0.28823529
0.37555147 0.33811275 0.30526961
0.38137255 0.33823529 0.30857843
0.39675245 0.34938725 0.31654412
0.41629902 0.36421569 0.32892157
0.44993873 0.39748775 0.36072304
0.47058824 0.41568627 0.37892157
0.47542892 0.41170343 0.38039216
0.48210784 0.41544118 0.38443627
0.50949755 0.43890931 0.40637255
0.52058824 0.44558824 0.41519608
0.52696078 0.44981618 0.41550245
0.55637255 0.47610294 0.43970588
0.58033088 0.49650735 0.45882353
0.59705882 0.50833333 0.47009804
0.24705882 0.25882353 0.21568627
0.25098039 0.25882353 0.21960784
0.26470588 0.26764706 0.22843137
0.28529412 0.28186275 0.24264706
0.29411765 0.28235294 0.24313725
0.31911765 0.31078431 0.26764706
0.34019608 0.32843137 0.28529412
0.36764706 0.3504902 0.30735294
0.38823529 0.36470588 0.32156863
0.40882353 0.38529412 0.34215686
0.43823529 0.40980392 0.36666667
0.4372549 0.39901961 0.35931373
0.43921569 0.39607843 0.35686275
0.47990196 0.43284314 0.39362745
0.50784314 0.45686275 0.41764706
0.53235294 0.47745098 0.43431373
0.55294118 0.49411765 0.45098039
0.56470588 0.50588235 0.46127451
0.56862745 0.50196078 0.45882353
0.57598039 0.50539216 0.4622549
0.59215686 0.51764706 0.4745098
0.6122549 0.53382353 0.49068627
0.62941176 0.55098039 0.50490196
0.65392157 0.57009804 0.52303922
0.66666667 0.58039216 0.53333333
0.31666667 0.32696078 0.27892157
0.31121324 0.32297794 0.27591912
0.3252451 0.32879902 0.27928922
0.36176471 0.36047794 0.31096814
0.38553922 0.38014706 0.32990196
0.39393382 0.38823529 0.33480392
0.42242647 0.41066176 0.36078431
0.44852941 0.434375 0.38094363
0.45882353 0.43676471 0.38578431
0.47689951 0.4533701 0.40085784
0.50208333 0.47254902 0.42303922
0.50772059 0.47322304 0.42322304
0.51372549 0.47426471 0.4247549
0.54852941 0.50490196 0.45539216
0.57990196 0.53223039 0.47941176
0.60496324 0.55343137 0.5
0.62254902 0.56764706 0.51666667
0.63223039 0.57487745 0.52052696
0.62892157 0.56519608 0.51237745
0.64166667 0.57352941 0.5213848
0.67598039 0.60392157 0.5504902
0.6903799 0.61568627 0.5622549
0.70330882 0.62303922 0.57205882
0.72843137 0.64607843 0.59264706
0.74264706 0.66029412 0.60539216
0.37843137 0.39411765 0.33823529
0.3879902 0.39901961 0.34203431
0.43186275 0.4379902 0.38137255
0.46090686 0.46139706 0.40514706
0.46813725 0.46519608 0.40539216
0.47169118 0.46470588 0.40490196
0.49681373 0.48897059 0.42843137
0.52536765 0.51029412 0.45232843
0.53039216 0.51078431 0.45490196
0.51985294 0.49240196 0.43357843
0.56568627 0.5375 0.47916667
0.58370098 0.55281863 0.49387255
0.59705882 0.56176471 0.50245098
0.62745098 0.58431373 0.5245098
0.64803922 0.60098039 0.54117647
0.67365196 0.62487745 0.56323529
0.69313725 0.63823529 0.57843137
0.69448529 0.63713235 0.57438725
0.68970588 0.62696078 0.56323529
0.70796569 0.64166667 0.5814951
0.73284314 0.66078431 0.60098039
0.75465686 0.68002451 0.62120098
0.77794118 0.69901961 0.63995098
0.80625 0.72352941 0.66470588
0.81862745 0.73235294 0.67352941
0.44754902 0.46323529 0.39705882
0.45539216 0.46715686 0.40098039
0.48210784 0.49276961 0.42659314
0.51519608 0.51868873 0.45251225
0.52671569 0.52647059 0.45661765
0.52953431 0.52604167 0.45551471
0.55992647 0.5495098 0.47941176
0.59528186 0.5786152 0.51194853
0.5995098 0.57647059 0.50980392
0.62941176 0.60196078 0.53578431
0.65857843 0.63014706 0.56139706
0.65539216 0.6245098 0.55784314
0.66740196 0.63235294 0.56568627
0.69528186 0.65257353 0.58547794
0.71666667 0.67303922 0.60294118
0.73872549 0.69362745 0.62352941
0.74656863 0.69558824 0.62941176
0.76734069 0.71213235 0.64564951
0.78480392 0.72193627 0.65183824
0.79160539 0.72193627 0.65484069
0.80392157 0.73137255 0.66519608
0.82408088 0.75257353 0.68639706
0.85245098 0.77745098 0.70784314
0.88057598 0.79803922 0.73186275
0.8872549 0.80441176 0.73823529
0.52352941 0.53529412 0.4627451
0.5377451 0.5495098 0.47696078
0.55833333 0.56617647 0.49117647
0.57009804 0.57426471 0.49779412
0.58431373 0.58529412 0.50784314
0.60539216 0.60465686 0.5247549
0.6377451 0.63039216 0.55343137
0.67083333 0.65514706 0.57867647
0.68823529 0.66862745 0.59215686
0.71397059 0.69044118 0.61397059
0.72892157 0.69901961 0.62352941
0.72377451 0.69264706 0.61789216
0.73333333 0.69803922 0.62156863
0.74877451 0.70563725 0.62916667
0.78333333 0.74019608 0.66372549
0.80563725 0.76176471 0.68529412
0.80980392 0.75882353 0.68235294
0.83186275 0.7745098 0.69803922
0.8754902 0.81176471 0.73137255
0.88088235 0.81053922 0.73382353
0.88529412 0.81078431 0.73823529
0.91470588 0.84583333 0.76740196
0.92745098 0.85539216 0.77696078
0.94264706 0.86421569 0.78504902
0.94705882 0.87254902 0.79215686
0.57696078 0.59607843 0.50588235
0.60802696 0.62285539 0.53480392
0.6502451 0.65453431 0.57046569
0.65833333 0.6622549 0.57591912
0.66617647 0.66617647 0.57745098
0.67892157 0.675 0.58523284
0.7060049 0.69901961 0.6127451
0.73265931 0.71942402 0.63284314
0.75539216 0.73627451 0.6495098
0.77254902 0.75294118 0.66372549
0.79215686 0.76335784 0.67696078
0.79558824 0.76372549 0.67745098
0.80931373 0.77034314 0.68553922
0.82892157 0.78670343 0.70294118
0.86678922 0.8245098 0.73823529
0.8723652 0.82794118 0.74479167
0.89068627 0.83921569 0.75637255
0.91979167 0.85833333 0.7754902
0.94522059 0.88247549 0.79607843
0.9528799 0.88970588 0.80686275
0.94730392 0.89215686 0.81176471
0.95876225 0.89148284 0.80618873
0.96862745 0.91164216 0.83284314
0.98302696 0.94221814 0.85606618
0.98578431 0.96078431 0.87058824
0.66666667 0.68235294 0.58823529
0.69264706 0.70539216 0.61127451
0.72034314 0.73039216 0.6370098
0.72009804 0.72438725 0.62818627
0.73431373 0.73578431 0.64019608
0.75098039 0.74963235 0.6564951
0.77156863 0.76446078 0.67352941
0.78921569 0.77990196 0.68468137
0.80686275 0.79411765 0.69705882
0.83321078 0.81470588 0.71666667
0.8502451 0.82254902 0.72769608
0.86678922 0.8314951 0.73835784
0.87990196 0.84215686 0.74901961
0.90526961 0.86262255 0.76936275
0.94338235 0.90318627 0.80857843
0.9245098 0.88284314 0.78970588
0.95686275 0.90882353 0.81568627
0.97683824 0.9247549 0.83455882
0.98921569 0.94289216 0.85637255
0.99877451 0.95343137 0.87291667
0.99411765 0.9754902 0.89264706
0.99178922 0.98198529 0.90477941
0.98382353 0.9620098 0.90563725
0.99362745 0.98627451 0.92745098
0.99607843 0.99215686 0.93235294
0.75147059 0.75931373 0.66372549
0.77058824 0.78235294 0.68284314
0.79509804 0.80686275 0.70343137
0.8064951 0.81482843 0.71139706
0.81838235 0.82034314 0.71764706
0.83756127 0.83363971 0.7341299
0.85110294 0.84607843 0.74803922
0.86121324 0.85098039 0.74993873
0.86911765 0.85735294 0.75931373
0.89852941 0.88431373 0.78535539
0.92316176 0.90220588 0.80269608
0.94019608 0.91813725 0.81881127
0.95220588 0.92696078 0.82965686
0.97352941 0.9495098 0.85900735
0.98664216 0.96495098 0.87058824
0.99332108 0.97034314 0.87757353
0.97794118 0.95343137 0.8754902
0.98431373 0.97107843 0.89522059
0.99571078 0.99313725 0.92107843
0.99430147 0.97585784 0.92843137
0.99534314 0.99289216 0.94583333
0.99607843 0.99607843 0.95
0.99276961 0.9942402 0.96531863
0.99215686 0.99362745 0.97990196
0.99215686 0.99362745 0.97843137
0.81960784 0.83137255 0.7254902
0.83088235 0.84264706 0.73431373
0.85490196 0.86666667 0.75686275
0.85490196 0.86666667 0.75294118
0.88627451 0.89019608 0.78627451
0.90735294 0.90343137 0.80882353
0.93823529 0.93039216 0.8254902
0.94754902 0.93578431 0.83284314
0.94117647 0.92941176 0.83137255
0.95392157 0.94215686 0.83627451
0.9745098 0.96176471 0.86176471
0.9877451 0.97598039 0.88529412
1 0.98431373 0.90588235
0.99607843 0.98431373 0.92205882
0.99313725 0.98137255 0.92843137
0.99215686 0.98039216 0.92941176
0.98823529 0.98039216 0.94117647
0.98431373 0.98529412 0.95
0.98823529 0.98823529 0.95784314
0.98823529 0.99215686 0.97156863
0.99215686 0.99215686 0.98431373
0.99215686 0.99607843 0.98088235
0.99215686 0.99607843 0.99117647
0.99215686 0.99607843 0.99215686
0.99215686 0.99607843 0.99215686
0.8877451 0.8995098 0.7872549
0.88321078 0.89497549 0.78272059
0.94620098 0.95772059 0.8442402
0.96470588 0.96930147 0.85931373
0.97009804 0.96887255 0.86862745
0.9658701 0.96164216 0.87665441
0.97904412 0.97071078 0.88933824
0.98376225 0.97444853 0.90245098
0.97892157 0.96960784 0.90343137
0.98382353 0.97506127 0.91231618
0.98566176 0.97745098 0.91838235
0.99166667 0.98235294 0.93284314
0.99607843 0.9875 0.95612745
0.99607843 0.98823529 0.97775735
0.99313725 0.98676471 0.97941176
0.98823529 0.98431373 0.97058824
0.98431373 0.98431373 0.97745098
0.98039216 0.98584559 0.98376225
0.98247549 0.98529412 0.98223039
0.9877451 0.98823529 0.98039216
0.99019608 0.99215686 0.98627451
0.99215686 0.99607843 0.99215686
0.99215686 0.99607843 0.9939951
0.99215686 0.99607843 0.99215686
0.99215686 0.99607843 0.99215686
0.9754902 0.98137255 0.88333333
0.97904412 0.98235294 0.88137255
0.98333333 0.9877451 0.90490196
0.98811275 0.98823529 0.9182598
0.98823529 0.9877451 0.9245098
0.98492647 0.98223039 0.93088235
0.9875 0.98210784 0.94117647
0.99031863 0.98566176 0.95539216
0.99313725 0.98921569 0.97254902
0.99889706 0.99497549 0.99632353
0.99607843 0.99215686 0.99215686
0.99252451 0.98835784 0.98186275
0.99215686 0.98823529 0.98431373
0.99080882 0.98688725 0.9872549
0.9872549 0.98431373 0.98431373
0.98223039 0.98431373 0.98039216
0.98039216 0.98529412 0.98431373
0.98492647 0.99105392 0.98713235
0.98112745 0.9872549 0.98333333
0.98333333 0.9872549 0.98039216
0.9877451 0.98970588 0.98627451
0.99264706 0.99264706 0.99264706
0.99607843 0.99607843 0.99705882
0.99607843 0.99607843 0.99607843
0.99215686 0.99509804 0.99509804
0.99607843 1 0.92745098
1 1 0.93970588
0.99595588 0.99595588 0.96029412
0.99172794 0.99172794 0.96660539
0.9879902 0.98627451 0.96862745
0.99258578 0.99215686 0.97935049
0.99558824 0.99558824 0.99007353
0.99607843 0.99430147 0.99117647
0.99607843 0.99558824 0.99215686
0.99607843 0.99234069 0.99607843
0.99607843 0.99252451 0.99595588
0.99264706 0.99172794 0.98866422
0.98995098 0.9879902 0.98406863
0.98088235 0.98431373 0.97996324
0.97781863 0.98431373 0.97696078
0.97432598 0.98431373 0.97432598
0.98039216 0.98823529 0.98088235
0.9846201 0.99215686 0.98480392
0.97953431 0.9872549 0.97953431
0.97696078 0.98431373 0.97647059
0.98455882 0.98823529 0.98259804
0.99215686 0.99221814 0.99264706
0.99607843 0.99607843 0.99656863
0.99215686 0.99215686 0.99246324
0.99215686 0.99215686 0.98872549
0.99607843 0.99607843 0.97058824
0.99607843 0.99730392 0.98014706
0.99558824 0.99558824 0.98431373
0.99044118 0.99044118 0.98088235
0.98627451 0.98529412 0.97843137
0.99044118 0.99044118 0.98823529
0.99509804 0.99509804 0.99215686
0.99607843 0.99607843 0.99607843
0.99607843 0.99215686 0.99607843
0.99019608 0.98897059 0.98897059
0.99264706 0.99068627 0.99215686
0.99607843 0.99411765 0.99411765
0.99019608 0.99117647 0.98921569
0.98210784 0.98602941 0.98014706
0.97352941 0.98137255 0.97303922
0.97254902 0.98112745 0.97254902
0.97647059 0.98431373 0.97647059
0.97916667 0.98431373 0.97843137
0.9754902 0.98186275 0.97401961
0.97598039 0.98210784 0.97598039
0.98235294 0.98627451 0.98235294
0.99215686 0.99215686 0.99215686
0.99019608 0.99019608 0.99068627
0.98823529 0.98823529 0.9875
0.98627451 0.98627451 0.98431373
0.99607843 0.99607843 0.98088235
0.99344363 0.99344363 0.98431373
0.9877451 0.9877451 0.98039216
0.98382353 0.98382353 0.97996324
0.98014706 0.98014706 0.97843137
0.98480392 0.98480392 0.98480392
0.99203431 0.99117647 0.99117647
0.99558824 0.99558824 0.9973652
0.99166667 0.99166667 0.99215686
0.98400735 0.98400735 0.98400735
0.98382353 0.98382353 0.98394608
0.99117647 0.99117647 0.99117647
0.99191176 0.99191176 0.99019608
0.98382353 0.9877451 0.98382353
0.97659314 0.98137255 0.97659314
0.97647059 0.97892157 0.97518382
0.97647059 0.97647059 0.97598039
0.97647059 0.97647059 0.97628676
0.97696078 0.98051471 0.97659314
0.98082108 0.98474265 0.98039216
0.98651961 0.98848039 0.98651961
0.98817402 0.99117647 0.98817402
0.98394608 0.98480392 0.98394608
0.98382353 0.98382353 0.98039216
0.98431373 0.98431373 0.98088235
0.99607843 0.99607843 0.99117647
0.98970588 0.98970588 0.98762255
0.98357843 0.98357843 0.98406863
0.98333333 0.98333333 0.98333333
0.98039216 0.98039216 0.98039216
0.9817402 0.9817402 0.9817402
0.98823529 0.98823529 0.98897059
0.99215686 0.99215686 0.99252451
0.98823529 0.98823529 0.98921569
0.98186275 0.98186275 0.98186275
0.97745098 0.97745098 0.97745098
0.98517157 0.98517157 0.98517157
0.98529412 0.98529412 0.98529412
0.98419118 0.98431373 0.98419118
0.98039216 0.98063725 0.98039216
0.98002451 0.97647059 0.97647059
0.97647059 0.97254902 0.9754902
0.98002451 0.97647059 0.97647059
0.98357843 0.98137255 0.98112745
0.9872549 0.98811275 0.9872549
0.99166667 0.99215686 0.99166667
0.98382353 0.98468137 0.98394608
0.97671569 0.97671569 0.97745098
0.9814951 0.9814951 0.9814951
0.98823529 0.98823529 0.9872549
0.99607843 0.99607843 0.99607843
0.99215686 0.99215686 0.99270833
0.98970588 0.98970588 0.98970588
0.98970588 0.98970588 0.98970588
0.98970588 0.98897059 0.98897059
0.98560049 0.98560049 0.98560049
0.98431373 0.98431373 0.98223039
0.98584559 0.98584559 0.98376225
0.98431373 0.98431373 0.98431373
0.98431373 0.98431373 0.98670343
0.9807598 0.9807598 0.98431373
0.98057598 0.98057598 0.98431373
0.98112745 0.98039216 0.98112745
0.98431373 0.98039216 0.98431373
0.98431373 0.98039216 0.98431373
0.98339461 0.97647059 0.98039216
0.98039216 0.97647059 0.97794118
0.98039216 0.97647059 0.98039216
0.98529412 0.98137255 0.98529412
0.99185049 0.99166667 0.99185049
0.99019608 0.99019608 0.99019608
0.97990196 0.97990196 0.98382353
0.97365196 0.97365196 0.97647059
0.98333333 0.98333333 0.98578431
0.99362745 0.99362745 0.99362745
0.99215686 0.99215686 0.99607843
0.99215686 0.99215686 0.99215686
0.99607843 0.99607843 0.99607843
0.9995098 0.9995098 1
0.99607843 0.99411765 0.99411765
0.99166667 0.98823529 0.98823529
0.98529412 0.98431373 0.98137255
0.98039216 0.98039216 0.97794118
0.98431373 0.98431373 0.98431373
0.98431373 0.98431373 0.98823529
0.98431373 0.98431373 0.98823529
0.98431373 0.98088235 0.98431373
0.98431373 0.98039216 0.98431373
0.98823529 0.98039216 0.98823529
0.98823529 0.98039216 0.98823529
0.98431373 0.98039216 0.98431373
0.98431373 0.97647059 0.98039216
0.98039216 0.97647059 0.98039216
0.98529412 0.98431373 0.98529412
0.99215686 0.99166667 0.99215686
0.99019608 0.99019608 0.99019608
0.97990196 0.97990196 0.98382353
0.97647059 0.97647059 0.97941176
0.98578431 0.98578431 0.98578431
0.99607843 0.99607843 0.99607843
0.011764706 0.011764706 0.011764706
0.0089460784 0.0089460784 0.0089460784
0 0 0
0.0034313725 0.0034313725 0.0021446078
0.0039215686 0.0026960784 0.0014705882
0.0039215686 0.0039215686 0.0039215686
0.010784314 0.0072303922 0.0078431373
0.015686275 0.011764706 0.012316176
0.015686275 0.011764706 0.013235294
0.015686275 0.0078431373 0.012316176
0.016053922 0.0078431373 0.011764706
0.025183824 0.01127451 0.013909314
0.045588235 0.022794118 0.022794118
0.044607843 0.018933824 0.017340686
0.02622549 0.0049019608 0.0015931373
0.042156863 0.0093137255 0.0093137255
0.062745098 0.015686275 0.019607843
0.074509804 0.021078431 0.025919118
0.089705882 0.030269608 0.035906863
0.10557598 0.040686275 0.048529412
0.10294118 0.033823529 0.044117647
0.10870098 0.03370098 0.04564951
0.11556373 0.033210784 0.048529412
0.12401961 0.041666667 0.056433824
0.12401961 0.039215686 0.054901961
0.014767157 0.014767157 0.015686275
0.0098651961 0.0098651961 0.011971507
0.003783701 0.003783701 0.003783701
0.0038526348 0.0038526348 0.0037377451
0.0075980392 0.0066789216 0.0059129902
0.010363051 0.0073452819 0.0070389093
0.015318627 0.011397059 0.011397059
0.021139706 0.014767157 0.015111826
0.024509804 0.015134804 0.017218137
0.020182292 0.010232843 0.012316176
0.022058824 0.010294118 0.011764706
0.030200674 0.014836091 0.016727941
0.050490196 0.025704657 0.025245098
0.06126685 0.029771752 0.028362439
0.054564951 0.022181373 0.020327819
0.060952819 0.019692096 0.020818015
0.069730392 0.019669118 0.023590686
0.090257353 0.033823529 0.04051777
0.10646446 0.04463848 0.052251838
0.12303922 0.054411765 0.06305913
0.12322304 0.048529412 0.060018382
0.13200061 0.054051777 0.065931373
0.14016544 0.057123162 0.069439338
0.17099418 0.085638787 0.097954963
0.18529412 0.099019608 0.1122549
0.020588235 0.020588235 0.024509804
0.015364583 0.015364583 0.017156863
