site/assets/luts/sha256-72d572692e76abd699c3247a2caabb856c43eee1ef261e87d74c6e345a4d41e9.cube
# LUTr-Schema-Version: 2
# LUTr-ID: sha256-72d572692e76abd699c3247a2caabb856c43eee1ef261e87d74c6e345a4d41e9
# LUTr-Title: polaroid px-100uv+ warm --
# LUTr-Collection: Natron HaldCLUT
# LUTr-Collection-ID: natron-haldclut-presets
# LUTr-Source: https://github.com/NatronGitHub/clut
# LUTr-Retrieved: 2026-07-27
# LUTr-Source-File: submissions/natron-haldclut-presets/instant_consumer/polaroid_px-100uv+_warm_--.png
# LUTr-Source-Format: HALD-PNG
# LUTr-Source-SHA256: 72d572692e76abd699c3247a2caabb856c43eee1ef261e87d74c6e345a4d41e9
# LUTr-License: CC-BY-SA-4.0
# LUTr-License-URL: https://github.com/NatronGitHub/clut#license
# LUTr-License-Basis: repo-license-file
# LUTr-Transform-Class: film-emulation
# LUTr-Tags: creative, film, film-emulation, hald-clut, natron, png, warm, cube
# LUTr-Input-Color-Space: srgb
# LUTr-Input-Gamut: rec709
# LUTr-Input-Transfer: srgb
# LUTr-Output-Color-Space: srgb
# LUTr-Output-Gamut: rec709
# LUTr-Output-Transfer: srgb
# LUTr-Color-Space-Confidence: assumed-display-referred
# LUTr-Domain-Normalized: true
# LUTr-Shaper: none
# LUTr-Original-Grid: 64x64x64
# LUTr-Conversion-Grid: 25x25x25
# LUTr-Conversion-Interpolation: trilinear
# LUTr-Conversion-Method: HALD-PNG LUT image decoded at 16-bit and sampled to 25x25x25 3D CUBE
# LUTr-Conversion-Tool: LUTr scripts/convert-all-to-cube.mjs 2.0.0
# LUTr-Conversion-Date: 2026-07-27
# LUTr-Note: Preserve this metadata and the upstream license notices when redistributing.
TITLE "polaroid px-100uv+ warm --"
LUT_3D_SIZE 25
DOMAIN_MIN 0 0 0
DOMAIN_MAX 1 1 1
0.0039215686 0.0078431373 0.019607843
0.0088235294 0.012745098 0.024509804
0.037254902 0.037254902 0.046078431
0.061764706 0.061764706 0.069607843
0.082352941 0.078431373 0.08627451
0.10686275 0.099019608 0.10686275
0.13137255 0.11960784 0.12745098
0.15637255 0.14313725 0.14705882
0.20392157 0.18823529 0.19215686
0.24901961 0.23333333 0.23578431
0.29411765 0.27843137 0.27843137
0.33921569 0.31960784 0.32303922
0.38431373 0.36470588 0.36470588
0.4127451 0.39313725 0.38970588
0.43333333 0.41372549 0.41372549
0.45784314 0.43823529 0.43431373
0.47843137 0.45882353 0.45490196
0.49901961 0.47941176 0.4754902
0.51960784 0.5 0.49509804
0.54019608 0.52058824 0.5127451
0.56078431 0.54117647 0.53333333
0.58137255 0.56176471 0.55392157
0.60196078 0.58235294 0.57352941
0.62254902 0.60686275 0.59362745
0.63921569 0.61960784 0.60784314
0.016666667 0.016666667 0.028431373
0.019117647 0.022487745 0.032414216
0.039093137 0.039093137 0.04754902
0.059129902 0.057843137 0.065686275
0.074019608 0.072058824 0.079166667
0.097058824 0.090502451 0.096752451
0.12585784 0.11691176 0.12291667
0.16764706 0.15343137 0.15735294
0.20784314 0.19215686 0.19607843
0.25238971 0.23670343 0.2372549
0.29803922 0.27904412 0.28235294
0.34295343 0.32352941 0.32352941
0.38431373 0.36470588 0.36470588
0.4127451 0.39313725 0.39313725
0.43333333 0.41372549 0.41372549
0.45539216 0.43670343 0.43431373
0.47843137 0.45882353 0.45490196
0.49901961 0.47941176 0.4754902
0.51960784 0.5 0.49509804
0.53805147 0.52058824 0.5127451
0.55808824 0.54117647 0.53333333
0.58137255 0.56176471 0.55392157
0.60196078 0.58590686 0.5745098
0.62254902 0.60686275 0.59509804
0.63921569 0.62352941 0.60784314
0.033333333 0.032352941 0.044117647
0.043627451 0.043259804 0.053308824
0.057843137 0.053921569 0.065686275
0.067279412 0.063357843 0.072426471
0.071568627 0.067647059 0.075490196
0.082107843 0.078186275 0.085661765
0.12867647 0.12083333 0.1254902
0.1745098 0.16164216 0.16556373
0.21568627 0.2 0.2
0.25686275 0.2372549 0.24117647
0.29901961 0.27941176 0.28235294
0.3439951 0.32696078 0.32696078
0.38676471 0.36862745 0.36862745
0.41666667 0.39705882 0.39705882
0.4372549 0.41764706 0.41544118
0.45784314 0.43823529 0.43431373
0.47843137 0.45882353 0.45490196
0.49901961 0.47941176 0.4754902
0.51960784 0.5 0.49313725
0.54019608 0.52058824 0.51372549
0.56078431 0.54215686 0.53431373
0.58272059 0.56580882 0.55526961
0.60588235 0.58946078 0.57843137
0.62647059 0.61078431 0.59791667
0.64313725 0.6245098 0.61176471
0.046568627 0.046568627 0.054411765
0.06060049 0.056862745 0.068443627
0.075857843 0.071078431 0.082352941
0.088296569 0.080943627 0.088786765
0.090931373 0.085294118 0.093137255
0.10539216 0.10104167 0.10582108
0.14105392 0.13235294 0.13713235
0.18186275 0.16862745 0.17126225
0.21568627 0.2 0.2
0.25686275 0.2372549 0.2372549
0.30159314 0.28235294 0.28235294
0.34699755 0.32738971 0.32745098
0.38823529 0.37034314 0.37034314
0.42015931 0.40055147 0.4004902
0.44068627 0.42107843 0.41764706
0.45784314 0.43823529 0.43823529
0.47843137 0.45882353 0.45490196
0.49901961 0.47941176 0.4754902
0.52046569 0.50343137 0.49607843
0.54362745 0.5245098 0.51666667
0.56470588 0.54852941 0.53897059
0.58872549 0.56960784 0.56127451
0.60980392 0.59362745 0.58186275
0.63039216 0.61452206 0.60245098
0.64656863 0.63088235 0.61568627
0.064705882 0.060784314 0.07254902
0.080147059 0.074264706 0.084803922
0.091666667 0.085294118 0.093137255
0.10514706 0.097303922 0.10514706
0.11960784 0.1127451 0.11960784
0.14460784 0.13627451 0.14019608
0.1754902 0.16372549 0.16470588
0.20098039 0.18529412 0.1872549
0.22156863 0.20392157 0.20392157
0.25882353 0.23921569 0.23921569
0.30490196 0.28480392 0.28676471
0.35073529 0.33112745 0.33112745
0.39215686 0.37254902 0.37254902
0.42058824 0.40098039 0.40098039
0.44117647 0.42156863 0.41862745
0.45784314 0.43823529 0.43676471
0.47843137 0.45882353 0.45686275
0.50220588 0.48259804 0.47941176
0.52352941 0.50392157 0.5
0.54583333 0.52818627 0.52058824
0.56862745 0.55196078 0.54313725
0.59313725 0.5754902 0.56568627
0.61568627 0.59803922 0.58627451
0.63627451 0.62058824 0.60686275
0.65294118 0.6372549 0.62156863
0.11617647 0.10833333 0.11960784
0.11746324 0.1096201 0.11960784
0.11102941 0.10318627 0.11090686
0.12561275 0.11776961 0.12512255
0.15245098 0.14240196 0.14632353
0.17941176 0.16758578 0.17107843
0.20637255 0.19166667 0.19509804
0.22794118 0.2122549 0.2122549
0.24852941 0.22892157 0.22892157
0.27518382 0.25539216 0.25539216
0.31409314 0.29105392 0.29191176
0.35490196 0.33529412 0.33529412
0.39019608 0.37009804 0.37009804
0.42009804 0.39705882 0.39705882
0.43811275 0.41764706 0.41727941
0.45784314 0.43823529 0.43449755
0.48235294 0.4627451 0.45882353
0.50324755 0.48363971 0.47990196
0.52745098 0.50784314 0.50392157
0.54803922 0.52886029 0.5245098
0.57254902 0.55318627 0.54534314
0.59705882 0.57794118 0.56960784
0.62071078 0.60232843 0.59056373
0.64264706 0.62665441 0.61127451
0.65931373 0.64362745 0.62794118
0.16372549 0.15588235 0.16372549
0.16409314 0.15404412 0.16078431
0.16372549 0.15294118 0.15980392
0.16727941 0.1567402 0.16066176
0.18137255 0.17009804 0.17352941
0.20723039 0.19460784 0.19803922
0.23431373 0.21936275 0.22181373
0.25882353 0.23921569 0.24019608
0.27941176 0.25980392 0.25980392
0.30245098 0.2810049 0.2810049
0.33039216 0.30906863 0.30931373
0.35833333 0.33872549 0.33872549
0.38627451 0.36519608 0.36519608
0.41409314 0.39313725 0.39313725
0.4372549 0.41372549 0.41372549
0.45931373 0.43823529 0.43762255
0.48235294 0.4627451 0.46176471
0.50686275 0.4872549 0.48333333
0.52818627 0.51078431 0.50686275
0.55183824 0.53235294 0.52745098
0.57401961 0.55686275 0.54901961
0.59742647 0.58137255 0.56997549
0.62156863 0.60563725 0.59411765
0.64607843 0.63039216 0.61580882
0.66960784 0.65392157 0.63823529
0.21127451 0.1995098 0.20588235
0.21035539 0.1995098 0.20588235
0.21127451 0.20012255 0.20343137
0.21372549 0.20196078 0.20588235
0.21960784 0.20784314 0.21176471
0.23676471 0.225 0.225
0.26311275 0.24558824 0.24803922
0.28578431 0.26862745 0.26954657
0.30637255 0.28676471 0.28676471
0.32849265 0.30735294 0.3088848
0.35392157 0.33247549 0.33247549
0.37794118 0.35490196 0.35490196
0.39705882 0.3754902 0.3754902
0.41550245 0.39215686 0.39215686
0.4377451 0.41482843 0.41421569
0.46231618 0.440625 0.43970588
0.48627451 0.46666667 0.46421569
0.5098652 0.49025735 0.4872549
0.53137255 0.51176471 0.50784314
0.55196078 0.53578431 0.52843137
0.57647059 0.55686275 0.54901961
0.5973652 0.58137255 0.57205882
0.62156863 0.60490196 0.59411765
0.64607843 0.62947304 0.61470588
0.66666667 0.65098039 0.63529412
0.25490196 0.24313725 0.24705882
0.25490196 0.24313725 0.24705882
0.25882353 0.24411765 0.24803922
0.25882353 0.24705882 0.25098039
0.26470588 0.25098039 0.25294118
0.275 0.25931373 0.25980392
0.29215686 0.27647059 0.27647059
0.3127451 0.29558824 0.29705882
0.33333333 0.31372549 0.31372549
0.35392157 0.33431373 0.33431373
0.37843137 0.35490196 0.35490196
0.39901961 0.3754902 0.3754902
0.41764706 0.39411765 0.39411765
0.43235294 0.40882353 0.40882353
0.44901961 0.4254902 0.4254902
0.46960784 0.44607843 0.44607843
0.49019608 0.47058824 0.47058824
0.51078431 0.49117647 0.49117647
0.53137255 0.5127451 0.51176471
0.55539216 0.53627451 0.53235294
0.57254902 0.55686275 0.54901961
0.59705882 0.58137255 0.56960784
0.62156863 0.60490196 0.59411765
0.64607843 0.63039216 0.61617647
0.66666667 0.65098039 0.63921569
0.29607843 0.28039216 0.28431373
0.29761029 0.28339461 0.28676471
0.30453431 0.28921569 0.29215686
0.30422794 0.2908701 0.29215686
0.30784314 0.29215686 0.29411765
0.3122549 0.29656863 0.30018382
0.32365196 0.30796569 0.30833333
0.33970588 0.32101716 0.32310049
0.35784314 0.33823529 0.34068627
0.38088235 0.35882353 0.35974265
0.40085784 0.37941176 0.37941176
0.41960784 0.39656863 0.39656863
0.43504902 0.41348039 0.4122549
0.44871324 0.42677696 0.42518382
0.46384804 0.44215686 0.44031863
0.47990196 0.45974265 0.45882353
0.49656863 0.47696078 0.47696078
0.51470588 0.49509804 0.49509804
0.53529412 0.51568627 0.51176471
0.55245098 0.53627451 0.53020833
0.57254902 0.55441176 0.54901961
0.59705882 0.5776348 0.56960784
0.62095588 0.60306373 0.59129902
0.64607843 0.62886029 0.61525735
0.66421569 0.64852941 0.63284314
0.33333333 0.32058824 0.32156863
0.33970588 0.32401961 0.32732843
0.34901961 0.33039216 0.33333333
0.34901961 0.33247549 0.33333333
0.34901961 0.33284314 0.33333333
0.35294118 0.33627451 0.33639706
0.35661765 0.33946078 0.34019608
0.3685049 0.3495098 0.3495098
0.38627451 0.36666667 0.36666667
0.40502451 0.38431373 0.38431373
0.42254902 0.40294118 0.40294118
0.43676471 0.41703431 0.41580882
0.4504902 0.42892157 0.42745098
0.46421569 0.44203431 0.44080882
0.47769608 0.45563725 0.45563725
0.49411765 0.47340686 0.47120098
0.50784314 0.4872549 0.4872549
0.52352941 0.50392157 0.50147059
0.53921569 0.51960784 0.51642157
0.55588235 0.53627451 0.53235294
0.57303922 0.55686275 0.54901961
0.59705882 0.57745098 0.56960784
0.61764706 0.60098039 0.59019608
0.6372549 0.62120098 0.60833333
0.65294118 0.63431373 0.62254902
0.37107843 0.35539216 0.35539216
0.38088235 0.36176471 0.36519608
0.38627451 0.36715686 0.36801471
0.38633578 0.36715686 0.37058824
0.38651961 0.36715686 0.36887255
0.39019608 0.37107843 0.37107843
0.3932598 0.3745098 0.37487745
0.39626225 0.38039216 0.38039216
0.41078431 0.39117647 0.39117647
0.42873775 0.4091299 0.4091299
0.44313725 0.42009804 0.41973039
0.45343137 0.43339461 0.43039216
0.46421569 0.44436275 0.44240196
0.47843137 0.45839461 0.45490196
0.49252451 0.47169118 0.46911765
0.50686275 0.48694853 0.4846201
0.52107843 0.50147059 0.49754902
0.53511029 0.51550245 0.51176471
0.54656863 0.52696078 0.52598039
0.56023284 0.540625 0.53627451
0.57647059 0.55686275 0.55073529
0.5966299 0.57702206 0.56917892
0.61127451 0.59166667 0.58370098
0.62567402 0.60765931 0.59803922
0.63970588 0.62401961 0.60882353
0.40588235 0.39019608 0.39019608
0.41372549 0.39656863 0.39656863
0.41764706 0.39803922 0.39852941
0.41764706 0.40196078 0.40196078
0.41960784 0.40196078 0.40196078
0.42156863 0.40196078 0.40220588
0.4254902 0.40588235 0.40588235
0.42941176 0.40980392 0.41053922
0.43921569 0.41960784 0.41960784
0.44828431 0.42794118 0.42794118
0.45784314 0.43823529 0.43627451
0.46813725 0.44852941 0.44656863
0.47941176 0.45882353 0.45686275
0.49264706 0.47132353 0.46911765
0.50441176 0.48480392 0.48284314
0.51789216 0.49828431 0.49509804
0.53137255 0.51176471 0.50784314
0.54558824 0.52598039 0.52205882
0.55980392 0.54019608 0.53235294
0.57181373 0.55220588 0.54656863
0.58627451 0.56764706 0.55980392
0.60269608 0.58308824 0.575
0.61470588 0.59509804 0.58529412
0.625 0.60539216 0.59485294
0.63333333 0.61568627 0.60196078
0.44068627 0.42107843 0.42107843
0.44460784 0.42714461 0.42714461
0.44852941 0.42892157 0.42892157
0.44852941 0.43192402 0.43235294
0.45220588 0.43284314 0.43284314
0.45245098 0.43284314 0.43284314
0.45502451 0.43541667 0.43541667
0.45637255 0.43676471 0.43676471
0.45980392 0.44019608 0.44019608
0.46617647 0.44656863 0.44626225
0.47598039 0.45551471 0.45294118
0.48284314 0.46323529 0.4627451
0.49313725 0.47352941 0.46960784
0.50686275 0.4872549 0.48333333
0.51715686 0.49754902 0.49362745
0.53137255 0.51176471 0.50784314
0.54558824 0.52598039 0.51862745
0.55851716 0.53890931 0.53235294
0.57058824 0.55183824 0.54656863
0.58474265 0.5651348 0.55729167
0.60098039 0.58137255 0.57328431
0.61764706 0.60104167 0.58970588
0.63517157 0.61862745 0.60392157
0.6495098 0.63039216 0.61813725
0.65980392 0.64068627 0.62843137
0.47156863 0.45196078 0.45196078
0.47438725 0.45477941 0.45588235
0.47720588 0.45759804 0.45759804
0.47941176 0.45980392 0.45980392
0.47941176 0.45980392 0.45980392
0.47941176 0.45992647 0.46078431
0.48039216 0.46078431 0.46078431
0.48039216 0.46078431 0.46078431
0.48039216 0.46078431 0.46078431
0.48676471 0.46715686 0.46470588
0.49313725 0.47352941 0.47279412
0.50085784 0.48125 0.47990196
0.50980392 0.49019608 0.48676471
0.52022059 0.50061275 0.49656863
0.53137255 0.51176471 0.50784314
0.54497549 0.52536765 0.5192402
0.55882353 0.53921569 0.53235294
0.57303922 0.55343137 0.54620098
0.5872549 0.56789216 0.56004902
0.60147059 0.58272059 0.57401961
0.61813725 0.6 0.58872549
0.63517157 0.61862745 0.6064951
0.65490196 0.63627451 0.62352941
0.67156863 0.65588235 0.64019608
0.68431373 0.66862745 0.65196078
0.49852941 0.47892157 0.47892157
0.50189951 0.48284314 0.48229167
0.50526961 0.48676471 0.48529412
0.50637255 0.48676471 0.48658088
0.50882353 0.48921569 0.48676471
0.50882353 0.48921569 0.48676471
0.50637255 0.48737745 0.48676471
0.50637255 0.48676471 0.48529412
0.50490196 0.48529412 0.48529412
0.50735294 0.4877451 0.48621324
0.51372549 0.49411765 0.49313725
0.52009804 0.5004902 0.5004902
0.53039216 0.51078431 0.50686275
0.54068627 0.52107843 0.51323529
0.55098039 0.53137255 0.52352941
0.56127451 0.54258578 0.53682598
0.5754902 0.55588235 0.54803922
0.58915441 0.57009804 0.56170343
0.60392157 0.58492647 0.57536765
0.61813725 0.60196078 0.59050245
0.63553922 0.61862745 0.60612745
0.653125 0.63529412 0.62334559
0.67156863 0.65588235 0.64019608
0.69068627 0.675 0.65686275
0.70490196 0.68921569 0.66960784
0.52941176 0.50980392 0.50588235
0.52941176 0.50980392 0.50588235
0.53333333 0.51372549 0.50980392
0.53333333 0.51372549 0.50980392
0.53333333 0.51764706 0.51176471
0.53333333 0.51764706 0.50980392
0.53333333 0.51470588 0.50980392
0.53333333 0.51372549 0.50980392
0.52941176 0.50980392 0.50980392
0.52941176 0.50980392 0.50980392
0.53431373 0.51470588 0.51372549
0.54068627 0.52107843 0.51764706
0.55098039 0.53137255 0.52745098
0.56127451 0.54166667 0.53382353
0.57156863 0.55196078 0.54411765
0.58186275 0.5622549 0.55441176
0.59215686 0.57647059 0.56470588
0.60637255 0.58921569 0.57892157
0.62156863 0.60490196 0.59313725
0.63823529 0.61911765 0.60735294
0.65490196 0.6372549 0.62352941
0.67156863 0.65588235 0.64019608
0.68823529 0.67352941 0.65686275
0.70882353 0.69313725 0.67352941
0.72156863 0.70980392 0.69019608
0.55637255 0.53676471 0.53284314
0.55637255 0.53768382 0.53284314
0.55784314 0.54068627 0.53431373
0.56029412 0.54068627 0.53431373
0.56029412 0.54215686 0.53431373
0.56029412 0.54215686 0.53431373
0.55845588 0.54105392 0.53431373
0.55729167 0.53976716 0.53431373
0.55637255 0.53676471 0.53284314
0.55637255 0.53921569 0.53584559
0.56029412 0.54105392 0.53713235
0.56550245 0.54803922 0.54197304
0.57352941 0.55392157 0.54607843
0.58186275 0.5622549 0.55441176
0.59215686 0.57438725 0.56470588
0.60490196 0.58676471 0.57653186
0.6127451 0.59313725 0.58529412
0.6254902 0.60735294 0.59558824
0.63933824 0.62254902 0.61017157
0.65508578 0.63921569 0.62530637
0.67352941 0.65784314 0.64215686
0.69166667 0.67647059 0.65814951
0.70882353 0.69313725 0.67561275
0.72640931 0.71372549 0.69411765
0.74460784 0.73039216 0.71078431
0.58235294 0.5627451 0.55588235
0.58333333 0.56372549 0.55882353
0.58406863 0.56666667 0.55882353
0.58370098 0.56666667 0.55882353
0.58333333 0.56666667 0.55882353
0.58627451 0.56764706 0.55882353
0.58333333 0.56666667 0.55661765
0.58333333 0.56666667 0.55698529
0.58333333 0.56764706 0.55980392
0.5872549 0.57046569 0.56372549
0.59117647 0.57156863 0.56372549
0.59117647 0.5745098 0.56666667
0.59607843 0.57696078 0.56666667
0.60343137 0.58419118 0.575
0.61666667 0.59779412 0.58823529
0.62696078 0.61017157 0.59803922
0.63333333 0.61372549 0.60196078
0.64362745 0.62647059 0.6122549
0.65857843 0.64215686 0.62720588
0.6754902 0.65980392 0.64411765
0.69215686 0.67892157 0.66078431
0.7122549 0.69705882 0.67745098
0.72941176 0.71470588 0.69509804
0.74607843 0.73431373 0.71323529
0.76078431 0.75 0.72647059
0.61029412 0.59068627 0.58284314
0.61029412 0.59068627 0.58284314
0.61029412 0.59080882 0.58284314
0.61029412 0.59117647 0.57984069
0.60857843 0.59117647 0.57941176
0.61029412 0.59117647 0.57941176
0.60686275 0.59117647 0.57941176
0.61047794 0.59460784 0.58302696
0.61421569 0.59852941 0.5872549
0.61813725 0.60245098 0.59099265
0.61862745 0.60245098 0.59117647
0.61862745 0.60245098 0.59068627
0.62205882 0.60245098 0.59068627
0.62696078 0.60778186 0.59601716
0.64068627 0.62156863 0.60980392
0.64969363 0.63186275 0.61862745
0.65392157 0.63823529 0.62254902
0.66060049 0.64460784 0.62941176
0.67928922 0.66360294 0.64705882
0.69607843 0.68039216 0.66470588
0.71446078 0.70098039 0.68137255
0.73284314 0.71764706 0.69803922
0.75 0.73823529 0.71568627
0.76176471 0.75 0.72990196
0.76813725 0.75637255 0.73676471
0.64313725 0.62745098 0.61568627
0.64313725 0.62745098 0.61568627
0.64313725 0.62696078 0.61519608
0.63946078 0.62352941 0.61004902
0.6372549 0.62156863 0.60686275
0.6372549 0.62156863 0.60588235
0.63872549 0.62303922 0.60735294
0.64191176 0.62622549 0.6125
0.64705882 0.63137255 0.61764706
0.65098039 0.63455882 0.62156863
0.65294118 0.63529412 0.62352941
0.65490196 0.63529412 0.62352941
0.65588235 0.63921569 0.6245098
0.66127451 0.64191176 0.62990196
0.67303922 0.65735294 0.64215686
0.68112745 0.66544118 0.65098039
0.68627451 0.67058824 0.65490196
0.69534314 0.68161765 0.66397059
0.70686275 0.69166667 0.67598039
0.72083333 0.70710784 0.69117647
0.7372549 0.72352941 0.70686275
0.75563725 0.74387255 0.72426471
0.76764706 0.75588235 0.73627451
0.77794118 0.76617647 0.74656863
0.78431373 0.77254902 0.75294118
0.68823529 0.67254902 0.66078431
0.68823529 0.67254902 0.65686275
0.68345588 0.66862745 0.65294118
0.68039216 0.66470588 0.64901961
0.67647059 0.66127451 0.64509804
0.67598039 0.66078431 0.64460784
0.67647059 0.66078431 0.64509804
0.68216912 0.66862745 0.65294118
0.68823529 0.67303922 0.65686275
0.69246324 0.67677696 0.66323529
0.69607843 0.68039216 0.66470588
0.69607843 0.67738971 0.66470588
0.69215686 0.67647059 0.66078431
0.69607843 0.68088235 0.66519608
0.70686275 0.69375 0.67806373
0.71715686 0.70410539 0.68811275
0.73137255 0.71617647 0.7004902
0.74215686 0.73039216 0.71421569
0.75232843 0.73933824 0.72107843
0.75925245 0.74705882 0.73137255
0.76862745 0.75686275 0.74117647
0.78235294 0.77064951 0.75490196
0.79264706 0.7810049 0.76519608
0.80294118 0.79117647 0.77205882
0.80931373 0.79754902 0.78186275
0.73235294 0.72058824 0.70196078
0.72941176 0.71703431 0.6995098
0.7254902 0.7127451 0.69411765
0.72193627 0.70894608 0.69313725
0.72156863 0.70882353 0.69019608
0.71764706 0.70453431 0.68627451
0.71764706 0.70196078 0.68627451
0.7254902 0.71127451 0.69411765
0.73333333 0.71764706 0.70196078
0.7372549 0.72340686 0.70588235
0.7372549 0.72377451 0.70808824
0.73382353 0.72156863 0.70588235
0.73333333 0.71764706 0.70196078
0.73382353 0.72193627 0.70637255
0.74411765 0.73235294 0.71666667
0.75980392 0.74656863 0.73088235
0.77647059 0.76078431 0.74509804
0.78676471 0.775 0.75931373
0.79705882 0.78529412 0.76960784
0.80392157 0.79215686 0.77598039
0.81176471 0.80196078 0.78627451
0.82009804 0.81090686 0.79558824
0.83039216 0.81862745 0.80367647
0.83676471 0.82892157 0.81323529
0.84313725 0.83529412 0.81960784
0.77598039 0.76666667 0.74705882
0.77297794 0.76329657 0.74313725
0.76997549 0.75821078 0.73921569
0.77028186 0.75637255 0.73921569
0.77058824 0.75759804 0.73921569
0.76403186 0.75067402 0.73265931
0.76029412 0.74705882 0.72892157
0.76666667 0.75245098 0.73529412
0.7745098 0.7627451 0.74313725
0.78088235 0.76758578 0.7495098
0.78137255 0.76666667 0.75
0.775 0.7627451 0.74705882
0.7745098 0.7627451 0.74313725
0.77714461 0.7653799 0.7473652
0.78529412 0.77352941 0.75637255
0.79705882 0.78474265 0.76905637
0.81372549 0.80196078 0.78627451
0.82794118 0.81617647 0.8004902
0.83786765 0.82610294 0.81041667
0.84332108 0.83284314 0.81715686
0.8502451 0.84044118 0.82598039
0.85980392 0.85196078 0.8377451
0.87156863 0.86372549 0.84803922
0.88094363 0.87401961 0.85980392
0.88578431 0.88039216 0.86617647
0.81568627 0.80784314 0.78431373
0.80931373 0.8 0.77794118
0.80392157 0.79215686 0.77254902
0.80392157 0.79215686 0.77254902
0.80588235 0.79411765 0.7745098
0.8 0.78823529 0.76862745
0.8 0.78823529 0.76862745
0.80147059 0.78970588 0.77009804
0.80784314 0.79607843 0.77647059
0.81421569 0.80245098 0.78284314
0.81470588 0.80294118 0.78333333
0.80784314 0.79607843 0.77696078
0.80392157 0.79215686 0.77647059
0.80441176 0.79607843 0.77696078
0.81470588 0.80294118 0.7872549
0.82647059 0.81715686 0.79901961
0.84705882 0.83529412 0.81960784
0.86666667 0.85490196 0.83921569
0.86666667 0.85588235 0.84019608
0.87401961 0.8622549 0.84705882
0.88039216 0.87254902 0.85686275
0.89068627 0.88284314 0.86715686
0.90098039 0.89313725 0.88137255
0.91519608 0.90882353 0.89705882
0.93333333 0.92941176 0.91764706
0.030882353 0.030882353 0.040196078
0.030882353 0.031801471 0.042647059
0.037254902 0.037254902 0.047303922
0.059313725 0.059129902 0.067156863
0.083578431 0.078431373 0.08627451
0.11617647 0.10802696 0.11568627
0.14705882 0.13529412 0.14203431
0.18094363 0.16862745 0.1716299
0.21666667 0.20098039 0.20490196
0.25876225 0.24307598 0.24607843
0.3004902 0.28480392 0.28480392
0.34558824 0.32598039 0.32745098
0.38676471 0.36789216 0.36789216
0.41666667 0.39705882 0.39577206
0.43970588 0.42009804 0.41948529
0.46421569 0.44460784 0.44068627
0.48480392 0.46519608 0.4627451
0.50539216 0.48578431 0.48186275
0.52316176 0.50392157 0.49852941
0.54264706 0.52303922 0.51666667
0.56078431 0.54240196 0.53455882
0.58137255 0.56176471 0.55392157
0.60196078 0.58419118 0.5745098
0.62254902 0.60686275 0.59454657
0.63921569 0.62205882 0.60784314
0.02935049 0.031801471 0.041115196
0.033907782 0.035761336 0.045672488
0.048299632 0.048606005 0.057245711
0.063120404 0.059796262 0.068627451
0.078737745 0.076041667 0.083884804
0.11175705 0.10441176 0.11133578
0.14996936 0.13884804 0.14428615
0.18731618 0.17289369 0.17647059
0.22303922 0.20735294 0.21127451
0.26268382 0.24699755 0.24908088
0.30441176 0.2872549 0.28872549
0.34639246 0.32764246 0.32990196
0.38722426 0.36789216 0.36789216
0.41697304 0.3973652 0.39705882
0.43970588 0.42009804 0.41948529
0.46325827 0.44307598 0.44068627
0.48480392 0.46519608 0.46182598
0.50539216 0.48578431 0.48186275
0.52316176 0.50355392 0.49814645
0.54050245 0.52303922 0.5153799
0.56078431 0.54117647 0.53333333
0.58137255 0.56352635 0.55392157
0.60310968 0.58613664 0.5745098
0.62465533 0.60686275 0.59509804
0.63921569 0.62352941 0.609375
0.043627451 0.043014706 0.054411765
0.053921569 0.053553922 0.061764706
0.06875 0.06786152 0.075980392
0.080882353 0.077098652 0.084941789
0.090931373 0.085784314 0.093627451
0.11260723 0.1046875 0.11176471
0.15217525 0.14120711 0.14715074
0.19571078 0.18140319 0.18509498
0.23235294 0.21372549 0.21666667
0.26845895 0.25013787 0.25078125
0.30833333 0.28872549 0.28872549
