site/assets/luts/sha256-addcac1f81368b76100835ee0b1c4e2671c0bceb328ba9880b677326825399dc.cube
# LUTr-Schema-Version: 2
# LUTr-ID: sha256-addcac1f81368b76100835ee0b1c4e2671c0bceb328ba9880b677326825399dc
# LUTr-Title: vintage brighter
# LUTr-Collection: Natron HaldCLUT
# LUTr-Collection-ID: natron-haldclut-presets
# LUTr-Source: https://github.com/NatronGitHub/clut
# LUTr-Retrieved: 2026-07-27
# LUTr-Source-File: submissions/natron-haldclut-presets/various/vintage_brighter.png
# LUTr-Source-Format: HALD-PNG
# LUTr-Source-SHA256: addcac1f81368b76100835ee0b1c4e2671c0bceb328ba9880b677326825399dc
# LUTr-License: CC-BY-SA-4.0
# LUTr-License-URL: https://github.com/NatronGitHub/clut#license
# LUTr-License-Basis: repo-license-file
# LUTr-Transform-Class: film-emulation
# LUTr-Tags: creative, film, film-emulation, hald-clut, natron, png, vintage, cube
# LUTr-Input-Color-Space: srgb
# LUTr-Input-Gamut: rec709
# LUTr-Input-Transfer: srgb
# LUTr-Output-Color-Space: srgb
# LUTr-Output-Gamut: rec709
# LUTr-Output-Transfer: srgb
# LUTr-Color-Space-Confidence: assumed-display-referred
# LUTr-Domain-Normalized: true
# LUTr-Shaper: none
# LUTr-Original-Grid: 64x64x64
# LUTr-Conversion-Grid: 25x25x25
# LUTr-Conversion-Interpolation: trilinear
# LUTr-Conversion-Method: HALD-PNG LUT image decoded at 16-bit and sampled to 25x25x25 3D CUBE
# LUTr-Conversion-Tool: LUTr scripts/convert-all-to-cube.mjs 2.0.0
# LUTr-Conversion-Date: 2026-07-27
# LUTr-Note: Preserve this metadata and the upstream license notices when redistributing.
TITLE "vintage brighter"
LUT_3D_SIZE 25
DOMAIN_MIN 0 0 0
DOMAIN_MAX 1 1 1
0.0039215686 0.011764706 0.18823529
0.0039215686 0.0093137255 0.18578431
0.0039215686 0.0068627451 0.1745098
0.0039215686 0.00049019608 0.15784314
0.054901961 0 0.16470588
0.10833333 0 0.16470588
0.16372549 0 0.16470588
0.21666667 0 0.16078431
0.2745098 0 0.16078431
0.32990196 0 0.16078431
0.38137255 0 0.15588235
0.44019608 0 0.16029412
0.49803922 0 0.16470588
0.55539216 0 0.16470588
0.60980392 0 0.17156863
0.66372549 0 0.17794118
0.71764706 0 0.18431373
0.77303922 0.0024509804 0.18431373
0.8254902 0.0039215686 0.18039216
0.87990196 0.0039215686 0.17647059
0.93921569 0.0039215686 0.1627451
0.97205882 0.0039215686 0.15735294
0.96862745 0.0039215686 0.16764706
0.96470588 0.0039215686 0.17254902
0.96470588 0.0039215686 0.17647059
0.0039215686 0.018137255 0.18823529
0.0039215686 0.018137255 0.18578431
0.0039215686 0.014215686 0.17794118
0.009497549 0.014215686 0.16550245
0.054901961 0.0083333333 0.16936275
0.11047794 0.0060661765 0.18982843
0.1627451 0 0.16176471
0.21666667 0 0.15833333
0.2745098 0 0.16078431
0.32990196 0.0049019608 0.16078431
0.38419118 0.010294118 0.16323529
0.44050245 0.0066789216 0.16452206
0.49803922 0.0012254902 0.18039216
0.55147059 0 0.1622549
0.60625 0 0.16801471
0.66280637 0 0.17794118
0.71764706 0.0024509804 0.18676471
0.77303922 0.0039215686 0.19460784
0.82732843 0.0039215686 0.19644608
0.87990196 0.006372549 0.19185049
0.93284314 0.0051470588 0.17818627
0.96482843 0.0039215686 0.17751225
0.9692402 0.0020833333 0.17438725
0.96807598 0.0014705882 0.17794118
0.96715686 0 0.18039216
0.0039215686 0.024509804 0.17941176
0.0039215686 0.02745098 0.18186275
0.0056372549 0.028676471 0.18039216
0.012254902 0.029411765 0.16911765
0.056372549 0.023529412 0.16862745
0.10833333 0.016176471 0.1685049
0.16372549 0.0058823529 0.16176471
0.21666667 0.00036764706 0.15232843
0.2745098 0.0058823529 0.16078431
0.32990196 0.018014706 0.16531863
0.38627451 0.024509804 0.16862745
0.44068627 0.017156863 0.16605392
0.49607843 0.0073529412 0.16421569
0.54656863 0.00085784314 0.1567402
0.60196078 0.00098039216 0.16446078
0.6622549 0.0052696078 0.17941176
0.72156863 0.0088235294 0.19215686
0.7754902 0.0098039216 0.20637255
0.82843137 0.0098039216 0.21568627
0.87647059 0.0088235294 0.21237745
0.92598039 0.006372549 0.19019608
0.96605392 0.0025735294 0.18223039
0.98235294 0 0.16764706
0.98137255 0 0.17303922
0.97843137 0 0.1754902
0.0039215686 0.030882353 0.16568627
0.0039215686 0.033517157 0.17156863
0.0078431373 0.043504902 0.18333333
0.01127451 0.042647059 0.16911765
0.05122549 0.038480392 0.16495098
0.10833333 0.033823529 0.16813725
0.16286765 0.029534314 0.16433824
0.21519608 0.025796569 0.16286765
0.27058824 0.029901961 0.16764706
0.32990196 0.038051471 0.16715686
0.38541667 0.038602941 0.16862745
0.44068627 0.034803922 0.16862745
0.49215686 0.029901961 0.16470588
0.5471201 0.032904412 0.16029412
0.60281863 0.030269608 0.16458333
0.66372549 0.029901961 0.1745098
0.72156863 0.033823529 0.18480392
0.77696078 0.035968137 0.19313725
0.82843137 0.037745098 0.19852941
0.87947304 0.034252451 0.20490196
0.92745098 0.022303922 0.18651961
0.98229167 0.006004902 0.16335784
0.99656863 0 0.16029412
0.99381127 0.0034313725 0.16519608
0.99166667 0.0034313725 0.16862745
0.0039215686 0.045098039 0.15490196
0.006372549 0.055882353 0.17401961
0.0078431373 0.066176471 0.19215686
0.011519608 0.059068627 0.16617647
0.047058824 0.057843137 0.16078431
0.10661765 0.062990196 0.16887255
0.16372549 0.066666667 0.17107843
0.21666667 0.062009804 0.16862745
0.27058824 0.056862745 0.16862745
0.32843137 0.060784314 0.16397059
0.38529412 0.063235294 0.16862745
0.44068627 0.070098039 0.17205882
0.49607843 0.074509804 0.16960784
0.55171569 0.080637255 0.16862745
0.60686275 0.080392157 0.17009804
0.66495098 0.076470588 0.17401961
0.72156863 0.074509804 0.17647059
0.77696078 0.070588235 0.17769608
0.83235294 0.068627451 0.17647059
0.88210784 0.065196078 0.17990196
0.9254902 0.060784314 0.17647059
0.96642157 0.054901961 0.17009804
0.99264706 0.053431373 0.16666667
0.99338235 0.052941176 0.16862745
0.99215686 0.052941176 0.17058824
0.0039215686 0.10098039 0.16519608
0.0039215686 0.10735294 0.19460784
0.0078431373 0.11519608 0.20637255
0.01127451 0.10839461 0.18235294
0.049264706 0.10490196 0.17156863
0.10833333 0.10833333 0.17653186
0.16372549 0.10833333 0.17696078
0.21911765 0.10294118 0.17285539
0.27401961 0.097058824 0.16470588
0.32843137 0.099019608 0.16341912
0.38529412 0.10539216 0.16960784
0.44068627 0.11525735 0.17254902
0.49803922 0.12205882 0.17303922
0.55539216 0.12843137 0.17303922
0.60992647 0.12879902 0.17303922
0.66617647 0.12401961 0.17647059
0.72156863 0.12009804 0.17647059
0.77696078 0.11617647 0.17401961
0.83198529 0.11127451 0.16862745
0.88382353 0.10098039 0.16127451
0.92156863 0.10245098 0.16666667
0.9495098 0.10925245 0.17604167
0.97781863 0.11237745 0.17389706
0.98823529 0.1122549 0.17254902
0.98823529 0.1122549 0.17303922
0.0039215686 0.15882353 0.1754902
0.0039215686 0.16519608 0.20196078
0.0078431373 0.16764706 0.21446078
0.013848039 0.16409314 0.20343137
0.052941176 0.1627451 0.19068627
0.10833333 0.15980392 0.18333333
0.16372549 0.15980392 0.18333333
0.21666667 0.15551471 0.17610294
0.27058824 0.15196078 0.17156863
0.32843137 0.15196078 0.17046569
0.38529412 0.15367647 0.17254902
0.44068627 0.16323529 0.17634804
0.5 0.17205882 0.17647059
0.55539216 0.17941176 0.17647059
0.61078431 0.17941176 0.17647059
0.66617647 0.1754902 0.17757353
0.72156863 0.17156863 0.17647059
0.77585784 0.16764706 0.17585784
0.82843137 0.16348039 0.17156863
0.8807598 0.16188725 0.16507353
0.92303922 0.1627451 0.17647059
0.94607843 0.16678922 0.17303922
0.96960784 0.16985294 0.17647059
0.98578431 0.16764706 0.175
0.98823529 0.16764706 0.17254902
0.0039215686 0.21519608 0.18578431
0.0039215686 0.21819853 0.20098039
0.0049019608 0.22242647 0.21568627
0.014889706 0.22058824 0.21715686
0.056862745 0.21911765 0.20147059
0.10833333 0.21648284 0.1877451
0.16335784 0.21335784 0.18137255
0.21666667 0.21127451 0.17738971
0.2745098 0.20882353 0.17401961
0.32990196 0.20735294 0.17555147
0.38529412 0.20735294 0.18186275
0.44068627 0.21127451 0.17824755
0.5 0.22107843 0.17647059
0.55539216 0.22959559 0.17647059
0.61078431 0.22794118 0.17647059
0.66617647 0.2254902 0.18039216
0.72009804 0.22303922 0.17647059
0.77303922 0.22058824 0.17555147
0.8245098 0.22303922 0.17218137
0.87990196 0.22089461 0.16734069
0.92696078 0.22058824 0.16887255
0.95343137 0.22303922 0.16734069
0.96764706 0.2245098 0.17218137
0.98186275 0.22395833 0.17199755
0.98970588 0.22303922 0.16715686
0.0039215686 0.26666667 0.18039216
0.0039215686 0.27303922 0.19313725
0.0039215686 0.27843137 0.20098039
0.010784314 0.27843137 0.20784314
0.052941176 0.2745098 0.19215686
0.10833333 0.27401961 0.18039216
0.1627451 0.27058824 0.18039216
0.21911765 0.26911765 0.18039216
0.2745098 0.26666667 0.17647059
0.32990196 0.2627451 0.17647059
0.38627451 0.2627451 0.18529412
0.44068627 0.26617647 0.18480392
0.5 0.27254902 0.18039216
0.55539216 0.27892157 0.17647059
0.61078431 0.27941176 0.17647059
0.6622549 0.27843137 0.17647059
0.71764706 0.27843137 0.17647059
0.76911765 0.27843137 0.17254902
0.8245098 0.27843137 0.16862745
0.87598039 0.27843137 0.16127451
0.93137255 0.2745098 0.15098039
0.95392157 0.27843137 0.16127451
0.97058824 0.27843137 0.16764706
0.98186275 0.27843137 0.16470588
0.99215686 0.2745098 0.16078431
0.0039215686 0.32205882 0.17009804
0.0039215686 0.32843137 0.18039216
0 0.33051471 0.17977941
0.0047181373 0.33235294 0.18480392
0.050980392 0.33112745 0.17352941
0.10490196 0.33204657 0.17273284
0.1627451 0.32879902 0.17647059
0.21911765 0.32751225 0.18039216
0.2745098 0.3245098 0.18039216
0.33235294 0.32113971 0.18039216
0.38811275 0.31997549 0.18137255
0.44411765 0.32028186 0.18578431
0.49803922 0.3252451 0.17843137
0.55539216 0.33382353 0.17401961
0.61017157 0.33272059 0.17401961
0.6622549 0.32990196 0.17647059
0.71372549 0.32990196 0.17647059
0.76911765 0.32990196 0.17254902
0.82267157 0.32990196 0.17046569
0.87598039 0.32990196 0.16501225
0.93137255 0.32990196 0.1620098
0.96158088 0.32990196 0.17156863
0.97512255 0.32990196 0.175
0.98670343 0.32990196 0.16568627
0.99607843 0.32843137 0.15392157
0.0039215686 0.37843137 0.16372549
0.0039215686 0.38198529 0.17071078
0 0.38529412 0.16838235
0 0.38529412 0.16164216
0.050980392 0.3877451 0.1627451
0.10833333 0.38921569 0.16911765
0.16348039 0.3870098 0.1754902
0.21911765 0.38590686 0.17757353
0.2745098 0.38235294 0.18039216
0.33235294 0.37953431 0.18039216
0.38921569 0.37843137 0.17647059
0.44411765 0.37757353 0.17904412
0.49803922 0.37990196 0.17794118
0.55196078 0.38541667 0.17120098
0.60686275 0.38529412 0.17156863
0.66164216 0.38235294 0.17254902
0.71372549 0.38137255 0.17352941
0.76580882 0.3810049 0.18897059
0.82156863 0.38137255 0.17254902
0.87598039 0.38137255 0.16997549
0.93137255 0.38137255 0.16911765
0.96568627 0.38137255 0.17708333
0.98014706 0.38137255 0.18529412
0.99215686 0.38137255 0.18198529
0.99215686 0.38235294 0.17352941
0.0039215686 0.43284314 0.15980392
0.0039215686 0.43676471 0.1745098
0 0.43676471 0.17585784
0.003002451 0.440625 0.175
0.052696078 0.44436275 0.1752451
0.10833333 0.44803922 0.17598039
0.1627451 0.44460784 0.17634804
0.21911765 0.44411765 0.17794118
0.2745098 0.44019608 0.18039216
0.33020833 0.43676471 0.17794118
0.38664216 0.43627451 0.17561275
0.4411152 0.43627451 0.17254902
0.49607843 0.43627451 0.16911765
0.55147059 0.44025735 0.1651348
0.60343137 0.4377451 0.16519608
0.65833333 0.43676471 0.16991422
0.71372549 0.43627451 0.18039216
0.76893382 0.43284314 0.17683824
0.8245098 0.43284314 0.17647059
0.87898284 0.43284314 0.17303922
0.93137255 0.43455882 0.17254902
0.97303922 0.43670343 0.17696078
0.98713235 0.43627451 0.18737745
0.99215686 0.43676471 0.1903799
0.99215686 0.43676471 0.18382353
0.0039215686 0.48627451 0.17254902
0.0039215686 0.48823529 0.1877451
0.0034313725 0.49215686 0.19558824
0.0039215686 0.49779412 0.19411765
0.052941176 0.5 0.19411765
0.10857843 0.5 0.19191176
0.16372549 0.5 0.18676471
0.21911765 0.5 0.18235294
0.2745098 0.49607843 0.18039216
0.32990196 0.49411765 0.18039216
0.38529412 0.49411765 0.17598039
0.44044118 0.49411765 0.16911765
0.49313725 0.49215686 0.16372549
0.54583333 0.49215686 0.15833333
0.60196078 0.49215686 0.16029412
0.65833333 0.48946078 0.16936275
0.71372549 0.48823529 0.17647059
0.76911765 0.48578431 0.18161765
0.825 0.48431373 0.17794118
0.87990196 0.48431373 0.17303922
0.93529412 0.48823529 0.16764706
0.98112745 0.49019608 0.16764706
0.99166667 0.49019608 0.18137255
0.99215686 0.48823529 0.1870098
0.99215686 0.48823529 0.19215686
0.0039215686 0.54019608 0.18088235
0.0039215686 0.54019608 0.18253676
0.0025735294 0.54460784 0.19644608
0.0038602941 0.55098039 0.19160539
0.052941176 0.55147059 0.19117647
0.10833333 0.55147059 0.18768382
0.16372549 0.55147059 0.18468137
0.21911765 0.55165441 0.18253676
0.2745098 0.55196078 0.18039216
0.32843137 0.54932598 0.17990196
0.38235294 0.54803922 0.17647059
0.43676471 0.54803922 0.17254902
0.49215686 0.54754902 0.16470588
0.54362745 0.5471201 0.15735294
0.59901961 0.54411765 0.16029412
0.65802696 0.54362745 0.17009804
0.71372549 0.54362745 0.17990196
0.76911765 0.53970588 0.18645833
0.82536765 0.53970588 0.18296569
0.87990196 0.53970588 0.17604167
0.93529412 0.54362745 0.16666667
0.98780637 0.54754902 0.15827206
0.98823529 0.54375 0.1745098
0.98823529 0.54362745 0.18578431
0.98823529 0.54362745 0.19166667
0.0039215686 0.59509804 0.18431373
0.0014705882 0.59509804 0.18186275
0 0.59828431 0.17279412
0.00085784314 0.60245098 0.16764706
0.051470588 0.60294118 0.17058824
0.10833333 0.60294118 0.17352941
0.1629902 0.60294118 0.17720588
0.21911765 0.60686275 0.18039216
0.2745098 0.60980392 0.17745098
0.32843137 0.60625 0.17647059
0.38161765 0.60294118 0.17328431
0.43676471 0.60294118 0.16997549
0.49019608 0.60294118 0.16764706
0.54362745 0.60196078 0.16764706
0.59901961 0.59901961 0.17156863
0.65588235 0.59865196 0.17365196
0.71078431 0.59509804 0.17647059
0.76764706 0.59448529 0.1810049
0.8245098 0.59411765 0.17941176
0.87953431 0.59411765 0.17561275
0.93529412 0.59509804 0.17009804
0.9810049 0.59901961 0.16776961
0.99142157 0.59901961 0.17843137
0.99215686 0.59803922 0.18247549
0.99215686 0.59803922 0.18823529
0.0039215686 0.65196078 0.18039216
0.0039215686 0.65349265 0.17647059
0 0.65477941 0.16617647
0.0012867647 0.65588235 0.15833333
0.050980392 0.65514706 0.1627451
0.10833333 0.65588235 0.16911765
0.1627451 0.65833333 0.17438725
0.21819853 0.6622549 0.17647059
0.2745098 0.6622549 0.175
0.32843137 0.6622549 0.1716299
0.3817402 0.65833333 0.16862745
0.43676471 0.65833333 0.16844363
0.48823529 0.65833333 0.17205882
0.54362745 0.65441176 0.17665441
0.59865196 0.65441176 0.17977941
0.65349265 0.65196078 0.18186275
0.70980392 0.6504902 0.18186275
0.76519608 0.64803922 0.18039216
0.82058824 0.64803922 0.18039216
0.87598039 0.64803922 0.17647059
0.93137255 0.6504902 0.17254902
0.97205882 0.65196078 0.17383578
0.9872549 0.65379902 0.17843137
0.99270833 0.65441176 0.18321078
0.99362745 0.65441176 0.17892157
0.0039215686 0.71372549 0.17254902
0.0039215686 0.71372549 0.17009804
0.0039215686 0.71372549 0.16470588
0.0039215686 0.71372549 0.16078431
0.052941176 0.71372549 0.16470588
0.10833333 0.71372549 0.16911765
0.16372549 0.71372549 0.17254902
0.21911765 0.71519608 0.17254902
0.2745098 0.71764706 0.17254902
0.32843137 0.71372549 0.16617647
0.38529412 0.71372549 0.16078431
0.43676471 0.71372549 0.16813725
0.48823529 0.70980392 0.17647059
0.54019608 0.70980392 0.18088235
0.59509804 0.70980392 0.18431373
0.65196078 0.70588235 0.18823529
0.70588235 0.70588235 0.18431373
0.76372549 0.70196078 0.18186275
0.82058824 0.70196078 0.17647059
0.87598039 0.70588235 0.17254902
0.93137255 0.70588235 0.16862745
0.96568627 0.70980392 0.17254902
0.98235294 0.70588235 0.17254902
0.99362745 0.70980392 0.16862745
0.99607843 0.71372549 0.16862745
0.0078431373 0.7754902 0.16862745
0.006372549 0.7754902 0.16862745
0.006372549 0.77267157 0.16470588
0.0098039216 0.77156863 0.16470588
0.052941176 0.77156863 0.16666667
0.10882353 0.77156863 0.17254902
0.16372549 0.77156863 0.17365196
0.21911765 0.77156863 0.17254902
0.2745098 0.76911765 0.17254902
0.32843137 0.76758578 0.16770833
0.38345588 0.76519608 0.16960784
0.43676471 0.76764706 0.17077206
0.48823529 0.76764706 0.17843137
0.54019608 0.76519608 0.18431373
0.59509804 0.76188725 0.18762255
0.6504902 0.76127451 0.18823529
0.70588235 0.76127451 0.18823529
0.76219363 0.75980392 0.18431373
0.82058824 0.75980392 0.17647059
0.87726716 0.76341912 0.16911765
0.93455882 0.76764706 0.16102941
0.96145833 0.76734069 0.16550245
0.97732843 0.76519608 0.19044118
0.98970588 0.76519608 0.16966912
1 0.76666667 0.15784314
0.0078431373 0.83235294 0.16862745
0.0078431373 0.83235294 0.16580882
0.0078431373 0.83161765 0.16446078
0.01127451 0.82855392 0.16115196
0.050980392 0.82843137 0.16470588
0.10870098 0.82843137 0.16911765
0.16372549 0.8245098 0.17254902
0.21911765 0.82242647 0.17254902
0.27058824 0.82058824 0.17254902
0.32598039 0.81666667 0.17696078
0.38137255 0.81666667 0.18651961
0.43541667 0.8192402 0.18284314
0.48823529 0.82058824 0.17892157
0.54362745 0.81752451 0.18088235
0.59583333 0.81666667 0.18431373
0.6504902 0.81666667 0.18823529
0.70588235 0.81666667 0.18823529
0.76372549 0.81666667 0.18431373
0.82083333 0.81666667 0.17720588
0.87941176 0.82022059 0.17009804
0.93529412 0.82058824 0.1627451
0.96139706 0.8192402 0.17095588
0.9754902 0.81568627 0.17818627
0.99007353 0.8127451 0.18026961
1 0.81176471 0.17843137
0.01127451 0.88382353 0.16862745
0.01127451 0.88382353 0.16470588
0.01127451 0.88382353 0.16372549
0.0082720588 0.88382353 0.15778186
0.047058824 0.88382353 0.15931373
0.10533088 0.87947304 0.16862745
0.16286765 0.87340686 0.17254902
0.21666667 0.87077206 0.17254902
0.27058824 0.86813725 0.17647059
0.32598039 0.86813725 0.19859069
0.37843137 0.86813725 0.2004902
0.43284314 0.86813725 0.20343137
0.48823529 0.87034314 0.1877451
0.54362745 0.87199755 0.18039216
0.59889706 0.86813725 0.1807598
0.65196078 0.86813725 0.18431373
0.70931373 0.87156863 0.18431373
0.76519608 0.87156863 0.18988971
0.82414216 0.87107843 0.18676471
0.87990196 0.8651348 0.17990196
0.93357843 0.86470588 0.18333333
0.965625 0.86464461 0.1877451
0.97928922 0.86078431 0.1942402
0.99362745 0.85900735 0.19558824
1 0.85686275 0.19166667
0.0078431373 0.91372549 0.1745098
0.0078431373 0.91495098 0.17254902
0.0078431373 0.91764706 0.17205882
0.0078431373 0.91764706 0.17058824
0.046078431 0.92254902 0.16862745
0.10465686 0.92156863 0.17058824
0.16127451 0.92156863 0.16911765
0.21519608 0.91960784 0.16862745
0.27058824 0.91764706 0.17254902
0.32328431 0.91642157 0.1879902
0.37794118 0.91568627 0.20735294
0.43284314 0.91544118 0.21397059
0.49019608 0.91960784 0.19803922
0.54411765 0.92352941 0.17818627
0.59901961 0.92352941 0.1745098
0.65441176 0.9254902 0.17843137
0.71176471 0.92352941 0.18431373
0.76911765 0.92034314 0.19485294
0.825 0.91519608 0.19264706
0.87990196 0.91004902 0.19583333
0.93137255 0.90882353 0.19901961
0.96764706 0.90416667 0.19730392
0.98480392 0.90637255 0.20637255
0.99607843 0.90122549 0.20392157
1 0.89803922 0.20392157
0.0078431373 0.93431373 0.18872549
0.0078431373 0.93431373 0.19313725
0.0078431373 0.93431373 0.19656863
0.01127451 0.93780637 0.19264706
0.049019608 0.94411765 0.19093137
0.10441176 0.95098039 0.18480392
0.15980392 0.96127451 0.17414216
0.2153799 0.96685049 0.16323529
0.27058824 0.96715686 0.16470588
0.32205882 0.96403186 0.18952206
0.37745098 0.95870098 0.21237745
0.43284314 0.95833333 0.21568627
0.48995098 0.96421569 0.20784314
0.54411765 0.97107843 0.18682598
0.59901961 0.97928922 0.16544118
0.65588235 0.97696078 0.17420343
0.71372549 0.97009804 0.18823529
0.76911765 0.96243873 0.19852941
0.8245098 0.95735294 0.20428922
0.87598039 0.95098039 0.20392157
0.93137255 0.94656863 0.20343137
0.97052696 0.93872549 0.19607843
0.99154412 0.93958333 0.20036765
1 0.93872549 0.20098039
1 0.93872549 0.20392157
0.0039215686 0.95490196 0.19215686
0.0039215686 0.95490196 0.19313725
0.0039215686 0.95784314 0.19485294
0.0074754902 0.95882353 0.19313725
0.049509804 0.96470588 0.19656863
0.10441176 0.975 0.19264706
0.15906863 0.98529412 0.17941176
0.21519608 0.99595588 0.16384804
0.27058824 0.99901961 0.16176471
0.32205882 0.99227941 0.18333333
0.37745098 0.98627451 0.20294118
0.43235294 0.98333333 0.20980392
0.48823529 0.98823529 0.1995098
0.54411765 0.99522059 0.18370098
0.60122549 1 0.1747549
0.65772059 0.99571078 0.18419118
0.71372549 0.99117647 0.19901961
0.76801471 0.98664216 0.20686275
0.82058824 0.98235294 0.21004902
0.87303922 0.97892157 0.20428922
0.92745098 0.97745098 0.19460784
0.97696078 0.96960784 0.18529412
0.99803922 0.96960784 0.18627451
1 0.96960784 0.19129902
1 0.96960784 0.19411765
0 0.9754902 0.17892157
0 0.97794118 0.17892157
0 0.97977941 0.17708333
0.0021446078 0.9846201 0.17598039
0.049019608 0.98848039 0.17671569
0.10079657 0.99362745 0.17469363
0.15588235 0.99546569 0.17254902
0.21127451 1 0.165625
0.26666667 1 0.16470588
0.32150735 1 0.175
0.3745098 0.99607843 0.18811275
0.43235294 0.99362745 0.19822304
0.49019608 0.99607843 0.19754902
0.54754902 0.99607843 0.19577206
0.60294118 0.99938725 0.19068627
0.65833333 0.99607843 0.19901961
0.71372549 0.99215686 0.20784314
0.76764706 0.99215686 0.21176471
0.82058824 0.99031863 0.20931373
0.87205882 0.99215686 0.19901961
0.9254902 0.99362745 0.18406863
0.98253676 0.99509804 0.16648284
1 0.99509804 0.16862745
1 0.99509804 0.175
1 0.99509804 0.17745098
0 0.99215686 0.17254902
0 0.99215686 0.17254902
0 0.99607843 0.16764706
0 1 0.16127451
0.049019608 0.99803922 0.16666667
0.1004902 0.99607843 0.17254902
0.15588235 0.99607843 0.17254902
0.20882353 0.99754902 0.16862745
0.2627451 1 0.16862745
0.31813725 1 0.17647059
0.3745098 0.99901961 0.18529412
0.43235294 0.99607843 0.19215686
0.49019608 0.99607843 0.19607843
0.54803922 1 0.2
0.60588235 1 0.2
0.65980392 0.99607843 0.20392157
0.71372549 0.99607843 0.20784314
0.76764706 0.99215686 0.20784314
0.82058824 0.99215686 0.20392157
0.87205882 0.99215686 0.19656863
0.92352941 0.99607843 0.18235294
0.97892157 1 0.16813725
1 1 0.16470588
1 1 0.17009804
1 1 0.17254902
0.0039215686 0.011764706 0.21519608
0.0014705882 0.011764706 0.20882353
0.0020833333 0.0078431373 0.20098039
0.0073529412 0.0042279412 0.19803922
0.054901961 0.0024509804 0.19411765
0.10863971 0 0.19558824
0.16372549 0 0.19448529
0.21819853 0 0.19166667
0.27696078 0 0.19411765
0.33143382 0 0.19411765
0.38529412 0 0.19411765
0.44283088 0 0.19411765
0.5 0 0.19411765
0.55539216 0 0.19558824
0.61078431 0 0.19914216
0.66709559 0 0.20490196
0.72156863 0.0024509804 0.21127451
0.7754902 0.0039215686 0.21127451
0.82843137 0.0039215686 0.20919118
0.88333333 0.0039215686 0.20373775
0.93676471 0.0039215686 0.19607843
0.96881127 0.0039215686 0.19411765
0.96862745 0.0039215686 0.19522059
0.96623775 0.0039215686 0.19859069
0.96470588 0.0014705882 0.1995098
0.0039215686 0.019607843 0.21182598
0.0039215686 0.018137255 0.20882353
0.0047640931 0.017769608 0.2044424
0.016352635 0.014330576 0.19815411
0.057628676 0.0083333333 0.19877451
0.11078431 0.0060661765 0.20882353
0.16372549 0.00084252451 0.19434743
0.21724112 0 0.19019608
0.2745098 0 0.19258578
0.33143382 0.003370098 0.19411765
0.38613664 0.0066023284 0.19411765
0.44283088 0.0042279412 0.19492188
0.5 0.0012254902 0.2026348
0.55165441 0 0.19411765
0.60911458 0 0.19719669
0.66560202 0.00057444853 0.20490196
0.72156863 0.0039215686 0.21127451
0.77640931 0.0039215686 0.21577053
0.82843137 0.0035386029 0.21551777
0.87990196 0.0039215686 0.21010263
0.92996324 0.0039215686 0.2028799
0.95679381 0.0037300858 0.20343903
0.96617647 0.00078125 0.20104167
0.96715686 0 0.20343137
0.96715686 0 0.20343137
0.0039215686 0.02745098 0.20306373
0.0043045343 0.028293505 0.20836397
0.0090073529 0.029411765 0.2104473
0.021078431 0.028875613 0.19871324
0.059865196 0.022732843 0.19932598
0.1122549 0.013235294 0.19900429
0.16372549 0.0058823529 0.19273897
0.21629902 0.00098039216 0.19019608
0.27389706 0.0049019608 0.19166667
0.32990196 0.013128064 0.1955576
0.38627451 0.020863971 0.19803922
0.44379596 0.014705882 0.19643076
0.49607843 0.0068627451 0.19411765
0.54785539 0.00098039216 0.19411765
0.60560662 0.00098039216 0.19522059
0.66372549 0.0045189951 0.20212929
0.72156863 0.0067401961 0.21127451
0.77654718 0.006372549 0.21911765
0.82843137 0.0047487745 0.22460172
0.87958027 0.0042892157 0.22339154
0.92444853 0.0041053922 0.21053922
0.95736826 0 0.20537684
0.97711397 0 0.19803922
0.97745098 0 0.19928002
