site/assets/luts/sha256-6024be35f655b6e1076065513863afff18aded1b545afb14c3c4b7c86ac0aa44.cube
# LUTr-Schema-Version: 2
# LUTr-ID: sha256-6024be35f655b6e1076065513863afff18aded1b545afb14c3c4b7c86ac0aa44
# LUTr-Title: 60's faded
# LUTr-Collection: Natron HaldCLUT
# LUTr-Collection-ID: natron-haldclut-presets
# LUTr-Source: https://github.com/NatronGitHub/clut
# LUTr-Retrieved: 2026-07-27
# LUTr-Source-File: submissions/natron-haldclut-presets/various/60's_faded.png
# LUTr-Source-Format: HALD-PNG
# LUTr-Source-SHA256: 6024be35f655b6e1076065513863afff18aded1b545afb14c3c4b7c86ac0aa44
# LUTr-License: CC-BY-SA-4.0
# LUTr-License-URL: https://github.com/NatronGitHub/clut#license
# LUTr-License-Basis: repo-license-file
# LUTr-Transform-Class: film-emulation
# LUTr-Tags: creative, film, film-emulation, hald-clut, natron, png, vintage, cube
# LUTr-Input-Color-Space: srgb
# LUTr-Input-Gamut: rec709
# LUTr-Input-Transfer: srgb
# LUTr-Output-Color-Space: srgb
# LUTr-Output-Gamut: rec709
# LUTr-Output-Transfer: srgb
# LUTr-Color-Space-Confidence: assumed-display-referred
# LUTr-Domain-Normalized: true
# LUTr-Shaper: none
# LUTr-Original-Grid: 64x64x64
# LUTr-Conversion-Grid: 25x25x25
# LUTr-Conversion-Interpolation: trilinear
# LUTr-Conversion-Method: HALD-PNG LUT image decoded at 16-bit and sampled to 25x25x25 3D CUBE
# LUTr-Conversion-Tool: LUTr scripts/convert-all-to-cube.mjs 2.0.0
# LUTr-Conversion-Date: 2026-07-27
# LUTr-Note: Preserve this metadata and the upstream license notices when redistributing.
TITLE "60's faded"
LUT_3D_SIZE 5
DOMAIN_MIN 0 0 0
DOMAIN_MAX 1 1 1
0.46666667 0.11372549 0.098039216
0.53529412 0.14313725 0.13431373
0.66470588 0.17254902 0.15294118
0.76862745 0.17058824 0.14607843
0.74901961 0.17647059 0.15294118
0.4627451 0.31568627 0.12352941
0.53921569 0.31960784 0.13039216
0.66911765 0.33039216 0.14411765
0.76397059 0.34705882 0.16053922
0.77254902 0.37058824 0.19215686
0.45098039 0.47254902 0.1254902
0.54313725 0.47892157 0.15147059
0.67058824 0.48235294 0.15490196
0.76960784 0.48627451 0.16078431
0.79803922 0.50588235 0.19215686
0.46666667 0.60196078 0.15686275
0.55269608 0.60514706 0.16029412
0.6745098 0.60490196 0.1622549
0.76960784 0.60098039 0.15220588
0.80784314 0.62156863 0.18823529
0.45490196 0.64705882 0.16078431
0.56568627 0.6754902 0.19019608
0.70392157 0.70196078 0.21568627
0.80784314 0.65294118 0.21078431
0.83529412 0.68235294 0.23137255
0.40784314 0.33137255 0.3127451
0.52426471 0.325 0.32794118
0.65343137 0.33235294 0.33382353
0.75490196 0.33063725 0.34583333
0.79607843 0.35 0.36568627
0.40857843 0.43504902 0.35367647
0.55098039 0.45753676 0.36176471
0.68431373 0.46580882 0.38137255
0.79313725 0.47585784 0.38921569
0.86372549 0.49019608 0.39705882
0.40490196 0.55882353 0.34558824
0.56862745 0.5870098 0.38137255
0.68627451 0.59117647 0.37745098
0.79240196 0.60085784 0.38921569
0.87156863 0.60980392 0.39460784
0.41004902 0.6747549 0.35171569
0.56666667 0.70643382 0.38474265
0.68676471 0.70514706 0.38137255
0.78921569 0.70606618 0.38529412
0.84044118 0.72720588 0.41348039
0.46470588 0.76078431 0.39411765
0.58995098 0.76862745 0.41764706
0.72745098 0.77352941 0.43578431
0.82034314 0.80490196 0.41960784
0.89509804 0.7754902 0.44215686
0.39019608 0.3627451 0.49215686
0.54019608 0.39411765 0.51911765
0.64901961 0.36568627 0.50196078
0.74754902 0.36960784 0.50245098
0.8372549 0.40588235 0.54117647
0.40882353 0.51666667 0.52156863
0.56666667 0.54117647 0.54791667
0.69019608 0.54509804 0.55098039
0.79705882 0.55294118 0.55882353
0.85490196 0.5877451 0.59362745
0.43039216 0.65588235 0.54117647
0.57058824 0.66568627 0.55098039
0.69411765 0.67303922 0.55833333
0.80098039 0.68431373 0.56691176
0.8745098 0.69117647 0.57254902
0.45784314 0.75294118 0.53970588
0.5745098 0.77254902 0.55526961
0.6995098 0.77941176 0.56078431
0.80098039 0.78431373 0.56666667
0.88627451 0.79313725 0.58137255
0.42156863 0.82156863 0.52745098
0.59411765 0.85882353 0.58088235
0.70686275 0.84901961 0.57254902
0.82696078 0.86813725 0.59803922
0.84509804 0.87843137 0.59803922
0.39411765 0.43333333 0.63039216
0.53651961 0.45857843 0.64142157
0.66470588 0.45294118 0.65147059
0.74681373 0.44411765 0.63333333
0.83529412 0.47745098 0.66666667
0.45171569 0.60196078 0.67941176
0.58235294 0.61470588 0.68823529
0.7 0.61862745 0.68823529
0.79240196 0.61862745 0.68841912
0.86862745 0.63602941 0.70490196
0.45490196 0.71519608 0.66519608
0.58235294 0.73431373 0.68431373
0.70686275 0.74411765 0.69387255
0.80098039 0.74607843 0.69607843
0.87058824 0.76862745 0.72058824
0.45294118 0.82156863 0.67647059
0.58216912 0.8338848 0.68504902
0.70588235 0.84117647 0.7
0.80716912 0.84607843 0.70453431
0.83651961 0.85710784 0.7120098
0.48039216 0.83235294 0.69117647
0.59803922 0.8620098 0.70882353
0.71617647 0.87843137 0.71029412
0.8129902 0.9127451 0.7120098
0.84215686 0.90294118 0.73529412
0.49019608 0.56078431 0.78039216
0.5745098 0.57254902 0.75588235
0.69019608 0.56666667 0.77647059
0.8 0.55 0.77941176
0.83529412 0.55294118 0.78039216
0.5372549 0.65392157 0.78137255
0.59509804 0.67867647 0.80857843
0.70980392 0.67205882 0.80343137
0.80098039 0.66862745 0.79926471
0.81666667 0.67254902 0.80490196
0.56470588 0.77647059 0.79607843
0.60196078 0.78039216 0.79313725
0.72156863 0.79509804 0.81862745
0.80098039 0.79264706 0.80931373
0.80588235 0.79215686 0.80980392
0.58235294 0.87254902 0.79313725
0.60294118 0.87941176 0.80465686
0.71470588 0.8877451 0.81813725
0.80882353 0.89509804 0.82352941
0.79509804 0.89509804 0.81960784
0.62352941 0.95686275 0.81568627
0.59803922 0.95588235 0.79215686
0.71764706 0.96666667 0.80784314
0.81176471 0.96176471 0.79803922
0.81568627 0.97647059 0.82745098
