site/assets/luts/sha256-a3eb610d4ed0c5b7297b7e23a9e69bf17bbabe48f6421b361294cf3dd73ef7b0.cube
# LUTr-Schema-Version: 2
# LUTr-ID: sha256-a3eb610d4ed0c5b7297b7e23a9e69bf17bbabe48f6421b361294cf3dd73ef7b0
# LUTr-Title: faux infrared
# LUTr-Collection: Natron HaldCLUT
# LUTr-Collection-ID: natron-haldclut-presets
# LUTr-Source: https://github.com/NatronGitHub/clut
# LUTr-Retrieved: 2026-07-27
# LUTr-Source-File: submissions/natron-haldclut-presets/various/faux_infrared.png
# LUTr-Source-Format: HALD-PNG
# LUTr-Source-SHA256: a3eb610d4ed0c5b7297b7e23a9e69bf17bbabe48f6421b361294cf3dd73ef7b0
# LUTr-License: CC-BY-SA-4.0
# LUTr-License-URL: https://github.com/NatronGitHub/clut#license
# LUTr-License-Basis: repo-license-file
# LUTr-Transform-Class: film-emulation
# LUTr-Tags: creative, film, film-emulation, hald-clut, natron, png, cube
# LUTr-Input-Color-Space: srgb
# LUTr-Input-Gamut: rec709
# LUTr-Input-Transfer: srgb
# LUTr-Output-Color-Space: srgb
# LUTr-Output-Gamut: rec709
# LUTr-Output-Transfer: srgb
# LUTr-Color-Space-Confidence: assumed-display-referred
# LUTr-Domain-Normalized: true
# LUTr-Shaper: none
# LUTr-Original-Grid: 64x64x64
# LUTr-Conversion-Grid: 25x25x25
# LUTr-Conversion-Interpolation: trilinear
# LUTr-Conversion-Method: HALD-PNG LUT image decoded at 16-bit and sampled to 25x25x25 3D CUBE
# LUTr-Conversion-Tool: LUTr scripts/convert-all-to-cube.mjs 2.0.0
# LUTr-Conversion-Date: 2026-07-27
# LUTr-Note: Preserve this metadata and the upstream license notices when redistributing.
TITLE "faux infrared"
LUT_3D_SIZE 5
DOMAIN_MIN 0 0 0
DOMAIN_MAX 1 1 1
0 0 0
0.18627451 0.18039216 0.25392157
0.38823529 0.35294118 0.48431373
0.61764706 0.55490196 0.73333333
0.80392157 0.72156863 0.98039216
0.25098039 0.22745098 0.21176471
0.14656863 0.25490196 0.21617647
0.33186275 0.40931373 0.49264706
0.52745098 0.56642157 0.74411765
0.67254902 0.70784314 0.98137255
0.48627451 0.40392157 0.40784314
0.3872549 0.34411765 0.49019608
0.25980392 0.49705882 0.39215686
0.44019608 0.70637255 0.72794118
0.61960784 0.82352941 0.97254902
0.73431373 0.61470588 0.59509804
0.73504902 0.54019608 0.74215686
0.45588235 0.54901961 0.74068627
0.3875 0.74460784 0.58014706
0.56764706 0.97941176 0.96862745
0.97254902 0.83921569 0.79215686
0.97941176 0.72843137 0.93529412
0.7254902 0.64117647 0.97843137
0.54313725 0.83627451 0.9245098
0.52156863 0.98431373 0.75294118
0.20098039 0.20098039 0.24803922
0.12892157 0.12892157 0.25808824
0.34656863 0.3245098 0.49019608
0.55220588 0.49803922 0.74509804
0.7627451 0.68823529 0.98039216
0.24877451 0.28308824 0.27132353
0.2627451 0.26758578 0.27132353
0.42904412 0.42316176 0.49105392
0.64730392 0.60471814 0.74074755
0.81813725 0.76764706 0.96887255
0.46960784 0.49411765 0.41764706
0.48958333 0.44227941 0.45955882
0.38382353 0.50098039 0.46813725
0.55588235 0.67352941 0.7372549
0.70490196 0.7872549 0.94754902
0.74044118 0.71887255 0.60686275
0.7370098 0.64901961 0.65943627
0.61335784 0.5754902 0.7372549
0.50067402 0.74675245 0.64221814
0.68039216 0.95367647 0.98921569
0.9872549 0.93431373 0.79901961
0.97843137 0.83308824 0.84705882
0.94901961 0.76862745 0.98578431
0.67941176 0.79828431 0.97352941
0.61372549 0.96862745 0.80196078
0.39607843 0.40392157 0.49607843
0.34558824 0.34803922 0.49019608
0.25196078 0.25196078 0.49509804
0.47401961 0.43823529 0.74117647
0.6627451 0.60980392 0.96862745
0.40980392 0.45196078 0.49411765
0.42892157 0.43835784 0.49460784
0.38284314 0.38382353 0.50539216
0.58615196 0.55625 0.74571078
0.77254902 0.72352941 0.97254902
0.42745098 0.51372549 0.50294118
0.47622549 0.51568627 0.50588235
0.50637255 0.50784314 0.51519608
0.6872549 0.67132353 0.73970588
0.8627451 0.83137255 0.96666667
0.62598039 0.7372549 0.62058824
0.70196078 0.74007353 0.65294118
0.74044118 0.69411765 0.71862745
0.63394608 0.74742647 0.70894608
0.78921569 0.90245098 0.96519608
0.92352941 0.97843137 0.81372549
0.97696078 0.97647059 0.84362745
0.98235294 0.88627451 0.90196078
0.86911765 0.83333333 0.98039216
0.74509804 0.98039216 0.88823529
0.59901961 0.59901961 0.7372549
0.5254902 0.5254902 0.73333333
0.4504902 0.45196078 0.72990196
0.3995098 0.3995098 0.7504902
0.58627451 0.55098039 0.9754902
0.61372549 0.64509804 0.74509804
0.64295343 0.64552696 0.74515931
0.5685049 0.57156863 0.74117647
0.49993873 0.50128676 0.7466299
0.69901961 0.67156863 0.97254902
0.61470588 0.6995098 0.74509804
0.65183824 0.69154412 0.74117647
0.68259804 0.68088235 0.7375
0.62328431 0.63112745 0.7504902
0.82696078 0.79656863 0.99068627
0.62720588 0.75686275 0.74583333
0.66960784 0.76170343 0.74920343
0.71629902 0.75416667 0.7502451
0.75 0.75955882 0.76176471
0.94411765 0.92009804 0.98259804
0.81862745 0.96470588 0.85294118
0.85490196 0.9627451 0.85588235
0.93921569 0.97794118 0.89705882
0.9745098 0.92867647 0.94215686
0.86862745 0.97745098 0.94117647
0.78431373 0.80784314 0.98823529
0.72254902 0.72254902 0.9872549
0.64901961 0.64901961 0.9627451
0.58627451 0.58627451 0.99215686
0.50588235 0.50588235 0.96078431
0.79705882 0.84803922 0.97843137
0.8254902 0.84019608 0.98627451
0.76862745 0.76715686 0.97843137
0.69117647 0.69117647 0.97671569
0.62156863 0.61764706 0.98137255
0.80392157 0.88039216 0.97254902
0.83921569 0.88039216 0.97990196
0.8872549 0.88235294 0.97647059
0.80637255 0.81176471 0.97647059
0.74901961 0.74509804 0.98039216
0.81568627 0.93039216 0.98039216
0.84828431 0.93651961 0.98039216
0.89166667 0.93921569 0.98186275
0.93897059 0.93897059 0.99215686
0.8872549 0.87647059 0.98431373
0.81176471 0.98431373 0.98431373
0.85392157 0.98431373 0.96568627
0.9 0.97843137 0.98823529
0.94215686 0.97745098 0.96078431
0.96862745 0.97254902 0.96862745
