site/assets/luts/sha256-c10865277882beebb1fa1bcd0d01322217c90d1b294b301726e1473e0b1a374a.cube
# LUTr-Schema-Version: 2
# LUTr-ID: sha256-c10865277882beebb1fa1bcd0d01322217c90d1b294b301726e1473e0b1a374a
# LUTr-Title: extreme
# LUTr-Collection: Natron HaldCLUT
# LUTr-Collection-ID: natron-haldclut-presets
# LUTr-Source: https://github.com/NatronGitHub/clut
# LUTr-Retrieved: 2026-07-27
# LUTr-Source-File: submissions/natron-haldclut-presets/various/extreme.png
# LUTr-Source-Format: HALD-PNG
# LUTr-Source-SHA256: c10865277882beebb1fa1bcd0d01322217c90d1b294b301726e1473e0b1a374a
# LUTr-License: CC-BY-SA-4.0
# LUTr-License-URL: https://github.com/NatronGitHub/clut#license
# LUTr-License-Basis: repo-license-file
# LUTr-Transform-Class: film-emulation
# LUTr-Tags: creative, film, film-emulation, hald-clut, natron, png, cube
# LUTr-Input-Color-Space: srgb
# LUTr-Input-Gamut: rec709
# LUTr-Input-Transfer: srgb
# LUTr-Output-Color-Space: srgb
# LUTr-Output-Gamut: rec709
# LUTr-Output-Transfer: srgb
# LUTr-Color-Space-Confidence: assumed-display-referred
# LUTr-Domain-Normalized: true
# LUTr-Shaper: none
# LUTr-Original-Grid: 64x64x64
# LUTr-Conversion-Grid: 25x25x25
# LUTr-Conversion-Interpolation: trilinear
# LUTr-Conversion-Method: HALD-PNG LUT image decoded at 16-bit and sampled to 25x25x25 3D CUBE
# LUTr-Conversion-Tool: LUTr scripts/convert-all-to-cube.mjs 2.0.0
# LUTr-Conversion-Date: 2026-07-27
# LUTr-Note: Preserve this metadata and the upstream license notices when redistributing.
TITLE "extreme"
LUT_3D_SIZE 9
DOMAIN_MIN 0 0 0
DOMAIN_MAX 1 1 1
0.0039215686 0.011764706 0.023529412
0.0078431373 0.0044117647 0.012254902
0.1245098 0.0039215686 0.02745098
0.30343137 0.0024509804 0.015686275
0.50196078 0.0039215686 0.011764706
0.61519608 0.0039215686 0.074509804
0.74019608 0.0049019608 0.065686275
0.86078431 0.0039215686 0.086764706
0.98039216 0 0.011764706
0.0039215686 0.018627451 0.014705882
0.0083333333 0.015686275 0.072058824
0.098529412 0.019117647 0.06997549
0.29607843 0.019117647 0.026654412
0.50367647 0.019362745 0.012254902
0.60980392 0.014705882 0.012132353
0.73713235 0.019117647 0.041176471
0.86078431 0.025980392 0.060784314
0.93921569 0.023039216 0.031862745
0 0.10294118 0.021568627
0.0068627451 0.089093137 0.014583333
0.10857843 0.095833333 0.024264706
0.29558824 0.10441176 0.015686275
0.48872549 0.10392157 0.034313725
0.60980392 0.10098039 0.057107843
0.7372549 0.091176471 0.018627451
0.86470588 0.098406863 0.037132353
0.95490196 0.10490196 0.040196078
0 0.27990196 0.062745098
0.0075367647 0.26617647 0.041360294
0.098039216 0.27696078 0.043259804
0.29405637 0.28694853 0.019240196
0.49607843 0.2877451 0.03872549
0.60980392 0.27696078 0.039705882
0.7372549 0.29313725 0.044730392
0.86470588 0.28382353 0.039215686
0.94362745 0.28627451 0.018137255
0 0.49019608 0.0039215686
0.0073529412 0.45931373 0.05
0.10196078 0.48529412 0.044117647
0.29093137 0.48504902 0.05
0.49215686 0.49019608 0.031372549
0.60833333 0.48627451 0.026470588
0.72990196 0.49019608 0.054901961
0.85686275 0.49387255 0.01495098
0.96470588 0.48039216 0.035294118
0 0.61372549 0.0049019608
0.0073529412 0.61764706 0.03627451
0.089215686 0.61041667 0.030269608
0.30196078 0.61317402 0.019607843
0.48235294 0.61372549 0.044852941
0.60980392 0.61617647 0.045526961
0.73333333 0.61617647 0.051838235
0.85637255 0.61795343 0.040870098
0.9877451 0.61764706 0.0029411765
0.0039215686 0.73823529 0.018627451
0.010416667 0.7372549 0.058823529
0.093382353 0.73333333 0.02745098
0.29656863 0.7372549 0.041666667
0.49019608 0.7372549 0.035784314
0.61764706 0.73762255 0.047671569
0.73431373 0.74142157 0.029411765
0.86078431 0.74080882 0.054901961
0.9745098 0.7372549 0.016666667
0 0.86862745 0.039705882
0.0074142157 0.86078431 0.041176471
0.089705882 0.85735294 0.019117647
0.29148284 0.86470588 0.035784314
0.49240196 0.86642157 0.040441176
0.61194853 0.86893382 0.07254902
0.73382353 0.86862745 0.020588235
0.86470588 0.86862745 0.019178922
0.94852941 0.86470588 0.046078431
0 0.98039216 0.035294118
0.011764706 0.9495098 0.031372549
0.093137255 0.92745098 0.023529412
0.29558824 0.975 0.036764706
0.49411765 0.9627451 0.031372549
0.61372549 0.96568627 0.051470588
0.74215686 0.9754902 0.012745098
0.86862745 0.94068627 0.019607843
0.93333333 0.9372549 0.031372549
0 0 0.17352941
0.0039215686 0 0.17009804
0.10625 0 0.21433824
0.30343137 0 0.17928922
0.48039216 0.0019607843 0.19215686
0.60980392 0 0.20098039
0.7377451 0.0013480392 0.19656863
0.8651348 0 0.19908088
0.9754902 0 0.19705882
0.0039215686 0.023039216 0.18045343
0.010845588 0.016007966 0.19434743
0.11095282 0.015196078 0.19476103
0.30455729 0.015502451 0.18970588
0.49408701 0.018903186 0.18581495
0.61372549 0.019117647 0.19650735
0.73860294 0.019117647 0.19166667
0.86819853 0.019607843 0.19264706
0.97696078 0.015686275 0.18921569
0 0.098161765 0.20257353
0.0073529412 0.099708946 0.20098039
0.098161765 0.097028186 0.19935662
0.30277267 0.095098039 0.19563419
0.48768382 0.096262255 0.19381127
0.60877757 0.09799326 0.19405637
0.73354779 0.10199142 0.18704044
0.86862745 0.10981924 0.20390625
0.97303922 0.089828431 0.2
0 0.27009804 0.20735294
0.0075137868 0.27555147 0.18592984
0.093795956 0.27535233 0.18734681
0.28823529 0.27408854 0.17970282
0.4890625 0.27230392 0.19926471
0.61757813 0.28382353 0.21243107
0.7372549 0.27803309 0.19503676
0.86109069 0.28317249 0.18899357
0.9713848 0.27616422 0.1877451
0.0039215686 0.49485294 0.1995098
0.01127451 0.48186275 0.20977328
0.097058824 0.48431373 0.18088235
0.29289216 0.4875 0.19598652
0.48823529 0.48468137 0.18161765
0.61372549 0.48553922 0.19770221
0.7377451 0.48897059 0.19209559
0.85906863 0.48841912 0.19806985
0.93970588 0.48235294 0.20465686
0 0.61403186 0.19019608
0.0040824142 0.61813725 0.18216912
0.093673407 0.61764706 0.18602941
0.30189951 0.6207644 0.18959099
0.48897059 0.61764706 0.18808211
0.61764706 0.617356 0.20429687
0.7334712 0.61456801 0.18639706
0.85455729 0.62005974 0.19901961
0.97273284 0.62156863 0.20686275
0.0030637255 0.7372549 0.19656863
0.015900735 0.7377451 0.18284314
0.099295343 0.73630515 0.20333946
0.29816176 0.74117647 0.19866728
0.49172794 0.74099265 0.16954657
0.62124694 0.74051777 0.19963235
0.73235294 0.73860294 0.19065564
0.85735294 0.74117647 0.18921569
0.94656863 0.74117647 0.18235294
0 0.86470588 0.19117647
0.0077895221 0.86121324 0.20294118
0.094439338 0.85863971 0.20772059
0.29064798 0.86470588 0.20389859
0.48872549 0.86470588 0.19065564
0.61356464 0.86819853 0.20471814
0.73333333 0.86470588 0.18969056
0.85686275 0.86470588 0.19178156
0.97254902 0.86819853 0.17598039
0 0.9495098 0.18872549
0.015196078 0.95931373 0.19258578
0.096568627 0.96666667 0.19509804
0.30588235 0.95196078 0.1908701
0.5 0.96740196 0.19632353
0.60980392 0.96305147 0.17971814
0.73333333 0.9504902 0.17892157
0.86905637 0.97303922 0.18731618
0.97401961 0.98137255 0.17941176
0 0.0039215686 0.4254902
0.015196078 0.0039215686 0.43982843
0.10784314 0 0.46372549
0.29901961 0.0039215686 0.44828431
0.48823529 0.0039215686 0.46372549
0.60441176 0 0.42843137
0.73039216 0 0.4247549
0.85686275 0.0039215686 0.44460784
0.97156863 0.0039215686 0.44019608
0.0039215686 0.029534314 0.41335784
0.00859375 0.019224877 0.46145833
0.10208333 0.015563725 0.45594363
0.29914216 0.015196078 0.45266544
0.48731618 0.019117647 0.45692402
0.6064185 0.018627451 0.45219056
0.73431373 0.023039216 0.44595588
0.86470588 0.022916667 0.43492647
0.9504902 0.019117647 0.43933824
0 0.10490196 0.44313725
0.0064644608 0.093229167 0.43514093
0.10116422 0.094362745 0.45686275
0.30625 0.092279412 0.45196078
0.49865196 0.090686275 0.45294118
0.60490196 0.10073529 0.43501838
0.73339461 0.10526961 0.44234069
0.86470588 0.093106618 0.45070466
0.95906863 0.093137255 0.4497549
0 0.28566176 0.44840686
0.0086397059 0.27976409 0.44649203
0.098621324 0.2801777 0.45015319
0.29558824 0.27898284 0.44368873
0.48210784 0.28259804 0.44938725
0.61041667 0.2722886 0.44362745
0.73333333 0.27659314 0.42870711
0.86433824 0.27575061 0.45533088
0.97463235 0.27107843 0.45208333
0 0.4877451 0.45392157
0.010845588 0.48645833 0.44583333
0.093504902 0.48284314 0.44240196
0.29442402 0.48897059 0.45392157
0.48970588 0.48504902 0.45171569
0.61335784 0.48529412 0.446875
0.73333333 0.49534314 0.44938725
0.85833333 0.48664216 0.4442402
0.9495098 0.48235294 0.42892157
0 0.61764706 0.46421569
0.0045343137 0.61764706 0.44120711
0.096323529 0.61372549 0.44304534
0.2935049 0.61556373 0.43500306
0.4848652 0.61691176 0.44411765
0.61049326 0.61686581 0.44051777
0.73333333 0.6122549 0.43903186
0.86211703 0.61407782 0.46018689
0.95159314 0.61764706 0.46678922
0 0.74117647 0.43823529
0.012346814 0.7379902 0.4502451
0.091176471 0.73964461 0.45606618
0.30735294 0.74117647 0.45588235
0.49227941 0.74117647 0.43872549
0.61372549 0.74132966 0.4453125
0.73596814 0.73651961 0.44099265
0.86507353 0.74117647 0.45572917
0.94215686 0.74509804 0.45637255
0 0.86470588 0.42561275
0.014445466 0.86695772 0.44689032
0.094117647 0.86078431 0.43284314
0.29918811 0.87250306 0.46017157
0.49025735 0.86341912 0.4473652
0.61034007 0.86470588 0.442019
0.72941176 0.86078431 0.43921569
0.85735294 0.86813725 0.43356311
0.98112745 0.86862745 0.45220588
0 0.97843137 0.46078431
0.014338235 0.96507353 0.43921569
0.09877451 0.96078431 0.41838235
0.2995098 0.96911765 0.4442402
0.49117647 0.93529412 0.43578431
0.60980392 0.96960784 0.44669118
0.72941176 0.95686275 0.43651961
0.86127451 0.96323529 0.44754902
0.96960784 0.9745098 0.45490196
0 0.0039215686 0.37058824
0.011458333 0.0039215686 0.39889706
0.097058824 0 0.41887255
0.28682598 0 0.43302696
0.49411765 0 0.37622549
0.61372549 0 0.40790441
0.73333333 0 0.39068627
0.86060049 0.0034313725 0.40061275
0.96470588 0.0014705882 0.38039216
0 0.02432598 0.39920343
0.0093979779 0.019117647 0.3660769
0.10350797 0.015196078 0.39828431
0.29116881 0.015196078 0.40490962
0.49427083 0.018627451 0.42536765
0.61525735 0.019117647 0.36787684
0.73333333 0.02254902 0.41844363
0.86078431 0.019117647 0.38780637
0.9754902 0.019117647 0.4223652
0.0039215686 0.10196078 0.41470588
0.01127451 0.095496324 0.38592218
0.090471814 0.094485294 0.42380515
0.2948989 0.092264093 0.39806985
0.49276961 0.096997549 0.41029412
0.61248468 0.094577206 0.40101103
0.73275123 0.099785539 0.41501225
0.86078431 0.097671569 0.3902114
0.96813725 0.10134804 0.39362745
0.0014705882 0.28382353 0.40974265
0.0052619485 0.27990196 0.41482843
0.088235294 0.27320772 0.43224571
0.29258578 0.27485447 0.40109528
0.48599877 0.27916667 0.40520833
0.60856311 0.27820159 0.40058977
0.73872549 0.28641238 0.41750919
0.86470588 0.28227635 0.38666513
0.96960784 0.28137255 0.38921569
0 0.49142157 0.39656863
0.0075367647 0.49019608 0.38125
0.090318627 0.48284314 0.38602941
0.2953125 0.48526348 0.41731005
0.48823529 0.49019608 0.42671569
0.60980392 0.48238358 0.39041054
0.73786765 0.48976716 0.39387255
0.86461397 0.48170956 0.41305147
0.97058824 0.48357843 0.38676471
0 0.62156863 0.41672794
0.0073529412 0.61716452 0.39858303
0.091436887 0.61018689 0.40202206
0.2995098 0.61764706 0.40014553
0.49852941 0.61449142 0.38409926
0.60772059 0.61168045 0.4088848
0.7372549 0.61433824 0.41156556
0.86078431 0.61658241 0.40529259
0.96770833 0.61764706 0.3778799
0 0.74117647 0.40477941
0.0083333333 0.7402114 0.40900735
0.098223039 0.7372549 0.39534314
0.29097733 0.74117647 0.41613051
0.49411765 0.74295343 0.41439951
0.61018689 0.7372549 0.40055147
0.73786765 0.74117647 0.40925245
0.86470588 0.74117647 0.3841299
0.97683824 0.74117647 0.41691176
0.0017769608 0.86862745 0.40900735
0.0078048407 0.86862745 0.40915288
0.095726103 0.86377145 0.41211703
0.29547335 0.86470588 0.41927849
0.48431373 0.86470588 0.39886642
0.61372549 0.86390165 0.36565564
0.73821998 0.86862745 0.41783088
0.86080729 0.86470588 0.40305607
0.98069853 0.87285539 0.39246324
0.0078431373 0.96470588 0.45196078
0.0073529412 0.97218137 0.38284314
0.089828431 0.96078431 0.39767157
0.29859069 0.94454657 0.40784314
0.48578431 0.96421569 0.39289216
0.61917892 0.95539216 0.42720588
0.73615196 0.9814951 0.4317402
0.86470588 0.96501225 0.38069853
0.98284314 0.98284314 0.39852941
0.0039215686 0 0.070588235
0.0075980392 0.0019607843 0.097303922
0.087254902 0.0019607843 0.093137255
0.29681373 0 0.080147059
0.49313725 0 0.082352941
0.61495098 0 0.11127451
0.73921569 0 0.079411765
0.86838235 0 0.085294118
0.97843137 0 0.098039216
0 0.015196078 0.071568627
0.0073529412 0.015165441 0.081893382
0.093137255 0.013235294 0.10692402
0.29871324 0.015349265 0.09028799
0.49742647 0.01372549 0.098161765
0.61501225 0.016268382 0.1015625
0.73051471 0.015502451 0.075735294
0.86838235 0.015196078 0.08973652
0.96568627 0.015196078 0.099019608
0 0.093137255 0.11862745
0.0039215686 0.090012255 0.082169118
0.086519608 0.087254902 0.10759804
0.29436275 0.090196078 0.10569853
0.49705882 0.083823529 0.084558824
0.60900735 0.08872549 0.075490196
0.73406863 0.096936275 0.089460784
0.86102941 0.09810049 0.094178922
0.95686275 0.096568627 0.10588235
0 0.27720588 0.13308824
0.0035232843 0.28235294 0.092371324
0.087438725 0.28204657 0.10061275
0.29485294 0.27113971 0.076715686
0.49448529 0.27352941 0.10404412
0.60980392 0.2799326 0.080759804
0.73602941 0.27990196 0.12101716
0.86256127 0.2770527 0.10827206
0.96372549 0.27328431 0.086519608
0 0.49019608 0.097058824
0.0074754902 0.48811275 0.11053922
0.088970588 0.49117647 0.085784314
0.30196078 0.49215686 0.11335784
0.49166667 0.48872549 0.10833333
0.60980392 0.49276961 0.092647059
0.73676471 0.49093137 0.080637255
0.86139706 0.48835784 0.11801471
0.97058824 0.48921569 0.089215686
0.00073529412 0.61617647 0.08504902
0.0039215686 0.61387868 0.082996324
0.091666667 0.615625 0.089093137
0.28970588 0.61495098 0.10398284
0.49607843 0.61654412 0.12487745
0.61081495 0.61495098 0.10211397
0.73707108 0.61764706 0.082352941
0.86289828 0.61387868 0.087959559
0.97720588 0.61372549 0.08627451
0 0.73823529 0.098039216
0.0038602941 0.74117647 0.097242647
0.087254902 0.7377451 0.11397059
0.2973652 0.74117647 0.092708333
0.49583333 0.73872549 0.092401961
0.61047794 0.740625 0.093014706
0.73333333 0.74460784 0.072916667
0.86795343 0.74307598 0.10085784
0.97205882 0.74019608 0.092647059
0 0.86911765 0.083333333
0.0036764706 0.86470588 0.10422794
0.092340686 0.86470588 0.092585784
0.29592525 0.86942402 0.094791667
0.49301471 0.86862745 0.087622549
0.61087623 0.86847426 0.11446078
0.73137255 0.86666667 0.10147059
0.86127451 0.86862745 0.089093137
0.96715686 0.86838235 0.075735294
0 0.9745098 0.098039216
0.0039215686 0.97990196 0.085539216
0.084803922 0.98529412 0.090686275
0.29093137 0.98333333 0.070098039
0.49019608 0.96862745 0.099019608
0.61372549 0.98063725 0.066911765
0.74117647 0.96715686 0.073039216
0.86078431 0.98382353 0.072303922
0.95294118 0.98039216 0.07254902
0.0039215686 0 0.84215686
0.0039215686 0.0039215686 0.87536765
0.096078431 0 0.86335784
0.29895833 0 0.84669118
0.49803922 0 0.83676471
0.61372549 0 0.87622549
0.74117647 0 0.88026961
0.86813725 0 0.84142157
0.93872549 0.0024509804 0.84509804
0 0.015196078 0.8403799
0.0078431373 0.019117647 0.84730392
0.094745711 0.019117647 0.81795343
0.30195312 0.016482843 0.85026808
0.49852941 0.017892157 0.82015931
0.61464461 0.019117647 0.80484835
0.73363971 0.012622549 0.86367953
0.86472886 0.019117647 0.83489583
0.97254902 0.018627451 0.85980392
0 0.091176471 0.86887255
0.010738358 0.094117647 0.84707414
0.095772059 0.095588235 0.83786765
0.2995098 0.093504902 0.87254902
0.49681373 0.092647059 0.85496324
0.61127451 0.094837623 0.82977941
0.74117647 0.089583333 0.84191176
0.86470588 0.092693015 0.85165441
0.9495098 0.091176471 0.84779412
0 0.27653186 0.84779412
0.0039215686 0.28039216 0.8292739
0.088802083 0.2745098 0.84355086
0.29985447 0.28102788 0.85791973
0.49635417 0.27843137 0.84889706
0.61072304 0.27840839 0.82077972
0.73656556 0.28157169 0.83236826
0.86194853 0.27457874 0.85834865
0.97653186 0.2745098 0.85140931
0.0039215686 0.48872549 0.81740196
0.0036764706 0.49019608 0.84972426
0.094362745 0.48694853 0.82555147
0.29831495 0.49411765 0.80520833
0.49546569 0.49080882 0.8372549
0.61614583 0.49215686 0.86798407
0.74044118 0.49319853 0.84546569
0.86470588 0.49004289 0.85526961
0.97769608 0.48946078 0.85073529
0 0.61764706 0.84546569
0.0039215686 0.61483609 0.84759498
0.090977328 0.61741728 0.86162684
0.30169271 0.61891085 0.84181219
0.49702819 0.62009804 0.85891544
0.61560202 0.61560202 0.84364277
0.73578431 0.61764706 0.87166054
0.86317402 0.61384038 0.84972426
0.97156863 0.61617647 0.87046569
0 0.7372549 0.85477941
0.01127451 0.73979779 0.83598346
0.090104167 0.74117647 0.8395527
0.30496324 0.74117647 0.87280944
0.49754902 0.73872549 0.84056373
0.61659007 0.74117647 0.84335172
0.7372549 0.74215686 0.85379902
0.86528799 0.73959865 0.83869485
0.98223039 0.74056373 0.85183824
0 0.86862745 0.85698529
0.0073529412 0.86862745 0.85107996
0.094347426 0.86996017 0.85454963
0.30631127 0.86617647 0.83973652
0.49240196 0.86446078 0.85839461
0.61372549 0.86470588 0.84626991
0.74080882 0.8685815 0.854519
0.86437653 0.86599265 0.83491115
0.97205882 0.86323529 0.84001225
0 0.98039216 0.8877451
0.0055759804 0.98186275 0.83713235
0.093137255 0.96127451 0.83431373
0.30196078 0.98229167 0.86243873
0.49607843 0.9754902 0.85416667
0.60980392 0.97352941 0.85
0.7372549 0.94840686 0.8625
0.86470588 0.95980392 0.83970588
0.97009804 0.98284314 0.87843137
0 0.0049019608 0.90882353
0.015196078 0.0039215686 0.8877451
0.10882353 0 0.90098039
0.30012255 0 0.88872549
0.49460784 0 0.88676471
0.61617647 0 0.92095588
0.73308824 0 0.91078431
0.86568627 0.0039215686 0.92046569
0.97156863 0.0039215686 0.92647059
0 0.02254902 0.89754902
0.011289828 0.019117647 0.90969669
0.095098039 0.018627451 0.89650735
0.29116115 0.017830882 0.90723039
0.49344363 0.02254902 0.92751225
0.61617647 0.019117647 0.88848039
0.7372549 0.019117647 0.92107843
0.86862745 0.019010417 0.91096814
0.97132353 0.021691176 0.91127451
0 0.097058824 0.89117647
0.0084865196 0.088327206 0.91780025
0.097610294 0.10416667 0.92101716
0.31127451 0.09375 0.91516544
0.49779412 0.092156863 0.89497549
0.61418505 0.094393382 0.89978554
0.73333333 0.09564951 0.92126225
0.86461397 0.089031863 0.91295956
0.95171569 0.10906863 0.91102941
0 0.27389706 0.89203431
0.0039215686 0.27651654 0.8911152
0.10278799 0.27686887 0.91911765
0.29702819 0.27843137 0.92107843
0.48866422 0.27990196 0.88504902
0.611106 0.2816636 0.89160539
0.73066789 0.27879902 0.91862745
0.86862745 0.27686887 0.91758578
0.93578431 0.28088235 0.91519608
0 0.48088235 0.89607843
0.011335784 0.48627451 0.90275735
0.093872549 0.48823529 0.89718137
0.29166667 0.49215686 0.88008578
0.48186275 0.48970588 0.91568627
0.60980392 0.48449755 0.9122549
0.73247549 0.48713235 0.91911765
0.86078431 0.48578431 0.89344363
0.94264706 0.48921569 0.92990196
0 0.61372549 0.92965686
0.0092677696 0.61617647 0.90344669
0.09497549 0.61617647 0.91106005
0.2877451 0.61764706 0.89051777
0.48872549 0.61164216 0.89583333
0.60980392 0.6122549 0.9236826
0.73333333 0.61418505 0.89754902
0.86078431 0.61764706 0.90943627
0.94963235 0.62156863 0.90870098
0 0.74117647 0.92083333
0.014705882 0.73789828 0.89754902
0.09877451 0.74117647 0.90477941
0.29402574 0.7372549 0.91259191
0.49620098 0.7372549 0.89791667
0.61479779 0.74117647 0.90327819
0.73333333 0.74117647 0.91170343
0.86078431 0.74117647 0.90355392
0.9627451 0.7372549 0.89191176
0 0.86862745 0.88198529
0.011764706 0.86862745 0.90942096
0.10055147 0.8640625 0.90775123
0.29932598 0.86470588 0.90811887
0.49583333 0.86446078 0.91397059
0.60931373 0.86367953 0.90543811
0.7294424 0.86470588 0.90505515
0.86400123 0.86475184 0.90611213
0.94460784 0.86078431 0.91813725
0 0.95 0.89509804
0.010416667 0.95490196 0.90416667
0.1002451 0.97573529 0.89583333
0.29558824 0.95661765 0.91715686
0.49803922 0.96470588 0.89460784
0.60980392 0.95563725 0.90306373
0.73333333 0.9627451 0.91127451
0.86470588 0.98112745 0.89375
0.97254902 0.96372549 0.90392157
0 0.0039215686 0.76666667
0.0069240196 0.0034926471 0.73284314
0.09754902 0 0.73884804
0.30343137 0 0.71078431
0.49803922 0 0.77867647
0.61372549 0 0.71752451
0.7442402 0.0039215686 0.72977941
0.85686275 0 0.71237745
0.97598039 0 0.70490196
0.0039215686 0.015686275 0.71875
0.0073529412 0.019117647 0.71348039
0.094806985 0.019117647 0.74620098
0.30343137 0.0151731 0.74754902
0.49090074 0.019546569 0.71755515
0.61415441 0.015219056 0.73396906
0.73795956 0.019117647 0.72352941
0.85686275 0.019117647 0.71469822
0.95416667 0.023039216 0.72873775
0.0039215686 0.10686275 0.79362745
0.014705882 0.09497549 0.76202512
0.096078431 0.091053922 0.72282475
0.30343137 0.095726103 0.74234069
0.48731618 0.095588235 0.75435049
0.60980392 0.098897059 0.74799326
0.73734681 0.095741422 0.74564951
0.86072304 0.097931985 0.75147059
0.96715686 0.099387255 0.7307598
0 0.27990196 0.76268382
0.009497549 0.27156863 0.7259421
0.090670956 0.27990196 0.74129902
0.2995098 0.28143382 0.73026961
0.49215686 0.27990196 0.73416054
0.61764706 0.27382047 0.73615196
0.7372549 0.28543199 0.73805147
0.86078431 0.27990196 0.74377298
0.97285539 0.27352941 0.71219363
0.0041666667 0.49215686 0.71348039
0.0077818627 0.47889093 0.74537377
0.10147059 0.48707108 0.75392157
0.29558824 0.48789828 0.72677696
0.48627451 0.49044118 0.72267157
0.61372549 0.48161765 0.73946078
0.74117647 0.48645833 0.74025735
0.8575674 0.48186275 0.74635417
0.96470588 0.47598039 0.73480392
0 0.6213848 0.69577206
0.0027956495 0.60817249 0.72330729
0.090425858 0.61372549 0.77314645
0.29589461 0.61764706 0.74240196
0.4903799 0.61372549 0.76528799
0.61630668 0.61372549 0.74473039
0.7372549 0.61311275 0.75767463
0.86056219 0.60824908 0.74319853
0.95294118 0.61372549 0.74117647
0 0.7372549 0.71740196
0.0073682598 0.7372549 0.72598039
0.08995098 0.74181985 0.71905637
0.29773284 0.7372549 0.73200061
0.4908701 0.7372549 0.72426471
0.61617647 0.73821998 0.72665441
0.73226103 0.7401348 0.73223039
0.85294118 0.7372549 0.77365196
0.95747549 0.73431373 0.72757353
0.0039215686 0.86470588 0.73878676
0.0073529412 0.86078431 0.73082108
0.099831495 0.86372549 0.76305147
0.30343137 0.86470588 0.73529412
0.49041054 0.8627451 0.7432598
0.61168045 0.85704657 0.74417892
0.73811275 0.86813725 0.73959865
0.85686275 0.86862745 0.73118107
0.94368873 0.86078431 0.73192402
0 0.96519608 0.71078431
0.010784314 0.94356618 0.74889706
0.098039216 0.95441176 0.72328431
0.29803922 0.96666667 0.73235294
0.49411765 0.98161765 0.69166667
0.61372549 0.97254902 0.74031863
0.73333333 0.97340686 0.75012255
0.85251225 0.96366422 0.72794118
0.97696078 0.97352941 0.73872549
0 0.0039215686 0.9254902
0.0039215686 0.0039215686 0.9495098
0.096078431 0.0039215686 0.93235294
0.30343137 0.0024509804 0.92058824
0.50196078 0.0039215686 0.95490196
0.61372549 0 0.95343137
0.74117647 0 0.91568627
0.85686275 0 0.92892157
0.96078431 0.0039215686 0.96470588
0 0.026470588 0.93039216
0.0073529412 0.019607843 0.94846814
0.092769608 0.019117647 0.9317402
0.29932598 0.015196078 0.95165441
0.4997549 0.015196078 0.95514706
0.6158701 0.019117647 0.9127451
0.74154412 0.014338235 0.96703431
0.86078431 0.018198529 0.94411765
0.96470588 0.014705882 0.95
0.0039215686 0.10588235 0.92352941
0.0013480392 0.098039216 0.9060049
0.092892157 0.094117647 0.95196078
0.30343137 0.098039216 0.94154412
0.49411765 0.090196078 0.92892157
0.61556373 0.098161765 0.93284314
0.73259804 0.092156863 0.93627451
0.86078431 0.097916667 0.95588235
0.97647059 0.090196078 0.8872549
0.0014705882 0.27990196 0.95147059
0.01127451 0.27775735 0.93400735
0.096691176 0.27598039 0.91776961
0.29656863 0.28082108 0.91348039
0.49338235 0.27598039 0.93357843
0.61317402 0.27113971 0.93002451
0.7372549 0.27340686 0.91482843
0.86501225 0.28382353 0.94626225
0.95392157 0.28235294 0.9504902
0.0039215686 0.48431373 0.9254902
0.0039215686 0.48431373 0.94852941
0.093137255 0.4872549 0.91568627
0.29607843 0.48235294 0.90784314
0.49215686 0.49019608 0.93823529
0.61764706 0.47794118 0.90122549
0.7377451 0.48627451 0.94313725
0.86446078 0.49019608 0.95441176
0.97254902 0.48039216 0.93921569
0 0.61617647 0.95245098
0.009129902 0.60980392 0.88658088
0.10147059 0.61654412 0.95637255
0.2995098 0.61709559 0.9502451
0.49803922 0.61764706 0.93210784
0.61470588 0.61672794 0.94571078
0.73688725 0.61372549 0.94473039
0.86488971 0.61372549 0.94552696
0.98382353 0.61372549 0.96078431
0.0039215686 0.74411765 0.94803922
0.0039215686 0.74117647 0.94571078
0.090196078 0.74117647 0.90955882
0.29522059 0.74117647 0.95036765
0.49313725 0.74117647 0.92941176
0.61372549 0.7372549 0.9375
0.74117647 0.74191176 0.96666667
0.8442402 0.72561275 0.89166667
0.96666667 0.7372549 0.95196078
0 0.87205882 0.96029412
0.0073529412 0.86121324 0.9372549
0.094240196 0.86764706 0.94877451
0.29754902 0.86323529 0.88970588
0.4870098 0.86470588 0.91078431
0.61011029 0.86862745 0.97444853
0.7372549 0.86813725 0.94840686
0.85735294 0.86470588 0.92898284
0.95196078 0.86470588 0.94901961
0 0.98823529 0.97647059
0 0.97156863 0.89166667
0.088235294 0.98333333 0.95
0.29558824 0.97254902 0.93872549
0.49215686 0.95686275 0.92941176
0.60980392 0.96960784 0.94068627
0.7372549 0.96568627 0.93627451
0.86470588 0.97647059 0.95147059
0.98823529 0.97254902 0.94509804
