site/assets/luts/sha256-9d21b495c81b70a12d236b070338f968083438e41cf45afeb7f990d2b3b086e4.cube
# LUTr-Schema-Version: 2
# LUTr-ID: sha256-9d21b495c81b70a12d236b070338f968083438e41cf45afeb7f990d2b3b086e4
# LUTr-Title: polaroid 690 cold ++
# LUTr-Collection: Natron HaldCLUT
# LUTr-Collection-ID: natron-haldclut-presets
# LUTr-Source: https://github.com/NatronGitHub/clut
# LUTr-Retrieved: 2026-07-27
# LUTr-Source-File: submissions/natron-haldclut-presets/instant_pro/polaroid_690_cold_++.png
# LUTr-Source-Format: HALD-PNG
# LUTr-Source-SHA256: 9d21b495c81b70a12d236b070338f968083438e41cf45afeb7f990d2b3b086e4
# LUTr-License: CC-BY-SA-4.0
# LUTr-License-URL: https://github.com/NatronGitHub/clut#license
# LUTr-License-Basis: repo-license-file
# LUTr-Transform-Class: film-emulation
# LUTr-Tags: creative, film, film-emulation, hald-clut, natron, png, cool, cube
# LUTr-Input-Color-Space: srgb
# LUTr-Input-Gamut: rec709
# LUTr-Input-Transfer: srgb
# LUTr-Output-Color-Space: srgb
# LUTr-Output-Gamut: rec709
# LUTr-Output-Transfer: srgb
# LUTr-Color-Space-Confidence: assumed-display-referred
# LUTr-Domain-Normalized: true
# LUTr-Shaper: none
# LUTr-Original-Grid: 64x64x64
# LUTr-Conversion-Grid: 25x25x25
# LUTr-Conversion-Interpolation: trilinear
# LUTr-Conversion-Method: HALD-PNG LUT image decoded at 16-bit and sampled to 25x25x25 3D CUBE
# LUTr-Conversion-Tool: LUTr scripts/convert-all-to-cube.mjs 2.0.0
# LUTr-Conversion-Date: 2026-07-27
# LUTr-Note: Preserve this metadata and the upstream license notices when redistributing.
TITLE "polaroid 690 cold ++"
LUT_3D_SIZE 25
DOMAIN_MIN 0 0 0
DOMAIN_MAX 1 1 1
0.20784314 0.30980392 0.36078431
0.20784314 0.30980392 0.36078431
0.20784314 0.30588235 0.35686275
0.20784314 0.30588235 0.35686275
0.21960784 0.30784314 0.35882353
0.24019608 0.30980392 0.36127451
0.26078431 0.30980392 0.36470588
0.27598039 0.30980392 0.36470588
0.29019608 0.30588235 0.36078431
0.30441176 0.30196078 0.35686275
0.3372549 0.30196078 0.35686275
0.37843137 0.29803922 0.35686275
0.41960784 0.29803922 0.35686275
0.46078431 0.29411765 0.35686275
0.50196078 0.29019608 0.35686275
0.54705882 0.28627451 0.35539216
0.59215686 0.28235294 0.35294118
0.6372549 0.2745098 0.35294118
0.68333333 0.26568627 0.35294118
0.72745098 0.25882353 0.35294118
0.77254902 0.24901961 0.35294118
0.81764706 0.24313725 0.35294118
0.8627451 0.23627451 0.35294118
0.90784314 0.23137255 0.35294118
0.94509804 0.22745098 0.35294118
0.20784314 0.30980392 0.36078431
0.20784314 0.30980392 0.36078431
0.20784314 0.30980392 0.36041667
0.20998775 0.30980392 0.35931373
0.22279412 0.31102941 0.36004902
0.24019608 0.31372549 0.36078431
0.26078431 0.31372549 0.3622549
0.27598039 0.3122549 0.36078431
0.29019608 0.30980392 0.36078431
0.31476716 0.30833333 0.35931373
0.34362745 0.30441176 0.36078431
0.38088235 0.30196078 0.36078431
0.41960784 0.29803922 0.36004902
0.46109069 0.29411765 0.35686275
0.50441176 0.29117647 0.35686275
0.54705882 0.28872549 0.35294118
0.58970588 0.28235294 0.35294118
0.63878676 0.27542892 0.35294118
0.68688725 0.2685049 0.35294118
0.73351716 0.26145833 0.35294118
0.77892157 0.25661765 0.35294118
0.82401961 0.24901961 0.35294118
0.86666667 0.23982843 0.35294118
0.91084559 0.23290441 0.35294118
0.94509804 0.22745098 0.35294118
0.20784314 0.31470588 0.36078431
0.20784314 0.31470588 0.36078431
0.21176471 0.31470588 0.36078431
0.21519608 0.31470588 0.36078431
0.22794118 0.31470588 0.36078431
0.24362745 0.31764706 0.36078431
0.26078431 0.31764706 0.36078431
0.27745098 0.31654412 0.36078431
0.29901961 0.31372549 0.36078431
0.32696078 0.31372549 0.36078431
0.35686275 0.31053922 0.36078431
0.3877451 0.30686275 0.36078431
0.4245098 0.30245098 0.36176471
0.46568627 0.29889706 0.36078431
0.51053922 0.29583333 0.35710784
0.55294118 0.2939951 0.35539216
0.59803922 0.28823529 0.35294118
0.64460784 0.28088235 0.35355392
0.69191176 0.2745098 0.35686275
0.73884804 0.26801471 0.35686275
0.7872549 0.26764706 0.35294118
0.83431373 0.26029412 0.35294118
0.8754902 0.24926471 0.35294118
0.91629902 0.23541667 0.35294118
0.94901961 0.22843137 0.35294118
0.20784314 0.31764706 0.36078431
0.20784314 0.31764706 0.36078431
0.21176471 0.31764706 0.36078431
0.21911765 0.31764706 0.36078431
0.23284314 0.32107843 0.36078431
0.24362745 0.32107843 0.36078431
0.25821078 0.32156863 0.36078431
0.27745098 0.32107843 0.36078431
0.30539216 0.31764706 0.36078431
0.34019608 0.31764706 0.36078431
0.37107843 0.31715686 0.36433824
0.40196078 0.31329657 0.36470588
0.43480392 0.30931373 0.36470588
0.47640931 0.30539216 0.36078431
0.5245098 0.30539216 0.35784314
0.575 0.30539216 0.35539216
0.61862745 0.30147059 0.35294118
0.65980392 0.29246324 0.35667892
0.70147059 0.28186275 0.35686275
0.74607843 0.27794118 0.35386029
0.79754902 0.28137255 0.35294118
0.84117647 0.27395833 0.3495098
0.88578431 0.26323529 0.35294118
0.92303922 0.25588235 0.35165441
0.95294118 0.24607843 0.3495098
0.20784314 0.32352941 0.36078431
0.20784314 0.32156863 0.36078431
0.21176471 0.32205882 0.36078431
0.22279412 0.32352941 0.36078431
0.23431373 0.32745098 0.36078431
0.24754902 0.32720588 0.36029412
0.25784314 0.3254902 0.35686275
0.28088235 0.32426471 0.35759804
0.31764706 0.32745098 0.36078431
0.3504902 0.32745098 0.36323529
0.38529412 0.32647059 0.36470588
0.41813725 0.32352941 0.36470588
0.45686275 0.32156863 0.36470588
0.5 0.32156863 0.36078431
0.54509804 0.32156863 0.35735294
0.59411765 0.32083333 0.35294118
0.6372549 0.31568627 0.35294118
0.67720588 0.30735294 0.35686275
0.71764706 0.30098039 0.35686275
0.75882353 0.29436275 0.35318627
0.80588235 0.29411765 0.35
0.85098039 0.29166667 0.34901961
0.89068627 0.27941176 0.35196078
0.92941176 0.27843137 0.35147059
0.9627451 0.2745098 0.34705882
0.20784314 0.33039216 0.36078431
0.20784314 0.32990196 0.36078431
0.2127451 0.33002451 0.36078431
0.22346814 0.33425245 0.36078431
0.2372549 0.3377451 0.36078431
0.25147059 0.33823529 0.36078431
0.2622549 0.33823529 0.35686275
0.29117647 0.33805147 0.35863971
0.32598039 0.3377451 0.36078431
0.36078431 0.3377451 0.36470588
0.39705882 0.33786765 0.36470588
0.43823529 0.33823529 0.36470588
0.48161765 0.33823529 0.36078431
0.525 0.33823529 0.3598652
0.56617647 0.33517157 0.35686275
0.61078431 0.3341299 0.35294118
0.65588235 0.33039216 0.35294118
0.69705882 0.32665441 0.35667892
0.73786765 0.32291667 0.35588235
0.77941176 0.31862745 0.35294118
0.82009804 0.31102941 0.34901961
0.86121324 0.30637255 0.34558824
0.89816176 0.29865196 0.35196078
0.93578431 0.29656863 0.35147059
0.97352941 0.2995098 0.34117647
0.20784314 0.34705882 0.36078431
0.20784314 0.34705882 0.36078431
0.2127451 0.34803922 0.36078431
0.22696078 0.35098039 0.36078431
0.24117647 0.35196078 0.36078431
0.25490196 0.35490196 0.36078431
0.27181373 0.35490196 0.36004902
0.30147059 0.35490196 0.36078431
0.33627451 0.35196078 0.36372549
0.37352941 0.35196078 0.36470588
0.41470588 0.35563725 0.36470588
0.45845588 0.35882353 0.36213235
0.50098039 0.35882353 0.36078431
0.54522059 0.35882353 0.35686275
0.5872549 0.35784314 0.35686275
0.62892157 0.35686275 0.35294118
0.67254902 0.35392157 0.35294118
0.71409314 0.35208333 0.35686275
0.75490196 0.34901961 0.35686275
0.79607843 0.34264706 0.35294118
0.83431373 0.34117647 0.34901961
0.87107843 0.34068627 0.34509804
0.90588235 0.33259804 0.35196078
0.94607843 0.33088235 0.34852941
0.97745098 0.33333333 0.34117647
0.20392157 0.3622549 0.36078431
0.20784314 0.36317402 0.36078431
0.21666667 0.36654412 0.36078431
0.22824755 0.3713848 0.36078431
0.24313725 0.37156863 0.36078431
0.25949755 0.37009804 0.36060049
0.27941176 0.37009804 0.35747549
0.31029412 0.37064951 0.36078431
0.34264706 0.37303922 0.36078431
0.37843137 0.37696078 0.36078431
0.42058824 0.38088235 0.36078431
0.46470588 0.38333333 0.36078431
0.51176471 0.38406863 0.36078431
0.55637255 0.38498775 0.35900735
0.59865196 0.38982843 0.35686275
0.65343137 0.39803922 0.35441176
0.69460784 0.39411765 0.35686275
0.73278186 0.3877451 0.35686275
0.77009804 0.38235294 0.35686275
0.80753676 0.38235294 0.35294118
0.84656863 0.38235294 0.34828431
0.88137255 0.38204657 0.34509804
0.91580882 0.3754902 0.34865196
0.95189951 0.37242647 0.34754902
0.97794118 0.37058824 0.34509804
0.20392157 0.37647059 0.36078431
0.20637255 0.37892157 0.36078431
0.21666667 0.38431373 0.36078431
0.23088235 0.38823529 0.36078431
0.24509804 0.38823529 0.36078431
0.25980392 0.38431373 0.35686275
0.27941176 0.38431373 0.35686275
0.31421569 0.38970588 0.35833333
0.34901961 0.4 0.36078431
0.37990196 0.40392157 0.36078431
0.41960784 0.40784314 0.35686275
0.46470588 0.41176471 0.35686275
0.50980392 0.41372549 0.35686275
0.55980392 0.42009804 0.35686275
0.61470588 0.42745098 0.35686275
0.67401961 0.43676471 0.35686275
0.72156863 0.43529412 0.35686275
0.75245098 0.43137255 0.35686275
0.78431373 0.42745098 0.35294118
0.82156863 0.42745098 0.3495098
0.85882353 0.42745098 0.34705882
0.89166667 0.42696078 0.34509804
0.92254902 0.42058824 0.34509804
0.95735294 0.41421569 0.34509804
0.98039216 0.40784314 0.34509804
0.20147059 0.40098039 0.36078431
0.20637255 0.40343137 0.36078431
0.21666667 0.40772059 0.36078431
0.23039216 0.41127451 0.36078431
0.24387255 0.41127451 0.36078431
0.2596201 0.40704657 0.35686275
0.27941176 0.40637255 0.35686275
0.31476716 0.41666667 0.35686275
0.34901961 0.4245098 0.35686275
0.37990196 0.43180147 0.35686275
0.41776961 0.43517157 0.35441176
0.46207108 0.43872549 0.35441176
0.50857843 0.44460784 0.35563725
0.56354167 0.45490196 0.35686275
0.62218137 0.46519608 0.35686275
0.68333333 0.47310049 0.35594363
0.73333333 0.47647059 0.35441176
0.76666667 0.47892157 0.35294118
0.8 0.47794118 0.35232843
0.83235294 0.475 0.34901961
0.87034314 0.475 0.34509804
0.90588235 0.4745098 0.34509804
0.93284314 0.46813725 0.34509804
0.96127451 0.46176471 0.34509804
0.98431373 0.45784314 0.34509804
0.19607843 0.43039216 0.36078431
0.20245098 0.43223039 0.36078431
0.21348039 0.43504902 0.35980392
0.22696078 0.43823529 0.35980392
0.24313725 0.43823529 0.35686275
0.25980392 0.43823529 0.35686275
0.28333333 0.43823529 0.35686275
0.31360294 0.44607843 0.35477941
0.34509804 0.45294118 0.35294118
0.37598039 0.45747549 0.35294118
0.41470588 0.46176471 0.35196078
0.45943627 0.4682598 0.35196078
0.50784314 0.47794118 0.35294118
0.55968137 0.48970588 0.35294118
0.61691176 0.49705882 0.35294118
0.67512255 0.50637255 0.35085784
0.7245098 0.51372549 0.34901961
0.76960784 0.52120098 0.34901961
0.80882353 0.52573529 0.34877451
0.84656863 0.52647059 0.34546569
0.88382353 0.52647059 0.34264706
0.91617647 0.52254902 0.34117647
0.94019608 0.51862745 0.34117647
0.96580882 0.51752451 0.34117647
0.98823529 0.51470588 0.34117647
0.19607843 0.46127451 0.36078431
0.20245098 0.46127451 0.35833333
0.2127451 0.46262255 0.35686275
0.22647059 0.465625 0.35686275
0.24313725 0.46519608 0.35686275
0.25980392 0.46911765 0.35686275
0.28333333 0.47205882 0.35686275
0.31029412 0.4745098 0.35294118
0.34166667 0.48088235 0.35294118
0.37598039 0.48137255 0.34901961
0.41176471 0.48615196 0.34901961
0.45637255 0.49607843 0.34901961
0.50612745 0.51029412 0.34926471
0.55545343 0.52058824 0.3495098
0.61029412 0.53088235 0.34901961
0.66666667 0.5372549 0.34540441
0.71813725 0.54754902 0.34558824
0.76323529 0.55753676 0.34558824
0.80919118 0.56678922 0.34509804
0.85594363 0.57401961 0.34166667
0.89730392 0.58161765 0.33946078
0.92598039 0.57745098 0.33817402
0.94705882 0.57095588 0.34117647
0.97285539 0.57009804 0.34117647
0.99558824 0.57009804 0.3377451
0.19607843 0.49215686 0.35686275
0.20245098 0.48970588 0.35686275
0.20882353 0.48823529 0.35490196
0.22303922 0.49019608 0.35490196
0.24313725 0.49411765 0.35686275
0.25980392 0.49632353 0.35686275
0.28039216 0.4995098 0.35539216
0.30833333 0.50269608 0.35220588
0.33921569 0.50588235 0.34901961
0.37205882 0.51029412 0.34779412
0.40784314 0.51421569 0.34509804
0.45269608 0.52696078 0.34509804
0.50098039 0.54117647 0.34509804
0.55147059 0.55147059 0.34485294
0.60441176 0.56176471 0.34166667
0.65833333 0.56813725 0.33921569
0.70784314 0.57843137 0.33921569
0.75808824 0.58872549 0.33921569
0.80637255 0.59901961 0.33921569
0.85269608 0.60931373 0.3372549
0.89607843 0.61862745 0.3372549
0.93039216 0.61936275 0.3377451
0.95098039 0.61421569 0.34117647
0.9754902 0.61446078 0.34044118
0.99215686 0.61568627 0.33921569
0.1872549 0.52745098 0.35294118
0.19411765 0.52481618 0.35294118
0.20441176 0.52009804 0.35294118
0.22205882 0.52310049 0.35294118
0.23921569 0.5252451 0.35294118
0.25980392 0.52696078 0.35294118
0.28039216 0.52647059 0.35245098
0.30588235 0.52665441 0.34901961
0.3372549 0.53480392 0.34901961
0.3723652 0.54117647 0.34509804
0.41176471 0.55061275 0.34375
0.45251225 0.56133578 0.34117647
0.49607843 0.57205882 0.34117647
0.54754902 0.58235294 0.34025735
0.59901961 0.58970588 0.33688725
0.65392157 0.59901961 0.33333333
0.70196078 0.60931373 0.33333333
0.75294118 0.62175245 0.33333333
0.80085784 0.63296569 0.33333333
0.84810049 0.64019608 0.33333333
0.8877451 0.64460784 0.33333333
0.92346814 0.64901961 0.3377451
0.95490196 0.65245098 0.34154412
0.97352941 0.65116422 0.34166667
0.97941176 0.64901961 0.34117647
0.17058824 0.56470588 0.35
0.1817402 0.56470588 0.34938725
0.19730392 0.56470588 0.34901961
0.21568627 0.56507353 0.34901961
0.23627451 0.56470588 0.34901961
0.2560049 0.56078431 0.34901961
0.27965686 0.55465686 0.34681373
0.30245098 0.55208333 0.34509804
0.3372549 0.56470588 0.34509804
0.37561275 0.57598039 0.3432598
0.41470588 0.58529412 0.34117647
0.45588235 0.59558824 0.34117647
0.49754902 0.60588235 0.3372549
0.54362745 0.61323529 0.33419118
0.59509804 0.61960784 0.33333333
0.64718137 0.62990196 0.32941176
0.69803922 0.64019608 0.32647059
0.74656863 0.6504902 0.32647059
0.79411765 0.66176471 0.32941176
0.83823529 0.6685049 0.32941176
0.87941176 0.67205882 0.32990196
0.91666667 0.67953431 0.33480392
0.95465686 0.68406863 0.34191176
0.96801471 0.68394608 0.34509804
0.97156863 0.68333333 0.34509804
0.16470588 0.60196078 0.34754902
0.175 0.60588235 0.34754902
0.18982843 0.60980392 0.34754902
0.20931373 0.60980392 0.34509804
0.23063725 0.60784314 0.34509804
0.25196078 0.60324755 0.34509804
0.27610294 0.59840686 0.34509804
0.30784314 0.59558824 0.34362745
0.34117647 0.60196078 0.34117647
0.37898284 0.61078431 0.34117647
0.4189951 0.62046569 0.33970588
0.45833333 0.62745098 0.3372549
0.50073529 0.6377451 0.33333333
0.54491422 0.64540441 0.33155637
0.59215686 0.65257353 0.32830882
0.64209559 0.66078431 0.32493873
0.69019608 0.67107843 0.32009804
0.73866422 0.68137255 0.32009804
0.78284314 0.68958333 0.32009804
0.82794118 0.69442402 0.32156863
0.87303922 0.6997549 0.32401961
0.91158088 0.70637255 0.328125
0.94460784 0.70882353 0.33480392
0.9721201 0.71121324 0.34209559
0.98578431 0.71029412 0.34509804
0.16470588 0.64313725 0.34117647
0.17745098 0.64705882 0.34117647
0.19019608 0.64803922 0.34117647
0.20686275 0.65098039 0.34117647
0.2254902 0.65098039 0.34117647
0.24852941 0.64705882 0.34117647
0.28235294 0.64313725 0.34117647
0.31568627 0.63921569 0.34117647
0.34509804 0.64313725 0.34117647
0.38235294 0.64705882 0.33872549
0.42352941 0.65196078 0.33627451
0.46470588 0.6622549 0.33333333
0.50588235 0.67058824 0.32941176
0.54705882 0.67892157 0.3254902
0.59509804 0.68921569 0.3254902
0.64117647 0.69558824 0.32009804
0.68627451 0.70196078 0.31372549
0.73137255 0.70980392 0.30980392
0.77254902 0.71470588 0.31372549
0.81764706 0.72107843 0.31372549
0.86862745 0.72745098 0.31372549
0.90735294 0.73333333 0.31813725
0.93823529 0.73333333 0.32843137
0.96911765 0.7372549 0.3372549
1 0.74117647 0.34509804
0.1622549 0.69068627 0.33333333
0.17745098 0.68915441 0.33480392
0.19558824 0.68823529 0.33480392
0.20949755 0.69185049 0.33480392
0.22083333 0.69215686 0.33480392
0.25147059 0.6903799 0.33480392
0.28970588 0.68823529 0.3372549
0.3245098 0.68431373 0.3372549
0.35539216 0.68431373 0.33480392
0.38964461 0.68431373 0.3338848
0.42745098 0.68676471 0.33051471
0.46862745 0.69558824 0.32696078
0.5122549 0.70588235 0.3254902
0.55098039 0.71372549 0.32285539
0.59754902 0.72107843 0.32156863
0.64509804 0.72346814 0.31764706
0.69264706 0.72892157 0.31372549
0.734375 0.73376225 0.31372549
0.775 0.73884804 0.31372549
0.81764706 0.74430147 0.31372549
0.86593137 0.75196078 0.31372549
0.90343137 0.75784314 0.31813725
0.93431373 0.75968137 0.32843137
0.96519608 0.76176471 0.33872549
0.98970588 0.76176471 0.34264706
0.18431373 0.72843137 0.33039216
0.19705882 0.72598039 0.33333333
0.22058824 0.7245098 0.33504902
0.23737745 0.7245098 0.3372549
0.25294118 0.7245098 0.33333333
0.275 0.7245098 0.33333333
0.30882353 0.72230392 0.33333333
0.3439951 0.72058824 0.33333333
0.3745098 0.72058824 0.33235294
0.40183824 0.72058824 0.32879902
0.43210784 0.72230392 0.3245098
0.47696078 0.72806373 0.32156863
0.52254902 0.73578431 0.32156863
0.56470588 0.7432598 0.32156863
0.60882353 0.74632353 0.32156863
0.65502451 0.74914216 0.32156863
0.69901961 0.75196078 0.31764706
0.74019608 0.75772059 0.31764706
0.78039216 0.7629902 0.31470588
0.82156863 0.77009804 0.31372549
0.86666667 0.77647059 0.31372549
0.8995098 0.77977941 0.32169118
0.93333333 0.78308824 0.32843137
0.96017157 0.78333333 0.33664216
0.98137255 0.78627451 0.34117647
0.23284314 0.75588235 0.33333333
0.23952206 0.75753676 0.33333333
0.25882353 0.75882353 0.3372549
0.27555147 0.75882353 0.3372549
0.29044118 0.75539216 0.33529412
0.3088848 0.75539216 0.33333333
0.33321078 0.75539216 0.32953431
0.36813725 0.75539216 0.328125
0.39852941 0.75490196 0.32598039
0.42567402 0.75520833 0.3254902
0.45637255 0.75539216 0.3254902
0.49460784 0.75882353 0.325
0.53651961 0.76348039 0.32156863
0.58137255 0.76807598 0.32156863
0.62303922 0.77144608 0.32071078
0.66568627 0.77518382 0.32156863
0.70931373 0.77892157 0.32156863
0.74675245 0.78314951 0.32107843
0.7877451 0.78811275 0.31764706
0.8254902 0.79417892 0.31415441
0.86666667 0.80073529 0.31372549
0.90294118 0.8033701 0.3216299
0.93125 0.80686275 0.32843137
0.96127451 0.81047794 0.33480392
0.98431373 0.81078431 0.34117647
0.28627451 0.79019608 0.3372549
0.28823529 0.79019608 0.3372549
0.29754902 0.79215686 0.3372549
0.31323529 0.79044118 0.3372549
0.32941176 0.79019608 0.33431373
0.34607843 0.78823529 0.33284314
0.36666667 0.79019608 0.32647059
0.39264706 0.79019608 0.32352941
0.4254902 0.78823529 0.32745098
0.45637255 0.78823529 0.33137255
0.48970588 0.78676471 0.33333333
0.52205882 0.79019608 0.32965686
0.55784314 0.79215686 0.32352941
0.59607843 0.79436275 0.31764706
0.63333333 0.79803922 0.32107843
0.6745098 0.80073529 0.32230392
0.71568627 0.80588235 0.32352941
0.75490196 0.80906863 0.32230392
0.79411765 0.81421569 0.32107843
0.83161765 0.81936275 0.31789216
0.87058824 0.82647059 0.31372549
0.90318627 0.82769608 0.32205882
0.93088235 0.83137255 0.33431373
0.96127451 0.83602941 0.33921569
0.98627451 0.83921569 0.34509804
0.34362745 0.82156863 0.34607843
0.34411765 0.825 0.34607843
0.34803922 0.82634804 0.34644608
0.35839461 0.82506127 0.34607843
0.37279412 0.82328431 0.34607843
0.39166667 0.82156863 0.34558824
0.41188725 0.825 0.34215686
0.43235294 0.825 0.33823529
0.46078431 0.825 0.33823529
0.49117647 0.82156863 0.3377451
0.52205882 0.82156863 0.34031863
0.55294118 0.82156863 0.3377451
0.58382353 0.825 0.33382353
0.61470588 0.8254902 0.33382353
0.64816176 0.82806373 0.33431373
0.68529412 0.82910539 0.33253676
0.72598039 0.83284314 0.33431373
0.76323529 0.83921569 0.33431373
0.80355392 0.84473039 0.33431373
0.84166667 0.85196078 0.33474265
0.87254902 0.85441176 0.33676471
0.89944853 0.85637255 0.34264706
0.92647059 0.86017157 0.35208333
0.95539216 0.86158088 0.35931373
0.97156863 0.86421569 0.36176471
0.40196078 0.85980392 0.37058824
0.40477941 0.86164216 0.37352941
0.40588235 0.8627451 0.37058824
0.41029412 0.85980392 0.36960784
0.42401961 0.85882353 0.36666667
0.43921569 0.85882353 0.36617647
0.45686275 0.85882353 0.3627451
0.47536765 0.85980392 0.35882353
0.49901961 0.85882353 0.35588235
0.52892157 0.85882353 0.35490196
0.55514706 0.85588235 0.35098039
0.58125 0.85845588 0.35098039
0.61127451 0.85931373 0.35098039
0.64129902 0.85980392 0.35098039
0.66960784 0.85980392 0.35171569
0.70441176 0.86311275 0.35392157
0.73921569 0.86764706 0.35490196
0.77855392 0.87340686 0.35845588
0.81470588 0.87867647 0.35882353
0.84558824 0.88284314 0.36176471
0.87254902 0.88382353 0.36568627
0.89901961 0.8872549 0.37009804
0.92352941 0.89019608 0.37671569
0.94693627 0.89117647 0.38235294
0.95392157 0.89117647 0.38529412
0.45294118 0.89460784 0.39509804
0.45686275 0.89607843 0.39509804
0.45833333 0.89852941 0.39411765
0.46176471 0.89607843 0.39117647
0.47328431 0.89460784 0.3872549
0.48529412 0.89215686 0.38547794
0.50196078 0.89215686 0.38333333
0.51862745 0.89460784 0.37941176
0.53921569 0.89460784 0.3754902
0.56525735 0.89307598 0.3754902
0.58676471 0.89215686 0.37156863
0.61127451 0.89215686 0.37028186
0.63970588 0.89460784 0.36764706
0.66844363 0.89460784 0.36764706
0.69448529 0.89460784 0.37156863
0.725 0.89852941 0.3754902
0.75588235 0.90245098 0.37941176
0.79313725 0.90729167 0.38033088
0.82193627 0.91029412 0.38541667
0.84607843 0.91243873 0.3908701
0.87254902 0.91421569 0.39387255
0.89901961 0.91813725 0.39920343
0.92352941 0.92107843 0.40343137
0.93970588 0.92205882 0.40686275
0.93970588 0.92058824 0.40686275
0.48627451 0.92156863 0.40784314
0.49019608 0.92156863 0.40784314
0.49509804 0.9254902 0.40784314
0.50147059 0.9254902 0.40784314
0.50784314 0.92156863 0.40392157
0.51862745 0.91764706 0.4
0.53529412 0.92058824 0.39705882
0.55441176 0.92303922 0.39607843
0.57647059 0.92941176 0.39607843
0.59313725 0.92303922 0.39215686
0.61372549 0.92156863 0.38823529
0.63823529 0.92156863 0.38823529
0.66862745 0.92745098 0.38431373
0.69117647 0.9254902 0.38431373
0.71470588 0.92156863 0.3872549
0.74166667 0.92696078 0.39215686
0.77254902 0.93333333 0.4
0.80098039 0.93480392 0.40245098
0.8254902 0.93333333 0.40784314
0.8495098 0.93676471 0.41176471
0.87254902 0.9372549 0.41568627
0.8995098 0.94166667 0.42009804
0.92647059 0.94803922 0.42647059
0.92941176 0.94509804 0.42598039
0.92941176 0.94509804 0.42352941
0.20784314 0.30980392 0.36470588
0.20784314 0.30980392 0.36470588
0.20784314 0.30980392 0.36323529
0.20998775 0.30851716 0.36323529
0.22205882 0.30906863 0.36323529
0.24393382 0.30980392 0.36470588
0.26078431 0.30980392 0.36470588
0.27689951 0.30980392 0.36470588
0.29264706 0.30588235 0.36323529
0.30931373 0.3028799 0.36078431
0.33909314 0.30196078 0.36078431
0.37843137 0.30067402 0.36078431
0.41715686 0.29803922 0.36078431
0.45833333 0.29411765 0.36078431
0.4995098 0.29056373 0.35968137
0.54160539 0.28627451 0.35839461
0.58823529 0.27990196 0.35686275
0.63578431 0.27205882 0.35686275
0.68235294 0.26568627 0.3564951
0.72714461 0.25539216 0.35324755
0.77254902 0.24901961 0.35294118
0.81795343 0.24264706 0.35294118
0.8627451 0.23627451 0.35294118
0.90876225 0.23045343 0.35294118
0.94509804 0.22745098 0.35294118
0.20784314 0.3122549 0.36323529
0.20784314 0.3122549 0.36323529
0.20784314 0.31202512 0.36323529
0.21158088 0.30980392 0.36323529
0.22352941 0.30980392 0.36323529
0.24411765 0.3122549 0.36390165
0.26139706 0.31280637 0.36470588
0.27840839 0.31037837 0.36470588
0.29411765 0.30833333 0.36323529
0.31568627 0.30588235 0.36078431
0.34656863 0.3040288 0.36078431
0.3818704 0.30196078 0.36078431
0.42205882 0.3004902 0.36078431
0.46304381 0.29706648 0.36078431
0.50219056 0.29117647 0.35945159
0.54256281 0.28627451 0.35839461
0.58823529 0.28143382 0.35686275
0.63612898 0.27428002 0.35686275
0.68517157 0.26813725 0.35672488
0.7303845 0.25931373 0.35458793
0.77723652 0.25416667 0.35294118
0.82267923 0.24668352 0.35294118
0.86629902 0.23834252 0.35294118
0.91176471 0.23102788 0.35294118
0.94901961 0.22745098 0.35294118
0.20784314 0.31470588 0.36323529
0.20784314 0.31470588 0.36323529
0.20909926 0.31470588 0.36323529
0.21527267 0.31470588 0.36323529
0.22647059 0.31470588 0.36323529
0.24362745 0.31484375 0.36323529
0.26078431 0.3171875 0.36433824
0.27921262 0.3144761 0.36323529
0.29901961 0.31188725 0.36323529
0.32598039 0.31040135 0.36346507
0.35686275 0.30934436 0.36360294
0.38988971 0.3060049 0.36199449
0.42689951 0.30245098 0.36176471
0.46766238 0.29889706 0.36078431
