site/assets/luts/sha256-babe8e4e438734da32e891cb31653dac8963fec41c518c868edef2b725021063.cube
# LUTr-Schema-Version: 2
# LUTr-ID: sha256-babe8e4e438734da32e891cb31653dac8963fec41c518c868edef2b725021063
# LUTr-Title: kodak hie (hs infra)
# LUTr-Collection: Natron HaldCLUT
# LUTr-Collection-ID: natron-haldclut-presets
# LUTr-Source: https://github.com/NatronGitHub/clut
# LUTr-Retrieved: 2026-07-27
# LUTr-Source-File: submissions/natron-haldclut-presets/bw/kodak_hie_(hs_infra).png
# LUTr-Source-Format: HALD-PNG
# LUTr-Source-SHA256: babe8e4e438734da32e891cb31653dac8963fec41c518c868edef2b725021063
# LUTr-License: CC-BY-SA-4.0
# LUTr-License-URL: https://github.com/NatronGitHub/clut#license
# LUTr-License-Basis: repo-license-file
# LUTr-Transform-Class: film-emulation
# LUTr-Tags: creative, film, film-emulation, hald-clut, natron, png, cube
# LUTr-Input-Color-Space: srgb
# LUTr-Input-Gamut: rec709
# LUTr-Input-Transfer: srgb
# LUTr-Output-Color-Space: srgb
# LUTr-Output-Gamut: rec709
# LUTr-Output-Transfer: srgb
# LUTr-Color-Space-Confidence: assumed-display-referred
# LUTr-Domain-Normalized: true
# LUTr-Shaper: none
# LUTr-Original-Grid: 64x64x64
# LUTr-Conversion-Grid: 25x25x25
# LUTr-Conversion-Interpolation: trilinear
# LUTr-Conversion-Method: HALD-PNG LUT image decoded at 16-bit and sampled to 25x25x25 3D CUBE
# LUTr-Conversion-Tool: LUTr scripts/convert-all-to-cube.mjs 2.0.0
# LUTr-Conversion-Date: 2026-07-27
# LUTr-Note: Preserve this metadata and the upstream license notices when redistributing.
TITLE "kodak hie (hs infra)"
LUT_3D_SIZE 5
DOMAIN_MIN 0 0 0
DOMAIN_MAX 1 1 1
0.011764706 0.011764706 0.011764706
0.2 0.2 0.2
0.50784314 0.50784314 0.50784314
0.79215686 0.79215686 0.79215686
0.97254902 0.97254902 0.97254902
0.2245098 0.2245098 0.2245098
0.30980392 0.30980392 0.30980392
0.52647059 0.52647059 0.52647059
0.79901961 0.79901961 0.79901961
0.96960784 0.96960784 0.96960784
0.49411765 0.49411765 0.49411765
0.5127451 0.5127451 0.5127451
0.60784314 0.60784314 0.60784314
0.81470588 0.81470588 0.81470588
0.9745098 0.9745098 0.9745098
0.95392157 0.95392157 0.95392157
0.93235294 0.93235294 0.93235294
0.80294118 0.80294118 0.80294118
0.85465686 0.85465686 0.85465686
0.98333333 0.98333333 0.98333333
0.85882353 0.85882353 0.85882353
0.98039216 0.98039216 0.98039216
1 1 1
0.96470588 0.96470588 0.96470588
0.9372549 0.9372549 0.9372549
0.028431373 0.028431373 0.028431373
0.22156863 0.22156863 0.22156863
0.52696078 0.52696078 0.52696078
0.81372549 0.81372549 0.81372549
0.97254902 0.97254902 0.97254902
0.20098039 0.20098039 0.20098039
0.30784314 0.30784314 0.30784314
0.55036765 0.55036765 0.55036765
0.81470588 0.81470588 0.81470588
0.96838235 0.96838235 0.96838235
0.44313725 0.44313725 0.44313725
0.48909314 0.48909314 0.48909314
0.62083333 0.62083333 0.62083333
0.83370098 0.83370098 0.83370098
0.97941176 0.97941176 0.97941176
0.89681373 0.89681373 0.89681373
0.84466912 0.84466912 0.84466912
0.75833333 0.75833333 0.75833333
0.86544118 0.86544118 0.86544118
0.98651961 0.98651961 0.98651961
0.95392157 0.95392157 0.95392157
0.99607843 0.99607843 0.99607843
0.99901961 0.99901961 0.99901961
0.96593137 0.96593137 0.96593137
0.98921569 0.98921569 0.98921569
0.039215686 0.039215686 0.039215686
0.28333333 0.28333333 0.28333333
0.58823529 0.58823529 0.58823529
0.8377451 0.8377451 0.8377451
0.99411765 0.99411765 0.99411765
0.18480392 0.18480392 0.18480392
0.33431373 0.33431373 0.33431373
0.60931373 0.60931373 0.60931373
0.84595588 0.84595588 0.84595588
0.98431373 0.98431373 0.98431373
0.40392157 0.40392157 0.40392157
0.4745098 0.4745098 0.4745098
0.6622549 0.6622549 0.6622549
0.8622549 0.8622549 0.8622549
0.98823529 0.98823529 0.98823529
0.70490196 0.70490196 0.70490196
0.71176471 0.71176471 0.71176471
0.75882353 0.75882353 0.75882353
0.89031863 0.89031863 0.89031863
0.99215686 0.99215686 0.99215686
0.99607843 0.99607843 0.99607843
0.97990196 0.97990196 0.97990196
0.99313725 0.99313725 0.99313725
0.93039216 0.93039216 0.93039216
0.99215686 0.99215686 0.99215686
0.042156863 0.042156863 0.042156863
0.40588235 0.40588235 0.40588235
0.68578431 0.68578431 0.68578431
0.88235294 0.88235294 0.88235294
1 1 1
0.30196078 0.30196078 0.30196078
0.46378676 0.46378676 0.46378676
0.70257353 0.70257353 0.70257353
0.8935049 0.8935049 0.8935049
0.99607843 0.99607843 0.99607843
0.48431373 0.48431373 0.48431373
0.57058824 0.57058824 0.57058824
0.74313725 0.74313725 0.74313725
0.90453431 0.90453431 0.90453431
0.98431373 0.98431373 0.98431373
0.64705882 0.64705882 0.64705882
0.69515931 0.69515931 0.69515931
0.80588235 0.80588235 0.80588235
0.92432598 0.92432598 0.92432598
0.98823529 0.98823529 0.98823529
0.97843137 0.97843137 0.97843137
0.98112745 0.98112745 0.98112745
0.95637255 0.95637255 0.95637255
0.94387255 0.94387255 0.94387255
0.99215686 0.99215686 0.99215686
0.32941176 0.32941176 0.32941176
0.59215686 0.59215686 0.59215686
0.77254902 0.77254902 0.77254902
0.94411765 0.94411765 0.94411765
1 1 1
0.52941176 0.52941176 0.52941176
0.64779412 0.64779412 0.64779412
0.78921569 0.78921569 0.78921569
0.94240196 0.94240196 0.94240196
0.99607843 0.99607843 0.99607843
0.66470588 0.66470588 0.66470588
0.72794118 0.72794118 0.72794118
0.84117647 0.84117647 0.84117647
0.96862745 0.96862745 0.96862745
0.99215686 0.99215686 0.99215686
0.78235294 0.78235294 0.78235294
0.80784314 0.80784314 0.80784314
0.87058824 0.87058824 0.87058824
0.97647059 0.97647059 0.97647059
0.98921569 0.98921569 0.98921569
0.84313725 0.84313725 0.84313725
0.86568627 0.86568627 0.86568627
0.90588235 0.90588235 0.90588235
0.98137255 0.98137255 0.98137255
1 1 1
