site/assets/luts/sha256-8e5efda97e44d046be111c04878df7871fa85e8c74f2eb49669efe2353f9d34e.cube
# LUTr-Schema-Version: 2
# LUTr-ID: sha256-8e5efda97e44d046be111c04878df7871fa85e8c74f2eb49669efe2353f9d34e
# LUTr-Title: polaroid time zero (expired) cold ---
# LUTr-Collection: Natron HaldCLUT
# LUTr-Collection-ID: natron-haldclut-presets
# LUTr-Source: https://github.com/NatronGitHub/clut
# LUTr-Retrieved: 2026-07-27
# LUTr-Source-File: submissions/natron-haldclut-presets/instant_consumer/polaroid_time_zero_(expired)_cold_---.png
# LUTr-Source-Format: HALD-PNG
# LUTr-Source-SHA256: 8e5efda97e44d046be111c04878df7871fa85e8c74f2eb49669efe2353f9d34e
# LUTr-License: CC-BY-SA-4.0
# LUTr-License-URL: https://github.com/NatronGitHub/clut#license
# LUTr-License-Basis: repo-license-file
# LUTr-Transform-Class: film-emulation
# LUTr-Tags: creative, film, film-emulation, hald-clut, natron, png, cool, cube
# LUTr-Input-Color-Space: srgb
# LUTr-Input-Gamut: rec709
# LUTr-Input-Transfer: srgb
# LUTr-Output-Color-Space: srgb
# LUTr-Output-Gamut: rec709
# LUTr-Output-Transfer: srgb
# LUTr-Color-Space-Confidence: assumed-display-referred
# LUTr-Domain-Normalized: true
# LUTr-Shaper: none
# LUTr-Original-Grid: 64x64x64
# LUTr-Conversion-Grid: 25x25x25
# LUTr-Conversion-Interpolation: trilinear
# LUTr-Conversion-Method: HALD-PNG LUT image decoded at 16-bit and sampled to 25x25x25 3D CUBE
# LUTr-Conversion-Tool: LUTr scripts/convert-all-to-cube.mjs 2.0.0
# LUTr-Conversion-Date: 2026-07-27
# LUTr-Note: Preserve this metadata and the upstream license notices when redistributing.
TITLE "polaroid time zero (expired) cold ---"
LUT_3D_SIZE 9
DOMAIN_MIN 0 0 0
DOMAIN_MAX 1 1 1
0.12941176 0.031372549 0.039215686
0.1372549 0.02745098 0.034803922
0.19607843 0.015686275 0.032352941
0.31568627 0.013235294 0.023529412
0.44509804 0.0058823529 0.015686275
0.58382353 0 0.034313725
0.7127451 0.0039215686 0.038235294
0.82156863 0.0039215686 0.075
0.90980392 0.058823529 0.11372549
0.13284314 0.046078431 0.031862745
0.13719363 0.035723039 0.023590686
0.21311275 0.037867647 0.023529412
0.32175245 0.034313725 0.019607843
0.45465686 0.028921569 0.01004902
0.59411765 0.0039215686 0.025490196
0.71372549 0.0049019608 0.021078431
0.8254902 0.03125 0.060294118
0.91764706 0.175 0.12156863
0.14803922 0.14215686 0.00098039216
0.19362745 0.1685049 0.015686275
0.26348039 0.16862745 0.015686275
0.36862745 0.15625 0.006004902
0.48676471 0.15882353 0.0039215686
0.61666667 0.16139706 0.0049019608
0.7252451 0.15416667 0.019607843
0.82892157 0.19607843 0.030269608
0.91372549 0.29019608 0.10588235
0.17254902 0.31666667 0
0.22647059 0.33363971 0.0039215686
0.31213235 0.31911765 0.0039215686
0.42101716 0.33627451 0.0039215686
0.53063725 0.33627451 0.0078431373
0.63094363 0.32990196 0.0078431373
0.73872549 0.34166667 0.0078431373
0.83676471 0.36519608 0.0065563725
0.92990196 0.40343137 0.086764706
0.19607843 0.47843137 0
0.26936275 0.4745098 0.0039215686
0.35392157 0.46617647 0.0039215686
0.46029412 0.48627451 0.0078431373
0.5627451 0.49313725 0.0039215686
0.66519608 0.49607843 0.0085784314
0.75980392 0.49705882 0.0039215686
0.84044118 0.50980392 0.015686275
0.91764706 0.51960784 0.045098039
0.26960784 0.60196078 0
0.32352941 0.60147059 0
0.39852941 0.60588235 0.0039215686
0.49901961 0.60196078 0.0078431373
0.5995098 0.61102941 0.0053921569
0.69307598 0.62156863 0.0039215686
0.78088235 0.62830882 0.10808824
0.86127451 0.62971814 0.1495098
0.9254902 0.63578431 0.13333333
0.40098039 0.70588235 0.0039215686
0.42561275 0.70845588 0
0.46789216 0.7127451 0
0.5377451 0.70980392 0.0035539216
0.63039216 0.72058824 0.0078431373
0.72303922 0.72058824 0.0039215686
0.81078431 0.72843137 0.10980392
0.88382353 0.73676471 0.3002451
0.94117647 0.74019608 0.32647059
0.4995098 0.80980392 0
0.52696078 0.80974265 0
0.56556373 0.81323529 0
0.60784314 0.80931373 0
0.68529412 0.82107843 0.0039215686
0.77009804 0.81715686 0.0039215686
0.84607843 0.82107843 0.090318627
0.91127451 0.82892157 0.2971201
0.96519608 0.83284314 0.45931373
0.63137255 0.92156863 0
0.61519608 0.89754902 0.0039215686
0.66176471 0.91078431 0
0.70294118 0.90196078 0
0.75686275 0.91176471 0
0.82254902 0.90980392 0.0039215686
0.89215686 0.90980392 0.1245098
0.95 0.91372549 0.35882353
0.98823529 0.90980392 0.48627451
0.13333333 0.020098039 0.057843137
0.14117647 0.016176471 0.050919118
0.2 0.011764706 0.046078431
0.32352941 0.0056985294 0.047855392
0.45857843 0.0039215686 0.073284314
0.59411765 0 0.078553922
0.7127451 0.0078431373 0.10539216
0.8254902 0.0048406863 0.13284314
0.92107843 0.13186275 0.17156863
0.12199755 0.030882353 0.039215686
0.15147059 0.037806373 0.053431373
0.21617647 0.041896446 0.05
0.327428 0.010332414 0.05
0.46620711 0.0093443627 0.061519608
0.60193781 0.0036151961 0.074617034
0.71758578 0.0025735294 0.08895527
0.825 0.074823836 0.12189032
0.92947304 0.20196078 0.16721814
0.14803922 0.15159314 0.031372549
0.1823989 0.17581189 0.031050858
0.26210172 0.16865809 0.029564951
0.37345282 0.1627451 0.029365809
0.49705882 0.16531863 0.044178922
0.61372549 0.16706495 0.038005515
0.72545956 0.17172181 0.070220588
0.83273591 0.22052696 0.10637255
0.90723039 0.29509804 0.15245098
0.16715686 0.31666667 0.02432598
0.21372549 0.33596814 0
0.3058364 0.32598039 0.003783701
0.41917892 0.34008119 0.0052083333
0.53357843 0.34264706 0.022058824
0.63039216 0.33382353 0.006372549
0.73235294 0.34166667 0.024463848
0.83023131 0.36960784 0.065502451
0.91029412 0.40735294 0.14558824
0.20343137 0.47818627 0.0019607843
0.26957721 0.47818627 0.0041360294
0.34607843 0.47444853 0.0039215686
0.4604473 0.48841912 0.007689951
0.56740196 0.49497549 0
0.66348039 0.49460784 0.039154412
0.75 0.49607843 0.043933824
0.83480392 0.50588235 0.024203431
0.92892157 0.52720588 0.12205882
0.29803922 0.59803922 0.0039215686
0.33331036 0.60549939 0
0.39764093 0.60588235 0.0039215686
0.50294118 0.60913756 0.0039215686
0.60343137 0.61372549 0.0053002451
0.69607843 0.62009804 0.0088771446
0.77990196 0.6254902 0.17420343
0.85735294 0.62941176 0.18039216
0.921875 0.63511029 0.20061275
0.40735294 0.70968137 0.006495098
0.42598039 0.70905331 0.0039215686
0.46764706 0.70882353 0.0039215686
0.54353554 0.71335784 0.0039215686
0.63039216 0.71672794 0.0078431373
0.72316176 0.72058824 0.0055300245
0.80784314 0.72585784 0.1495098
0.88077512 0.74019608 0.32354473
0.93284314 0.74411765 0.34558824
0.51084559 0.80931373 0
0.52696078 0.80979626 0.0039215686
0.5605239 0.80931373 0.005223652
0.61029412 0.81323529 0.0039215686
0.68140319 0.8174326 0.0056678922
0.76617647 0.81715686 0.0078431373
0.84258578 0.82107843 0.1269761
0.91127451 0.82849265 0.33099724
0.96176471 0.83284314 0.47107843
0.6 0.89019608 0
0.61127451 0.89362745 0.014705882
0.64901961 0.90110294 0.0088235294
0.69901961 0.90569853 0.0039215686
0.7495098 0.90612745 0.0058823529
0.81862745 0.90980392 0.011764706
0.89607843 0.92107843 0.18002451
0.95349265 0.91764706 0.37457108
0.99264706 0.91813725 0.50245098
0.1627451 0.0078431373 0.1245098
0.17794118 0.014338235 0.12536765
0.20416667 0.0046568627 0.12230392
0.33321078 0.0039215686 0.15723039
0.46666667 0.0039215686 0.1877451
0.60196078 0 0.20036765
0.71764706 0.0125 0.20073529
0.82512255 0.097916667 0.22892157
0.91862745 0.2127451 0.2627451
0.16409314 0.05 0.12941176
0.18284314 0.045481005 0.12904412
0.2504902 0.052849265 0.14466912
0.34767157 0.025796569 0.16708027
0.47444853 0.0090686275 0.18848039
0.60877757 0.038985907 0.19227941
0.72515319 0.05625 0.19341299
0.82893689 0.13958333 0.22176777
0.92585784 0.24754902 0.25588235
0.17181373 0.15098039 0.1254902
0.20539216 0.17444853 0.12941176
0.28094363 0.18082108 0.14375
0.38851103 0.18137255 0.14745711
0.50098039 0.17634804 0.16176471
0.62156863 0.19166667 0.17601103
0.73308824 0.22334559 0.19019608
0.83284314 0.25922181 0.21032475
0.92769608 0.3254902 0.25563725
0.18872549 0.31605392 0.11813725
0.22058824 0.32659314 0.12107843
0.31127451 0.33903186 0.090686275
0.42794118 0.35306373 0.13212316
0.53327206 0.35104167 0.15514706
0.63472733 0.34276961 0.14068627
0.73627451 0.36246936 0.1622549
0.83676471 0.3823989 0.19068627
0.91617647 0.42267157 0.23958333
0.21960784 0.47647059 0.065196078
0.26985294 0.48039216 0.085477941
0.35294118 0.48627451 0.05122549
0.45490196 0.49803922 0.030269608
0.56862745 0.50196078 0.13186275
0.66519608 0.50392157 0.19681373
0.74987745 0.5 0.17867647
0.83676471 0.50931373 0.17132353
0.9254902 0.53137255 0.23970588
0.3189951 0.60588235 0.046446078
0.34411765 0.60833333 0.024647672
0.41495098 0.6046875 0.038848039
0.49195772 0.61294424 0.0050245098
0.5995098 0.62009804 0.064093137
0.69754902 0.62835478 0.18345588
0.78134191 0.63324142 0.27487745
0.85392157 0.62977941 0.26875
0.92696078 0.64117647 0.28272059
0.41176471 0.7127451 0.014705882
0.42598039 0.7127451 0.0029411765
0.46985294 0.7120098 0.0037377451
0.54595588 0.71473652 0.0039215686
0.63039216 0.72058824 0.025490196
0.72616422 0.7245098 0.11081495
0.80686275 0.72941176 0.2627451
0.88026961 0.74059436 0.38854167
0.93063725 0.74803922 0.40196078
0.51127451 0.81323529 0.0056372549
0.52653186 0.81372549 0.018826593
0.55637255 0.80977328 0.0068933824
0.61029412 0.81323529 0.015425858
0.67745098 0.81715686 0.0039215686
0.76055453 0.81715686 0.043121936
0.84166667 0.82107843 0.24310662
0.90511642 0.82892157 0.38224571
0.96421569 0.83970588 0.50784314
0.61960784 0.90588235 0.090196078
0.63272059 0.91127451 0.11348039
0.65686275 0.90882353 0.049019608
0.69031863 0.90294118 0.022181373
0.73921569 0.90147059 0.0034313725
0.82193627 0.91875 0.013235294
0.88848039 0.91470588 0.2502451
0.95343137 0.92009804 0.42352941
0.98823529 0.91372549 0.52843137
0.2504902 0.0039215686 0.29460784
0.25392157 0.0073529412 0.29068627
0.28529412 0.0018382353 0.29705882
0.35643382 0.006372549 0.29368873
0.47843137 0.0039215686 0.31568627
0.59803922 0.0039215686 0.32591912
0.71372549 0.044485294 0.34203431
0.81764706 0.18216912 0.36176471
0.91372549 0.29411765 0.38235294
0.25814951 0.071384804 0.29313725
0.27491575 0.078737745 0.29672947
0.3149663 0.085922181 0.30240502
0.38382353 0.083402267 0.29914982
0.48520221 0.038970588 0.31191789
0.60588235 0.07377451 0.32856158
0.72149203 0.14215686 0.33419118
0.82123928 0.22647059 0.35016085
0.91011029 0.30655637 0.37696078
0.25968137 0.16335784 0.28627451
0.30053615 0.20145527 0.29446998
0.3495098 0.22726716 0.29742647
0.42156863 0.22519914 0.2990962
0.5127451 0.20686275 0.30171569
0.62340686 0.22610294 0.32058824
0.73189338 0.26516544 0.32696078
0.83284314 0.29754902 0.33913909
0.91666667 0.36311275 0.36703431
0.27555147 0.32843137 0.27408088
0.30783548 0.34620864 0.28173254
0.37257966 0.35712316 0.28353248
0.44362745 0.36184896 0.28676471
0.5377451 0.36519608 0.29264706
0.63878676 0.36519608 0.29573376
0.74080882 0.37794118 0.30415135
0.83707108 0.4127451 0.32101716
0.9254902 0.44601716 0.35490196
0.28504902 0.47843137 0.25465686
0.31838235 0.47460172 0.25407475
0.38927696 0.48958333 0.27493873
0.47328431 0.49365809 0.25655637
0.57254902 0.50196078 0.29889706
0.66911765 0.50983456 0.32279412
0.75661765 0.50588235 0.30539216
0.84132966 0.51936275 0.3122549
0.92230392 0.54313725 0.34460784
0.33829657 0.60196078 0.24810049
0.38577665 0.60324755 0.25550705
0.43457414 0.60741422 0.25919118
0.50952053 0.608678 0.20971967
0.59923407 0.61887255 0.24528186
0.69215686 0.62794118 0.32346814
0.7790288 0.63333333 0.38036152
0.85214461 0.63186275 0.35618107
0.92156863 0.64509804 0.36715686
0.43970588 0.70882353 0.24644608
0.45625 0.7127451 0.2519761
0.49316789 0.7127451 0.24512868
0.55117953 0.7127451 0.20931373
0.63039216 0.72058824 0.20618873
0.72303922 0.72598039 0.28529412
0.8073223 0.73324142 0.38529412
0.87254902 0.74411765 0.46426164
0.93541667 0.74901961 0.46372549
0.52303922 0.80931373 0.26617647
0.54068627 0.81323529 0.26011029
0.56519608 0.81323529 0.2441636
0.61636029 0.81372549 0.21421569
0.67564338 0.81715686 0.12279412
0.75980392 0.82107843 0.22941176
0.84178922 0.825 0.36666667
0.90735294 0.83676471 0.47001379
0.96127451 0.84460784 0.56862745
0.62892157 0.90735294 0.31960784
0.62616422 0.89834559 0.29932598
0.65784314 0.91090686 0.29522059
0.68425245 0.89895833 0.25245098
0.73970588 0.91102941 0.17990196
0.79901961 0.89656863 0.18780637
0.88284314 0.9122549 0.34840686
0.94166667 0.91372549 0.47322304
0.98970588 0.92303922 0.58284314
0.34313725 0.037254902 0.46078431
0.34877451 0.023529412 0.46470588
0.3872549 0.065196078 0.46813725
0.4375 0.095833333 0.47377451
0.51666667 0.11372549 0.47058824
0.60710784 0.075980392 0.45318627
0.71666667 0.10245098 0.4872549
0.81715686 0.19607843 0.50588235
0.90784314 0.30196078 0.51764706
0.37598039 0.14901961 0.46078431
0.39139093 0.15487132 0.4625
0.41985294 0.17205882 0.4716299
0.46911765 0.19077819 0.48020833
0.52316176 0.18676471 0.45735294
0.60971201 0.16976103 0.44543505
0.71752451 0.16678922 0.47530637
0.82107843 0.2497549 0.49632353
0.9 0.32303922 0.51372549
0.4004902 0.26421569 0.45392157
0.42794118 0.28002451 0.45906863
0.45441176 0.29509804 0.46789216
0.49938725 0.30422794 0.47199755
0.55098039 0.30661765 0.45808824
0.63756127 0.28511029 0.46764706
0.72806373 0.29215686 0.46801471
0.825 0.32506127 0.4870098
0.90539216 0.38627451 0.50588235
0.39215686 0.35416667 0.44191176
0.42303922 0.37377451 0.4495098
0.47401961 0.40073529 0.45171569
0.53161765 0.41372549 0.45199142
0.57107843 0.41384804 0.44644608
0.64923407 0.40196078 0.44751838
0.74338235 0.41011029 0.45238971
0.83284314 0.43284314 0.46896446
0.9129902 0.46421569 0.48970588
0.3872549 0.48333333 0.40784314
0.4120098 0.48823529 0.41372549
0.46470588 0.49705882 0.42132353
0.53431373 0.51433824 0.43382353
0.59264706 0.52009804 0.43284314
0.66911765 0.51838235 0.44705882
0.75735294 0.51960784 0.44779412
0.84068627 0.53382353 0.44926471
0.91764706 0.55392157 0.4627451
0.41323529 0.59730392 0.39142157
0.4223652 0.60196078 0.39411765
0.48247549 0.60710784 0.41127451
0.52643995 0.61102941 0.40980392
0.60735294 0.62340686 0.41433824
0.69414828 0.63186275 0.43921569
0.77205882 0.63578431 0.46464461
0.84589461 0.63088235 0.44675245
0.93014706 0.6495098 0.46813725
0.46519608 0.70343137 0.39656863
0.46979167 0.70490196 0.40398284
0.52120098 0.70588235 0.41568627
0.5716299 0.71164216 0.40557598
0.63137255 0.71862745 0.39264706
0.71911765 0.7245098 0.42598039
0.80294118 0.73235294 0.47058824
0.87254902 0.73743873 0.51703431
0.93872549 0.74803922 0.52352941
0.54411765 0.80147059 0.42181373
0.56568627 0.80931373 0.43731618
0.58633578 0.80931373 0.42640931
0.62833946 0.81323529 0.41436887
0.68333333 0.81715686 0.38186275
0.74607843 0.82000613 0.3622549
0.83308824 0.825 0.45943627
0.90713848 0.83333333 0.55566789
0.95245098 0.84411765 0.62009804
0.62941176 0.89803922 0.46862745
0.64313725 0.90612745 0.47671569
0.65931373 0.90343137 0.46127451
0.69264706 0.91617647 0.44779412
0.7372549 0.91372549 0.40196078
0.79485294 0.91397059 0.37205882
0.86960784 0.90882353 0.44215686
0.94166667 0.91764706 0.54264706
0.98431373 0.91764706 0.62941176
0.46078431 0.16568627 0.60588235
0.46862745 0.15900735 0.61501225
0.49571078 0.1877451 0.62058824
0.53235294 0.2161152 0.6254902
0.57941176 0.24387255 0.62892157
0.64509804 0.25196078 0.60343137
0.72598039 0.26617647 0.60526961
0.82156863 0.26176471 0.62647059
0.88872549 0.32156863 0.64509804
0.49148284 0.25490196 0.60373775
0.50304841 0.26116728 0.60949755
0.5245098 0.27794118 0.61764706
0.55539216 0.28676471 0.6254902
0.59877451 0.30768995 0.61519608
0.65035999 0.30029871 0.59086244
0.72598039 0.2975337 0.59070159
0.81715686 0.30343137 0.62123928
0.88088235 0.31893382 0.646875
0.53970588 0.36911765 0.60735294
0.54817708 0.37490809 0.60980392
0.5625 0.38480392 0.61372549
0.58872549 0.39362745 0.61801471
0.6213848 0.41127451 0.61764706
0.66585478 0.4004902 0.6044424
0.72745098 0.37156863 0.58333333
0.8189951 0.36862745 0.62058824
0.89852941 0.4067402 0.64264706
0.53131127 0.44607843 0.59313725
0.55980392 0.46764706 0.6017693
0.58242953 0.47990196 0.60251225
0.61995251 0.49411765 0.60377604
0.6471201 0.50196078 0.61007966
0.68471967 0.49388787 0.5995098
0.74872855 0.47806373 0.59379596
0.83106618 0.45754442 0.61618413
0.90980392 0.48817402 0.62843137
0.50465686 0.51666667 0.5747549
0.53284314 0.52858456 0.57794118
0.56372549 0.53737745 0.58670343
0.62303922 0.5716299 0.58578431
0.65894608 0.58333333 0.59289216
0.70591299 0.56617647 0.59335172
0.76060049 0.54718137 0.59001225
0.84175858 0.55655637 0.59362745
0.91666667 0.56740196 0.59754902
0.51176471 0.60980392 0.5533701
0.52303922 0.61372549 0.54944853
0.56222426 0.61764706 0.55882353
0.60539216 0.63431373 0.55882353
0.65119485 0.63970588 0.55882353
0.70300245 0.64094669 0.56387102
0.77492341 0.64486826 0.57127757
0.84822304 0.64754902 0.57157629
0.92401961 0.65539216 0.58719363
0.52634804 0.69852941 0.54068627
0.5408701 0.70436581 0.54068627
0.57340686 0.70098039 0.54313725
0.60951287 0.70196078 0.54397978
0.65735294 0.7120098 0.54050245
0.71980699 0.72804841 0.5522212
0.79607843 0.73235294 0.57254902
0.87647059 0.73858762 0.60602022
0.93284314 0.74803922 0.61531863
0.56354167 0.79754902 0.55539216
0.59001225 0.80130974 0.5596201
0.59469975 0.80507047 0.55539216
0.62892157 0.80569853 0.55746783
0.67156863 0.81323529 0.54445466
0.74460784 0.81862745 0.54019608
0.82303922 0.825 0.58013174
0.90343137 0.83627451 0.63907016
0.95373775 0.84460784 0.69362745
0.63137255 0.89166667 0.59019608
0.63431373 0.90165441 0.59656863
0.66629902 0.90441176 0.6004902
0.69411765 0.90343137 0.59460784
0.73529412 0.91642157 0.57745098
0.7872549 0.91519608 0.54761029
0.85343137 0.90637255 0.54803922
0.92647059 0.91734069 0.61764706
0.98284314 0.92156863 0.70098039
0.57647059 0.3254902 0.72941176
0.58382353 0.31948529 0.73333333
0.60196078 0.3370098 0.7379902
0.62830882 0.37205882 0.73333333
0.65588235 0.38284314 0.73627451
0.70686275 0.40784314 0.73688725
0.74877451 0.41176471 0.73235294
0.82463235 0.41176471 0.73627451
0.90294118 0.41470588 0.74411765
0.59558824 0.3685049 0.73627451
0.60589767 0.38016238 0.73247549
0.6185049 0.39509804 0.73333333
0.63921569 0.40450368 0.7372549
0.66629902 0.42365196 0.74019608
0.70473346 0.4457261 0.74502145
0.75196078 0.44329044 0.73235294
0.80494792 0.42303922 0.70618873
0.89313725 0.43480392 0.74705882
0.63333333 0.4620098 0.73333333
0.63722426 0.46467525 0.73333333
0.64675245 0.47616422 0.72941176
0.6666973 0.48688725 0.73627451
0.69362745 0.50196078 0.74019608
0.72401961 0.51847426 0.74411765
0.76035539 0.50238971 0.72310049
0.80928309 0.47962623 0.70530025
0.89705882 0.4754902 0.74705882
0.66531863 0.54901961 0.73051471
0.6730239 0.5584712 0.72954963
0.68057598 0.55980392 0.72852328
0.69327512 0.56369485 0.72879902
0.71525735 0.57598039 0.73272059
0.74106924 0.58039216 0.72964154
0.77610294 0.56890319 0.72156863
0.83538603 0.55275735 0.72329963
0.89987745 0.54117647 0.73811275
0.6377451 0.59460784 0.70980392
0.65269608 0.60373775 0.71372549
0.67352941 0.61176471 0.71372549
0.71078431 0.62689951 0.71764706
0.73602941 0.6370098 0.72156863
0.75833333 0.64509804 0.72604167
0.79509804 0.63909314 0.7254902
0.84411765 0.61397059 0.72132353
0.90539216 0.6 0.73676471
0.62242647 0.64803922 0.69803922
0.62686887 0.64791667 0.69693627
0.6564951 0.65563725 0.7004902
0.70482537 0.67340686 0.70441176
0.73553922 0.68210784 0.70882353
0.76421569 0.69810049 0.71433824
0.80294118 0.69332108 0.71390931
0.85350797 0.6754902 0.70595895
0.91433824 0.67058824 0.71715686
0.61936275 0.71764706 0.68529412
0.62129289 0.7254902 0.68308824
0.65140931 0.7245098 0.67916667
0.67527574 0.7245098 0.67769608
0.71176471 0.73039216 0.68247549
0.7575674 0.74757966 0.69093137
0.80778186 0.74877451 0.69730392
0.87941176 0.74877451 0.70196078
0.92647059 0.74803922 0.72254902
0.63872549 0.79056373 0.66666667
0.64166667 0.80217525 0.67843137
0.65245098 0.79831495 0.675
0.6754902 0.80539216 0.67892157
0.70765931 0.81109069 0.68235294
0.75294118 0.81801471 0.68627451
0.8189951 0.82463235 0.6864277
0.89439338 0.83284314 0.71285233
0.9495098 0.84068627 0.76029412
0.66862745 0.89705882 0.70588235
0.66568627 0.89056373 0.69803922
0.67867647 0.89240196 0.70171569
0.69963235 0.89558824 0.70526961
0.7254902 0.88137255 0.69607843
0.78002451 0.90441176 0.7004902
0.83823529 0.89583333 0.68014706
0.92561275 0.92205882 0.7067402
0.96862745 0.90882353 0.7754902
0.67647059 0.45735294 0.83627451
0.6877451 0.47303922 0.83627451
0.69558824 0.47696078 0.83627451
0.70949755 0.4903799 0.83676471
0.73259804 0.51151961 0.84068627
0.76452206 0.53106618 0.84068627
0.79889706 0.53872549 0.83676471
0.83235294 0.53921569 0.83284314
0.87843137 0.53529412 0.82107843
0.69509804 0.49908088 0.83676471
0.69821538 0.50294118 0.83676471
0.70326287 0.50643382 0.83284314
0.71731771 0.51481311 0.83649663
0.74212623 0.53431373 0.84068627
0.77058824 0.5536152 0.84422488
0.79486826 0.56262255 0.83676471
0.83627451 0.55397518 0.82156863
0.87886029 0.5504902 0.82107843
0.72205882 0.56421569 0.83639706
0.72205882 0.56727941 0.83627451
0.72876838 0.56813725 0.83247549
0.742019 0.57598039 0.83676471
0.76323529 0.58903186 0.84068627
0.78186275 0.596875 0.84250919
0.80566789 0.61176471 0.84715074
0.84056373 0.59929534 0.8254902
0.89056373 0.58394608 0.825
0.74479167 0.62303922 0.83284314
0.74634651 0.62565104 0.83300398
0.75191483 0.62941176 0.82598039
0.76329657 0.63480392 0.83058364
0.78063725 0.64509804 0.83676471
0.80098039 0.65533088 0.83823529
0.82530637 0.66096814 0.84839154
0.8582261 0.64918045 0.8411152
0.89803922 0.62352941 0.82371324
0.76004902 0.66789216 0.82892157
0.76219363 0.67328431 0.82674632
0.76979167 0.67745098 0.82573529
0.77876838 0.68440564 0.82132353
0.79705882 0.69411765 0.83002451
0.81789216 0.70554534 0.84019608
0.84099265 0.70833333 0.84044118
0.87156863 0.68921569 0.82892157
0.90980392 0.67181373 0.82696078
0.74136029 0.7096201 0.81746324
0.73903186 0.70394455 0.8158701
0.75196078 0.71127451 0.82071078
0.78474265 0.72390472 0.82237286
0.79837623 0.72990196 0.82892157
0.82990196 0.74784007 0.83645833
0.85752145 0.75257353 0.83644301
0.87937347 0.74099265 0.82892157
0.91078431 0.72598039 0.83137255
0.71556373 0.75931373 0.81237745
0.71948529 0.76227022 0.80620404
0.72981005 0.75931373 0.80931373
0.76066176 0.76683517 0.81360294
0.79166667 0.76868873 0.82414216
0.82598039 0.7872549 0.82446385
0.86470588 0.79402574 0.83293505
0.89924939 0.78589154 0.82156863
0.94203431 0.7627451 0.83664216
0.71476716 0.81758578 0.80588235
0.70343137 0.81666667 0.7979856
0.72161458 0.82365196 0.8057598
0.74944853 0.82516085 0.80588235
0.7794424 0.82935049 0.80588235
0.80637255 0.83020833 0.81368719
0.8600337 0.84820772 0.82167586
0.90697763 0.85294118 0.81459099
0.95343137 0.85294118 0.84509804
0.73431373 0.89019608 0.80980392
0.73866422 0.88676471 0.81023284
0.7372549 0.88186275 0.80980392
0.76207108 0.88970588 0.81372549
0.78333333 0.88872549 0.81151961
0.81421569 0.90765931 0.82107843
0.84595588 0.92156863 0.81715686
0.91519608 0.91415441 0.81807598
0.96813725 0.90980392 0.85980392
0.77254902 0.59215686 0.91764706
0.76862745 0.59215686 0.90980392
0.7754902 0.59607843 0.90882353
0.78823529 0.60539216 0.91519608
0.8 0.61176471 0.90784314
0.81715686 0.62107843 0.91519608
0.84019608 0.63627451 0.92058824
0.86323529 0.65098039 0.92205882
0.90196078 0.65098039 0.92156863
0.78382353 0.61862745 0.92107843
0.77555147 0.60300245 0.90980392
0.78296569 0.61519608 0.90980392
0.78786765 0.61501225 0.90943627
0.80735294 0.62696078 0.91348039
0.82107843 0.63627451 0.91519608
0.84411765 0.64754902 0.91862745
0.86323529 0.64748775 0.91023284
0.88235294 0.65833333 0.91764706
0.79215686 0.64901961 0.90980392
0.79889706 0.65637255 0.91372549
0.8 0.65392157 0.91372549
0.80931373 0.65539216 0.91617647
0.81666667 0.65686275 0.90882353
0.83247549 0.66960784 0.91433824
0.84607843 0.66862745 0.90784314
0.87107843 0.68186275 0.91421569
0.89803922 0.64803922 0.88529412
0.80784314 0.68872549 0.90588235
0.81390931 0.69264706 0.90735294
0.82107843 0.69840686 0.9127451
0.82352941 0.69656863 0.90980392
0.83455882 0.70171569 0.9122549
0.84797794 0.70741422 0.91372549
0.86372549 0.71654412 0.91911765
0.87922794 0.7127451 0.91421569
0.90833333 0.71617647 0.92156863
0.83137255 0.73333333 0.91176471
0.83137255 0.73504902 0.90980392
0.82401961 0.72598039 0.89705882
0.82990196 0.72990196 0.89534314
0.84901961 0.74215686 0.90588235
0.86348039 0.74705882 0.91372549
0.86764706 0.74313725 0.8995098
0.89656863 0.7629902 0.92573529
0.91764706 0.75294118 0.91764706
0.83137255 0.75441176 0.90588235
0.82794118 0.75441176 0.90214461
0.81531863 0.74767157 0.88235294
0.83921569 0.76133578 0.89558824
0.86151961 0.77794118 0.90661765
0.87990196 0.7872549 0.91464461
0.8877451 0.7872549 0.90306373
0.90784314 0.79509804 0.91158088
0.9372549 0.80147059 0.92794118
0.81078431 0.79019608 0.90686275
0.80490196 0.78933824 0.8995098
0.81151961 0.79411765 0.89877451
0.84644608 0.80551471 0.91164216
0.87696078 0.8127451 0.92205882
0.88382353 0.82058824 0.90980392
0.91078431 0.8372549 0.91764706
0.9307598 0.84411765 0.91936275
0.9372549 0.83235294 0.9127451
0.79215686 0.84411765 0.90931373
0.79607843 0.8471201 0.90980392
0.8064951 0.84803922 0.90980392
0.82334559 0.85196078 0.9122549
0.84852941 0.85588235 0.91764706
0.86764706 0.85716912 0.90392157
0.91654412 0.87254902 0.91862745
0.94166667 0.89068627 0.92205882
0.95735294 0.89117647 0.92598039
0.79215686 0.90980392 0.91372549
0.78823529 0.89901961 0.90294118
0.80784314 0.91470588 0.91862745
0.81813725 0.8877451 0.90833333
0.8372549 0.90784314 0.91176471
0.85637255 0.91372549 0.90588235
0.89509804 0.9127451 0.90980392
0.9377451 0.90588235 0.91764706
0.96862745 0.92156863 0.92941176
