site/assets/luts/sha256-801c8de4836711991e0a853437871336dd9a07fd66826ba30872c3784c767967.cube
# LUTr-Schema-Version: 2
# LUTr-ID: sha256-801c8de4836711991e0a853437871336dd9a07fd66826ba30872c3784c767967
# LUTr-Title: fuji fp-100c cool
# LUTr-Collection: Natron HaldCLUT
# LUTr-Collection-ID: natron-haldclut-presets
# LUTr-Source: https://github.com/NatronGitHub/clut
# LUTr-Retrieved: 2026-07-27
# LUTr-Source-File: submissions/natron-haldclut-presets/instant_pro/fuji_fp-100c_cool.png
# LUTr-Source-Format: HALD-PNG
# LUTr-Source-SHA256: 801c8de4836711991e0a853437871336dd9a07fd66826ba30872c3784c767967
# LUTr-License: CC-BY-SA-4.0
# LUTr-License-URL: https://github.com/NatronGitHub/clut#license
# LUTr-License-Basis: repo-license-file
# LUTr-Transform-Class: film-emulation
# LUTr-Tags: creative, film, film-emulation, hald-clut, natron, png, cool, cube
# LUTr-Input-Color-Space: srgb
# LUTr-Input-Gamut: rec709
# LUTr-Input-Transfer: srgb
# LUTr-Output-Color-Space: srgb
# LUTr-Output-Gamut: rec709
# LUTr-Output-Transfer: srgb
# LUTr-Color-Space-Confidence: assumed-display-referred
# LUTr-Domain-Normalized: true
# LUTr-Shaper: none
# LUTr-Original-Grid: 64x64x64
# LUTr-Conversion-Grid: 25x25x25
# LUTr-Conversion-Interpolation: trilinear
# LUTr-Conversion-Method: HALD-PNG LUT image decoded at 16-bit and sampled to 25x25x25 3D CUBE
# LUTr-Conversion-Tool: LUTr scripts/convert-all-to-cube.mjs 2.0.0
# LUTr-Conversion-Date: 2026-07-27
# LUTr-Note: Preserve this metadata and the upstream license notices when redistributing.
TITLE "fuji fp-100c cool"
LUT_3D_SIZE 5
DOMAIN_MIN 0 0 0
DOMAIN_MAX 1 1 1
0.011764706 0.054901961 0.074509804
0.16862745 0.048039216 0.082352941
0.49215686 0.0039215686 0.094117647
0.78039216 0.0039215686 0.11862745
0.97254902 0.17254902 0.16862745
0 0.19607843 0.098039216
0.21887255 0.21470588 0.075490196
0.55784314 0.23431373 0.095098039
0.80686275 0.24926471 0.11740196
0.96568627 0.32254902 0.16568627
0 0.49019608 0.13921569
0.19313725 0.48235294 0.16029412
0.50980392 0.51568627 0.014705882
0.79411765 0.5377451 0.067156863
0.94313725 0.57647059 0.23137255
0 0.70882353 0.22058824
0.21666667 0.69877451 0.21372549
0.47058824 0.70686275 0.18529412
0.7252451 0.7379902 0.027941176
0.94803922 0.76764706 0.1
0.45490196 0.93333333 0.49411765
0.50098039 0.92941176 0.49411765
0.6372549 0.92745098 0.50392157
0.79509804 0.94509804 0.4872549
0.94901961 0.96078431 0.43921569
0.0088235294 0.054901961 0.22058824
0.23921569 0.020343137 0.26004902
0.4872549 0.031372549 0.25441176
0.7754902 0.025245098 0.25906863
0.96470588 0.2127451 0.28235294
0.013970588 0.2245098 0.27965686
0.26237745 0.25238971 0.29552696
0.57107843 0.2622549 0.29031863
0.79601716 0.2745098 0.28198529
0.96936275 0.34117647 0.29411765
0.0039215686 0.53970588 0.32352941
0.23088235 0.525 0.31715686
0.55416667 0.54828431 0.26593137
0.80490196 0.56862745 0.31421569
0.95833333 0.58823529 0.37303922
0.011764706 0.73137255 0.33848039
0.24705882 0.72377451 0.33602941
0.49019608 0.72058824 0.32745098
0.73921569 0.74466912 0.24540441
0.95196078 0.78137255 0.3127451
0.44705882 0.93627451 0.53627451
0.49901961 0.93333333 0.53823529
0.63627451 0.93382353 0.55392157
0.79485294 0.94681373 0.54460784
0.95196078 0.96078431 0.49901961
0.0078431373 0.017647059 0.50588235
0.30931373 0.0078431373 0.55735294
0.67254902 0.0078431373 0.61764706
0.73235294 0.22598039 0.53823529
0.94509804 0.25490196 0.5254902
0.038235294 0.21617647 0.52941176
0.30882353 0.22745098 0.56421569
0.67034314 0.24093137 0.63235294
0.74632353 0.37169118 0.56078431
0.94460784 0.35098039 0.51960784
0.14411765 0.52843137 0.57156863
0.32034314 0.57181373 0.60294118
0.60441176 0.61176471 0.62990196
0.78676471 0.60588235 0.59730392
0.94705882 0.5872549 0.56470588
0.25245098 0.775 0.61519608
0.33431373 0.775 0.60772059
0.54019608 0.7627451 0.58651961
0.74901961 0.77463235 0.54926471
0.92647059 0.7995098 0.58872549
0.41372549 0.94117647 0.6627451
0.45196078 0.93872549 0.65588235
0.6 0.93333333 0.65490196
0.7754902 0.93578431 0.65294118
0.95686275 0.96862745 0.64705882
0.24803922 0 0.78039216
0.40294118 0.0039215686 0.79215686
0.70098039 0.0039215686 0.84411765
0.92843137 0.019607843 0.86102941
0.93921569 0.40980392 0.78431373
0.2370098 0.2125 0.76568627
0.38651961 0.19957108 0.78468137
0.67463235 0.17745098 0.83419118
0.90122549 0.29460784 0.85079657
0.90980392 0.46691176 0.79338235
0.010294118 0.45098039 0.70637255
0.26164216 0.47267157 0.73970588
0.58161765 0.53872549 0.79705882
0.84362745 0.62389706 0.84816176
0.90098039 0.64852941 0.79754902
0.31176471 0.74093137 0.7879902
0.3713848 0.74705882 0.79172794
0.56654412 0.78039216 0.81458333
0.77120098 0.81599265 0.82610294
0.91372549 0.82647059 0.83137255
0.45392157 0.93823529 0.86176471
0.51764706 0.95294118 0.86642157
0.6245098 0.95539216 0.85833333
0.76372549 0.94411765 0.82647059
0.92352941 0.96176471 0.8127451
0.56078431 0.20392157 0.98823529
0.61372549 0.1872549 0.98823529
0.77058824 0.10588235 0.99607843
0.97254902 0.0068627451 1
1 0.35294118 0.99215686
0.54509804 0.36078431 0.98431373
0.58823529 0.33529412 0.97818627
0.75490196 0.325 0.98970588
0.94803922 0.31642157 0.9872549
1 0.47156863 0.98823529
0.40196078 0.54705882 0.96666667
0.45441176 0.53578431 0.95196078
0.67352941 0.56470588 0.97745098
0.89166667 0.6004902 0.98431373
0.99607843 0.67058824 0.99411765
0.33529412 0.76764706 0.95588235
0.3745098 0.75808824 0.95318627
0.51960784 0.75196078 0.95588235
0.78308824 0.78431373 0.96764706
0.95196078 0.84509804 0.96862745
0.55294118 0.94117647 0.97254902
0.55392157 0.94117647 0.95980392
0.67647059 0.95490196 0.9745098
0.79313725 0.95490196 0.96666667
0.95294118 0.98823529 0.98823529
