site/assets/luts/sha256-6edb9e693c0157c413754046065cca88a27eaab727efd716a196ad84d3cf399a.cube
# LUTr-Schema-Version: 2
# LUTr-ID: sha256-6edb9e693c0157c413754046065cca88a27eaab727efd716a196ad84d3cf399a
# LUTr-Title: generic kodak ektachrome 100 vs
# LUTr-Collection: Natron HaldCLUT
# LUTr-Collection-ID: natron-haldclut-presets
# LUTr-Source: https://github.com/NatronGitHub/clut
# LUTr-Retrieved: 2026-07-27
# LUTr-Source-File: submissions/natron-haldclut-presets/colorslide/generic_kodak_ektachrome_100_vs.png
# LUTr-Source-Format: HALD-PNG
# LUTr-Source-SHA256: 6edb9e693c0157c413754046065cca88a27eaab727efd716a196ad84d3cf399a
# LUTr-License: CC-BY-SA-4.0
# LUTr-License-URL: https://github.com/NatronGitHub/clut#license
# LUTr-License-Basis: repo-license-file
# LUTr-Transform-Class: film-emulation
# LUTr-Tags: creative, film, film-emulation, hald-clut, natron, png, cube
# LUTr-Input-Color-Space: srgb
# LUTr-Input-Gamut: rec709
# LUTr-Input-Transfer: srgb
# LUTr-Output-Color-Space: srgb
# LUTr-Output-Gamut: rec709
# LUTr-Output-Transfer: srgb
# LUTr-Color-Space-Confidence: assumed-display-referred
# LUTr-Domain-Normalized: true
# LUTr-Shaper: none
# LUTr-Original-Grid: 64x64x64
# LUTr-Conversion-Grid: 25x25x25
# LUTr-Conversion-Interpolation: trilinear
# LUTr-Conversion-Method: HALD-PNG LUT image decoded at 16-bit and sampled to 25x25x25 3D CUBE
# LUTr-Conversion-Tool: LUTr scripts/convert-all-to-cube.mjs 2.0.0
# LUTr-Conversion-Date: 2026-07-27
# LUTr-Note: Preserve this metadata and the upstream license notices when redistributing.
TITLE "generic kodak ektachrome 100 vs"
LUT_3D_SIZE 5
DOMAIN_MIN 0 0 0
DOMAIN_MAX 1 1 1
0.0039215686 0.015686275 0.0039215686
0.23039216 0.026470588 0.035294118
0.57843137 0.023529412 0.011764706
0.97352941 0.0039215686 0.0068627451
1 0.0039215686 0.0039215686
0.031372549 0.19901961 0.038235294
0.21887255 0.18039216 0.030392157
0.57843137 0.16519608 0.026470588
0.94803922 0.14338235 0.019607843
1 0.12941176 0.023529412
0.0039215686 0.5 0.082352941
0.053921569 0.4995098 0.082352941
0.52647059 0.47745098 0.076470588
0.91127451 0.4627451 0.064705882
0.99215686 0.46666667 0.064705882
0.00098039216 0.8 0.053921569
0.011764706 0.79215686 0.068627451
0.47794118 0.79264706 0.069607843
0.84313725 0.77328431 0.053676471
0.99607843 0.76862745 0.042156863
0 1 0.098039216
0 0.99607843 0.10098039
0.44901961 0.99607843 0.084313725
0.77745098 0.99215686 0.081372549
0.99607843 0.96862745 0.078431373
0.011764706 0.011764706 0.16470588
0.22671569 0.032107843 0.16642157
0.60147059 0.023529412 0.14607843
0.95808824 0.0078431373 0.14117647
1 0 0.12843137
0.057843137 0.18039216 0.17965686
0.20631127 0.18039216 0.17965686
0.57598039 0.16764706 0.1689951
0.95863971 0.14117647 0.15925245
1 0.13553922 0.14926471
0.011764706 0.50147059 0.21421569
0.049264706 0.49840686 0.20772059
0.5254902 0.48161765 0.20098039
0.90539216 0.47169118 0.20441176
0.99607843 0.45686275 0.18284314
0 0.80612745 0.23995098
0.0086397059 0.8 0.2276348
0.475 0.7939951 0.21421569
0.83210784 0.77647059 0.20839461
0.99289216 0.77647059 0.20686275
0 0.99607843 0.25
0.0078431373 0.99607843 0.2620098
0.45294118 0.99215686 0.25833333
0.78357843 0.98406863 0.24411765
1 0.99607843 0.23529412
0.0078431373 0.0039215686 0.43921569
0.21862745 0.015196078 0.4372549
0.57352941 0.012745098 0.43039216
0.97892157 0 0.4127451
1 0.0019607843 0.41764706
0.047058824 0.18823529 0.4622549
0.20526961 0.19129902 0.45588235
0.57843137 0.16470588 0.44877451
0.95343137 0.13811275 0.43762255
1 0.13676471 0.42843137
0 0.50588235 0.4872549
0.021568627 0.49485294 0.48921569
0.52156863 0.48235294 0.48627451
0.90784314 0.46617647 0.46862745
1 0.46078431 0.46078431
0 0.80784314 0.52745098
0.0057598039 0.80073529 0.52009804
0.45833333 0.79607843 0.52034314
0.83921569 0.78112745 0.50882353
1 0.77647059 0.50441176
0 0.99607843 0.53921569
0 0.99411765 0.54313725
0.45 0.99215686 0.54215686
0.78872549 0.98039216 0.53921569
1 0.98039216 0.53137255
0.023529412 0.019607843 0.71764706
0.21764706 0.020588235 0.71372549
0.58872549 0.01372549 0.71127451
0.96568627 0.015686275 0.69019608
1 0.0088235294 0.69411765
0.046323529 0.19215686 0.73333333
0.19172794 0.18651961 0.73216912
0.57303922 0.16323529 0.7245098
0.96348039 0.1403799 0.71427696
1 0.13333333 0.70416667
0.0068627451 0.50588235 0.77009804
0.020588235 0.49460784 0.76654412
0.53504902 0.48308824 0.75563725
0.89901961 0.4627451 0.74852941
1 0.45882353 0.74068627
0 0.80784314 0.79117647
0.0015318627 0.80171569 0.79197304
0.46666667 0.78872549 0.78235294
0.83523284 0.77745098 0.77573529
0.99705882 0.77328431 0.77181373
0 0.99705882 0.80392157
0.01372549 0.98431373 0.80294118
0.44656863 0.98431373 0.80392157
0.78137255 0.99191176 0.79828431
1 0.97254902 0.79117647
0 0 0.92156863
0.22647059 0.03627451 0.90980392
0.6 0.011764706 0.89215686
0.98137255 0.00098039216 0.89411765
1 0.019607843 0.89411765
0.05 0.18137255 0.92843137
0.19705882 0.17573529 0.9254902
0.57107843 0.1627451 0.89705882
0.95857843 0.14509804 0.88651961
1 0.14509804 0.90490196
0.01372549 0.49803922 0.95098039
0.014215686 0.49852941 0.96176471
0.52941176 0.48823529 0.94607843
0.88970588 0.4627451 0.93480392
1 0.45294118 0.93529412
0 0.79313725 0.98137255
0.0039215686 0.8 0.97843137
0.45490196 0.78823529 0.97254902
0.83921569 0.78039216 0.95686275
0.99607843 0.77254902 0.97156863
0 1 0.99607843
0.0039215686 0.99215686 0.97647059
0.44901961 1 0.99803922
0.78333333 0.97843137 0.99215686
1 1 0.99215686
