site/assets/luts/sha256-97fa22ba2b82a9cee32d319451fb40d0aac81b0540a3978d9fbdcfe2209cbb38.cube
# LUTr-Schema-Version: 2
# LUTr-ID: sha256-97fa22ba2b82a9cee32d319451fb40d0aac81b0540a3978d9fbdcfe2209cbb38
# LUTr-Title: polaroid px-70 warm
# LUTr-Collection: Natron HaldCLUT
# LUTr-Collection-ID: natron-haldclut-presets
# LUTr-Source: https://github.com/NatronGitHub/clut
# LUTr-Retrieved: 2026-07-27
# LUTr-Source-File: submissions/natron-haldclut-presets/instant_consumer/polaroid_px-70_warm.png
# LUTr-Source-Format: HALD-PNG
# LUTr-Source-SHA256: 97fa22ba2b82a9cee32d319451fb40d0aac81b0540a3978d9fbdcfe2209cbb38
# LUTr-License: CC-BY-SA-4.0
# LUTr-License-URL: https://github.com/NatronGitHub/clut#license
# LUTr-License-Basis: repo-license-file
# LUTr-Transform-Class: film-emulation
# LUTr-Tags: creative, film, film-emulation, hald-clut, natron, png, warm, cube
# LUTr-Input-Color-Space: srgb
# LUTr-Input-Gamut: rec709
# LUTr-Input-Transfer: srgb
# LUTr-Output-Color-Space: srgb
# LUTr-Output-Gamut: rec709
# LUTr-Output-Transfer: srgb
# LUTr-Color-Space-Confidence: assumed-display-referred
# LUTr-Domain-Normalized: true
# LUTr-Shaper: none
# LUTr-Original-Grid: 64x64x64
# LUTr-Conversion-Grid: 25x25x25
# LUTr-Conversion-Interpolation: trilinear
# LUTr-Conversion-Method: HALD-PNG LUT image decoded at 16-bit and sampled to 25x25x25 3D CUBE
# LUTr-Conversion-Tool: LUTr scripts/convert-all-to-cube.mjs 2.0.0
# LUTr-Conversion-Date: 2026-07-27
# LUTr-Note: Preserve this metadata and the upstream license notices when redistributing.
TITLE "polaroid px-70 warm"
LUT_3D_SIZE 9
DOMAIN_MIN 0 0 0
DOMAIN_MAX 1 1 1
0.13333333 0.12941176 0.14901961
0.12941176 0.1254902 0.14509804
0.16176471 0.12156863 0.14803922
0.25294118 0.12303922 0.15294118
0.40980392 0.12745098 0.16078431
0.63529412 0.13333333 0.16470588
0.84117647 0.25196078 0.15588235
0.96568627 0.41029412 0.15735294
0.99607843 0.51372549 0.19607843
0.13333333 0.14509804 0.15294118
0.13676471 0.14068627 0.14901961
0.18529412 0.14117647 0.15294118
0.27990196 0.14460784 0.15294118
0.44240196 0.15416667 0.16078431
0.65165441 0.18382353 0.16256127
0.83982843 0.29460784 0.1560049
0.95833333 0.43284314 0.16127451
1 0.55245098 0.19607843
0.12941176 0.17156863 0.15686275
0.14669118 0.18529412 0.15686275
0.21568627 0.19607843 0.15906863
0.31654412 0.19889706 0.15686275
0.48382353 0.21323529 0.15294118
0.68921569 0.27781863 0.15686275
0.85563725 0.38504902 0.14509804
0.97058824 0.50490196 0.15294118
0.99705882 0.59901961 0.21568627
0.14901961 0.30637255 0.17254902
0.17628676 0.29460784 0.17107843
0.24227941 0.29963235 0.16862745
0.37493873 0.3245098 0.16170343
0.54362745 0.36127451 0.15220588
0.71323529 0.40490196 0.13241422
0.8627451 0.49448529 0.13480392
0.95147059 0.57058824 0.15
0.98431373 0.62205882 0.20392157
0.15098039 0.47843137 0.17647059
0.21642157 0.46666667 0.17647059
0.29901961 0.47058824 0.17696078
0.40882353 0.49068627 0.16862745
0.59509804 0.53235294 0.1627451
0.74387255 0.56617647 0.14240196
0.86617647 0.60147059 0.11372549
0.94215686 0.6379902 0.15539216
0.97058824 0.65882353 0.1745098
0.3122549 0.65833333 0.20833333
0.32371324 0.64313725 0.20441176
0.38431373 0.64264706 0.20294118
0.50833333 0.6504902 0.20931373
0.62916667 0.67058824 0.18627451
0.76813725 0.70091912 0.1838848
0.86078431 0.71458333 0.19754902
0.92254902 0.72647059 0.21256127
0.97254902 0.7495098 0.25539216
0.50686275 0.7754902 0.28529412
0.49767157 0.77291667 0.26384804
0.54901961 0.76862745 0.28529412
0.61519608 0.77401961 0.29375
0.70588235 0.77794118 0.30147059
0.7932598 0.79448529 0.30980392
0.86053922 0.80367647 0.30588235
0.91470588 0.80992647 0.31776961
0.94901961 0.81862745 0.34117647
0.66960784 0.85588235 0.38627451
0.68872549 0.85980392 0.39846814
0.71176471 0.85980392 0.40588235
0.73382353 0.85343137 0.40196078
0.77401961 0.85980392 0.41372549
0.83118873 0.86764706 0.42696078
0.87205882 0.87156863 0.425
0.9151348 0.87598039 0.44117647
0.95686275 0.8872549 0.46372549
0.81960784 0.91764706 0.51372549
0.82352941 0.91764706 0.51372549
0.82745098 0.91372549 0.51078431
0.8377451 0.91372549 0.51372549
0.86666667 0.92352941 0.53529412
0.88137255 0.92303922 0.53235294
0.90294118 0.9254902 0.52941176
0.92990196 0.93284314 0.54460784
0.94509804 0.9254902 0.53333333
0.1254902 0.12941176 0.15686275
0.1254902 0.12941176 0.15686275
0.17058824 0.1254902 0.15637255
0.25520833 0.12316176 0.15667892
0.4372549 0.13186275 0.17230392
0.65294118 0.14834559 0.17775735
0.85294118 0.28284314 0.19252451
0.97696078 0.42892157 0.19908088
0.99656863 0.53333333 0.23480392
0.12941176 0.15245098 0.16029412
0.1432598 0.14504442 0.16029412
0.19362745 0.1511489 0.16078431
0.27990196 0.14852941 0.16770833
0.45021446 0.15588235 0.17205882
0.67410386 0.21029412 0.17990196
0.86499694 0.31372549 0.18748468
0.96612286 0.45942862 0.20691636
1 0.56372549 0.24607843
0.13198529 0.17794118 0.16421569
0.16786152 0.19330576 0.17238051
0.22117034 0.19304534 0.1671875
0.34278493 0.21582414 0.1723652
0.50612745 0.23394608 0.17598039
0.70182292 0.27455576 0.17598039
0.86724877 0.38823529 0.17493873
0.96568627 0.50963542 0.19264706
1 0.57107843 0.21568627
0.16403186 0.31243873 0.18382353
0.19705882 0.30633425 0.1877451
0.25833333 0.30894608 0.18632047
0.38676471 0.33982077 0.18001685
0.5591299 0.37352941 0.17598039
0.73487286 0.40784314 0.16040901
0.87051164 0.49264706 0.15940564
0.95128676 0.56927849 0.18578431
0.99558824 0.63756127 0.24607843
0.19901961 0.48235294 0.19558824
0.22693015 0.4783701 0.19387255
0.31335784 0.48204657 0.19773284
0.44705882 0.50441176 0.19754902
0.5997549 0.54007353 0.18970588
0.75824142 0.57818627 0.16421569
0.87156863 0.6122549 0.16207108
0.94215686 0.64338235 0.17745098
0.97598039 0.66813725 0.2002451
0.34558824 0.67420343 0.22058824
0.37068781 0.65441176 0.23204657
0.43003983 0.65917586 0.23285846
0.52450214 0.66341146 0.23382353
0.65294118 0.68226103 0.23128064
0.76813725 0.70281097 0.2167356
0.86360294 0.71904105 0.22647059
0.92888327 0.7377451 0.2401731
0.97254902 0.75196078 0.27665441
0.52340686 0.77928922 0.30183824
0.5412837 0.78316483 0.29705882
0.57818627 0.78324142 0.30153186
0.62807904 0.77928922 0.30931373
0.70980392 0.79093137 0.32279412
0.79385723 0.79509804 0.32892157
0.86173407 0.80741422 0.32846201
0.92205882 0.82156863 0.33650429
0.95980392 0.8254902 0.375
0.68780637 0.85631127 0.40496324
0.70042892 0.85980392 0.41243107
0.71164216 0.85980392 0.4088848
0.73768382 0.85631127 0.41933977
0.78290441 0.86351103 0.43088235
0.82755821 0.87156863 0.44417892
0.87205882 0.8754902 0.44411765
0.91814491 0.88252145 0.45599724
0.94944853 0.88333333 0.46813725
0.81666667 0.91764706 0.51421569
0.81243873 0.91078431 0.50692402
0.82745098 0.91372549 0.51372549
0.84381127 0.91764706 0.52009804
0.8627451 0.91985294 0.52916667
0.87990196 0.92156863 0.53333333
0.90686275 0.92941176 0.54105392
0.92990196 0.93026961 0.54509804
0.94901961 0.9372549 0.55637255
0.11764706 0.13333333 0.1754902
0.11531863 0.12843137 0.17058824
0.1752451 0.12941176 0.1754902
0.25330882 0.12732843 0.18125
0.44852941 0.12303922 0.20245098
0.67990196 0.10428922 0.22009804
0.86544118 0.29019608 0.25098039
0.97316176 0.46813725 0.28382353
0.99607843 0.57352941 0.31862745
0.13284314 0.14987745 0.18676471
0.14803922 0.14891238 0.18288909
0.19175858 0.14690564 0.17916667
0.2941636 0.16309743 0.19491422
0.49031863 0.15392157 0.21207108
0.69805453 0.18135723 0.22365196
0.88235294 0.34718137 0.25392157
0.97046569 0.48419118 0.27689951
0.99607843 0.59473039 0.32254902
0.15808824 0.19705882 0.19877451
0.18272059 0.20196078 0.20122549
0.24589461 0.21593137 0.20490196
0.3513174 0.21654412 0.20906863
0.5310049 0.23970588 0.21764706
0.7245098 0.31004902 0.23308824
0.87745098 0.42334559 0.25
0.96531863 0.5364277 0.27598039
1 0.60220588 0.30465686
0.18615196 0.31997549 0.21715686
0.23177083 0.32561275 0.22107843
0.2948223 0.32892157 0.22429534
0.41764706 0.35196078 0.22794118
0.5716299 0.37598039 0.2254902
0.75539216 0.43252145 0.22487745
0.88431373 0.50955882 0.22696078
0.95 0.58970588 0.26599265
0.99031863 0.64742647 0.30392157
0.2622549 0.50196078 0.23578431
0.29754902 0.49803922 0.23792892
0.35784314 0.50147059 0.24215686
0.47794118 0.5158701 0.24828431
0.61862745 0.53897059 0.24019608
0.76691176 0.57371324 0.22120098
0.88051471 0.61580882 0.22843137
0.9495098 0.65753676 0.25533088
0.98480392 0.69313725 0.29509804
0.38431373 0.66470588 0.26580882
0.41306679 0.66470588 0.26973039
0.47784926 0.67285539 0.27512255
0.55441176 0.67231924 0.28186275
0.66856618 0.68823529 0.27518382
0.77768076 0.70392157 0.27156863
0.86933211 0.72552083 0.27178309
0.93253676 0.7403799 0.29315257
0.97438725 0.75343137 0.32352941
0.55294118 0.77843137 0.33529412
0.57159926 0.77928922 0.33823529
0.60588235 0.78333333 0.34534314
0.65208333 0.78587623 0.35
0.71960784 0.79411765 0.35465686
0.79108456 0.80012255 0.35854779
0.86151961 0.81151961 0.36574755
0.9185049 0.8176777 0.37889093
0.95980392 0.8254902 0.40098039
0.70784314 0.85980392 0.42414216
0.71164216 0.85980392 0.42751225
0.72962623 0.85980392 0.43290441
0.75039828 0.85980392 0.43699449
0.78743873 0.86194853 0.44761029
0.82694547 0.87357537 0.46060049
0.87279412 0.87941176 0.46715686
0.91335784 0.88365502 0.47510723
0.94901961 0.88713235 0.48370098
0.82745098 0.91862745 0.52156863
0.83394608 0.92156863 0.5254902
0.83946078 0.92181373 0.52965686
0.84705882 0.91703431 0.52659314
0.86911765 0.92205882 0.54166667
0.87745098 0.91666667 0.52843137
0.90686275 0.9254902 0.54436275
0.92953431 0.92647059 0.54509804
0.95294118 0.9372549 0.56078431
0.11372549 0.14117647 0.22205882
0.15833333 0.14509804 0.2245098
0.23370098 0.15477941 0.22781863
0.29852941 0.15931373 0.22843137
0.4379902 0.15392157 0.24215686
0.67843137 0.13094363 0.27941176
0.88872549 0.20637255 0.30637255
0.98008578 0.40784314 0.34068627
1 0.60245098 0.3995098
0.14313725 0.15900735 0.23204657
0.18382353 0.16405484 0.23202359
0.24897365 0.17028186 0.23331801
0.31641391 0.18370098 0.23731618
0.48226103 0.19053309 0.2591299
0.70258119 0.19080116 0.28694853
0.89803922 0.27584252 0.31158088
0.97303922 0.46354167 0.35486366
0.99607843 0.60704657 0.39705882
0.17365196 0.21911765 0.24767157
0.19362745 0.22106311 0.25098039
0.27977941 0.2377451 0.25955882
0.3785386 0.25035233 0.2627451
0.54656863 0.26323529 0.27984069
0.74025735 0.31971507 0.30735294
0.90033701 0.42380515 0.3325674
0.96727941 0.58982843 0.38609069
0.99607843 0.66127451 0.41372549
0.22058824 0.34748775 0.27310049
0.25980392 0.35196078 0.27782629
0.32990196 0.35919118 0.28319547
0.45268076 0.36764706 0.28635876
0.60735294 0.41004902 0.29905025
0.77303922 0.46470588 0.31323529
0.88529412 0.54375 0.33512561
0.9536152 0.63647365 0.37566636
0.99270833 0.69509804 0.4127451
0.33382353 0.51372549 0.30220588
0.3622549 0.51372549 0.30490196
0.44656863 0.52671569 0.3127451
0.52325368 0.53655025 0.31519608
0.6504902 0.55870098 0.31519608
0.7875 0.59460784 0.3125
0.88229167 0.63498775 0.32671569
0.94558824 0.67959559 0.35520833
0.98676471 0.72132353 0.39558824
0.48523284 0.67254902 0.34509804
0.50893842 0.67254902 0.34773284
0.53976716 0.67647059 0.34270833
0.60247396 0.68039216 0.34515931
0.69684436 0.69607843 0.35238971
0.79322151 0.71176471 0.34607843
0.87213542 0.72879902 0.3549326
0.93284314 0.73816636 0.36323529
0.96862745 0.74558824 0.36770833
0.6245098 0.78970588 0.39362745
0.61845895 0.78333333 0.38743873
0.64816176 0.7872549 0.39154412
0.68434436 0.7872549 0.39791667
0.74375 0.79356618 0.40294118
0.80183824 0.80196078 0.40833333
0.86862745 0.81004902 0.41862745
0.92173713 0.81764706 0.41911765
0.96078431 0.8254902 0.44313725
0.73627451 0.85980392 0.46519608
0.73596814 0.85980392 0.4622932
0.75208333 0.86482843 0.46328125
0.77488511 0.86372549 0.47021293
0.80229779 0.86764706 0.47843137
0.84429381 0.87156863 0.48608303
0.87990196 0.8754902 0.48988971
0.92077206 0.88333333 0.49754902
0.95686275 0.89460784 0.50900735
0.83921569 0.92156863 0.5372549
0.82971814 0.91550245 0.52990196
0.83602941 0.91654412 0.52830882
0.85343137 0.91856618 0.53670343
0.87377451 0.9254902 0.54632353
0.88927696 0.9221201 0.5504902
0.91078431 0.92941176 0.55477941
0.93382353 0.93333333 0.55716912
0.95294118 0.9372549 0.56862745
0.14313725 0.14901961 0.28627451
0.19926471 0.15490196 0.29191176
0.29509804 0.16372549 0.29607843
0.40710784 0.20563725 0.30318627
0.52941176 0.24019608 0.32941176
0.67769608 0.2379902 0.35196078
0.8627451 0.27696078 0.39705882
0.97328431 0.41862745 0.42622549
0.99607843 0.57647059 0.45490196
0.20122549 0.17401961 0.30735294
0.2377451 0.18311887 0.31151961
0.33118873 0.20202206 0.31666667
0.45808824 0.24883578 0.32696078
0.55906863 0.29509804 0.3372549
0.71314338 0.29476103 0.36593137
0.87873775 0.33131127 0.40275735
0.95784314 0.4622549 0.43186275
0.99019608 0.5877451 0.45882353
0.21372549 0.25784314 0.32892157
0.25196078 0.25055147 0.33259804
0.3557598 0.28039216 0.34215686
0.48333333 0.3278799 0.35018382
0.60588235 0.37671569 0.35612745
0.7442402 0.38376225 0.38333333
0.88419118 0.44607843 0.40833333
0.95833333 0.55808824 0.44019608
0.98872549 0.66960784 0.47941176
0.24044118 0.37696078 0.3495098
0.27034314 0.37892157 0.35211397
0.36789216 0.39344363 0.36066176
0.50637255 0.43186275 0.3674326
0.6557598 0.48063725 0.37965686
0.77846201 0.50585172 0.39681373
0.88768382 0.56403186 0.42941176
0.9495098 0.66847426 0.46568627
0.98039216 0.73823529 0.49730392
0.36666667 0.54117647 0.38039216
0.37696078 0.53333333 0.37267157
0.4627451 0.54509804 0.38088235
0.5627451 0.55870098 0.38982843
0.69705882 0.59117647 0.40441176
0.80441176 0.62573529 0.41764706
0.88431373 0.66813725 0.43406863
0.94166667 0.71862745 0.45931373
0.96666667 0.75 0.47647059
0.50539216 0.68676471 0.40539216
0.53048407 0.67628676 0.40916054
0.57224265 0.68615196 0.40808824
0.65637255 0.69730392 0.42034314
0.73223039 0.70637255 0.42205882
0.80833333 0.72037377 0.43042279
0.87965686 0.74068627 0.4372549
0.93397672 0.76063113 0.44549632
0.97254902 0.77990196 0.46862745
0.6627451 0.79509804 0.4504902
0.66470588 0.78339461 0.453125
0.68198529 0.7872549 0.44571078
0.72720588 0.79411765 0.45563725
0.76960784 0.79509804 0.46004902
0.8254902 0.8026348 0.46047794
0.87291667 0.81078431 0.46617647
0.92555147 0.82156863 0.47224265
0.96372549 0.83235294 0.49313725
0.77009804 0.86372549 0.5004902
0.77331495 0.86372549 0.50070466
0.7754902 0.86372549 0.49705882
0.79754902 0.86479779 0.50098039
0.82071078 0.86764706 0.50490196
0.8495098 0.87156863 0.5127451
0.88553922 0.87941176 0.51623775
0.92205882 0.8872549 0.51666667
0.94926471 0.8872549 0.52647059
0.84901961 0.91960784 0.54705882
0.84534314 0.91764706 0.54705882
0.84705882 0.91421569 0.54509804
0.85735294 0.91691176 0.54828431
0.8745098 0.92156863 0.55294118
0.89166667 0.92156863 0.55686275
0.91372549 0.92598039 0.5627451
0.92990196 0.92009804 0.55490196
0.96078431 0.94313725 0.58235294
0.29362745 0.18578431 0.41372549
0.31470588 0.17794118 0.40833333
0.43982843 0.2127451 0.41875
0.57794118 0.27150735 0.43425245
0.69607843 0.37965686 0.43921569
0.77297794 0.4495098 0.44901961
0.86568627 0.42990196 0.47205882
0.96029412 0.51421569 0.49344363
0.99215686 0.5872549 0.50735294
0.31960784 0.22205882 0.4254902
0.36227788 0.2254902 0.42865349
0.4647212 0.25159314 0.43676471
0.58382353 0.29627757 0.43676471
0.70318627 0.42990196 0.44509804
0.79166667 0.48174786 0.46060049
0.86629902 0.47843137 0.4745098
0.95606618 0.53578431 0.49705882
0.99607843 0.62334559 0.51648284
0.30637255 0.29264706 0.44117647
0.37303922 0.31861213 0.44666054
0.47386642 0.3291973 0.44822304
0.61470588 0.38529412 0.45870098
0.72058824 0.48719363 0.46243873
0.80882353 0.5522212 0.47218137
0.88039216 0.5564951 0.48483456
0.9495864 0.58743873 0.50142463
0.98713235 0.66335784 0.52022059
0.29154412 0.43480392 0.44754902
0.35116422 0.43841912 0.45282629
0.467356 0.45306373 0.45870098
0.6127451 0.48543964 0.47107843
0.74093137 0.56593137 0.47622549
0.82122396 0.62571998 0.48192402
0.89731924 0.63094363 0.49767157
0.93903952 0.67696078 0.51256893
0.98039216 0.72647059 0.52696078
0.38063725 0.57941176 0.45931373
0.41029412 0.57215074 0.45646446
0.48235294 0.57279412 0.4596201
0.57889093 0.58673407 0.46568627
0.73615196 0.64534314 0.48406863
0.83970588 0.69761029 0.50098039
0.88970588 0.71911765 0.50827206
0.93431373 0.74696691 0.51697304
0.97377451 0.77573529 0.53210784
0.515625 0.69908088 0.475
0.54492188 0.69607843 0.47199755
0.59362745 0.70045956 0.47408088
0.65882353 0.70876225 0.4783701
0.74561887 0.7200674 0.48648897
0.82254902 0.73529412 0.49518229
0.88408395 0.76078431 0.50490196
0.9330193 0.7872549 0.5138557
0.96078431 0.80441176 0.5245098
0.66666667 0.79620098 0.49595588
0.67971814 0.79509804 0.49803922
0.69871324 0.79402574 0.49595588
0.74056373 0.798269 0.50117953
0.790625 0.8026348 0.50802696
0.83898591 0.81081495 0.5126685
0.87941176 0.8205576 0.51727941
0.92544424 0.82856924 0.51533395
0.94901961 0.83235294 0.51764706
0.77009804 0.86372549 0.52383578
0.7771829 0.86372549 0.52745098
0.79227941 0.86764706 0.52879902
0.81205576 0.86979167 0.53137255
0.83676471 0.87156863 0.53529412
0.8608992 0.8754902 0.53676471
0.89348958 0.88026961 0.54313725
0.92598039 0.8872549 0.54344363
0.95814951 0.89479167 0.55098039
0.85735294 0.92156863 0.5622549
0.85490196 0.91764706 0.56207108
0.85134804 0.91078431 0.55723039
0.86819853 0.91856618 0.5622549
0.87769608 0.91568627 0.56151961
0.89859069 0.92794118 0.56862745
0.91715686 0.92855392 0.57647059
0.9377451 0.93333333 0.58039216
0.95294118 0.9372549 0.58578431
0.4627451 0.24411765 0.54411765
0.51041667 0.24558824 0.54816176
0.60294118 0.2754902 0.55171569
0.71715686 0.34730392 0.55306373
0.81666667 0.47941176 0.55
0.86519608 0.62843137 0.54313725
0.9 0.64730392 0.53921569
0.94558824 0.66911765 0.54705882
0.98039216 0.69705882 0.55882353
0.48039216 0.29644608 0.54816176
0.52254902 0.31050858 0.54803922
0.61265319 0.34730392 0.54803922
0.72107843 0.40507047 0.54803922
0.80079657 0.53088235 0.54705882
0.86720282 0.65672488 0.54661458
0.90392157 0.68348652 0.54705882
0.94183517 0.67608762 0.55087316
0.98039216 0.70490196 0.56433824
0.48137255 0.38627451 0.54485294
0.52634804 0.39390319 0.55625
0.61568627 0.41838235 0.55196078
0.72647059 0.48893995 0.55490196
0.81213235 0.57598039 0.55490196
0.86418505 0.68563113 0.55098039
0.90631127 0.72040441 0.55098039
0.94215686 0.71210172 0.55392157
0.96176471 0.71642157 0.55784314
0.48492647 0.51323529 0.54411765
0.5223652 0.520144 0.54425551
0.59632353 0.52941176 0.54522059
0.71286765 0.5666973 0.55196078
0.80398284 0.63872549 0.55208333
0.86450674 0.72895221 0.55392157
0.90373775 0.75689338 0.55392157
0.94005821 0.74425551 0.55784314
0.95257353 0.74840686 0.55784314
0.42745098 0.62647059 0.53529412
0.4685049 0.61960784 0.53186275
0.55330882 0.625 0.53921569
0.66329657 0.63970588 0.540625
0.78014706 0.68431373 0.54705882
0.85686275 0.74595588 0.55300245
0.89901961 0.7807598 0.55637255
0.93480392 0.78259804 0.55784314
0.96078431 0.77990196 0.56176471
0.54019608 0.71421569 0.53345588
0.5692402 0.71911765 0.53921569
0.61246936 0.72267157 0.53949142
0.67594975 0.72414216 0.53907782
0.74791667 0.73247549 0.54313725
0.84221814 0.77291667 0.54816176
0.8958027 0.80833333 0.55563725
0.93382353 0.82182904 0.56309743
0.96078431 0.83039216 0.5689951
0.66960784 0.80588235 0.54240196
0.68480392 0.80196078 0.54215686
0.71176471 0.80220588 0.54215686
0.74702819 0.80588235 0.54359681
0.79705882 0.81262255 0.54779412
0.84724265 0.82156863 0.55392157
0.88897059 0.83504902 0.55784314
0.93382353 0.85208333 0.56559436
0.96078431 0.87156863 0.57352941
0.77009804 0.86764706 0.55784314
0.77794118 0.87152267 0.55816483
0.7935049 0.87156863 0.55833333
0.81666667 0.87156863 0.56199449
0.84215686 0.87156863 0.56213235
0.87158395 0.88069853 0.56582414
0.90428922 0.89068627 0.57288603
0.93468137 0.89627757 0.57401961
0.95686275 0.90343137 0.57879902
0.85882353 0.9254902 0.57647059
0.85098039 0.9189951 0.57352941
0.85490196 0.91764706 0.57352941
0.87303922 0.92156863 0.57928922
0.88872549 0.92401961 0.58137255
0.8995098 0.92009804 0.58137255
0.91642157 0.92328431 0.58235294
0.9377451 0.92291667 0.58272059
0.96176471 0.94607843 0.60882353
0.66127451 0.41960784 0.61960784
0.70778186 0.45441176 0.6245098
0.7564951 0.47745098 0.62009804
0.80637255 0.53596814 0.60833333
0.86936275 0.64705882 0.60441176
0.9 0.72775735 0.59509804
0.92683824 0.78627451 0.58872549
0.94993873 0.78921569 0.58780637
0.96862745 0.78970588 0.58872549
0.67261029 0.46568627 0.62009804
0.70735294 0.48295803 0.62407322
0.75632659 0.52679228 0.6122549
0.81356464 0.57420343 0.60833333
0.87303922 0.66001838 0.60640319
0.90026808 0.73382353 0.59264706
0.92696078 0.79064032 0.58872549
0.94515165 0.80447304 0.58872549
0.96813725 0.79356618 0.58872549
0.67316176 0.53333333 0.61617647
0.70467218 0.54595588 0.62095588
0.74534314 0.57745098 0.60640319
0.81686581 0.6212163 0.6122549
0.86593137 0.69099265 0.60294118
0.90245098 0.74803922 0.59656863
0.92570466 0.80453431 0.58872549
0.9495098 0.80919118 0.58872549
0.95784314 0.80526961 0.58872549
0.67205882 0.62126225 0.60833333
0.68306526 0.62091759 0.60833333
0.72918199 0.63053002 0.60183824
0.79725031 0.66942402 0.60441176
0.84852941 0.72025123 0.59656863
0.9 0.7863894 0.59295343
0.92296262 0.81818321 0.59264706
0.94512102 0.83642004 0.59264706
0.9495098 0.83088235 0.58872549
0.63112745 0.68946078 0.59681373
0.64515931 0.68406863 0.60052083
0.70545343 0.69810049 0.59877451
0.77303922 0.70646446 0.59984681
0.83602941 0.7432598 0.59656863
0.89607843 0.79329044 0.59528186
0.91911765 0.82720588 0.59264706
0.94512868 0.84954044 0.59264706
0.95710784 0.84411765 0.59264706
0.60324755 0.74852941 0.58529412
0.60667892 0.74852941 0.58759957
0.65202206 0.74901961 0.58872549
0.72585784 0.75667892 0.58872549
0.80196078 0.77058824 0.58887868
0.87254902 0.80846354 0.59264706
0.91893382 0.8488511 0.59656863
0.94211857 0.86266085 0.59393382
0.9622549 0.86501225 0.59656863
0.70147059 0.81764706 0.58480392
0.70943627 0.81813725 0.58480392
0.73480392 0.81813725 0.58480392
0.76568627 0.82193627 0.58480392
0.8004902 0.81856618 0.58872549
0.86260723 0.8347886 0.58872549
0.90428922 0.85343137 0.59071691
0.94209559 0.87990196 0.59656863
0.96078431 0.89166667 0.60404412
0.78927696 0.87941176 0.58572304
0.79019608 0.87984069 0.58572304
0.80027574 0.87941176 0.58497243
0.81911765 0.88290441 0.58529412
0.84803922 0.88290441 0.59114583
0.87228094 0.8846201 0.58872549
0.91487439 0.89629289 0.60098039
0.94166667 0.90299479 0.60441176
0.96078431 0.91470588 0.60882353
0.85147059 0.92205882 0.59656863
0.85839461 0.9254902 0.59656863
0.8622549 0.925 0.59656863
0.87824755 0.92941176 0.6004902
0.89166667 0.92720588 0.60441176
0.90196078 0.921875 0.60441176
0.92941176 0.93431373 0.6122549
0.94558824 0.93333333 0.61568627
0.96078431 0.9372549 0.62009804
0.81176471 0.6627451 0.64313725
0.83137255 0.68627451 0.64705882
0.85 0.70098039 0.64313725
0.87303922 0.72156863 0.63529412
0.90588235 0.7745098 0.63529412
0.9254902 0.80539216 0.61960784
0.94607843 0.84411765 0.61568627
0.95686275 0.85490196 0.61176471
0.96862745 0.87843137 0.61960784
0.82696078 0.69705882 0.64705882
0.82702206 0.68976716 0.64356618
0.84693627 0.71017157 0.63921569
0.87726716 0.7463848 0.63921569
0.90392157 0.77401961 0.63137255
0.93333333 0.82322304 0.62598039
0.93860294 0.82487745 0.60392157
0.95686275 0.8622549 0.61176471
0.96078431 0.87058824 0.6122549
0.82352941 0.71666667 0.64313725
0.82843137 0.72169118 0.64313725
0.84313725 0.7254902 0.63627451
0.86875 0.74264706 0.63137255
0.90441176 0.79411765 0.63186275
0.93088235 0.82438725 0.62647059
0.94436275 0.84705882 0.61544118
0.96078431 0.88713235 0.61703431
0.96078431 0.87843137 0.61568627
0.81176471 0.74362745 0.63921569
0.82303922 0.74724265 0.63921569
0.84473039 0.76335784 0.63921569
0.86372549 0.76813725 0.63137255
0.9 0.80514706 0.63137255
0.92303922 0.83284314 0.62352941
0.94117647 0.85490196 0.61568627
0.94901961 0.86715686 0.60441176
0.96078431 0.89019608 0.61813725
0.79019608 0.77058824 0.63529412
0.79240196 0.77058824 0.63357843
0.8127451 0.77647059 0.63333333
0.84877451 0.7879902 0.63063725
0.88627451 0.81764706 0.62745098
0.91519608 0.83921569 0.62352941
0.94215686 0.87352941 0.62401961
0.95343137 0.88627451 0.61960784
0.96470588 0.89803922 0.61960784
0.75294118 0.80539216 0.63529412
0.76715686 0.80147059 0.62745098
0.77818627 0.80147059 0.62634804
0.80925245 0.80784314 0.62352941
0.85539216 0.82303922 0.61960784
0.91127451 0.85637255 0.62444853
0.93786765 0.87659314 0.62352941
0.953125 0.8903799 0.61960784
0.96078431 0.90196078 0.61960784
0.78137255 0.84509804 0.62745098
0.77879902 0.84546569 0.62745098
0.76495098 0.8379902 0.6127451
0.79019608 0.83909314 0.61139706
0.83823529 0.84803922 0.62303922
0.88321078 0.86127451 0.62169118
0.92647059 0.8872549 0.62745098
0.95208333 0.90723039 0.62745098
0.96470588 0.92941176 0.63529412
0.8245098 0.89460784 0.62745098
0.83143382 0.90202206 0.63088235
0.82058824 0.89117647 0.61188725
0.82303922 0.8872549 0.59901961
0.86519608 0.89901961 0.6254902
0.88578431 0.89479167 0.61372549
0.92254902 0.90637255 0.63137255
0.94166667 0.91464461 0.62794118
0.96078431 0.92990196 0.63137255
0.88235294 0.94509804 0.63921569
0.83970588 0.91029412 0.62401961
0.86960784 0.93235294 0.63137255
0.87843137 0.93088235 0.62892157
0.88039216 0.92156863 0.62745098
0.9127451 0.93872549 0.63921569
0.93039216 0.9372549 0.63529412
0.94558824 0.93333333 0.63529412
0.96470588 0.9372549 0.63529412
