site/assets/luts/sha256-83e90d273b882b8d2b8823a72080c2027326782c3a990c8841886ff728e902cc.cube
# LUTr-Schema-Version: 2
# LUTr-ID: sha256-83e90d273b882b8d2b8823a72080c2027326782c3a990c8841886ff728e902cc
# LUTr-Title: polaroid 669 --
# LUTr-Collection: Natron HaldCLUT
# LUTr-Collection-ID: natron-haldclut-presets
# LUTr-Source: https://github.com/NatronGitHub/clut
# LUTr-Retrieved: 2026-07-27
# LUTr-Source-File: submissions/natron-haldclut-presets/instant_pro/polaroid_669_--.png
# LUTr-Source-Format: HALD-PNG
# LUTr-Source-SHA256: 83e90d273b882b8d2b8823a72080c2027326782c3a990c8841886ff728e902cc
# LUTr-License: CC-BY-SA-4.0
# LUTr-License-URL: https://github.com/NatronGitHub/clut#license
# LUTr-License-Basis: repo-license-file
# LUTr-Transform-Class: film-emulation
# LUTr-Tags: creative, film, film-emulation, hald-clut, natron, png, cube
# LUTr-Input-Color-Space: srgb
# LUTr-Input-Gamut: rec709
# LUTr-Input-Transfer: srgb
# LUTr-Output-Color-Space: srgb
# LUTr-Output-Gamut: rec709
# LUTr-Output-Transfer: srgb
# LUTr-Color-Space-Confidence: assumed-display-referred
# LUTr-Domain-Normalized: true
# LUTr-Shaper: none
# LUTr-Original-Grid: 64x64x64
# LUTr-Conversion-Grid: 25x25x25
# LUTr-Conversion-Interpolation: trilinear
# LUTr-Conversion-Method: HALD-PNG LUT image decoded at 16-bit and sampled to 25x25x25 3D CUBE
# LUTr-Conversion-Tool: LUTr scripts/convert-all-to-cube.mjs 2.0.0
# LUTr-Conversion-Date: 2026-07-27
# LUTr-Note: Preserve this metadata and the upstream license notices when redistributing.
TITLE "polaroid 669 --"
LUT_3D_SIZE 25
DOMAIN_MIN 0 0 0
DOMAIN_MAX 1 1 1
0 0.0039215686 0
0.014215686 0.028431373 0.016666667
0.033333333 0.038235294 0.02254902
0.057352941 0.031862745 0.012254902
0.088235294 0.029411765 0.017647059
0.12303922 0.039705882 0.03627451
0.15784314 0.040196078 0.05
0.19803922 0.048529412 0.041666667
0.24313725 0.062745098 0.02745098
0.29460784 0.060294118 0.029901961
0.34607843 0.045098039 0.035294118
0.39362745 0.028431373 0.031862745
0.4372549 0.01372549 0.031372549
0.49264706 0.015686275 0.04754902
0.54705882 0.0088235294 0.061764706
0.59411765 0.0078431373 0.066666667
0.63921569 0.011764706 0.070588235
0.69068627 0.011764706 0.064215686
0.74215686 0.0029411765 0.057843137
0.78627451 0.025980392 0.062254902
0.82745098 0.056862745 0.070588235
0.87205882 0.080882353 0.071568627
0.90294118 0.12941176 0.092156863
0.94313725 0.16519608 0.10441176
0.98823529 0.18823529 0.10196078
0.0039215686 0.041176471 0.014215686
0.011213235 0.052941176 0.021507353
0.029411765 0.061642157 0.025367647
0.053615196 0.054901961 0.018627451
0.090196078 0.056372549 0.017647059
0.12726716 0.060110294 0.029901961
0.16323529 0.062622549 0.040686275
0.20196078 0.059803922 0.035294118
0.24313725 0.062745098 0.025
0.29460784 0.060294118 0.02745098
0.34791667 0.055514706 0.035294118
0.39626225 0.049203431 0.035294118
0.44509804 0.044607843 0.036519608
0.49656863 0.042156863 0.04754902
0.54803922 0.03872549 0.057843137
0.5995098 0.034803922 0.062745098
0.6495098 0.03872549 0.062745098
0.69160539 0.03872549 0.070281863
0.74117647 0.041176471 0.064583333
0.78596814 0.055882353 0.068627451
0.82745098 0.083823529 0.075
0.86991422 0.10784314 0.081372549
0.9064951 0.13823529 0.09497549
0.94221814 0.17064951 0.1028799
0.97009804 0.19460784 0.10833333
0.0078431373 0.07745098 0.024509804
0.0084558824 0.083823529 0.028063725
0.024509804 0.085294118 0.028186275
0.048529412 0.085294118 0.024509804
0.090196078 0.085294118 0.021568627
0.13088235 0.088235294 0.023039216
0.16642157 0.088235294 0.030392157
0.20980392 0.085294118 0.029289216
0.25098039 0.082352941 0.024509804
0.29852941 0.081740196 0.026348039
0.35 0.081372549 0.035539216
0.40245098 0.081372549 0.039215686
0.45294118 0.075490196 0.039215686
0.50441176 0.069485294 0.043627451
0.55588235 0.070343137 0.053921569
0.60833333 0.069117647 0.057352941
0.65980392 0.064705882 0.053921569
0.7 0.072058824 0.06127451
0.74117647 0.079411765 0.070588235
0.78590686 0.093504902 0.074142157
0.82745098 0.1127451 0.079901961
0.86862745 0.13333333 0.089338235
0.90686275 0.15392157 0.097058824
0.93137255 0.17855392 0.10833333
0.95588235 0.20392157 0.11764706
0.0078431373 0.1122549 0.034803922
0.0078431373 0.1122549 0.031372549
0.014215686 0.1127451 0.031372549
0.041666667 0.1122549 0.02745098
0.086519608 0.11446078 0.025245098
0.12794118 0.1122549 0.019178922
0.16862745 0.11237745 0.019117647
0.21341912 0.11617647 0.025306373
0.25833333 0.11960784 0.02745098
0.30588235 0.11617647 0.031188725
0.35735294 0.11617647 0.035416667
0.40882353 0.1122549 0.039215686
0.46029412 0.10980392 0.046568627
0.51176471 0.10349265 0.043198529
0.56323529 0.10784314 0.053921569
0.61862745 0.10998775 0.055208333
0.66617647 0.10735294 0.058333333
0.70392157 0.11029412 0.065196078
0.74509804 0.11973039 0.075
0.78627451 0.13131127 0.078431373
0.83112745 0.14730392 0.078431373
0.87254902 0.16421569 0.082843137
0.90686275 0.18480392 0.096568627
0.93186275 0.20392157 0.11519608
0.94852941 0.21470588 0.125
0.011764706 0.14313725 0.035294118
0.011764706 0.14191176 0.035294118
0.011764706 0.13872549 0.031372549
0.030882353 0.13897059 0.031372549
0.079411765 0.14411765 0.029411765
0.12181373 0.14509804 0.023039216
0.16813725 0.14509804 0.016176471
0.21764706 0.1497549 0.024264706
0.2627451 0.15294118 0.029411765
0.3122549 0.15098039 0.033823529
0.36372549 0.14656863 0.035294118
0.41519608 0.14485294 0.03872549
0.46764706 0.15098039 0.049019608
0.52205882 0.15294118 0.052941176
0.57352941 0.15294118 0.051470588
0.625 0.15294118 0.056372549
0.67058824 0.15490196 0.062745098
0.70980392 0.15882353 0.073039216
0.75098039 0.16078431 0.079411765
0.79215686 0.16985294 0.082352941
0.83333333 0.18235294 0.080392157
0.87622549 0.19705882 0.079166667
0.90882353 0.21764706 0.096078431
0.93897059 0.23823529 0.11666667
0.9627451 0.25490196 0.13333333
0.0078431373 0.17009804 0.039705882
0.0078431373 0.17009804 0.039705882
0.0078431373 0.17022059 0.039215686
0.022058824 0.17359069 0.036213235
0.068137255 0.17818627 0.035539216
0.11568627 0.18192402 0.030882353
0.16752451 0.18235294 0.020220588
0.21519608 0.18596814 0.019117647
0.2627451 0.18970588 0.023039216
0.31452206 0.19019608 0.027267157
0.36973039 0.18639706 0.032598039
0.42156863 0.18976716 0.042156863
0.47696078 0.19632353 0.053431373
0.53235294 0.19803922 0.058823529
0.58382353 0.19509804 0.05502451
0.63382353 0.19215686 0.052941176
0.675 0.19852941 0.066666667
0.71991422 0.20588235 0.07432598
0.76127451 0.20637255 0.077941176
0.79852941 0.21372549 0.081862745
0.83921569 0.22769608 0.084803922
0.87647059 0.24172794 0.094669118
0.91507353 0.25625 0.10441176
0.95 0.2754902 0.11697304
0.97696078 0.29215686 0.13333333
0.0049019608 0.20098039 0.046078431
0.0049019608 0.20392157 0.046078431
0.0078431373 0.20563725 0.046078431
0.016053922 0.20870098 0.046078431
0.054411765 0.2127451 0.044117647
0.10931373 0.21666667 0.030882353
0.16372549 0.21960784 0.016911765
0.21519608 0.22058824 0.0069852941
0.26666667 0.2245098 0.012745098
0.31997549 0.22745098 0.01875
0.3745098 0.22892157 0.025735294
0.42879902 0.23480392 0.038357843
0.48382353 0.24068627 0.055392157
0.53872549 0.24301471 0.062377451
0.59117647 0.23921569 0.055882353
0.63872549 0.24362745 0.056372549
0.68529412 0.25 0.069607843
0.72708333 0.25392157 0.074509804
0.77156863 0.25392157 0.073039216
0.80637255 0.26213235 0.081740196
0.84117647 0.27254902 0.097058824
0.87990196 0.28676471 0.10882353
0.91764706 0.30073529 0.11495098
0.9567402 0.31666667 0.12487745
0.98823529 0.32941176 0.13333333
0.0024509804 0.23578431 0.05245098
0.0024509804 0.23670343 0.05245098
0 0.23970588 0.05245098
0.0024509804 0.23970588 0.05245098
0.040441176 0.24558824 0.049019608
0.099509804 0.25147059 0.039705882
0.15772059 0.25257353 0.023039216
0.21219363 0.25594363 0.010784314
0.26666667 0.26323529 0.019607843
0.32359069 0.26323529 0.012683824
0.37953431 0.26360294 0.00625
0.43284314 0.27205882 0.025
0.48823529 0.27965686 0.042156863
0.54019608 0.28284314 0.048039216
0.59693627 0.28909314 0.062745098
0.64264706 0.290625 0.056372549
0.69166667 0.29754902 0.066666667
0.73529412 0.30091912 0.076960784
0.7754902 0.30539216 0.080882353
0.81029412 0.30931373 0.087254902
0.84509804 0.31911765 0.1
0.88039216 0.33186275 0.11372549
0.91801471 0.34215686 0.11703431
0.9528799 0.35637255 0.1254902
0.96960784 0.36519608 0.12794118
0 0.27058824 0.054901961
0 0.27058824 0.054901961
0.00098039216 0.2745098 0.054901961
0.0039215686 0.2745098 0.054901961
0.037254902 0.27843137 0.056862745
0.093137255 0.28284314 0.050490196
0.15098039 0.28921569 0.03627451
0.20490196 0.29558824 0.032843137
0.2627451 0.29803922 0.031372549
0.31666667 0.29803922 0.018627451
0.37058824 0.29901961 0.0078431373
0.42892157 0.30931373 0.015196078
0.48431373 0.31372549 0.025490196
0.53970588 0.31764706 0.02745098
0.59215686 0.3245098 0.034313725
0.64264706 0.33480392 0.048529412
0.69411765 0.34117647 0.062745098
0.74068627 0.34754902 0.073039216
0.77647059 0.35392157 0.087254902
0.81421569 0.36029412 0.094117647
0.84901961 0.36666667 0.1
0.88431373 0.37647059 0.11029412
0.92156863 0.38333333 0.11764706
0.94264706 0.39362745 0.12156863
0.94509804 0.39607843 0.1254902
0 0.30539216 0.050980392
0 0.30692402 0.050980392
0.0039215686 0.30992647 0.050980392
0.010784314 0.31305147 0.054411765
0.042401961 0.31446078 0.063970588
0.090196078 0.31746324 0.060784314
0.14166667 0.32107843 0.048651961
0.19705882 0.32647059 0.035845588
0.25245098 0.33039216 0.028921569
0.30392157 0.33284314 0.019791667
0.35931373 0.33566176 0.014215686
0.41813725 0.34050245 0.017830882
0.47598039 0.34779412 0.015686275
0.53351716 0.35245098 0.011764706
0.58517157 0.35931373 0.017647059
0.63235294 0.36905637 0.031862745
0.68137255 0.37598039 0.046078431
0.73137255 0.3872549 0.064276961
0.77794118 0.40355392 0.087867647
0.82009804 0.40833333 0.095404412
0.85539216 0.41421569 0.10392157
0.8903799 0.421875 0.11029412
0.9254902 0.4254902 0.11727941
0.94209559 0.43425245 0.1254902
0.95392157 0.44117647 0.13186275
0 0.34509804 0.047058824
0 0.34509804 0.047058824
0 0.34901961 0.047058824
0.010661765 0.35196078 0.050490196
0.045098039 0.34901961 0.066176471
0.083455882 0.35196078 0.06875
0.13529412 0.35490196 0.049019608
0.1877451 0.35588235 0.028431373
0.24215686 0.35980392 0.018627451
0.29362745 0.36372549 0.019607843
0.34901961 0.36764706 0.019607843
0.40428922 0.37156863 0.018627451
0.46127451 0.37745098 0.015686275
0.51813725 0.38333333 0.011764706
0.56960784 0.39019608 0.011764706
0.62107843 0.39840686 0.01372549
0.66960784 0.40686275 0.024509804
0.72107843 0.42352941 0.051348039
0.77181373 0.44093137 0.081372549
0.82009804 0.45343137 0.092647059
0.86323529 0.46078431 0.1
0.89166667 0.46666667 0.11421569
0.92254902 0.47132353 0.1245098
0.95735294 0.48198529 0.1372549
0.97843137 0.49117647 0.14705882
0 0.37892157 0.047058824
0 0.38265931 0.047058824
0 0.38639706 0.046078431
0.010294118 0.38676471 0.046997549
0.046813725 0.38455882 0.057352941
0.083884804 0.38284314 0.066176471
0.13235294 0.38664216 0.049019608
0.18400735 0.38676471 0.03314951
0.23529412 0.38676471 0.023039216
0.2846201 0.39313725 0.019607843
0.33492647 0.39852941 0.016053922
0.39019608 0.40202206 0.012683824
0.44779412 0.40637255 0.01004902
0.50098039 0.41121324 0.0082720588
0.55245098 0.42107843 0.0078431373
0.60569853 0.42745098 0.0042279412
0.6627451 0.43382353 0.00098039216
0.71078431 0.45226716 0.028431373
0.76139706 0.47058824 0.06127451
0.80980392 0.48088235 0.071568627
0.85563725 0.49460784 0.087254902
0.88823529 0.50484069 0.11121324
0.92169118 0.51470588 0.12843137
0.95753676 0.525 0.14393382
0.99264706 0.53578431 0.16029412
0 0.41568627 0.043137255
0 0.41764706 0.046323529
0 0.42156863 0.047058824
0.0073529412 0.42156863 0.050490196
0.040196078 0.41862745 0.052941176
0.082598039 0.41715686 0.058578431
0.13235294 0.41666667 0.05
0.18382353 0.41887255 0.049019608
0.23333333 0.41764706 0.029411765
0.28161765 0.42156863 0.025490196
0.33039216 0.4254902 0.020588235
0.38186275 0.42941176 0.012254902
0.43529412 0.43529412 0.0029411765
0.48455882 0.44142157 0.0019607843
0.53431373 0.44607843 0.0039215686
0.5877451 0.45171569 0.0024509804
0.64313725 0.45882353 0
0.69460784 0.4754902 0.011519608
0.74607843 0.49215686 0.031372549
0.7995098 0.51102941 0.051960784
0.84215686 0.5254902 0.064705882
0.87843137 0.53578431 0.080392157
0.91568627 0.54607843 0.12009804
0.95416667 0.5622549 0.1495098
0.98431373 0.57647059 0.17254902
0 0.44852941 0.03872549
0 0.45245098 0.042953431
0 0.45294118 0.044117647
0.0034313725 0.45251225 0.046568627
0.024754902 0.45245098 0.046813725
0.080882353 0.45196078 0.057843137
0.13235294 0.44460784 0.04754902
0.18235294 0.44589461 0.041360294
0.23137255 0.44852941 0.039215686
0.2786152 0.45098039 0.031556373
0.32634804 0.45330882 0.023897059
0.37745098 0.45637255 0.016176471
0.42720588 0.46593137 0.0022058824
0.47297794 0.46813725 0
0.52009804 0.47071078 0.0025735294
0.5713848 0.4754902 0.0039215686
0.62254902 0.48333333 0.0039215686
0.67401961 0.49215686 0.006372549
0.72683824 0.5127451 0.024019608
0.78480392 0.53333333 0.037745098
0.83063725 0.55220588 0.039705882
0.86856618 0.5627451 0.038664216
0.9067402 0.57990196 0.079779412
0.9504902 0.6004902 0.14460784
0.98872549 0.61813725 0.18921569
0 0.48921569 0.035294118
0.0006127451 0.49080882 0.042647059
0.0039215686 0.49191176 0.049754902
0 0.48762255 0.043259804
0.014215686 0.48333333 0.039705882
0.083823529 0.48664216 0.060784314
0.13235294 0.47254902 0.041911765
0.1817402 0.47365196 0.039215686
0.23137255 0.47647059 0.039215686
0.27647059 0.47941176 0.031740196
0.32254902 0.48406863 0.026470588
0.37401961 0.4872549 0.016176471
0.42205882 0.49509804 0.0058823529
0.46862745 0.49901961 0
0.5129902 0.49901961 0
0.55919118 0.50110294 0
0.60490196 0.50392157 0
0.65343137 0.51090686 0.0028186275
0.70882353 0.53112745 0.012990196
0.76029412 0.55392157 0.017647059
0.80882353 0.5745098 0.014215686
0.85919118 0.59105392 0.0056372549
0.8997549 0.61078431 0.044117647
0.94019608 0.62843137 0.1057598
0.97843137 0.64901961 0.16176471
0.0039215686 0.53137255 0.033823529
0 0.53137255 0.033823529
0.0039215686 0.5310049 0.037745098
0.0039215686 0.52745098 0.034313725
0.030392157 0.52083333 0.030637255
0.090196078 0.52156863 0.043321078
0.14056373 0.50882353 0.033823529
0.18419118 0.50637255 0.030821078
0.22745098 0.50490196 0.025980392
0.27591912 0.50882353 0.022610294
0.3254902 0.51519608 0.021446078
0.37058824 0.52175245 0.015992647
0.41691176 0.52598039 0.0058823529
0.46323529 0.52990196 0
0.50772059 0.53284314 0
0.55189951 0.53529412 0
0.59607843 0.5377451 0
0.64270833 0.54166667 0
0.68970588 0.55392157 0.0045343137
0.74117647 0.5745098 0.0078431373
0.79117647 0.59509804 0.0078431373
0.83872549 0.61305147 0.0041053922
0.8872549 0.63235294 0.014093137
0.93137255 0.65294118 0.041115196
0.96715686 0.67107843 0.11813725
0.0039215686 0.56862745 0.02745098
0 0.56862745 0.023529412
0 0.56764706 0.023529412
0.0073529412 0.56470588 0.023529412
0.050980392 0.55882353 0.023529412
0.10392157 0.55637255 0.026960784
0.14901961 0.54901961 0.023529412
0.18627451 0.53970588 0.022058824
0.22352941 0.53333333 0.015686275
0.275 0.53970588 0.015686275
0.32647059 0.55 0.015686275
0.37058824 0.55294118 0.011764706
0.41176471 0.55686275 0.0058823529
0.45686275 0.56127451 0
0.50196078 0.56764706 0
0.54460784 0.57254902 0
0.58823529 0.57647059 0
0.6372549 0.58039216 0.0039215686
0.68235294 0.58529412 0.0039215686
0.72696078 0.59901961 0.0073529412
0.7745098 0.61568627 0.0078431373
0.82205882 0.63578431 0.0083333333
0.86960784 0.65294118 0.0088235294
0.92107843 0.67598039 0.0053921569
0.94117647 0.68627451 0.02745098
0.012745098 0.60980392 0.017156863
0.0088235294 0.60680147 0.014154412
0.0024509804 0.60196078 0.0083333333
0.014583333 0.59822304 0.0050857843
0.067156863 0.59485294 0.01127451
0.11685049 0.59148284 0.01372549
0.16176471 0.5872549 0.017156863
0.20539216 0.58180147 0.018137255
0.24411765 0.58088235 0.015686275
0.27984069 0.57843137 0.011764706
0.32647059 0.58664216 0.0093137255
0.37273284 0.59019608 0.0056985294
0.41617647 0.59730392 0.0019607843
0.45931373 0.60196078 0
0.50159314 0.60526961 0
0.54313725 0.60980392 0.00091911765
0.58823529 0.61764706 0.0039215686
0.63333333 0.62156863 0.0039215686
0.67561275 0.6254902 0.0039215686
0.71323529 0.62677696 0.0039215686
0.75784314 0.63823529 0.0039215686
0.80539216 0.65686275 0.0053921569
0.85686275 0.67928922 0.006127451
0.90778186 0.70140931 0.0087622549
0.93088235 0.71078431 0.017156863
0.029411765 0.65098039 0.010784314
0.027573529 0.64914216 0.0072303922
0.034558824 0.64803922 0.0031862745
0.059313725 0.64803922 0.0039215686
0.096568627 0.64411765 0.0083333333
0.14252451 0.64019608 0.015686275
0.1872549 0.63627451 0.018872549
0.23137255 0.63235294 0.019607843
0.26470588 0.62843137 0.015686275
0.29497549 0.6245098 0.0089460784
0.32965686 0.6245098 0.0022058824
0.37892157 0.63480392 0.0034313725
0.42745098 0.64509804 0.0039215686
0.47303922 0.65061275 0.0035539216
0.50612745 0.64705882 0
0.54705882 0.64852941 0.00036764706
0.59215686 0.65882353 0.0039215686
0.6372549 0.66519608 0.0045343137
0.6752451 0.66691176 0.0039215686
0.7127451 0.66678922 0.0039215686
0.74803922 0.66372549 0.00049019608
0.79362745 0.68235294 0.0030637255
0.84509804 0.70661765 0.006127451
0.89546569 0.72745098 0.0078431373
0.92941176 0.74019608 0.010784314
0.046078431 0.69215686 0.0044117647
0.063909314 0.69558824 0.0039215686
0.090563725 0.6995098 0.0039215686
0.11721814 0.6995098 0.0039215686
0.14460784 0.69754902 0.011764706
0.18039216 0.69466912 0.015686275
0.2189951 0.68860294 0.01875
0.25784314 0.68382353 0.018321078
0.28529412 0.67990196 0.011764706
0.3158701 0.67598039 0.0053921569
0.34791667 0.67303922 0
0.39264706 0.67941176 0.0034313725
0.44068627 0.69019608 0.0039215686
0.48376225 0.69601716 0.0039215686
0.52071078 0.69558824 0.0035539216
0.55784314 0.69558824 0.0060661765
0.5995098 0.70343137 0.0073529412
0.64460784 0.71127451 0.0078431373
0.68578431 0.71519608 0.0078431373
0.72647059 0.71519608 0.0078431373
0.7620098 0.71887255 0.0056372549
0.7971201 0.72009804 0.003002451
0.83958333 0.73762255 0.00049019608
0.89001225 0.75471814 0.0039215686
0.92941176 0.77107843 0.0039215686
0.094117647 0.73921569 0
0.11715686 0.74313725 0
0.14558824 0.74803922 0.0039215686
0.17132353 0.75269608 0.0039215686
0.2 0.75098039 0.01372549
0.22867647 0.74877451 0.019117647
0.25980392 0.74362745 0.01372549
0.28995098 0.74044118 0.012990196
0.31764706 0.73529412 0.0078431373
0.34656863 0.73137255 0.0039215686
0.37745098 0.72941176 0
0.41740196 0.73504902 0.0034313725
0.46078431 0.74215686 0.0039215686
0.50392157 0.74705882 0.0039215686
0.54117647 0.74705882 0.0088235294
0.57965686 0.74852941 0.014705882
0.61960784 0.75490196 0.0078431373
0.66470588 0.7627451 0.010294118
0.70539216 0.76715686 0.01372549
0.74313725 0.77058824 0.012009804
0.77745098 0.77058824 0.0078431373
0.81127451 0.77058824 0.0058823529
0.84852941 0.77647059 0.0044117647
0.89681373 0.79705882 0.0019607843
0.93529412 0.81176471 0.0019607843
0.16862745 0.79117647 0
0.18302696 0.79491422 0
0.20833333 0.7995098 0.00098039216
0.22849265 0.80588235 0.003002451
0.25367647 0.80637255 0.011764706
0.27444853 0.8028799 0.018198529
0.30110294 0.79987745 0.0073529412
0.32647059 0.79724265 0.0073529412
0.35098039 0.79460784 0.0034313725
0.38137255 0.78854167 0.0044117647
0.40833333 0.7872549 0
0.44650735 0.79068627 0
0.4875 0.79852941 0.0039215686
0.52493873 0.79852941 0.0073529412
0.56568627 0.79901961 0.010784314
0.60324755 0.80245098 0.021568627
0.64019608 0.80637255 0.0039215686
0.68351716 0.81666667 0.010294118
0.72254902 0.8189951 0.01875
0.75980392 0.82205882 0.012254902
0.79509804 0.82205882 0.0078431373
0.82990196 0.82248775 0.0083333333
0.86727941 0.82794118 0.0098039216
0.9122549 0.84313725 0.0039215686
0.94558824 0.85294118 0.0078431373
0.24411765 0.84607843 0
0.2504902 0.84852941 0
0.26666667 0.85318627 0.0068627451
0.28468137 0.85735294 0.00036764706
0.30833333 0.86078431 0.0053921569
0.32242647 0.85784314 0.0083333333
0.34313725 0.85465686 0.00024509804
0.36372549 0.85355392 0.0006127451
0.38823529 0.85 0
0.41666667 0.84718137 0.010784314
0.44142157 0.84509804 0.0029411765
0.47352941 0.84595588 0
0.51176471 0.84852941 0.0058823529
0.54901961 0.8504902 0.0073529412
0.5870098 0.85392157 0.0068627451
0.62598039 0.85723039 0.015808824
0.66078431 0.86078431 0.00098039216
0.70196078 0.86813725 0.0091911765
0.74215686 0.86960784 0.019607843
0.78039216 0.87303922 0.0093137255
0.81176471 0.87352941 0.0078431373
0.8504902 0.87696078 0.0049019608
0.88431373 0.88014706 0.010539216
0.92610294 0.89068627 0.0039215686
0.95588235 0.89803922 0.011764706
0.33480392 0.90294118 0.10539216
0.34117647 0.90539216 0.11176471
0.34816176 0.90539216 0.10955882
0.36029412 0.90753676 0.10128676
0.37254902 0.90784314 0.097058824
0.38872549 0.90784314 0.10067402
0.40294118 0.90784314 0.092647059
0.42107843 0.90539216 0.081801471
0.44166667 0.90539216 0.08872549
0.46862745 0.90147059 0.095098039
0.48921569 0.9004902 0.082352941
0.50704657 0.89264706 0.056740196
0.53995098 0.89607843 0.045098039
0.57616422 0.90018382 0.043504902
0.61409314 0.90723039 0.028063725
0.65098039 0.91023284 0.02745098
0.68823529 0.91568627 0.025980392
0.72310049 0.91715686 0.020404412
0.76237745 0.91740196 0.038848039
0.80098039 0.92089461 0.0038602941
0.83627451 0.925 0.0085784314
0.87107843 0.92892157 0.00098039216
0.90588235 0.93223039 0.0037990196
0.94160539 0.93676471 0.0038602941
0.96764706 0.93921569 0.026470588
0.41176471 0.95294118 0.21960784
0.41568627 0.95441176 0.22107843
0.41666667 0.94901961 0.21176471
0.43088235 0.95245098 0.21519608
0.44901961 0.95882353 0.2254902
0.45196078 0.95294118 0.2122549
0.46960784 0.95392157 0.21372549
0.47892157 0.94656863 0.20294118
0.50196078 0.95294118 0.21568627
0.51862745 0.94264706 0.20539216
0.54313725 0.94509804 0.21078431
0.55294118 0.93382353 0.16764706
0.58039216 0.93333333 0.16862745
0.61813725 0.94215686 0.18235294
0.66078431 0.95392157 0.20784314
0.68823529 0.95294118 0.19460784
0.72941176 0.96078431 0.21176471
0.75637255 0.95686275 0.17696078
0.79313725 0.96176471 0.18529412
0.82598039 0.96421569 0.17941176
0.85882353 0.9627451 0.16078431
0.89509804 0.97205882 0.18529412
0.9254902 0.9745098 0.1754902
0.95098039 0.97647059 0.175
0.98039216 0.98039216 0.17254902
0.0039215686 0.022058824 0.030882353
0.011213235 0.032352941 0.037254902
0.029411765 0.041053922 0.040196078
0.053431373 0.03560049 0.036580882
0.08627451 0.036519608 0.03627451
0.12303922 0.040502451 0.04185049
0.15784314 0.039215686 0.05
0.1995098 0.048529412 0.045036765
0.2495098 0.058823529 0.046568627
0.30189951 0.057291667 0.050490196
0.3557598 0.054289216 0.055882353
0.4004902 0.036703431 0.056188725
0.44362745 0.025245098 0.055147059
0.49528186 0.021262255 0.060294118
0.54803922 0.0077205882 0.064828431
0.59558824 0.0063112745 0.070036765
0.64166667 0.015686275 0.076960784
0.68768382 0.0093137255 0.078492647
0.73431373 0.025735294 0.079411765
0.78204657 0.036580882 0.08314951
0.8254902 0.065196078 0.090441176
0.86832108 0.090686275 0.095098039
0.90294118 0.12941176 0.10306373
0.94068627 0.16280637 0.11317402
0.97401961 0.17794118 0.12009804
0.0039215686 0.046017157 0.035723039
0.0093367034 0.053515625 0.039299939
0.026041667 0.062025123 0.043520221
0.05189951 0.058448223 0.039713542
0.088694853 0.060294118 0.040686275
0.12627145 0.06372549 0.040379902
0.16323529 0.062254902 0.045389093
0.20441176 0.061910233 0.044462316
0.2495098 0.062806373 0.04564951
0.30189951 0.065196078 0.049915748
0.35438113 0.065119485 0.056495098
0.4004902 0.056548713 0.056188725
0.44586397 0.049019608 0.057107843
0.49901961 0.045274203 0.06372549
0.55140931 0.03984375 0.067279412
0.60138634 0.037254902 0.072143076
0.64613971 0.041176471 0.075490196
0.69126072 0.039682904 0.077573529
0.73638174 0.051746324 0.08002451
0.78204657 0.06372549 0.086282169
0.82426471 0.090165441 0.091176471
0.86851256 0.11116728 0.095098039
0.90500919 0.14031863 0.099509804
0.93772212 0.16577053 0.10980392
0.96127451 0.18731618 0.11862745
0.0067401961 0.080269608 0.041176471
0.0078431373 0.083134191 0.040946691
