site/assets/luts/sha256-214c546be398c45898041f33cb6df2ab6855b996b9a0599c1fdadc086821335d.cube
# LUTr-Schema-Version: 2
# LUTr-ID: sha256-214c546be398c45898041f33cb6df2ab6855b996b9a0599c1fdadc086821335d
# LUTr-Title: polaroid time zero (expired)
# LUTr-Collection: Natron HaldCLUT
# LUTr-Collection-ID: natron-haldclut-presets
# LUTr-Source: https://github.com/NatronGitHub/clut
# LUTr-Retrieved: 2026-07-27
# LUTr-Source-File: submissions/natron-haldclut-presets/instant_consumer/polaroid_time_zero_(expired).png
# LUTr-Source-Format: HALD-PNG
# LUTr-Source-SHA256: 214c546be398c45898041f33cb6df2ab6855b996b9a0599c1fdadc086821335d
# LUTr-License: CC-BY-SA-4.0
# LUTr-License-URL: https://github.com/NatronGitHub/clut#license
# LUTr-License-Basis: repo-license-file
# LUTr-Transform-Class: film-emulation
# LUTr-Tags: creative, film, film-emulation, hald-clut, natron, png, cube
# LUTr-Input-Color-Space: srgb
# LUTr-Input-Gamut: rec709
# LUTr-Input-Transfer: srgb
# LUTr-Output-Color-Space: srgb
# LUTr-Output-Gamut: rec709
# LUTr-Output-Transfer: srgb
# LUTr-Color-Space-Confidence: assumed-display-referred
# LUTr-Domain-Normalized: true
# LUTr-Shaper: none
# LUTr-Original-Grid: 64x64x64
# LUTr-Conversion-Grid: 25x25x25
# LUTr-Conversion-Interpolation: trilinear
# LUTr-Conversion-Method: HALD-PNG LUT image decoded at 16-bit and sampled to 25x25x25 3D CUBE
# LUTr-Conversion-Tool: LUTr scripts/convert-all-to-cube.mjs 2.0.0
# LUTr-Conversion-Date: 2026-07-27
# LUTr-Note: Preserve this metadata and the upstream license notices when redistributing.
TITLE "polaroid time zero (expired)"
LUT_3D_SIZE 9
DOMAIN_MIN 0 0 0
DOMAIN_MAX 1 1 1
0.61568627 0.34901961 0.12941176
0.63529412 0.36029412 0.13333333
0.65490196 0.36862745 0.13333333
0.67696078 0.36862745 0.13578431
0.70392157 0.35686275 0.1372549
0.74019608 0.35294118 0.1372549
0.80196078 0.35686275 0.1372549
0.86715686 0.36519608 0.1372549
0.92156863 0.38823529 0.13333333
0.62352941 0.37205882 0.12941176
0.63529412 0.36813725 0.12941176
0.65392157 0.36862745 0.12990196
0.67303922 0.37254902 0.13333333
0.70392157 0.36446078 0.13333333
0.74656863 0.36470588 0.12941176
0.80551471 0.37218137 0.12683824
0.87156863 0.38431373 0.13033088
0.93676471 0.39607843 0.13333333
0.63137255 0.39117647 0.13333333
0.63921569 0.39117647 0.12941176
0.65318627 0.38333333 0.12647059
0.66703431 0.37647059 0.1254902
0.71176471 0.3872549 0.1254902
0.75441176 0.38835784 0.12046569
0.80980392 0.39828431 0.11764706
0.8754902 0.41519608 0.11776961
0.90392157 0.42254902 0.12156863
0.64558824 0.42843137 0.11127451
0.65079657 0.42990196 0.10392157
0.66458333 0.42843137 0.099509804
0.69117647 0.43235294 0.10588235
0.73259804 0.44019608 0.10147059
0.77254902 0.44411765 0.10343137
0.82156863 0.45196078 0.10343137
0.87941176 0.46243873 0.10343137
0.91470588 0.47401961 0.11764706
0.6627451 0.49607843 0.054901961
0.66862745 0.49019608 0.058823529
0.68382353 0.49019608 0.055392157
0.71421569 0.49803922 0.051715686
0.75784314 0.50882353 0.055882353
0.79632353 0.51838235 0.070098039
0.83823529 0.52598039 0.10245098
0.88504902 0.5375 0.093872549
0.9254902 0.54509804 0.084313725
0.68529412 0.56911765 0.0014705882
0.69558824 0.57303922 0.0078431373
0.71421569 0.56973039 0.0078431373
0.73872549 0.57064951 0
0.77843137 0.58602941 0.012254902
0.81770833 0.59957108 0.041605392
0.86127451 0.61078431 0.11176471
0.90245098 0.61881127 0.12058824
0.93872549 0.62794118 0.12205882
0.72745098 0.65784314 0.015686275
0.73125 0.65772059 0.015686275
0.74901961 0.65318627 0.011764706
0.77205882 0.65355392 0.0039215686
0.80686275 0.66519608 0.0039215686
0.8377451 0.67463235 0.010416667
0.87941176 0.68455882 0.093872549
0.91127451 0.69607843 0.19816176
0.93333333 0.70098039 0.22254902
0.76911765 0.74264706 0.023529412
0.76954657 0.73872549 0.012193627
0.78394608 0.73480392 0.011764706
0.80704657 0.73872549 0.0039215686
0.83382353 0.74240196 0.0056372549
0.86078431 0.75018382 0.0044117647
0.89522059 0.75784314 0.093504902
0.92947304 0.76617647 0.25392157
0.94509804 0.77352941 0.32696078
0.80392157 0.81176471 0.050980392
0.80392157 0.80784314 0.0044117647
0.81568627 0.80686275 0.014705882
0.8377451 0.81568627 0
0.86078431 0.81176471 0.0039215686
0.88382353 0.81421569 0.041176471
0.91568627 0.81764706 0.19509804
0.94166667 0.82745098 0.32696078
0.96470588 0.83529412 0.42745098
0.62696078 0.35637255 0.14117647
0.63529412 0.36078431 0.14117647
0.65392157 0.36470588 0.14509804
0.67696078 0.36470588 0.1463848
0.70392157 0.35514706 0.14117647
0.74411765 0.35294118 0.14068627
0.80588235 0.36078431 0.14558824
0.86758578 0.36813725 0.14901961
0.90147059 0.37990196 0.15245098
0.62745098 0.36819853 0.1372549
0.63529412 0.37200521 0.13682598
0.65392157 0.37329963 0.13993566
0.67696078 0.37221967 0.14460784
0.70392157 0.36443015 0.14068627
0.74803922 0.36599265 0.13698683
0.80942096 0.37608762 0.14460784
0.87156863 0.39129136 0.14907322
0.9245098 0.3995098 0.15294118
0.63137255 0.39117647 0.13333333
0.63872549 0.3872549 0.1305913
0.65098039 0.38431373 0.13026961
0.67303922 0.38296569 0.13419118
0.71127451 0.3872549 0.13161765
0.75588235 0.39246324 0.12973346
0.81372549 0.40585172 0.13875613
0.87806373 0.4221201 0.14166667
0.9254902 0.4372549 0.14203431
0.64166667 0.42843137 0.1127451
0.64947151 0.42843137 0.11127451
0.66421569 0.42843137 0.11109069
0.69117647 0.43315717 0.11127451
0.72990196 0.44010417 0.11323529
0.77254902 0.44411765 0.115625
0.8254902 0.45343137 0.12107843
0.88333333 0.46421569 0.12650888
0.93921569 0.48333333 0.12941176
0.66470588 0.49803922 0.064215686
0.6705576 0.49433211 0.070098039
0.68578431 0.49362745 0.074448529
0.71421569 0.5010723 0.077297794
0.7560049 0.51078431 0.084558824
0.79623162 0.51764706 0.095098039
0.83872549 0.52395833 0.10980392
0.88875613 0.53553922 0.10955882
0.9254902 0.54509804 0.10955882
0.6877451 0.57285539 0.028921569
0.69466912 0.57172947 0.011580882
0.71029412 0.57285539 0.0088694853
0.74117647 0.57689185 0.021568627
0.77598039 0.5872549 0.027941176
0.815625 0.59564951 0.044676777
0.86017157 0.60723039 0.11848958
0.9026348 0.61505055 0.13235294
0.93480392 0.62794118 0.13970588
0.72389706 0.65784314 0.011887255
0.72766544 0.65784314 0.011764706
0.74509804 0.65392157 0.0078431373
0.76862745 0.65672488 0.0078431373
0.80294118 0.665625 0.0056372549
0.83492647 0.67287071 0.012208946
0.87573529 0.68238358 0.12043505
0.91164216 0.69352022 0.20686275
0.93333333 0.70134804 0.23382353
0.7661152 0.74264706 0.015686275
0.76911765 0.73872549 0.01182598
0.78092831 0.73872549 0.0078431373
0.80498621 0.74117647 0.0078201593
0.83161765 0.74607843 0.0098039216
0.86051624 0.75065104 0.010401348
0.89509804 0.75784314 0.13846507
0.92641697 0.76568627 0.26470588
0.94509804 0.76960784 0.33088235
0.80784314 0.81568627 0.074019608
0.80784314 0.815625 0.011764706
0.81862745 0.81519608 0.041666667
0.83921569 0.82481618 0.0021446078
0.85514706 0.81176471 0.018137255
0.88560049 0.82009804 0.10863971
0.91470588 0.8245098 0.22328431
0.94117647 0.82653186 0.33039216
0.96519608 0.83970588 0.44068627
0.63529412 0.36078431 0.15980392
0.64313725 0.36470588 0.16066176
0.65098039 0.36176471 0.16078431
0.66335784 0.35686275 0.16372549
0.70196078 0.35686275 0.16372549
0.74914216 0.3622549 0.1745098
0.81372549 0.3754902 0.18014706
0.87843137 0.38345588 0.18333333
0.94019608 0.39117647 0.18333333
0.63529412 0.36164216 0.15686275
0.64313725 0.3685815 0.15723039
0.65456495 0.37254902 0.15980392
0.67094056 0.36839767 0.15980392
0.70716912 0.36832108 0.16372549
0.75749081 0.36959252 0.16413909
0.81372549 0.38030025 0.17622549
0.87930453 0.39247855 0.18333333
0.93639706 0.40735294 0.17941176
0.63529412 0.3872549 0.15196078
0.64571078 0.3872549 0.15196078
0.66096814 0.39099265 0.15827206
0.68170956 0.3872549 0.15661765
0.71470588 0.39056373 0.15588235
0.76510417 0.39840686 0.15934436
0.82132353 0.41078431 0.16452206
0.88134191 0.42303922 0.17613358
0.91838235 0.43431373 0.1747549
0.64669118 0.42843137 0.14460784
0.65335478 0.4245098 0.1435049
0.67159926 0.42843137 0.14522059
0.69901961 0.43875613 0.14742647
0.73633578 0.44019608 0.14411765
0.78042279 0.44803922 0.15157782
0.83268995 0.45404412 0.15588235
0.8872549 0.46158088 0.15606618
0.90796569 0.46580882 0.16090686
0.67254902 0.49803922 0.11617647
0.67401961 0.49411765 0.11617647
0.6872549 0.49595588 0.11862745
0.71813725 0.50484069 0.12346814
0.75661765 0.51078431 0.13088235
0.80006127 0.51783088 0.14240196
0.84803922 0.5254902 0.14754902
0.89460784 0.5348652 0.14705882
0.91715686 0.53921569 0.14656863
0.69558824 0.57696078 0.088235294
0.69803922 0.57303922 0.076470588
0.71075368 0.57576593 0.074172794
0.73970588 0.58241422 0.061075368
0.77628676 0.58872549 0.079411765
0.8216299 0.59633885 0.12578125
0.86017157 0.60413603 0.14969363
0.90245098 0.61585478 0.15975797
0.93088235 0.62585784 0.17389706
0.72254902 0.66004902 0.016666667
0.72242647 0.65686275 0.012009804
0.74215686 0.65784314 0.034558824
0.76421569 0.65784314 0.015625
0.79509804 0.66519608 0.012009804
0.83713235 0.67291667 0.074479167
0.87647059 0.68210784 0.16378676
0.91164216 0.6935049 0.20695466
0.9372549 0.70392157 0.25612745
0.75735294 0.74264706 0.00012254902
0.76519608 0.74215686 0.022426471
0.77598039 0.74215686 0.011642157
0.79252451 0.74264706 0.0028186275
0.82303922 0.74656863 0.011090686
0.85686275 0.74607843 0.062821691
0.89509804 0.75490196 0.18333333
0.92254902 0.76165748 0.28000919
0.94166667 0.76960784 0.3495098
0.81470588 0.82647059 0.14803922
0.81176471 0.81960784 0.13051471
0.81887255 0.81568627 0.10392157
0.83590686 0.82352941 0.09754902
0.85784314 0.82598039 0.069607843
0.87990196 0.80392157 0.1245098
0.91470588 0.82058824 0.24926471
0.93737745 0.81176471 0.33468137
0.96470588 0.8372549 0.45490196
0.65343137 0.36078431 0.19705882
0.66127451 0.36078431 0.2122549
0.66519608 0.36078431 0.20882353
0.67303922 0.35686275 0.20735294
0.70833333 0.36078431 0.2127451
0.75196078 0.35925245 0.22113971
0.81764706 0.37745098 0.22843137
0.88333333 0.3963848 0.23890931
0.9372549 0.40392157 0.25588235
0.65343137 0.36292892 0.20079657
0.66078431 0.36840533 0.20124847
0.67169118 0.37598039 0.20490196
0.6846201 0.37609528 0.20490196
0.71559436 0.37254902 0.21078431
0.76506587 0.37909773 0.22058824
0.82156863 0.38517157 0.22843137
0.88290441 0.39634651 0.23658088
0.92990196 0.41519608 0.24834559
0.65735294 0.39301471 0.20098039
0.66519608 0.39724265 0.20098039
0.68072917 0.40266544 0.20563725
0.70335478 0.40294118 0.2127451
0.72677696 0.39865196 0.20698529
0.77535233 0.40225184 0.21666667
0.82941176 0.41397059 0.22058824
0.88667279 0.42691483 0.22585784
0.92941176 0.44215686 0.23296569
0.66219363 0.42843137 0.19552696
0.66911765 0.42831648 0.19412531
0.6877451 0.43483456 0.19460784
0.71170343 0.44411765 0.19705882
0.74390319 0.44803922 0.19705882
0.78878676 0.44581801 0.19852941
0.84057904 0.4573223 0.20565257
0.89117647 0.471875 0.21978401
0.92794118 0.48186275 0.22359069
0.68235294 0.49411765 0.1754902
0.68357843 0.48716299 0.1754902
0.70220588 0.49754902 0.1754902
0.72840074 0.51102941 0.17352941
0.76139706 0.51764706 0.18235294
0.80343137 0.51568627 0.19068627
0.84852941 0.52598039 0.20490196
0.89617034 0.5385723 0.2127451
0.9377451 0.54828431 0.21593137
0.69895833 0.57395833 0.16568627
0.70336244 0.57303922 0.16195619
0.72012868 0.57487745 0.15960478
0.74509804 0.58480392 0.15098039
0.7752451 0.59117647 0.15778186
0.81619945 0.59509804 0.18921569
0.85980392 0.60330882 0.21482843
0.90245098 0.61881127 0.22990196
0.93817402 0.63039216 0.24166667
0.72316176 0.65784314 0.13884804
0.72997855 0.66078431 0.13439032
0.74163603 0.66078431 0.13514093
0.76323529 0.66176471 0.12009804
0.79460784 0.66568627 0.10704657
0.83492647 0.67291667 0.16727941
0.87558211 0.68091299 0.22328431
0.91029412 0.69250919 0.27794118
0.93762255 0.70784314 0.30294118
0.76764706 0.74264706 0.13560049
0.76960784 0.74264706 0.14724265
0.77732843 0.74264706 0.13328738
0.79429381 0.74607843 0.11796109
0.81945466 0.74828431 0.073590686
0.85686275 0.7504902 0.14276195
0.89166667 0.75796569 0.24362745
0.92254902 0.76590839 0.32216605
0.94901961 0.78511029 0.40949755
0.81176471 0.81176471 0.2127451
0.81176471 0.81305147 0.21519608
0.81960784 0.81176471 0.20232843
0.83529412 0.81868873 0.19466912
0.85686275 0.825 0.18382353
0.87990196 0.81721814 0.20876225
0.90686275 0.80588235 0.27696078
0.93529412 0.82352941 0.37647059
0.96617647 0.83823529 0.48039216
0.68039216 0.36078431 0.2745098
0.68210784 0.35686275 0.2745098
0.69607843 0.36617647 0.28431373
0.71176471 0.36862745 0.29215686
0.73333333 0.36960784 0.29607843
0.77205882 0.3745098 0.29142157
0.8254902 0.38676471 0.29411765
0.8872549 0.40612745 0.31617647
0.94117647 0.41960784 0.33333333
0.69191176 0.38014706 0.28039216
0.69215686 0.38207721 0.28039216
0.70379902 0.38921569 0.28039216
0.72058824 0.39059436 0.29231005
0.74485294 0.38982843 0.29436275
0.78054534 0.39362745 0.29289216
0.83069853 0.39871324 0.29589461
0.8872549 0.41415441 0.31593137
0.9372549 0.43088235 0.33137255
0.69607843 0.40882353 0.28088235
0.70343137 0.4125 0.28284314
0.71176471 0.41507353 0.27855392
0.72928922 0.41862745 0.28431373
0.75294118 0.42279412 0.28823529
0.78884804 0.41458333 0.29215686
0.83443627 0.41605392 0.3
0.8872549 0.43480392 0.31176471
0.92941176 0.45098039 0.31960784
0.69803922 0.44754902 0.27843137
0.70579044 0.45128676 0.27009804
0.71715686 0.45502451 0.26617647
0.73728554 0.46222426 0.2698223
0.76397059 0.46997549 0.27781863
0.80343137 0.46960784 0.28186275
0.84301471 0.47205882 0.28860294
0.89509804 0.48373162 0.3
0.93259804 0.49117647 0.30784314
0.70588235 0.49607843 0.25882353
0.71066176 0.5 0.25588235
0.72401961 0.50392157 0.25098039
0.74558824 0.51495098 0.2564951
0.77254902 0.52352941 0.26078431
0.81041667 0.52193627 0.26678922
0.85343137 0.53382353 0.27892157
0.90073529 0.54926471 0.29215686
0.94117647 0.55784314 0.29705882
0.72107843 0.57818627 0.24901961
0.72107843 0.57068015 0.24509804
0.7375 0.57303922 0.24240196
0.76050858 0.58287377 0.2448223
0.78823529 0.59509804 0.24828431
0.82135417 0.59748775 0.25955882
0.86188725 0.60441176 0.28333333
0.90637255 0.61773897 0.3
0.9372549 0.63039216 0.3120098
0.73676471 0.65392157 0.24362745
0.73970588 0.65784314 0.24509804
0.75085784 0.65784314 0.23737745
0.7721201 0.66268382 0.2372549
0.7997549 0.66862745 0.23921569
0.83743873 0.67573529 0.2526348
0.8754902 0.68210784 0.28627451
0.91029412 0.70091912 0.33523284
0.92941176 0.7122549 0.35441176
0.77916667 0.73872549 0.25955882
0.77545956 0.74264706 0.26130515
0.77732843 0.74001225 0.25367647
0.79901961 0.74479167 0.25352328
0.82205882 0.75012255 0.23602941
0.85686275 0.75441176 0.24788603
0.88946078 0.75876225 0.30422794
0.92205882 0.77009804 0.37037377
0.94142157 0.77745098 0.42867647
0.80784314 0.80784314 0.3
0.81519608 0.81544118 0.30784314
0.82254902 0.81617647 0.30833333
0.83529412 0.81568627 0.29607843
0.85294118 0.8245098 0.28823529
0.87990196 0.82745098 0.2752451
0.90294118 0.82254902 0.32598039
0.92990196 0.81985294 0.41715686
0.96078431 0.83921569 0.51568627
0.72843137 0.39117647 0.37696078
0.72843137 0.39362745 0.37696078
0.74019608 0.39362745 0.38982843
0.75196078 0.39362745 0.39748775
0.77205882 0.3995098 0.40122549
0.79901961 0.40147059 0.38088235
0.83272059 0.40784314 0.3754902
0.89117647 0.41145833 0.40490196
0.92401961 0.41568627 0.42401961
0.73235294 0.39754902 0.37303922
0.73625153 0.40116422 0.3780867
0.74595588 0.40526961 0.38494179
0.7571538 0.40844822 0.39038756
0.77990196 0.42058824 0.39656863
0.81078431 0.42898284 0.39314491
0.84028799 0.42843137 0.38053002
0.89117647 0.43627451 0.3973652
0.93333333 0.45018382 0.42530637
0.74019608 0.43186275 0.37303922
0.74407169 0.43512561 0.37696078
0.75716912 0.44347426 0.38198529
0.77120098 0.45215993 0.38780637
0.79068627 0.45998775 0.39411765
0.82156863 0.46470588 0.398269
0.84803922 0.45634191 0.38872549
0.89117647 0.45147059 0.40093444
0.91973039 0.45637255 0.41433824
0.74803922 0.48143382 0.37996324
0.7571538 0.48853401 0.37843137
0.76750919 0.49306066 0.37843137
0.78209252 0.50349265 0.38200827
0.79996936 0.51326593 0.38927696
0.82647059 0.50810355 0.38514859
0.85196078 0.4971201 0.37696078
0.89852941 0.49656863 0.39283088
0.92401961 0.5004902 0.4028799
0.75196078 0.52892157 0.37573529
0.76194853 0.5372549 0.36862745
0.7745098 0.54319853 0.36666667
0.78878676 0.55122549 0.37135417
0.80735294 0.55637255 0.37254902
0.83115809 0.55710784 0.37058824
0.8588848 0.55631127 0.36819853
0.90269608 0.56479779 0.37916667
0.9379902 0.57009804 0.39068627
0.75588235 0.59172794 0.35343137
0.75833333 0.58517923 0.3495098
0.76704963 0.58964461 0.34613971
0.78186275 0.59810049 0.35008425
0.80735294 0.60386029 0.35566789
0.83697151 0.6122549 0.36519608
0.86911765 0.61617647 0.3627451
0.90895374 0.62665441 0.37707567
0.94901961 0.63186275 0.38088235
0.75833333 0.65502451 0.33529412
0.76311275 0.65502451 0.33921569
0.77303922 0.65784314 0.34313725
0.78967525 0.66637561 0.34166667
0.81390931 0.66960784 0.34797794
0.84460784 0.67683824 0.35304841
0.87674632 0.68483456 0.36240809
0.91141238 0.7004902 0.40387561
0.93443627 0.71176471 0.42389706
0.78480392 0.73872549 0.3658701
0.78480392 0.74217984 0.36354167
0.78627451 0.73823529 0.35784314
0.8071538 0.7452742 0.35919884
0.82205882 0.75018382 0.35254289
0.85245098 0.75569853 0.34424786
0.88737745 0.76234681 0.37904412
0.92248775 0.77745098 0.43137255
0.9372549 0.7776348 0.47089461
0.80931373 0.81568627 0.40196078
0.81568627 0.81176471 0.40441176
0.82352941 0.8067402 0.4004902
0.82990196 0.80245098 0.38964461
0.84117647 0.80759804 0.37941176
0.87598039 0.82892157 0.38327206
0.90294118 0.82892157 0.40147059
0.93363971 0.83529412 0.47481618
0.95294118 0.83529412 0.54656863
0.77843137 0.42843137 0.49803922
0.77745098 0.4245098 0.49411765
0.78848039 0.43161765 0.50416667
0.80379902 0.44693627 0.50980392
0.8127451 0.4495098 0.51127451
0.83382353 0.46678922 0.51372549
0.86078431 0.47647059 0.50514706
0.90245098 0.47647059 0.51286765
0.9254902 0.48431373 0.52058824
0.78235294 0.44852941 0.49411765
0.78492647 0.44852941 0.49411765
0.79408701 0.45245098 0.50171569
0.80543811 0.45147059 0.5100337
0.82034314 0.47310049 0.51372549
0.84085478 0.4877451 0.51372549
0.86470588 0.48719363 0.49840686
0.89509804 0.48409926 0.49497549
0.94068627 0.48823529 0.5245098
0.78995098 0.48627451 0.49019608
0.79408701 0.49117647 0.49276961
0.80582108 0.49436275 0.49803922
0.81712623 0.50242034 0.50634191
0.82990196 0.5192402 0.51017157
0.84886642 0.53085172 0.51344975
0.86862745 0.5189951 0.49485294
0.89469975 0.51176471 0.49460784
0.93333333 0.51470588 0.51838235
0.79705882 0.52990196 0.49019608
0.80922181 0.5377451 0.49116115
0.81893382 0.54139093 0.49788603
0.82719056 0.551731 0.501731
0.83823529 0.56446078 0.50588235
0.851731 0.56801471 0.50219056
0.86862745 0.56188725 0.49071691
0.90245098 0.55597426 0.50588235
0.93615196 0.54203431 0.51372549
0.79803922 0.56519608 0.48627451
0.81360294 0.58014706 0.49019608
0.82843137 0.58419118 0.49019608
0.83406863 0.59571078 0.49411765
0.84338235 0.60367647 0.49607843
0.85857843 0.61102941 0.49748775
0.8754902 0.60870098 0.48909314
0.90643382 0.61415441 0.49810049
0.93823529 0.60490196 0.50392157
0.79803922 0.61960784 0.47843137
0.80476409 0.6239277 0.47904412
0.81320466 0.62806373 0.47904412
0.82650123 0.63705576 0.4777114
0.84656863 0.64289216 0.48572304
0.86395527 0.65943627 0.49342831
0.8879902 0.66617647 0.49684436
0.91421569 0.66911765 0.49375
0.93517157 0.66727941 0.49019608
0.79313725 0.68112745 0.4627451
0.79791667 0.67745098 0.46210172
0.80416667 0.67426471 0.45784314
0.81712623 0.6810049 0.45971201
0.83786765 0.68602941 0.46237745
0.85735294 0.69644608 0.46568627
0.88596814 0.70955882 0.47971814
0.91519608 0.71271446 0.48627451
0.94509804 0.71176471 0.49730392
0.80796569 0.75 0.47794118
0.80929841 0.74635417 0.47144608
0.81280637 0.74264706 0.46237745
0.82418811 0.74871324 0.46711091
0.83578431 0.7526348 0.46452206
0.85900735 0.75018382 0.45963542
0.88370098 0.76740196 0.47941176
0.92130821 0.77745098 0.5069087
0.94117647 0.78137255 0.54375
0.82352941 0.81568627 0.50882353
0.82708333 0.80784314 0.50490196
0.83235294 0.81176471 0.50269608
0.83627451 0.80428922 0.49803922
0.84215686 0.79705882 0.47892157
0.87561275 0.81507353 0.48566176
0.89730392 0.82254902 0.50122549
0.92867647 0.83026961 0.54129902
0.95294118 0.84313725 0.60196078
0.82794118 0.49166667 0.61372549
0.82408088 0.4838848 0.61323529
0.8310049 0.49852941 0.61323529
0.84234069 0.52126225 0.61715686
0.8495098 0.53284314 0.62132353
0.86715686 0.55018382 0.62892157
0.88639706 0.55441176 0.62536765
0.90245098 0.55882353 0.61721814
0.9254902 0.57009804 0.625
0.83235294 0.51470588 0.61807598
0.83186275 0.51770833 0.61323529
0.836106 0.52619485 0.61629902
0.84362745 0.52604167 0.61323529
0.85147059 0.53970588 0.61764706
0.86828278 0.55365349 0.62538297
0.88639706 0.56155025 0.62461703
0.90245098 0.57352941 0.61764706
0.92892157 0.57401961 0.62843137
0.83970588 0.55330882 0.61372549
0.84352022 0.55948223 0.61325061
0.84733456 0.56078431 0.60943627
0.85507047 0.56101409 0.61715686
0.8627451 0.58143382 0.61936275
0.87415748 0.59215686 0.625
0.88762255 0.59647672 0.6254902
0.90277267 0.6004902 0.61796875
0.92941176 0.59656863 0.62512255
0.84362745 0.5995098 0.60980392
0.84754902 0.6060432 0.60931373
0.85539216 0.60588235 0.60931373
0.86065411 0.60735294 0.61060815
0.86715686 0.61902574 0.61740196
0.87628676 0.62696078 0.6181296
0.89154412 0.63480392 0.62581189
0.90664062 0.63915441 0.6276348
0.9276348 0.62714461 0.625
0.84411765 0.63823529 0.60588235
0.85539216 0.64215686 0.60931373
0.85931373 0.64607843 0.60949755
0.86323529 0.65 0.60980392
0.87107843 0.65759804 0.61372549
0.88268995 0.66632966 0.61715686
0.8942402 0.67334559 0.6185049
0.91050858 0.67723652 0.62132353
0.92941176 0.66397059 0.62132353
0.84019608 0.67696078 0.60018382
0.84626225 0.66911765 0.60588235
0.85170037 0.67303922 0.60588235
0.86323529 0.67941176 0.60802696
0.87956495 0.69240196 0.61323529
0.88676471 0.70392157 0.61330423
0.90039828 0.7096201 0.61323529
0.91942402 0.71182598 0.60964308
0.93333333 0.7122549 0.60980392
0.83492647 0.71911765 0.58933824
0.83959865 0.71294424 0.5932598
0.84390319 0.71139706 0.59034926
0.85502451 0.71580882 0.59840686
0.87009804 0.72696078 0.60104167
0.8803462 0.73530944 0.59718137
0.90330882 0.7504902 0.60980392
0.92473958 0.74791667 0.60992647
0.9372549 0.74791667 0.61470588
0.83186275 0.7622549 0.59460784
0.83621324 0.7622549 0.5872549
0.83970588 0.7622549 0.58284314
0.84785539 0.7622549 0.5911152
0.85931373 0.76617647 0.59417892
0.87628676 0.7713848 0.59806219
0.89557292 0.78933824 0.60723039
0.91819853 0.7971201 0.62266391
0.93768382 0.80447304 0.64558824
0.84362745 0.81176471 0.61372549
0.84705882 0.81176471 0.61323529
0.85098039 0.81176471 0.61323529
0.85753676 0.81390931 0.61323529
0.86691176 0.81617647 0.61372549
0.87892157 0.81617647 0.60980392
0.89068627 0.81568627 0.60980392
0.92205882 0.83186275 0.64901961
0.94852941 0.84313725 0.67598039
0.8627451 0.58431373 0.70588235
0.86666667 0.58823529 0.71029412
0.87058824 0.59215686 0.71372549
0.87303922 0.59460784 0.70588235
0.88039216 0.60392157 0.71568627
0.89019608 0.61568627 0.71372549
0.89901961 0.62843137 0.72254902
0.91029412 0.62745098 0.70539216
0.92941176 0.65490196 0.72941176
0.8627451 0.57696078 0.69509804
0.86715686 0.59307598 0.71556373
0.8745098 0.60343137 0.72242647
0.87028186 0.59264706 0.69136029
0.88039216 0.60784314 0.71029412
0.89019608 0.62107843 0.71550245
0.90196078 0.63872549 0.72156863
0.91029412 0.65 0.72058824
0.91764706 0.65441176 0.725
0.86568627 0.59705882 0.68529412
0.87058824 0.61715686 0.70147059
0.8745098 0.6254902 0.70514706
0.88235294 0.63431373 0.71666667
0.88627451 0.64019608 0.71568627
0.89411765 0.64607843 0.71372549
0.90196078 0.65710784 0.7120098
0.91372549 0.66703431 0.71764706
0.92843137 0.67352941 0.7245098
0.87843137 0.66127451 0.70588235
0.88235294 0.66519608 0.71519608
0.88235294 0.66127451 0.70588235
0.88627451 0.66911765 0.71519608
0.89019608 0.66911765 0.70980392
0.89411765 0.67303922 0.70588235
0.90196078 0.68186275 0.71078431
0.91372549 0.70030637 0.7276348
0.92156863 0.69656863 0.71764706
0.88627451 0.70196078 0.71960784
0.88235294 0.69215686 0.70588235
0.88529412 0.69607843 0.70735294
0.89019608 0.70392157 0.71568627
0.89411765 0.70784314 0.71764706
0.89803922 0.71176471 0.71495098
0.90833333 0.72401961 0.72843137
0.91764706 0.72401961 0.72009804
0.92156863 0.73137255 0.73137255
0.87843137 0.71911765 0.70588235
0.87843137 0.71911765 0.70980392
0.88921569 0.72303922 0.71311275
0.89019608 0.72696078 0.70980392
0.8995098 0.74264706 0.72303922
0.90196078 0.74264706 0.71372549
0.91017157 0.74656863 0.70980392
0.92156863 0.75098039 0.71372549
0.92696078 0.75441176 0.71617647
0.87352941 0.74607843 0.70980392
0.8745098 0.75 0.72022059
0.88137255 0.75392157 0.70980392
0.88627451 0.75784314 0.71372549
0.89362745 0.76568627 0.71372549
0.90196078 0.77352941 0.71703431
0.91764706 0.78529412 0.72647059
0.9254902 0.78541667 0.72561275
0.93333333 0.79411765 0.74313725
0.86666667 0.78921569 0.71421569
0.86666667 0.78872549 0.70588235
0.87058824 0.79301471 0.7127451
0.87665441 0.79264706 0.71764706
0.88602941 0.79460784 0.72156863
0.89932598 0.8004902 0.72696078
0.91470588 0.8122549 0.73333333
0.92598039 0.82359069 0.74466912
0.9372549 0.82009804 0.74166667
0.8627451 0.81568627 0.71764706
0.86666667 0.81176471 0.70637255
0.87058824 0.80784314 0.7127451
0.8745098 0.8 0.70343137
0.88039216 0.80980392 0.70784314
0.89411765 0.84166667 0.74754902
0.91078431 0.82352941 0.72941176
0.92941176 0.84362745 0.75343137
0.94901961 0.85490196 0.77647059
