site/assets/luts/sha256-e8f782b2013cbc354c494d4aca2fd4a5093b6af151cb84dc57265fa67d4127dc.cube
# LUTr-Schema-Version: 2
# LUTr-ID: sha256-e8f782b2013cbc354c494d4aca2fd4a5093b6af151cb84dc57265fa67d4127dc
# LUTr-Title: kodak portra 160 vc +
# LUTr-Collection: Natron HaldCLUT
# LUTr-Collection-ID: natron-haldclut-presets
# LUTr-Source: https://github.com/NatronGitHub/clut
# LUTr-Retrieved: 2026-07-27
# LUTr-Source-File: submissions/natron-haldclut-presets/negative_old/kodak_portra_160_vc_+.png
# LUTr-Source-Format: HALD-PNG
# LUTr-Source-SHA256: e8f782b2013cbc354c494d4aca2fd4a5093b6af151cb84dc57265fa67d4127dc
# LUTr-License: CC-BY-SA-4.0
# LUTr-License-URL: https://github.com/NatronGitHub/clut#license
# LUTr-License-Basis: repo-license-file
# LUTr-Transform-Class: film-emulation
# LUTr-Tags: creative, film, film-emulation, hald-clut, natron, png, cube
# LUTr-Input-Color-Space: srgb
# LUTr-Input-Gamut: rec709
# LUTr-Input-Transfer: srgb
# LUTr-Output-Color-Space: srgb
# LUTr-Output-Gamut: rec709
# LUTr-Output-Transfer: srgb
# LUTr-Color-Space-Confidence: assumed-display-referred
# LUTr-Domain-Normalized: true
# LUTr-Shaper: none
# LUTr-Original-Grid: 64x64x64
# LUTr-Conversion-Grid: 25x25x25
# LUTr-Conversion-Interpolation: trilinear
# LUTr-Conversion-Method: HALD-PNG LUT image decoded at 16-bit and sampled to 25x25x25 3D CUBE
# LUTr-Conversion-Tool: LUTr scripts/convert-all-to-cube.mjs 2.0.0
# LUTr-Conversion-Date: 2026-07-27
# LUTr-Note: Preserve this metadata and the upstream license notices when redistributing.
TITLE "kodak portra 160 vc +"
LUT_3D_SIZE 5
DOMAIN_MIN 0 0 0
DOMAIN_MAX 1 1 1
0.0039215686 0.070588235 0.11372549
0.18431373 0.094117647 0.090196078
0.58039216 0.037254902 0.082352941
0.88529412 0.07254902 0.0078431373
1 0.21176471 0
0 0.23039216 0.1245098
0.15196078 0.24607843 0.090196078
0.59852941 0.25588235 0.0058823529
0.88161765 0.26666667 0.006127451
0.99607843 0.31960784 0.0039215686
0.0078431373 0.51764706 0.22745098
0.092156863 0.51813725 0.22254902
0.53921569 0.55294118 0.078431373
0.84803922 0.53921569 0.0088235294
0.99607843 0.51568627 0.0039215686
0.3 0.75294118 0.4
0.38333333 0.74509804 0.41078431
0.54901961 0.75196078 0.38970588
0.77941176 0.76764706 0.26372549
0.97843137 0.77352941 0.11078431
0.6745098 0.93333333 0.70588235
0.68235294 0.92941176 0.70196078
0.73529412 0.9254902 0.70980392
0.80980392 0.9372549 0.68137255
0.9254902 0.95686275 0.63137255
0.0078431373 0.08627451 0.24607843
0.20269608 0.085294118 0.24313725
0.58823529 0.01127451 0.23137255
0.88235294 0.11519608 0.24093137
0.99607843 0.26960784 0.24607843
0.0078431373 0.27328431 0.28529412
0.20851716 0.26415441 0.26568627
0.60625 0.26973039 0.24644608
0.87751225 0.30435049 0.23823529
0.99607843 0.36568627 0.24215686
0.12352941 0.54803922 0.34901961
0.30759804 0.54301471 0.35735294
0.56593137 0.55294118 0.30588235
0.85392157 0.53125 0.20428922
0.99607843 0.51960784 0.14362745
0.39901961 0.75196078 0.48651961
0.4620098 0.75196078 0.49117647
0.58419118 0.75355392 0.47708333
0.78553922 0.76764706 0.39589461
0.98333333 0.77156863 0.29901961
0.66960784 0.92058824 0.70882353
0.7 0.92941176 0.72745098
0.74215686 0.9245098 0.73137255
0.81838235 0.94117647 0.71666667
0.93627451 0.95588235 0.66568627
0.0039215686 0.17254902 0.58627451
0.3 0.17843137 0.58235294
0.65294118 0.19803922 0.55490196
0.87156863 0.053921569 0.47647059
0.99411765 0.20784314 0.45882353
0.00049019608 0.37647059 0.60147059
0.31470588 0.35931373 0.59607843
0.64803922 0.3752451 0.56813725
0.86617647 0.31813725 0.50098039
0.99607843 0.41029412 0.51666667
0.19215686 0.58627451 0.57745098
0.40196078 0.59215686 0.58823529
0.62352941 0.58137255 0.58235294
0.84411765 0.56470588 0.53480392
0.99411765 0.59607843 0.54705882
0.54019608 0.77107843 0.64901961
0.58676471 0.77303922 0.65477941
0.67156863 0.7625 0.65098039
0.81004902 0.77622549 0.60931373
0.97990196 0.76078431 0.5495098
0.71960784 0.92941176 0.78039216
0.725 0.92941176 0.77794118
0.76862745 0.92941176 0.78235294
0.83235294 0.9254902 0.76568627
0.94509804 0.95882353 0.74705882
0.24607843 0.35196078 0.83039216
0.44044118 0.3627451 0.82647059
0.70833333 0.44166667 0.81764706
0.87818627 0.47058824 0.79044118
0.99313725 0.43235294 0.74901961
0.3247549 0.4627451 0.82573529
0.48768382 0.48155637 0.82947304
0.7125 0.52745098 0.81862745
0.86979167 0.56121324 0.80667892
0.98529412 0.51862745 0.75294118
0.39117647 0.65 0.80833333
0.49669118 0.65588235 0.80686275
0.69681373 0.65637255 0.81102941
0.85392157 0.6810049 0.80257353
0.9872549 0.64509804 0.76813725
0.54901961 0.8 0.80367647
0.60827206 0.80214461 0.80294118
0.71360294 0.79583333 0.81433824
0.82904412 0.79509804 0.80667892
0.97941176 0.79436275 0.7872549
0.7372549 0.94117647 0.86372549
0.75196078 0.9375 0.85980392
0.79215686 0.93284314 0.86029412
0.86372549 0.9379902 0.86078431
0.9254902 0.93823529 0.84901961
0.57254902 0.56470588 0.94901961
0.66176471 0.59901961 0.96078431
0.78431373 0.63921569 0.95686275
0.90686275 0.69803922 0.94803922
0.98039216 0.72156863 0.93333333
0.63529412 0.64215686 0.96470588
0.67843137 0.64803922 0.96053922
0.78823529 0.67745098 0.95490196
0.90392157 0.72941176 0.94901961
0.98137255 0.75196078 0.94215686
0.66666667 0.74509804 0.95686275
0.69509804 0.74656863 0.95833333
0.78431373 0.75490196 0.95294118
0.8995098 0.7872549 0.95294118
0.97843137 0.80588235 0.94509804
0.65098039 0.85196078 0.94509804
0.6752451 0.85686275 0.95784314
0.73823529 0.84558824 0.94019608
0.87598039 0.85563725 0.95220588
0.97352941 0.8872549 0.95392157
0.71372549 0.9372549 0.96078431
0.74901961 0.95686275 0.93039216
0.80196078 0.95098039 0.93921569
0.88431373 0.95784314 0.95784314
0.97647059 0.96862745 0.96470588
