site/assets/luts/sha256-babe8e4e438734da32e891cb31653dac8963fec41c518c868edef2b725021063.cube
# LUTr-Schema-Version: 2
# LUTr-ID: sha256-babe8e4e438734da32e891cb31653dac8963fec41c518c868edef2b725021063
# LUTr-Title: kodak hie (hs infra)
# LUTr-Collection: Natron HaldCLUT
# LUTr-Collection-ID: natron-haldclut-presets
# LUTr-Source: https://github.com/NatronGitHub/clut
# LUTr-Retrieved: 2026-07-27
# LUTr-Source-File: submissions/natron-haldclut-presets/bw/kodak_hie_(hs_infra).png
# LUTr-Source-Format: HALD-PNG
# LUTr-Source-SHA256: babe8e4e438734da32e891cb31653dac8963fec41c518c868edef2b725021063
# LUTr-License: CC-BY-SA-4.0
# LUTr-License-URL: https://github.com/NatronGitHub/clut#license
# LUTr-License-Basis: repo-license-file
# LUTr-Transform-Class: film-emulation
# LUTr-Tags: creative, film, film-emulation, hald-clut, natron, png, cube
# LUTr-Input-Color-Space: srgb
# LUTr-Input-Gamut: rec709
# LUTr-Input-Transfer: srgb
# LUTr-Output-Color-Space: srgb
# LUTr-Output-Gamut: rec709
# LUTr-Output-Transfer: srgb
# LUTr-Color-Space-Confidence: assumed-display-referred
# LUTr-Domain-Normalized: true
# LUTr-Shaper: none
# LUTr-Original-Grid: 64x64x64
# LUTr-Conversion-Grid: 25x25x25
# LUTr-Conversion-Interpolation: trilinear
# LUTr-Conversion-Method: HALD-PNG LUT image decoded at 16-bit and sampled to 25x25x25 3D CUBE
# LUTr-Conversion-Tool: LUTr scripts/convert-all-to-cube.mjs 2.0.0
# LUTr-Conversion-Date: 2026-07-27
# LUTr-Note: Preserve this metadata and the upstream license notices when redistributing.
TITLE "kodak hie (hs infra)"
LUT_3D_SIZE 9
DOMAIN_MIN 0 0 0
DOMAIN_MAX 1 1 1
0.011764706 0.011764706 0.011764706
0.1004902 0.1004902 0.1004902
0.2 0.2 0.2
0.33529412 0.33529412 0.33529412
0.50784314 0.50784314 0.50784314
0.6622549 0.6622549 0.6622549
0.79215686 0.79215686 0.79215686
0.89558824 0.89558824 0.89558824
0.97254902 0.97254902 0.97254902
0.11617647 0.11617647 0.11617647
0.1627451 0.1627451 0.1627451
0.24742647 0.24742647 0.24742647
0.35410539 0.35410539 0.35410539
0.51176471 0.51176471 0.51176471
0.6622549 0.6622549 0.6622549
0.78823529 0.78823529 0.78823529
0.89564951 0.89564951 0.89564951
0.96862745 0.96862745 0.96862745
0.2245098 0.2245098 0.2245098
0.25232843 0.25232843 0.25232843
0.30980392 0.30980392 0.30980392
0.4060049 0.4060049 0.4060049
0.52647059 0.52647059 0.52647059
0.67757353 0.67757353 0.67757353
0.79901961 0.79901961 0.79901961
0.89031863 0.89031863 0.89031863
0.96960784 0.96960784 0.96960784
0.33529412 0.33529412 0.33529412
0.3622549 0.3622549 0.3622549
0.40147059 0.40147059 0.40147059
0.46023284 0.46023284 0.46023284
0.55539216 0.55539216 0.55539216
0.68676471 0.68676471 0.68676471
0.80686275 0.80686275 0.80686275
0.89901961 0.89901961 0.89901961
0.96470588 0.96470588 0.96470588
0.49411765 0.49411765 0.49411765
0.5 0.5 0.5
0.5127451 0.5127451 0.5127451
0.55073529 0.55073529 0.55073529
0.60784314 0.60784314 0.60784314
0.70122549 0.70122549 0.70122549
0.81470588 0.81470588 0.81470588
0.8995098 0.8995098 0.8995098
0.9745098 0.9745098 0.9745098
0.70735294 0.70735294 0.70735294
0.69656863 0.69656863 0.69656863
0.69656863 0.69656863 0.69656863
0.65686275 0.65686275 0.65686275
0.67352941 0.67352941 0.67352941
0.75189951 0.75189951 0.75189951
0.82794118 0.82794118 0.82794118
0.91256127 0.91256127 0.91256127
0.97254902 0.97254902 0.97254902
0.95392157 0.95392157 0.95392157
0.95281863 0.95281863 0.95281863
0.93235294 0.93235294 0.93235294
0.85870098 0.85870098 0.85870098
0.80294118 0.80294118 0.80294118
0.79558824 0.79558824 0.79558824
0.85465686 0.85465686 0.85465686
0.92254902 0.92254902 0.92254902
0.98333333 0.98333333 0.98333333
0.92990196 0.92990196 0.92990196
0.96329657 0.96329657 0.96329657
0.98872549 0.98872549 0.98872549
0.98480392 0.98480392 0.98480392
0.96470588 0.96470588 0.96470588
0.88872549 0.88872549 0.88872549
0.88125 0.88125 0.88125
0.92598039 0.92598039 0.92598039
0.95294118 0.95294118 0.95294118
0.85882353 0.85882353 0.85882353
0.91127451 0.91127451 0.91127451
0.98039216 0.98039216 0.98039216
1 1 1
1 1 1
0.99460784 0.99460784 0.99460784
0.96470588 0.96470588 0.96470588
0.95588235 0.95588235 0.95588235
0.9372549 0.9372549 0.9372549
0.030882353 0.030882353 0.030882353
0.10398284 0.10398284 0.10398284
0.20392157 0.20392157 0.20392157
0.34528186 0.34528186 0.34528186
0.50955882 0.50955882 0.50955882
0.66991422 0.66991422 0.66991422
0.79852941 0.79852941 0.79852941
0.89558824 0.89558824 0.89558824
0.98039216 0.98039216 0.98039216
0.11617647 0.11617647 0.11617647
0.1622549 0.1622549 0.1622549
0.2466299 0.2466299 0.2466299
0.36960784 0.36960784 0.36960784
0.51933211 0.51933211 0.51933211
0.67395833 0.67395833 0.67395833
0.79595588 0.79595588 0.79595588
0.89956342 0.89956342 0.89956342
0.95343137 0.95343137 0.95343137
0.20833333 0.20833333 0.20833333
0.24373468 0.24373468 0.24373468
0.30958946 0.30958946 0.30958946
0.40539216 0.40539216 0.40539216
0.53131127 0.53131127 0.53131127
0.6881587 0.6881587 0.6881587
0.80358456 0.80358456 0.80358456
0.9033701 0.9033701 0.9033701
0.9689951 0.9689951 0.9689951
0.32794118 0.32794118 0.32794118
0.35425092 0.35425092 0.35425092
0.38609069 0.38609069 0.38609069
0.46415441 0.46415441 0.46415441
0.56323529 0.56323529 0.56323529
0.69123775 0.69123775 0.69123775
0.81292892 0.81292892 0.81292892
0.90278033 0.90278033 0.90278033
0.9723652 0.9723652 0.9723652
0.48284314 0.48284314 0.48284314
0.48866422 0.48866422 0.48866422
0.50490196 0.50490196 0.50490196
0.53740809 0.53740809 0.53740809
0.61066176 0.61066176 0.61066176
0.71979167 0.71979167 0.71979167
0.821875 0.821875 0.821875
0.90707721 0.90707721 0.90707721
0.98039216 0.98039216 0.98039216
0.68284314 0.68284314 0.68284314
0.66746324 0.66746324 0.66746324
0.66605392 0.66605392 0.66605392
0.65557598 0.65557598 0.65557598
0.675 0.675 0.675
0.75409773 0.75409773 0.75409773
0.83739277 0.83739277 0.83739277
0.91519608 0.91519608 0.91519608
0.96862745 0.96862745 0.96862745
0.94448529 0.94448529 0.94448529
0.9372549 0.9372549 0.9372549
0.89831495 0.89831495 0.89831495
0.83374694 0.83374694 0.83374694
0.78535539 0.78535539 0.78535539
0.79839154 0.79839154 0.79839154
0.86173407 0.86173407 0.86173407
0.9261489 0.9261489 0.9261489
0.97647059 0.97647059 0.97647059
0.9372549 0.9372549 0.9372549
0.97849265 0.97849265 0.97849265
0.9926011 0.9926011 0.9926011
0.99564951 0.99564951 0.99564951
0.96911765 0.96911765 0.96911765
0.89785539 0.89785539 0.89785539
0.89252451 0.89252451 0.89252451
0.92598039 0.92598039 0.92598039
0.97254902 0.97254902 0.97254902
0.89705882 0.89705882 0.89705882
0.91568627 0.91568627 0.91568627
0.99656863 0.99656863 0.99656863
1 1 1
1 1 1
0.99215686 0.99215686 0.99215686
0.97647059 0.97647059 0.97647059
0.95202206 0.95202206 0.95202206
0.98431373 0.98431373 0.98431373
0.028431373 0.028431373 0.028431373
0.093137255 0.093137255 0.093137255
0.22156863 0.22156863 0.22156863
0.36421569 0.36421569 0.36421569
0.52696078 0.52696078 0.52696078
0.69362745 0.69362745 0.69362745
0.81372549 0.81372549 0.81372549
0.90992647 0.90992647 0.90992647
0.97254902 0.97254902 0.97254902
0.085294118 0.085294118 0.085294118
0.157644 0.157644 0.157644
0.25404412 0.25404412 0.25404412
0.37784926 0.37784926 0.37784926
0.53780637 0.53780637 0.53780637
0.69607843 0.69607843 0.69607843
0.81534926 0.81534926 0.81534926
0.91127451 0.91127451 0.91127451
0.96384804 0.96384804 0.96384804
0.20098039 0.20098039 0.20098039
0.22879902 0.22879902 0.22879902
0.30784314 0.30784314 0.30784314
0.40784314 0.40784314 0.40784314
0.55036765 0.55036765 0.55036765
0.69690564 0.69690564 0.69690564
0.81470588 0.81470588 0.81470588
0.90735294 0.90735294 0.90735294
0.96838235 0.96838235 0.96838235
0.30245098 0.30245098 0.30245098
0.32530637 0.32530637 0.32530637
0.38578431 0.38578431 0.38578431
0.46456801 0.46456801 0.46456801
0.58039216 0.58039216 0.58039216
0.70598958 0.70598958 0.70598958
0.82046569 0.82046569 0.82046569
0.9089614 0.9089614 0.9089614
0.98002451 0.98002451 0.98002451
0.44313725 0.44313725 0.44313725
0.45618873 0.45618873 0.45618873
0.48909314 0.48909314 0.48909314
0.53357843 0.53357843 0.53357843
0.62083333 0.62083333 0.62083333
0.72696078 0.72696078 0.72696078
0.83370098 0.83370098 0.83370098
0.91488971 0.91488971 0.91488971
0.97941176 0.97941176 0.97941176
0.64803922 0.64803922 0.64803922
0.62732843 0.62732843 0.62732843
0.63030025 0.63030025 0.63030025
0.63915441 0.63915441 0.63915441
0.67034314 0.67034314 0.67034314
0.75189951 0.75189951 0.75189951
0.84592525 0.84592525 0.84592525
0.91977635 0.91977635 0.91977635
0.9754902 0.9754902 0.9754902
0.89681373 0.89681373 0.89681373
0.88995098 0.88995098 0.88995098
0.84466912 0.84466912 0.84466912
0.78639706 0.78639706 0.78639706
0.75833333 0.75833333 0.75833333
0.8026348 0.8026348 0.8026348
0.86544118 0.86544118 0.86544118
0.93048407 0.93048407 0.93048407
0.98651961 0.98651961 0.98651961
0.98823529 0.98823529 0.98823529
0.99601716 0.99601716 0.99601716
0.99224877 0.99224877 0.99224877
0.98978248 0.98978248 0.98978248
0.93069853 0.93069853 0.93069853
0.89002757 0.89002757 0.89002757
0.89264706 0.89264706 0.89264706
0.93757659 0.93757659 0.93757659
0.98431373 0.98431373 0.98431373
0.95392157 0.95392157 0.95392157
0.96605392 0.96605392 0.96605392
0.99607843 0.99607843 0.99607843
0.99607843 0.99607843 0.99607843
0.99901961 0.99901961 0.99901961
0.99129902 0.99129902 0.99129902
0.96593137 0.96593137 0.96593137
0.94411765 0.94411765 0.94411765
0.98921569 0.98921569 0.98921569
0.03627451 0.03627451 0.03627451
0.095098039 0.095098039 0.095098039
0.23529412 0.23529412 0.23529412
0.39509804 0.39509804 0.39509804
0.5495098 0.5495098 0.5495098
0.70931373 0.70931373 0.70931373
0.82830882 0.82830882 0.82830882
0.92126225 0.92126225 0.92126225
0.97254902 0.97254902 0.97254902
0.066360294 0.066360294 0.066360294
0.15441176 0.15441176 0.15441176
0.26475184 0.26475184 0.26475184
0.40294118 0.40294118 0.40294118
0.56078431 0.56078431 0.56078431
0.70765931 0.70765931 0.70765931
0.82647059 0.82647059 0.82647059
0.91756281 0.91756281 0.91756281
0.97892157 0.97892157 0.97892157
0.17892157 0.17892157 0.17892157
0.21928615 0.21928615 0.21928615
0.31066176 0.31066176 0.31066176
0.42696078 0.42696078 0.42696078
0.57303922 0.57303922 0.57303922
0.71531863 0.71531863 0.71531863
0.82892157 0.82892157 0.82892157
0.91341912 0.91341912 0.91341912
0.98039216 0.98039216 0.98039216
0.29215686 0.29215686 0.29215686
0.31659773 0.31659773 0.31659773
0.38227635 0.38227635 0.38227635
0.47295496 0.47295496 0.47295496
0.60098039 0.60098039 0.60098039
0.73177849 0.73177849 0.73177849
0.83570772 0.83570772 0.83570772
0.91734069 0.91734069 0.91734069
0.98584559 0.98584559 0.98584559
0.41176471 0.41176471 0.41176471
0.43088235 0.43088235 0.43088235
0.47947304 0.47947304 0.47947304
0.53630515 0.53630515 0.53630515
0.63357843 0.63357843 0.63357843
0.74635417 0.74635417 0.74635417
0.84460784 0.84460784 0.84460784
0.92518382 0.92518382 0.92518382
0.98676471 0.98676471 0.98676471
0.57493873 0.57493873 0.57493873
0.57176777 0.57176777 0.57176777
0.58676471 0.58676471 0.58676471
0.63039216 0.63039216 0.63039216
0.68259804 0.68259804 0.68259804
0.77303922 0.77303922 0.77303922
0.85502451 0.85502451 0.85502451
0.92892157 0.92892157 0.92892157
0.98823529 0.98823529 0.98823529
0.79509804 0.79509804 0.79509804
0.78138787 0.78138787 0.78138787
0.7763174 0.7763174 0.7763174
0.74477635 0.74477635 0.74477635
0.75147059 0.75147059 0.75147059
0.80522365 0.80522365 0.80522365
0.87325368 0.87325368 0.87325368
0.93685662 0.93685662 0.93685662
0.99068627 0.99068627 0.99068627
0.99969363 0.99969363 0.99969363
0.99001225 0.99001225 0.99001225
0.99106924 0.99106924 0.99106924
0.96887255 0.96887255 0.96887255
0.89730392 0.89730392 0.89730392
0.85895374 0.85895374 0.85895374
0.89817708 0.89817708 0.89817708
0.94562653 0.94562653 0.94562653
0.98431373 0.98431373 0.98431373
0.99607843 0.99607843 0.99607843
0.99607843 0.99607843 0.99607843
0.98933824 0.98933824 0.98933824
0.99307598 0.99307598 0.99307598
0.99558824 0.99558824 0.99558824
0.96862745 0.96862745 0.96862745
0.98296569 0.98296569 0.98296569
0.975 0.975 0.975
0.98431373 0.98431373 0.98431373
0.039215686 0.039215686 0.039215686
0.1247549 0.1247549 0.1247549
0.28333333 0.28333333 0.28333333
0.43578431 0.43578431 0.43578431
0.58823529 0.58823529 0.58823529
0.73406863 0.73406863 0.73406863
0.8377451 0.8377451 0.8377451
0.93088235 0.93088235 0.93088235
0.99411765 0.99411765 0.99411765
0.08504902 0.08504902 0.08504902
0.17769608 0.17769608 0.17769608
0.30128676 0.30128676 0.30128676
0.44231005 0.44231005 0.44231005
0.59215686 0.59215686 0.59215686
0.73872549 0.73872549 0.73872549
0.83823529 0.83823529 0.83823529
0.93235294 0.93235294 0.93235294
0.99387255 0.99387255 0.99387255
0.18480392 0.18480392 0.18480392
0.23768382 0.23768382 0.23768382
0.33431373 0.33431373 0.33431373
0.46421569 0.46421569 0.46421569
0.60931373 0.60931373 0.60931373
0.74430147 0.74430147 0.74430147
0.84595588 0.84595588 0.84595588
0.93253676 0.93253676 0.93253676
0.98431373 0.98431373 0.98431373
0.29093137 0.29093137 0.29093137
0.32386642 0.32386642 0.32386642
0.39509804 0.39509804 0.39509804
0.50413603 0.50413603 0.50413603
0.63186275 0.63186275 0.63186275
0.75885417 0.75885417 0.75885417
0.85710784 0.85710784 0.85710784
0.94019608 0.94019608 0.94019608
0.9875 0.9875 0.9875
0.40392157 0.40392157 0.40392157
0.42647059 0.42647059 0.42647059
0.4745098 0.4745098 0.4745098
0.55441176 0.55441176 0.55441176
0.6622549 0.6622549 0.6622549
0.77536765 0.77536765 0.77536765
0.8622549 0.8622549 0.8622549
0.94240196 0.94240196 0.94240196
0.98823529 0.98823529 0.98823529
0.53088235 0.53088235 0.53088235
0.53979779 0.53979779 0.53979779
0.56323529 0.56323529 0.56323529
0.62352941 0.62352941 0.62352941
0.70490196 0.70490196 0.70490196
0.7958027 0.7958027 0.7958027
0.87487745 0.87487745 0.87487745
0.94476103 0.94476103 0.94476103
0.99338235 0.99338235 0.99338235
0.70490196 0.70490196 0.70490196
0.7127451 0.7127451 0.7127451
0.71176471 0.71176471 0.71176471
0.71176471 0.71176471 0.71176471
0.75882353 0.75882353 0.75882353
0.81960784 0.81960784 0.81960784
0.89031863 0.89031863 0.89031863
0.94803922 0.94803922 0.94803922
0.99215686 0.99215686 0.99215686
0.96838235 0.96838235 0.96838235
0.95928309 0.95928309 0.95928309
0.92371324 0.92371324 0.92371324
0.88161765 0.88161765 0.88161765
0.86176471 0.86176471 0.86176471
0.86158088 0.86158088 0.86158088
0.90428922 0.90428922 0.90428922
0.95349265 0.95349265 0.95349265
0.99779412 0.99779412 0.99779412
0.99607843 0.99607843 0.99607843
0.98504902 0.98504902 0.98504902
0.97990196 0.97990196 0.97990196
0.97205882 0.97205882 0.97205882
0.99313725 0.99313725 0.99313725
0.98480392 0.98480392 0.98480392
0.93039216 0.93039216 0.93039216
0.96348039 0.96348039 0.96348039
0.99215686 0.99215686 0.99215686
0.023529412 0.023529412 0.023529412
0.16942402 0.16942402 0.16942402
0.32708333 0.32708333 0.32708333
0.48578431 0.48578431 0.48578431
0.63627451 0.63627451 0.63627451
0.77058824 0.77058824 0.77058824
0.85539216 0.85539216 0.85539216
0.94234069 0.94234069 0.94234069
0.99607843 0.99607843 0.99607843
0.11372549 0.11372549 0.11372549
0.20612745 0.20612745 0.20612745
0.35392157 0.35392157 0.35392157
0.49251685 0.49251685 0.49251685
0.6361826 0.6361826 0.6361826
0.76758578 0.76758578 0.76758578
0.85926777 0.85926777 0.85926777
0.94754902 0.94754902 0.94754902
0.99215686 0.99215686 0.99215686
0.21960784 0.21960784 0.21960784
0.28186275 0.28186275 0.28186275
0.3935049 0.3935049 0.3935049
0.51971507 0.51971507 0.51971507
0.64540441 0.64540441 0.64540441
0.77169118 0.77169118 0.77169118
0.86715686 0.86715686 0.86715686
0.95 0.95 0.95
0.99607843 0.99607843 0.99607843
0.31770833 0.31770833 0.31770833
0.3582644 0.3582644 0.3582644
0.44411765 0.44411765 0.44411765
0.55210631 0.55210631 0.55210631
0.66905637 0.66905637 0.66905637
0.78235294 0.78235294 0.78235294
0.87444853 0.87444853 0.87444853
0.95532322 0.95532322 0.95532322
0.99607843 0.99607843 0.99607843
0.42377451 0.42377451 0.42377451
0.45 0.45 0.45
0.50588235 0.50588235 0.50588235
0.59656863 0.59656863 0.59656863
0.6939951 0.6939951 0.6939951
0.8 0.8 0.8
0.88265931 0.88265931 0.88265931
0.95922181 0.95922181 0.95922181
0.99607843 0.99607843 0.99607843
0.53229167 0.53229167 0.53229167
0.53872549 0.53872549 0.53872549
0.58039216 0.58039216 0.58039216
0.65098039 0.65098039 0.65098039
0.73823529 0.73823529 0.73823529
0.81594669 0.81594669 0.81594669
0.8950674 0.8950674 0.8950674
0.96305147 0.96305147 0.96305147
0.99215686 0.99215686 0.99215686
0.63982843 0.63982843 0.63982843
0.65036765 0.65036765 0.65036765
0.68091299 0.68091299 0.68091299
0.71352635 0.71352635 0.71352635
0.77781863 0.77781863 0.77781863
0.83898591 0.83898591 0.83898591
0.90471814 0.90471814 0.90471814
0.96305147 0.96305147 0.96305147
0.98823529 0.98823529 0.98823529
0.86109069 0.86109069 0.86109069
0.85339308 0.85339308 0.85339308
0.83455882 0.83455882 0.83455882
0.84804687 0.84804687 0.84804687
0.83480392 0.83480392 0.83480392
0.87009804 0.87009804 0.87009804
0.91528799 0.91528799 0.91528799
0.96305147 0.96305147 0.96305147
0.99215686 0.99215686 0.99215686
0.98431373 0.98431373 0.98431373
0.96960784 0.96960784 0.96960784
0.98578431 0.98578431 0.98578431
0.97886029 0.97886029 0.97886029
0.98921569 0.98921569 0.98921569
0.97647059 0.97647059 0.97647059
0.93431373 0.93431373 0.93431373
0.96930147 0.96930147 0.96930147
0.99215686 0.99215686 0.99215686
0.042156863 0.042156863 0.042156863
0.26323529 0.26323529 0.26323529
0.40588235 0.40588235 0.40588235
0.55147059 0.55147059 0.55147059
0.68578431 0.68578431 0.68578431
0.79362745 0.79362745 0.79362745
0.88235294 0.88235294 0.88235294
0.96568627 0.96568627 0.96568627
1 1 1
0.18921569 0.18921569 0.18921569
0.30078125 0.30078125 0.30078125
0.42882966 0.42882966 0.42882966
0.5564951 0.5564951 0.5564951
0.68578431 0.68578431 0.68578431
0.79750306 0.79750306 0.79750306
0.88624387 0.88624387 0.88624387
0.97035846 0.97035846 0.97035846
1 1 1
0.30196078 0.30196078 0.30196078
0.3643076 0.3643076 0.3643076
0.46378676 0.46378676 0.46378676
0.58333333 0.58333333 0.58333333
0.70257353 0.70257353 0.70257353
0.80539216 0.80539216 0.80539216
0.8935049 0.8935049 0.8935049
0.96654412 0.96654412 0.96654412
0.99607843 0.99607843 0.99607843
0.40245098 0.40245098 0.40245098
0.43811275 0.43811275 0.43811275
0.51106005 0.51106005 0.51106005
0.61173407 0.61173407 0.61173407
0.71838235 0.71838235 0.71838235
0.81499694 0.81499694 0.81499694
0.89803922 0.89803922 0.89803922
0.97046569 0.97046569 0.97046569
0.98970588 0.98970588 0.98970588
0.48431373 0.48431373 0.48431373
0.51354167 0.51354167 0.51354167
0.57058824 0.57058824 0.57058824
0.65269608 0.65269608 0.65269608
0.74313725 0.74313725 0.74313725
0.82745098 0.82745098 0.82745098
0.90453431 0.90453431 0.90453431
0.97781863 0.97781863 0.97781863
0.98431373 0.98431373 0.98431373
0.56323529 0.56323529 0.56323529
0.58480392 0.58480392 0.58480392
0.63039216 0.63039216 0.63039216
0.6939185 0.6939185 0.6939185
0.77352941 0.77352941 0.77352941
0.84129902 0.84129902 0.84129902
0.91047794 0.91047794 0.91047794
0.98088235 0.98088235 0.98088235
0.98823529 0.98823529 0.98823529
0.64705882 0.64705882 0.64705882
0.65833333 0.65833333 0.65833333
0.69515931 0.69515931 0.69515931
0.74117647 0.74117647 0.74117647
0.80588235 0.80588235 0.80588235
0.8629902 0.8629902 0.8629902
0.92432598 0.92432598 0.92432598
0.98183211 0.98183211 0.98183211
0.98823529 0.98823529 0.98823529
0.76262255 0.76262255 0.76262255
0.76793811 0.76793811 0.76793811
0.78636642 0.78636642 0.78636642
0.80473346 0.80473346 0.80473346
0.83284314 0.83284314 0.83284314
0.88578431 0.88578431 0.88578431
0.93465074 0.93465074 0.93465074
0.97863051 0.97863051 0.97863051
0.99215686 0.99215686 0.99215686
0.97843137 0.97843137 0.97843137
0.97806373 0.97806373 0.97806373
0.98112745 0.98112745 0.98112745
0.99448529 0.99448529 0.99448529
0.95637255 0.95637255 0.95637255
0.90955882 0.90955882 0.90955882
0.94387255 0.94387255 0.94387255
0.9817402 0.9817402 0.9817402
0.99215686 0.99215686 0.99215686
0.22254902 0.22254902 0.22254902
0.36905637 0.36905637 0.36905637
0.4995098 0.4995098 0.4995098
0.61519608 0.61519608 0.61519608
0.73578431 0.73578431 0.73578431
0.8245098 0.8245098 0.8245098
0.90833333 0.90833333 0.90833333
0.97359069 0.97359069 0.97359069
1 1 1
0.31813725 0.31813725 0.31813725
0.41084559 0.41084559 0.41084559
0.51482843 0.51482843 0.51482843
0.62600337 0.62600337 0.62600337
0.73777574 0.73777574 0.73777574
0.82794118 0.82794118 0.82794118
0.9162837 0.9162837 0.9162837
0.98088235 0.98088235 0.98088235
0.99607843 0.99607843 0.99607843
0.43590686 0.43590686 0.43590686
0.46600797 0.46600797 0.46600797
0.55355392 0.55355392 0.55355392
0.65159314 0.65159314 0.65159314
0.75061275 0.75061275 0.75061275
0.83650429 0.83650429 0.83650429
0.91715686 0.91715686 0.91715686
0.98088235 0.98088235 0.98088235
0.99987745 0.99987745 0.99987745
0.50441176 0.50441176 0.50441176
0.5396829 0.5396829 0.5396829
0.60459559 0.60459559 0.60459559
0.68137255 0.68137255 0.68137255
0.76681985 0.76681985 0.76681985
0.85060509 0.85060509 0.85060509
0.92847733 0.92847733 0.92847733
0.97738971 0.97738971 0.97738971
0.99393382 0.99393382 0.99393382
0.57230392 0.57230392 0.57230392
0.60098039 0.60098039 0.60098039
0.65226716 0.65226716 0.65226716
0.71308211 0.71308211 0.71308211
0.79485294 0.79485294 0.79485294
0.86439951 0.86439951 0.86439951
0.93578431 0.93578431 0.93578431
0.984375 0.984375 0.984375
0.98823529 0.98823529 0.98823529
0.63952206 0.63952206 0.63952206
0.66256127 0.66256127 0.66256127
0.69911152 0.69911152 0.69911152
0.75948989 0.75948989 0.75948989
0.82123162 0.82123162 0.82123162
0.88843444 0.88843444 0.88843444
0.94900429 0.94900429 0.94900429
0.98823529 0.98823529 0.98823529
0.98841912 0.98841912 0.98841912
0.70098039 0.70098039 0.70098039
0.72009804 0.72009804 0.72009804
0.74705882 0.74705882 0.74705882
0.79068627 0.79068627 0.79068627
0.83890931 0.83890931 0.83890931
0.90159314 0.90159314 0.90159314
0.96004902 0.96004902 0.96004902
0.98823529 0.98823529 0.98823529
0.98823529 0.98823529 0.98823529
0.77849265 0.77849265 0.77849265
0.78584559 0.78584559 0.78584559
0.79382659 0.79382659 0.79382659
0.83239124 0.83239124 0.83239124
0.86565564 0.86565564 0.86565564
0.91715686 0.91715686 0.91715686
0.9622549 0.9622549 0.9622549
0.99215686 0.99215686 0.99215686
0.99215686 0.99215686 0.99215686
0.94656863 0.94656863 0.94656863
0.95245098 0.95245098 0.95245098
0.93848039 0.93848039 0.93848039
0.93204657 0.93204657 0.93204657
0.88848039 0.88848039 0.88848039
0.92322304 0.92322304 0.92322304
0.96188725 0.96188725 0.96188725
0.99215686 0.99215686 0.99215686
0.99607843 0.99607843 0.99607843
0.32941176 0.32941176 0.32941176
0.50392157 0.50392157 0.50392157
0.59215686 0.59215686 0.59215686
0.68970588 0.68970588 0.68970588
0.77254902 0.77254902 0.77254902
0.85147059 0.85147059 0.85147059
0.94411765 0.94411765 0.94411765
0.98480392 0.98480392 0.98480392
1 1 1
0.41666667 0.41666667 0.41666667
0.52242647 0.52242647 0.52242647
0.60968137 0.60968137 0.60968137
0.69491422 0.69491422 0.69491422
0.77647059 0.77647059 0.77647059
0.85520833 0.85520833 0.85520833
0.94718137 0.94718137 0.94718137
0.99172794 0.99172794 0.99172794
0.99607843 0.99607843 0.99607843
0.52941176 0.52941176 0.52941176
0.57745098 0.57745098 0.57745098
0.64779412 0.64779412 0.64779412
0.71078431 0.71078431 0.71078431
0.78921569 0.78921569 0.78921569
0.8689951 0.8689951 0.8689951
0.94240196 0.94240196 0.94240196
0.9935049 0.9935049 0.9935049
0.99607843 0.99607843 0.99607843
0.60098039 0.60098039 0.60098039
0.63939951 0.63939951 0.63939951
0.68958333 0.68958333 0.68958333
0.74705882 0.74705882 0.74705882
0.81421569 0.81421569 0.81421569
0.87990196 0.87990196 0.87990196
0.94669118 0.94669118 0.94669118
0.9846201 0.9846201 0.9846201
0.99607843 0.99607843 0.99607843
0.66470588 0.66470588 0.66470588
0.68970588 0.68970588 0.68970588
0.72794118 0.72794118 0.72794118
0.78529412 0.78529412 0.78529412
0.84117647 0.84117647 0.84117647
0.90441176 0.90441176 0.90441176
0.96862745 0.96862745 0.96862745
0.99607843 0.99607843 0.99607843
0.99215686 0.99215686 0.99215686
0.73235294 0.73235294 0.73235294
0.74215686 0.74215686 0.74215686
0.77303922 0.77303922 0.77303922
0.80882353 0.80882353 0.80882353
0.86421569 0.86421569 0.86421569
0.93235294 0.93235294 0.93235294
0.97708333 0.97708333 0.97708333
0.99215686 0.99215686 0.99215686
0.99215686 0.99215686 0.99215686
0.78235294 0.78235294 0.78235294
0.78370098 0.78370098 0.78370098
0.80784314 0.80784314 0.80784314
0.83517157 0.83517157 0.83517157
0.87058824 0.87058824 0.87058824
0.94901961 0.94901961 0.94901961
0.97647059 0.97647059 0.97647059
0.98823529 0.98823529 0.98823529
0.98921569 0.98921569 0.98921569
0.82352941 0.82352941 0.82352941
0.82395833 0.82395833 0.82395833
0.83137255 0.83137255 0.83137255
0.86960784 0.86960784 0.86960784
0.89852941 0.89852941 0.89852941
0.96439951 0.96439951 0.96439951
0.98137255 0.98137255 0.98137255
0.99264706 0.99264706 0.99264706
0.99264706 0.99264706 0.99264706
0.84313725 0.84313725 0.84313725
0.91715686 0.91715686 0.91715686
0.86568627 0.86568627 0.86568627
0.89901961 0.89901961 0.89901961
0.90588235 0.90588235 0.90588235
0.95196078 0.95196078 0.95196078
0.98137255 0.98137255 0.98137255
1 1 1
1 1 1
