site/assets/luts/sha256-55cee44486f5b43116cbaa8764f5be3780dcf795909b919b9aa78130f193c97f.cube
# LUTr-Schema-Version: 2
# LUTr-ID: sha256-55cee44486f5b43116cbaa8764f5be3780dcf795909b919b9aa78130f193c97f
# LUTr-Title: fuji ilford delta 3200
# LUTr-Collection: Natron HaldCLUT
# LUTr-Collection-ID: natron-haldclut-presets
# LUTr-Source: https://github.com/NatronGitHub/clut
# LUTr-Retrieved: 2026-07-27
# LUTr-Source-File: submissions/natron-haldclut-presets/negative_old/fuji_ilford_delta_3200.png
# LUTr-Source-Format: HALD-PNG
# LUTr-Source-SHA256: 55cee44486f5b43116cbaa8764f5be3780dcf795909b919b9aa78130f193c97f
# LUTr-License: CC-BY-SA-4.0
# LUTr-License-URL: https://github.com/NatronGitHub/clut#license
# LUTr-License-Basis: repo-license-file
# LUTr-Transform-Class: film-emulation
# LUTr-Tags: creative, film, film-emulation, hald-clut, natron, png, cube
# LUTr-Input-Color-Space: srgb
# LUTr-Input-Gamut: rec709
# LUTr-Input-Transfer: srgb
# LUTr-Output-Color-Space: srgb
# LUTr-Output-Gamut: rec709
# LUTr-Output-Transfer: srgb
# LUTr-Color-Space-Confidence: assumed-display-referred
# LUTr-Domain-Normalized: true
# LUTr-Shaper: none
# LUTr-Original-Grid: 64x64x64
# LUTr-Conversion-Grid: 25x25x25
# LUTr-Conversion-Interpolation: trilinear
# LUTr-Conversion-Method: HALD-PNG LUT image decoded at 16-bit and sampled to 25x25x25 3D CUBE
# LUTr-Conversion-Tool: LUTr scripts/convert-all-to-cube.mjs 2.0.0
# LUTr-Conversion-Date: 2026-07-27
# LUTr-Note: Preserve this metadata and the upstream license notices when redistributing.
TITLE "fuji ilford delta 3200"
LUT_3D_SIZE 5
DOMAIN_MIN 0 0 0
DOMAIN_MAX 1 1 1
0.074509804 0.074509804 0.074509804
0.085294118 0.085294118 0.085294118
0.19019608 0.19019608 0.19019608
0.35588235 0.35588235 0.35588235
0.58039216 0.58039216 0.58039216
0.10490196 0.10490196 0.10490196
0.12622549 0.12622549 0.12622549
0.25392157 0.25392157 0.25392157
0.40906863 0.40906863 0.40906863
0.61862745 0.61862745 0.61862745
0.28039216 0.28039216 0.28039216
0.31470588 0.31470588 0.31470588
0.37254902 0.37254902 0.37254902
0.51666667 0.51666667 0.51666667
0.70784314 0.70784314 0.70784314
0.54215686 0.54215686 0.54215686
0.55392157 0.55392157 0.55392157
0.60196078 0.60196078 0.60196078
0.67156863 0.67156863 0.67156863
0.82156863 0.82156863 0.82156863
0.88235294 0.88235294 0.88235294
0.86666667 0.86666667 0.86666667
0.88823529 0.88823529 0.88823529
0.91176471 0.91176471 0.91176471
0.96862745 0.96862745 0.96862745
0.097058824 0.097058824 0.097058824
0.11960784 0.11960784 0.11960784
0.22303922 0.22303922 0.22303922
0.39411765 0.39411765 0.39411765
0.61862745 0.61862745 0.61862745
0.13308824 0.13308824 0.13308824
0.2 0.2 0.2
0.30147059 0.30147059 0.30147059
0.45882353 0.45882353 0.45882353
0.65294118 0.65294118 0.65294118
0.35 0.35 0.35
0.36544118 0.36544118 0.36544118
0.42328431 0.42328431 0.42328431
0.55134804 0.55134804 0.55134804
0.7245098 0.7245098 0.7245098
0.58823529 0.58823529 0.58823529
0.59509804 0.59509804 0.59509804
0.6245098 0.6245098 0.6245098
0.68627451 0.68627451 0.68627451
0.83161765 0.83161765 0.83161765
0.8872549 0.8872549 0.8872549
0.87769608 0.87769608 0.87769608
0.89019608 0.89019608 0.89019608
0.91862745 0.91862745 0.91862745
0.94117647 0.94117647 0.94117647
0.20784314 0.20784314 0.20784314
0.23823529 0.23823529 0.23823529
0.32941176 0.32941176 0.32941176
0.45588235 0.45588235 0.45588235
0.67254902 0.67254902 0.67254902
0.26862745 0.26862745 0.26862745
0.32205882 0.32205882 0.32205882
0.40220588 0.40220588 0.40220588
0.51764706 0.51764706 0.51764706
0.70980392 0.70980392 0.70980392
0.37745098 0.37745098 0.37745098
0.45196078 0.45196078 0.45196078
0.5245098 0.5245098 0.5245098
0.63848039 0.63848039 0.63848039
0.76862745 0.76862745 0.76862745
0.64313725 0.64313725 0.64313725
0.67058824 0.67058824 0.67058824
0.70220588 0.70220588 0.70220588
0.74791667 0.74791667 0.74791667
0.86764706 0.86764706 0.86764706
0.90392157 0.90392157 0.90392157
0.90441176 0.90441176 0.90441176
0.91372549 0.91372549 0.91372549
0.93578431 0.93578431 0.93578431
0.96078431 0.96078431 0.96078431
0.42352941 0.42352941 0.42352941
0.45465686 0.45465686 0.45465686
0.53088235 0.53088235 0.53088235
0.59803922 0.59803922 0.59803922
0.71568627 0.71568627 0.71568627
0.46887255 0.46887255 0.46887255
0.50563725 0.50563725 0.50563725
0.57647059 0.57647059 0.57647059
0.64142157 0.64142157 0.64142157
0.75882353 0.75882353 0.75882353
0.52647059 0.52647059 0.52647059
0.56875 0.56875 0.56875
0.65196078 0.65196078 0.65196078
0.71764706 0.71764706 0.71764706
0.79460784 0.79460784 0.79460784
0.64803922 0.64803922 0.64803922
0.69019608 0.69019608 0.69019608
0.75441176 0.75441176 0.75441176
0.82352941 0.82352941 0.82352941
0.90318627 0.90318627 0.90318627
0.90294118 0.90294118 0.90294118
0.90661765 0.90661765 0.90661765
0.92941176 0.92941176 0.92941176
0.95857843 0.95857843 0.95857843
0.96862745 0.96862745 0.96862745
0.75294118 0.75294118 0.75294118
0.75588235 0.75588235 0.75588235
0.80588235 0.80588235 0.80588235
0.8627451 0.8627451 0.8627451
0.88235294 0.88235294 0.88235294
0.77254902 0.77254902 0.77254902
0.78602941 0.78602941 0.78602941
0.82745098 0.82745098 0.82745098
0.86862745 0.86862745 0.86862745
0.90098039 0.90098039 0.90098039
0.79803922 0.79803922 0.79803922
0.80294118 0.80294118 0.80294118
0.84313725 0.84313725 0.84313725
0.8872549 0.8872549 0.8872549
0.89019608 0.89019608 0.89019608
0.80196078 0.80196078 0.80196078
0.82279412 0.82279412 0.82279412
0.84852941 0.84852941 0.84852941
0.91862745 0.91862745 0.91862745
0.94607843 0.94607843 0.94607843
0.88235294 0.88235294 0.88235294
0.91862745 0.91862745 0.91862745
0.93529412 0.93529412 0.93529412
0.97254902 0.97254902 0.97254902
0.99607843 0.99607843 0.99607843
