site/assets/luts/sha256-f5081ac4f42b66644015edbaf80bc3e30c8544d788ac6de6926ac0811c50ef0e.cube
# LUTr-Schema-Version: 2
# LUTr-ID: sha256-f5081ac4f42b66644015edbaf80bc3e30c8544d788ac6de6926ac0811c50ef0e
# LUTr-Title: solarized color
# LUTr-Collection: Natron HaldCLUT
# LUTr-Collection-ID: natron-haldclut-presets
# LUTr-Source: https://github.com/NatronGitHub/clut
# LUTr-Retrieved: 2026-07-27
# LUTr-Source-File: submissions/natron-haldclut-presets/various/solarized_color.png
# LUTr-Source-Format: HALD-PNG
# LUTr-Source-SHA256: f5081ac4f42b66644015edbaf80bc3e30c8544d788ac6de6926ac0811c50ef0e
# LUTr-License: CC-BY-SA-4.0
# LUTr-License-URL: https://github.com/NatronGitHub/clut#license
# LUTr-License-Basis: repo-license-file
# LUTr-Transform-Class: film-emulation
# LUTr-Tags: creative, film, film-emulation, hald-clut, natron, png, cube
# LUTr-Input-Color-Space: srgb
# LUTr-Input-Gamut: rec709
# LUTr-Input-Transfer: srgb
# LUTr-Output-Color-Space: srgb
# LUTr-Output-Gamut: rec709
# LUTr-Output-Transfer: srgb
# LUTr-Color-Space-Confidence: assumed-display-referred
# LUTr-Domain-Normalized: true
# LUTr-Shaper: none
# LUTr-Original-Grid: 64x64x64
# LUTr-Conversion-Grid: 25x25x25
# LUTr-Conversion-Interpolation: trilinear
# LUTr-Conversion-Method: HALD-PNG LUT image decoded at 16-bit and sampled to 25x25x25 3D CUBE
# LUTr-Conversion-Tool: LUTr scripts/convert-all-to-cube.mjs 2.0.0
# LUTr-Conversion-Date: 2026-07-27
# LUTr-Note: Preserve this metadata and the upstream license notices when redistributing.
TITLE "solarized color"
LUT_3D_SIZE 9
DOMAIN_MIN 0 0 0
DOMAIN_MAX 1 1 1
0 0 0
0.21372549 0.028431373 0.028921569
0.25588235 0.014705882 0.0098039216
0.25735294 0.032352941 0.03872549
0.43921569 0.045098039 0.02745098
0.69264706 0.044117647 0.029901961
0.79705882 0.037254902 0.018627451
0.85637255 0.016666667 0.0044117647
0.98039216 0 0.0039215686
0.016176471 0.40245098 0.020098039
0.20582108 0.41954657 0.01182598
0.25796569 0.42401961 0.037254902
0.25704657 0.40159314 0.044240196
0.42352941 0.43602941 0.017892157
0.70214461 0.41519608 0.022855392
0.81066176 0.43946078 0.010906863
0.8598652 0.41127451 0.018688725
0.93333333 0.41519608 0.024019608
0.012745098 0.56666667 0.012745098
0.21078431 0.57634804 0.041176471
0.26053922 0.56176471 0.027205882
0.25098039 0.56813725 0.011764706
0.43382353 0.56862745 0.023039216
0.71176471 0.56066176 0.015686275
0.80196078 0.57083333 0.012009804
0.86078431 0.57622549 0.023529412
0.95196078 0.56764706 0.02254902
0.010294118 0.54411765 0.015686275
0.20931373 0.53627451 0.016666667
0.26397059 0.53566176 0.016911765
0.2627451 0.53382353 0.02689951
0.44754902 0.53504902 0.039215686
0.71078431 0.53627451 0.021139706
0.79632353 0.54019608 0.025490196
0.86029412 0.53235294 0.01372549
0.97892157 0.53627451 0.021078431
0.0098039216 0.49411765 0.0058823529
0.19460784 0.48946078 0.014705882
0.25490196 0.49754902 0.02254902
0.26102941 0.50735294 0.033088235
0.43921569 0.48921569 0.010784314
0.71029412 0.48039216 0.016176471
0.79754902 0.49460784 0.032352941
0.86617647 0.49215686 0.029411765
0.96078431 0.47843137 0.015686275
0.025 0.69019608 0.015686275
0.20784314 0.7185049 0.02745098
0.25980392 0.69877451 0.019607843
0.25490196 0.69620098 0.017218137
0.4372549 0.69852941 0.015686275
0.70539216 0.70147059 0.017156863
0.80196078 0.71507353 0.010171569
0.86029412 0.71176471 0.025
0.98039216 0.71764706 0.0039215686
0.038235294 0.82254902 0.035294118
0.20294118 0.81323529 0.018627451
0.25416667 0.8372549 0.0098039216
0.26875 0.83223039 0.021691176
0.45 0.80931373 0.0068627451
0.71482843 0.81556373 0.023529412
0.79705882 0.80588235 0.011029412
0.86078431 0.82512255 0.04497549
0.96960784 0.80686275 0.014705882
0.016176471 0.85686275 0.016666667
0.20931373 0.86421569 0.026531863
0.25882353 0.85 0.01127451
0.26832108 0.85147059 0.037561275
0.43995098 0.8627451 0.032843137
0.70275735 0.85931373 0.022058824
0.80441176 0.85428922 0.055147059
0.85294118 0.86470588 0.034742647
0.95490196 0.86127451 0.037745098
0 0.98823529 0.0039215686
0.20490196 0.98431373 0.0044117647
0.26078431 0.98627451 0.0029411765
0.25098039 0.99166667 0.0058823529
0.41764706 0.98039216 0.017647059
0.67696078 0.97254902 0.032352941
0.79411765 0.95 0.020588235
0.86029412 0.96764706 0.0083333333
0.98039216 0.99215686 0
0.022058824 0.026960784 0.12352941
0.21366422 0.021384804 0.12745098
0.25539216 0.024019608 0.12487745
0.25802696 0.033578431 0.12432598
0.43529412 0.025490196 0.12745098
0.70686275 0.038848039 0.12352941
0.80490196 0.017156863 0.11997549
0.85686275 0.029779412 0.12745098
0.93823529 0.027941176 0.12352941
0.051531863 0.42800245 0.12401961
0.20593597 0.43028493 0.12310049
0.25811887 0.42291667 0.1272212
0.26938572 0.41842065 0.13153339
0.4453125 0.42668505 0.13137255
0.69601716 0.43372396 0.12205882
0.80029105 0.41862745 0.11928615
0.86023284 0.43002451 0.12352941
0.95386029 0.4221201 0.12352941
0.017647059 0.57156863 0.11997549
0.21325061 0.56551777 0.12578125
0.2578125 0.56427696 0.13318015
0.25058211 0.57634804 0.12712929
0.42898284 0.56746324 0.12745098
0.69839154 0.57071078 0.12009804
0.80088848 0.57009804 0.12282475
0.86421569 0.56443015 0.12610294
0.99105392 0.57230392 0.11960784
0.041973039 0.53805147 0.11764706
0.20978094 0.53988971 0.12352941
0.25343137 0.54019608 0.13186275
0.27303922 0.53493413 0.13144148
0.43946078 0.54019608 0.12745098
0.69313725 0.54019608 0.12745098
0.79803922 0.53765319 0.12745098
0.86374847 0.53670343 0.13094363
0.98186275 0.54411765 0.12352941
0.021323529 0.48431373 0.12941176
0.20906863 0.48477328 0.12745098
0.26323529 0.503125 0.12745098
0.26550245 0.49387255 0.12999387
0.4372549 0.48566176 0.12561275
0.69966299 0.48088235 0.11960784
0.79748775 0.48848039 0.1216299
0.86007966 0.5078125 0.12745098
0.9754902 0.49068627 0.12181373
0.014215686 0.70085784 0.12745098
0.21062347 0.72593444 0.12334559
0.25785846 0.69554228 0.12905944
0.26372549 0.69883578 0.12352941
0.4361826 0.71685049 0.12490809
0.69803922 0.71341912 0.12352941
0.80343137 0.71384804 0.12547488
0.86051624 0.71811428 0.12632506
0.97990196 0.7091299 0.13186275
0.013602941 0.82647059 0.12352941
0.20275735 0.81715686 0.1283701
0.25490196 0.81813725 0.12303922
0.27107843 0.81243873 0.12198223
0.43768382 0.82818627 0.12352941
0.6897212 0.81372549 0.12892157
0.79411765 0.80294118 0.12745098
0.8634038 0.80588235 0.12340686
0.95232843 0.83529412 0.11311275
0.029901961 0.8651348 0.11960784
0.20576746 0.86078431 0.12745098
0.25245098 0.85686275 0.12020527
0.26094516 0.85949755 0.11954657
0.43967525 0.85928309 0.12745098
0.71764706 0.86123621 0.13540135
0.80366115 0.8598652 0.12732843
0.86078431 0.85680913 0.12352941
0.98082108 0.86770833 0.12352941
0.012254902 0.96813725 0.12745098
0.18970588 0.97254902 0.12352941
0.25012255 0.98651961 0.12745098
0.25618873 0.96109069 0.12205882
0.43357843 0.97254902 0.12573529
0.70508578 0.94068627 0.12745098
0.80196078 0.9692402 0.12696078
0.86029412 0.97598039 0.11966912
0.97941176 0.97205882 0.12745098
0.0088235294 0.014705882 0.24705882
0.21801471 0.019730392 0.25453431
0.25882353 0.016911765 0.25073529
0.25122549 0.014215686 0.25098039
0.42990196 0.0073529412 0.25147059
0.71004902 0.020220588 0.2497549
0.80245098 0.015196078 0.24877451
0.86029412 0.036764706 0.24803922
0.99117647 0 0.24607843
0.01875 0.41482843 0.24705882
0.20315564 0.42287071 0.24443934
0.25631127 0.42806373 0.24770221
0.25549939 0.41977635 0.24741115
0.44166667 0.43094363 0.24932598
0.70304841 0.41885723 0.2430913
0.80490196 0.41706495 0.23961397
0.86781556 0.43022365 0.24793199
0.94889706 0.42990196 0.24718137
0.0036764706 0.57671569 0.24705882
0.21277574 0.56642157 0.25098039
0.25980392 0.57077206 0.25214461
0.26875 0.55042892 0.25324755
0.44117647 0.56470588 0.25061275
0.7004902 0.56446078 0.24889706
0.80330882 0.56544118 0.25098039
0.86063113 0.56862745 0.2520527
0.97720588 0.56862745 0.25196078
0.01372549 0.53590686 0.24889706
0.20522365 0.53904718 0.23935355
0.25919118 0.53397672 0.25045956
0.25893076 0.53566176 0.25490196
0.43927696 0.53988971 0.24889706
0.70522365 0.53627451 0.25476409
0.80030637 0.53958333 0.24715074
0.85971201 0.54056373 0.24889706
0.97144608 0.54056373 0.24705882
0.019607843 0.48970588 0.24705882
0.20306373 0.49019608 0.24748775
0.25735294 0.48933824 0.25453431
0.25919118 0.49019608 0.24914216
0.42794118 0.48382353 0.23921569
0.69442402 0.49264706 0.25245098
0.80232843 0.48946078 0.24558824
0.86421569 0.49613971 0.25416667
0.9495098 0.49019608 0.24656863
0.034191176 0.71752451 0.25306373
0.20833333 0.68961397 0.24897365
0.25269608 0.69678309 0.24862132
0.26378676 0.69247855 0.24313725
0.43204657 0.70502451 0.24148284
0.69854473 0.69849877 0.24313725
0.80186887 0.71531863 0.24678309
0.86279105 0.70369179 0.24834559
0.96960784 0.68835784 0.24705882
0.01004902 0.81078431 0.24705882
0.21001838 0.81173407 0.25110294
0.25919118 0.81844363 0.24607843
0.26099877 0.81691176 0.24705882
0.44105392 0.82536765 0.24889706
0.709375 0.80389093 0.24705882
0.79779412 0.81764706 0.24534314
0.86556373 0.81703431 0.25891544
0.97107843 0.80882353 0.25490196
0.034313725 0.86127451 0.24313725
0.19938725 0.85310968 0.23970588
0.25392157 0.86332721 0.23921569
0.25919118 0.85992647 0.25392157
0.43584559 0.85723039 0.24491422
0.71695772 0.86078431 0.25467218
0.80174632 0.86078431 0.25042892
0.85696998 0.8495098 0.24362745
0.96372549 0.86164216 0.25441176
0.016666667 0.97156863 0.25490196
0.21335784 0.95122549 0.25355392
0.2620098 0.98406863 0.23995098
0.25882353 0.97401961 0.25281863
0.42892157 0.94852941 0.24852941
0.70723039 0.97205882 0.24705882
0.80098039 0.96372549 0.25465686
0.86372549 0.97696078 0.25784314
0.98039216 0.9872549 0.24803922
0.0073529412 0.010294118 0.37058824
0.20980392 0.032781863 0.37303922
0.25882353 0.016911765 0.37058824
0.25343137 0.020833333 0.37058824
0.43602941 0.033333333 0.37181373
0.70833333 0.023958333 0.3745098
0.80159314 0.02377451 0.3745098
0.86292892 0.018627451 0.37334559
0.97647059 0.023529412 0.36666667
0.018137255 0.42481618 0.37058824
0.20931373 0.43609069 0.36720282
0.25490196 0.4185049 0.37688419
0.25496324 0.42757353 0.37058824
0.434375 0.42435662 0.36685049
0.70563725 0.41631434 0.36802237
0.80183824 0.4024663 0.37446385
0.85637255 0.43425245 0.36709559
0.97665441 0.41372549 0.3745098
0.024019608 0.56764706 0.37843137
0.20957414 0.56409314 0.37464767
0.25925245 0.56443015 0.37178309
0.27156863 0.56580882 0.37173713
0.41642157 0.5713848 0.37058824
0.70130208 0.56666667 0.37127757
0.80808824 0.56988358 0.37095588
0.86292892 0.56862745 0.36930147
0.94497549 0.57647059 0.3754902
0.02935049 0.5377451 0.36666667
0.21335018 0.5388557 0.37058824
0.25629596 0.5377451 0.37464767
0.26764706 0.53923866 0.3745098
0.43474265 0.53897059 0.36908701
0.69846814 0.5377451 0.38180147
0.79705882 0.53866422 0.36666667
0.86372549 0.54019608 0.37058824
0.97794118 0.5377451 0.37058824
0.012254902 0.48627451 0.37058824
0.20989583 0.4846201 0.36632966
0.25882353 0.4870098 0.37273284
0.25762868 0.48581495 0.36740196
0.43063725 0.48468137 0.3627451
0.68943015 0.48943015 0.37405025
0.80147059 0.49105392 0.37935049
0.86495098 0.48431373 0.37058824
0.97107843 0.49803922 0.36862745
0.0056985294 0.70539216 0.37058824
0.20213695 0.68633578 0.3745098
0.25588235 0.70433517 0.36721814
0.25821078 0.70395987 0.37338388
0.43452819 0.7075674 0.36666667
0.69895833 0.69928768 0.36911765
0.80490196 0.70502451 0.3745098
0.86029412 0.70403646 0.36924786
0.95459559 0.70275735 0.36911765
0.012745098 0.8192402 0.37022059
0.20931373 0.81323529 0.37473958
0.25557598 0.82647059 0.37981005
0.26058517 0.80379902 0.3745098
0.44019608 0.81158088 0.37702206
0.69943321 0.82057292 0.36625306
0.80563725 0.8169424 0.3754902
0.86029412 0.80586703 0.37035846
0.96176471 0.81262255 0.37781863
0.0079044118 0.86629902 0.37058824
0.20002298 0.86082261 0.3745098
0.25698529 0.85637255 0.37046569
0.27401961 0.85998009 0.37713695
0.43651961 0.86470588 0.36666667
0.70393689 0.85862439 0.36697304
0.80393689 0.85894608 0.37495404
0.86685049 0.86907935 0.37579657
0.9745098 0.86470588 0.37469363
0.029901961 0.98284314 0.36666667
0.19981618 0.95588235 0.3723652
0.25441176 0.96090686 0.36997549
0.27156863 0.96323529 0.37205882
0.4497549 0.95539216 0.3745098
0.72113971 0.98253676 0.3745098
0.80343137 0.95355392 0.3745098
0.85686275 0.98560049 0.37058824
0.96715686 0.97941176 0.37058824
0.01372549 0.019607843 0.49411765
0.21740196 0.023284314 0.49607843
0.25735294 0.044117647 0.49803922
0.26127451 0.040196078 0.49558824
0.43333333 0.037254902 0.49117647
0.71397059 0.028431373 0.49411765
0.80098039 0.028431373 0.49754902
0.86029412 0.033333333 0.49460784
0.98431373 0 0.49215686
0.017401961 0.42647059 0.49411765
0.21277574 0.4247549 0.48872549
0.259375 0.42867647 0.48995098
0.26106005 0.40768995 0.49427083
0.43406863 0.4185049 0.49031863
0.70254289 0.42996324 0.49476103
0.80490196 0.40618873 0.50196078
0.85615809 0.42843137 0.49191176
0.94411765 0.42426471 0.49411765
0.026960784 0.56764706 0.49019608
0.20539216 0.5625 0.49148284
0.25772059 0.56507353 0.48639706
0.26574755 0.56617647 0.49656863
0.44558824 0.56593137 0.49705882
0.69957108 0.57303922 0.49411765
0.80392157 0.56838235 0.49411765
0.8620098 0.57359069 0.49558824
0.96764706 0.56911765 0.49803922
0.021568627 0.53627451 0.49411765
0.22181373 0.53235294 0.49785539
0.25876225 0.5377451 0.49381127
0.25882353 0.53336397 0.49384191
0.43713235 0.54019608 0.50220588
0.70076593 0.54120711 0.49264706
0.80245098 0.52965686 0.49411765
0.86421569 0.54019608 0.49666054
0.96985294 0.53627451 0.49681373
0.0068627451 0.47843137 0.49803922
0.21262255 0.48357843 0.50073529
0.25735294 0.49534314 0.49313725
0.27083333 0.49411765 0.49411765
0.44166667 0.48823529 0.49852941
0.70330882 0.47867647 0.50122549
0.80147059 0.50294118 0.49215686
0.86029412 0.49607843 0.49669118
0.96862745 0.5 0.49411765
0.016176471 0.71666667 0.49607843
0.20606618 0.69387255 0.49476103
0.25827206 0.69473039 0.50220588
0.25220588 0.71614583 0.49558824
0.43333333 0.71237745 0.48786765
0.70275735 0.68648897 0.49093137
0.80661765 0.70949755 0.49411765
0.86421569 0.69901961 0.49785539
0.95220588 0.70073529 0.49019608
0.011764706 0.81323529 0.49411765
0.1963848 0.82261029 0.49454657
0.26164216 0.81409314 0.49803922
0.25784314 0.81495098 0.49442402
0.43823529 0.81911765 0.49632353
0.70490196 0.83443627 0.49411765
0.80343137 0.81948529 0.49411765
0.85637255 0.81740196 0.48627451
0.98137255 0.82107843 0.49656863
0.0085784314 0.85906863 0.49411765
0.20808824 0.85291054 0.49319853
0.25882353 0.86127451 0.49362745
0.26583946 0.85603554 0.49785539
0.43921569 0.86973039 0.50183824
0.71060049 0.85971201 0.49264706
0.80588235 0.87107843 0.4942402
0.86204044 0.86449142 0.48823529
0.95073529 0.86470588 0.49779412
0.0058823529 0.98431373 0.49803922
0.21127451 0.97598039 0.49803922
0.25637255 0.96813725 0.49215686
0.27696078 0.96740196 0.49852941
0.44705882 0.97058824 0.49215686
0.69411765 0.96642157 0.48627451
0.79705882 0.97205882 0.48676471
0.86421569 0.98063725 0.48235294
0.9627451 0.93529412 0.49411765
0.048529412 0.025 0.61911765
0.20557598 0.044117647 0.61764706
0.25306373 0.041176471 0.61764706
0.25251225 0.014460784 0.61372549
0.42941176 0.028921569 0.61764706
0.71421569 0.030698529 0.61911765
0.80453431 0.026838235 0.62120098
0.85814951 0.016727941 0.61746324
0.97107843 0.0058823529 0.60735294
0.036090686 0.4276348 0.62156863
0.21327359 0.42497702 0.61795343
0.26037071 0.42820159 0.62156863
0.26109069 0.41354167 0.62303922
0.44362745 0.42579657 0.625
0.69283088 0.42169884 0.61764706
0.80306373 0.41986826 0.61622243
0.86417739 0.4120481 0.62156863
0.94675245 0.41764706 0.6254902
0.019730392 0.57058824 0.61409314
0.21329657 0.56568627 0.61734069
0.25588235 0.56813725 0.61755515
0.27156863 0.57095588 0.61787684
0.42892157 0.56691176 0.61801471
0.66853554 0.56617647 0.61703431
0.8002451 0.5518076 0.62156863
0.86079963 0.57463235 0.62182904
0.95477941 0.56335784 0.62941176
0.020343137 0.5377451 0.62303922
0.20447304 0.53382353 0.6141008
0.26049326 0.54186581 0.60943627
0.25980392 0.53592984 0.6196921
0.42545956 0.53673407 0.61541054
0.7144761 0.5377451 0.62399663
0.79411765 0.52912071 0.62202819
0.86158854 0.53805147 0.62126225
0.95839461 0.53682598 0.61911765
0.014460784 0.48823529 0.61642157
0.20802696 0.48348652 0.62190564
0.25882353 0.49828431 0.61372549
0.26642157 0.48851103 0.61856618
0.43345588 0.49963235 0.62058824
0.70983456 0.48066789 0.62493873
0.79313725 0.47947304 0.60949755
0.86338848 0.49745711 0.61348039
0.97990196 0.47965686 0.61960784
0.033639706 0.69558824 0.61764706
0.20784314 0.715625 0.61384038
0.25882353 0.70196078 0.61372549
0.26133578 0.69240196 0.61525735
0.43995098 0.69923407 0.62129289
0.70175398 0.7040671 0.61668964
0.79443934 0.71280637 0.62120098
0.86322763 0.71151961 0.61764706
0.96231618 0.67751225 0.62064951
0.014583333 0.83026961 0.61372549
0.20061275 0.81046262 0.61421569
0.25465686 0.83333333 0.61865809
0.25741422 0.83147978 0.61580882
0.43216912 0.81384804 0.62156863
0.70140931 0.82009804 0.6182598
0.79914216 0.81976103 0.62218137
0.86421569 0.81766238 0.62158395
0.98112745 0.82218137 0.61580882
0.009620098 0.86599265 0.61813725
0.20904565 0.85095741 0.60831036
0.25490196 0.86311275 0.61683517
0.26390165 0.85605852 0.62119332
0.43651961 0.85906863 0.62156863
0.71675092 0.86966912 0.60949755
0.80422794 0.86055453 0.61416973
0.86421569 0.85275735 0.61707261
0.94816176 0.846875 0.61403186
0.039215686 0.97892157 0.61764706
0.20882353 0.96862745 0.61893382
0.25036765 0.96911765 0.61372549
0.25980392 0.95735294 0.61856618
0.4377451 0.97254902 0.61617647
0.69901961 0.96176471 0.61372549
0.81029412 0.96531863 0.61764706
0.85900735 0.98039216 0.60980392
0.95539216 0.94362745 0.61617647
0.0068627451 0.0049019608 0.7372549
0.20919118 0.042769608 0.74117647
0.26348039 0.029901961 0.74436275
0.25330882 0.019730392 0.74007353
0.43284314 0.0024509804 0.73872549
0.7057598 0.038112745 0.74509804
0.80196078 0.017401961 0.74117647
0.85294118 0.028431373 0.74019608
0.96078431 0.021568627 0.7372549
0.0090686275 0.43492647 0.74509804
0.1967065 0.43115809 0.74160539
0.2620098 0.42935049 0.74500613
0.25981924 0.41328125 0.74505208
0.42303922 0.42481618 0.73382353
0.68723958 0.40972733 0.73333333
0.80122549 0.43397672 0.73419118
0.85681679 0.40796569 0.7372549
0.96838235 0.40968137 0.73688725
0.016421569 0.56936275 0.74534314
0.21136642 0.56764706 0.74509804
0.25545343 0.56966912 0.73333333
0.26911765 0.56372549 0.74090074
0.4377451 0.57242647 0.74191176
0.71207108 0.57674632 0.73296569
0.80251225 0.57328431 0.74117647
0.85664828 0.55980392 0.73131127
0.96323529 0.56936275 0.73946078
0.011764706 0.5377451 0.7372549
0.20441176 0.53627451 0.74710478
0.25196078 0.53627451 0.73995098
0.26164216 0.53627451 0.74117647
0.4348652 0.53382353 0.7372549
0.69803922 0.5377451 0.74117647
0.79803922 0.53566176 0.73823529
0.86421569 0.53253676 0.73756127
0.96090686 0.54056373 0.7372549
0.025980392 0.48627451 0.74068627
0.20441176 0.48988971 0.74172794
0.25453431 0.49448529 0.7372549
0.25949755 0.4848652 0.73033088
0.43529412 0.49142157 0.73382353
0.69803922 0.4877451 0.73780637
0.79718137 0.48602941 0.7432598
0.85637255 0.49589461 0.7372549
0.97205882 0.48382353 0.73872549
0.0091911765 0.70355392 0.7372549
0.20592831 0.6897212 0.74148284
0.26032475 0.71510417 0.74371936
0.25693934 0.68656556 0.74293811
0.43995098 0.70790441 0.74185049
0.70525429 0.70355392 0.7444087
0.80376838 0.70477941 0.73933824
0.86029412 0.69123775 0.74318321
0.95992647 0.71029412 0.73480392
0.034313725 0.81887255 0.7372549
0.19745711 0.81623775 0.7372549
0.25098039 0.8247549 0.73504902
0.25661765 0.81780025 0.74617034
0.43186275 0.82598039 0.74007353
0.69393382 0.82267157 0.74764093
0.80079657 0.8223652 0.74466912
0.8583027 0.81017157 0.7370098
0.97034314 0.80661765 0.74117647
0.042034314 0.86078431 0.74154412
0.21144301 0.85761336 0.74526654
0.25931373 0.87248775 0.74166667
0.2680913 0.86181066 0.74509804
0.44191176 0.86078431 0.7372549
0.70027574 0.85863971 0.73886336
0.79705882 0.86078431 0.74117647
0.86029412 0.8575674 0.74522059
0.97745098 0.86078431 0.74607843
0 0.98823529 0.74215686
0.21017157 0.97561275 0.74901961
0.25098039 0.9747549 0.74509804
0.25735294 0.97708333 0.74865196
0.4254902 0.96372549 0.73823529
0.72352941 0.9745098 0.74509804
0.80490196 0.97769608 0.74411765
0.86421569 0.9622549 0.74068627
0.9745098 0.97058824 0.74117647
0.035784314 0.020098039 0.85735294
0.2127451 0.034007353 0.86476716
0.2627451 0.0067401961 0.86127451
0.25980392 0.031678922 0.86470588
0.42009804 0.012745098 0.86078431
0.71568627 0.0050857843 0.86685049
0.80367647 0.0034313725 0.86066176
0.85686275 0.030821078 0.86127451
0.98284314 0.026470588 0.86519608
0.020588235 0.41813725 0.86764706
0.21028646 0.43289675 0.86862745
0.2627451 0.42340686 0.86875
0.25713082 0.41817555 0.86078431
0.42791054 0.41758578 0.86078431
0.69433977 0.41724112 0.8625
0.80147059 0.42447917 0.87340686
0.86035539 0.42267157 0.86384038
0.94417892 0.42702206 0.85870098
0.0095588235 0.57683824 0.85943627
0.2098652 0.57150735 0.86862745
0.25588235 0.57132353 0.85885417
0.26337316 0.56559436 0.85752145
0.42261029 0.57064951 0.86078431
0.70635723 0.56409314 0.86470588
0.80481005 0.57156863 0.86862745
0.85735294 0.56764706 0.86427696
0.98737745 0.56421569 0.86078431
0.021262255 0.53627451 0.87205882
0.21713388 0.53974418 0.86497396
0.2532935 0.53333333 0.85553002
0.26777727 0.53805147 0.84901961
0.44650735 0.53936887 0.86436887
0.68480392 0.54019608 0.86078431
0.80098039 0.54019608 0.85926777
0.87058824 0.54019608 0.86084559
0.96997549 0.53627451 0.86470588
0.010784314 0.47818627 0.86495098
0.21709559 0.48648897 0.87012868
0.26151961 0.4879902 0.86482843
0.27064951 0.49010417 0.86078431
0.43468137 0.48235294 0.85906863
0.7010723 0.48979779 0.86078431
0.80257353 0.49001225 0.86470588
0.86372549 0.49764093 0.86862745
0.95294118 0.49828431 0.85882353
0.013970588 0.71213235 0.86470588
0.20523131 0.68959865 0.86470588
0.25142463 0.7207261 0.86685049
0.25668658 0.70570619 0.86470588
0.43897059 0.7051777 0.8645527
0.7002451 0.69227941 0.86439951
0.80151654 0.70189951 0.86862745
0.86390931 0.71984528 0.86470588
0.96488971 0.71213235 0.85833333
0.019117647 0.81813725 0.86421569
0.20974265 0.80948223 0.86813725
0.25909926 0.81853554 0.86014093
0.27424939 0.82023591 0.85686275
0.43884804 0.82113971 0.86470588
0.71272978 0.81631434 0.86813725
0.80490196 0.8104473 0.86862745
0.86029412 0.81481311 0.85960478
0.93615196 0.81813725 0.86078431
0.012745098 0.85692402 0.86078431
0.209375 0.85778186 0.85735294
0.25507047 0.85870098 0.85703125
0.25996477 0.86078431 0.86873468
0.4333027 0.86124387 0.86320466
0.70686275 0.86525735 0.85686275
0.801731 0.86781556 0.86470588
0.86335018 0.85691636 0.86078431
0.97346814 0.86078431 0.86121324
0.01127451 0.98088235 0.86862745
0.20238971 0.9504902 0.86470588
0.25796569 0.95882353 0.86078431
0.26501225 0.96568627 0.8622549
0.44534314 0.94583333 0.85906863
0.70704657 0.97009804 0.86862745
0.79375 0.97009804 0.86862745
0.86421569 0.94846814 0.86378676
0.94901961 0.98039216 0.85686275
0.0078431373 0 0.98823529
0.21666667 0.017647059 0.97941176
0.25980392 0 0.98921569
0.25196078 0.019607843 0.98431373
0.42941176 0.017647059 0.95490196
0.70833333 0.020588235 0.97303922
0.80098039 0.011764706 0.98333333
0.86078431 0 0.99215686
0.99215686 0 0.98431373
0.018627451 0.42401961 0.97009804
0.2127451 0.42947304 0.97113971
0.25894608 0.39914216 0.9754902
0.25735294 0.42794118 0.98106618
0.4372549 0.42205882 0.96078431
0.6973652 0.41207108 0.97267157
0.79705882 0.4192402 0.96384804
0.86121324 0.41617647 0.9598652
0.98382353 0.4254902 0.97156863
0.028431373 0.56764706 0.95588235
0.21421569 0.56470588 0.97009804
0.24779412 0.57990196 0.97622549
0.25465686 0.56960784 0.97990196
0.45735294 0.56372549 0.96029412
0.69803922 0.56262255 0.97745098
0.79705882 0.56372549 0.95882353
0.86421569 0.55784314 0.96678922
0.9754902 0.55784314 0.96372549
0.028921569 0.53235294 0.93921569
0.20018382 0.54019608 0.98333333
0.25588235 0.53627451 0.97401961
0.27156863 0.53627451 0.96954657
0.44705882 0.54019608 0.96740196
0.7028799 0.53327206 0.95441176
0.79987745 0.53958333 0.95980392
0.86078431 0.53627451 0.97481618
0.96323529 0.53627451 0.95
0.029411765 0.48039216 0.97058824
0.20171569 0.5 0.95612745
0.26862745 0.48529412 0.93823529
0.25539216 0.48431373 0.96323529
0.43333333 0.49019608 0.97745098
0.69387255 0.49289216 0.96176471
0.80245098 0.49117647 0.97941176
0.86029412 0.50808824 0.97622549
0.98431373 0.47647059 0.98823529
0.048039216 0.70392157 0.9495098
0.21029412 0.71066176 0.97714461
0.25196078 0.71973039 0.95784314
0.25833333 0.71176471 0.95
0.43848039 0.69558824 0.9620098
0.70588235 0.72892157 0.97015931
0.79803922 0.70637255 0.95588235
0.85637255 0.69442402 0.96550245
0.95784314 0.69117647 0.975
0.017647059 0.8127451 0.97745098
0.20147059 0.81482843 0.97193627
0.25882353 0.83112745 0.98504902
0.25588235 0.82058824 0.96813725
0.44558824 0.81666667 0.97254902
0.71507353 0.80441176 0.98137255
0.79313725 0.8127451 0.96764706
0.86029412 0.82205882 0.96507353
0.98333333 0.83333333 0.96666667
0.029411765 0.86470588 0.95833333
0.20931373 0.86078431 0.95091912
0.25980392 0.86507353 0.98002451
0.27040441 0.85686275 0.9627451
0.43897059 0.84901961 0.95882353
0.7158701 0.86991422 0.95422794
0.80098039 0.86433824 0.97328431
0.86813725 0.86470588 0.96170343
0.98529412 0.86470588 0.97794118
0 0.98823529 0.99215686
0.22058824 0.97254902 0.9495098
0.26176471 0.98627451 0.99411765
0.25735294 0.98039216 0.98039216
0.43333333 0.97647059 0.96666667
0.69803922 0.9754902 0.97941176
0.80098039 0.98627451 0.97745098
0.85686275 0.9877451 0.96421569
0.98431373 0.99215686 0.98823529
