site/assets/luts/sha256-dcbba1046ff781048fb2681108288adf8e9eff93b377379b1a2423d3d85f7073.cube
# LUTr-Schema-Version: 2
# LUTr-ID: sha256-dcbba1046ff781048fb2681108288adf8e9eff93b377379b1a2423d3d85f7073
# LUTr-Title: golden fade
# LUTr-Collection: Natron HaldCLUT
# LUTr-Collection-ID: natron-haldclut-presets
# LUTr-Source: https://github.com/NatronGitHub/clut
# LUTr-Retrieved: 2026-07-27
# LUTr-Source-File: submissions/natron-haldclut-presets/various/golden_fade.png
# LUTr-Source-Format: HALD-PNG
# LUTr-Source-SHA256: dcbba1046ff781048fb2681108288adf8e9eff93b377379b1a2423d3d85f7073
# LUTr-License: CC-BY-SA-4.0
# LUTr-License-URL: https://github.com/NatronGitHub/clut#license
# LUTr-License-Basis: repo-license-file
# LUTr-Transform-Class: film-emulation
# LUTr-Tags: creative, film, film-emulation, hald-clut, natron, png, cube
# LUTr-Input-Color-Space: srgb
# LUTr-Input-Gamut: rec709
# LUTr-Input-Transfer: srgb
# LUTr-Output-Color-Space: srgb
# LUTr-Output-Gamut: rec709
# LUTr-Output-Transfer: srgb
# LUTr-Color-Space-Confidence: assumed-display-referred
# LUTr-Domain-Normalized: true
# LUTr-Shaper: none
# LUTr-Original-Grid: 64x64x64
# LUTr-Conversion-Grid: 25x25x25
# LUTr-Conversion-Interpolation: trilinear
# LUTr-Conversion-Method: HALD-PNG LUT image decoded at 16-bit and sampled to 25x25x25 3D CUBE
# LUTr-Conversion-Tool: LUTr scripts/convert-all-to-cube.mjs 2.0.0
# LUTr-Conversion-Date: 2026-07-27
# LUTr-Note: Preserve this metadata and the upstream license notices when redistributing.
TITLE "golden fade"
LUT_3D_SIZE 5
DOMAIN_MIN 0 0 0
DOMAIN_MAX 1 1 1
0.30196078 0.14901961 0.30980392
0.48627451 0.12745098 0.32745098
0.72156863 0.20784314 0.37058824
0.86960784 0.26666667 0.39803922
0.96862745 0.3372549 0.44313725
0.39117647 0.36176471 0.36862745
0.63553922 0.38259804 0.39926471
0.82009804 0.47107843 0.43578431
0.91960784 0.49387255 0.46176471
0.95588235 0.55980392 0.47941176
0.46862745 0.59215686 0.41764706
0.75784314 0.66960784 0.47794118
0.88529412 0.70882353 0.50196078
0.95588235 0.74215686 0.5127451
0.9745098 0.80196078 0.56078431
0.54019608 0.80588235 0.47254902
0.82352941 0.84901961 0.51691176
0.93186275 0.8872549 0.55
0.96176471 0.89485294 0.56446078
0.9627451 0.92156863 0.60294118
0.70588235 0.98823529 0.57254902
0.90882353 0.96862745 0.6
0.99019608 0.99019608 0.62941176
0.96372549 0.96372549 0.65490196
0.95686275 0.95686275 0.67843137
0.21078431 0.082352941 0.37254902
0.50269608 0.1254902 0.4129902
0.71666667 0.16519608 0.44264706
0.86372549 0.18921569 0.46666667
0.98333333 0.23137255 0.5
0.40882353 0.36666667 0.45808824
0.65998775 0.40410539 0.48982843
0.82904412 0.45379902 0.51580882
0.93596814 0.50196078 0.54289216
0.98529412 0.55661765 0.5747549
0.47254902 0.61764706 0.51813725
0.76678922 0.67732843 0.55098039
0.91029412 0.73578431 0.58872549
0.98002451 0.76752451 0.60808824
0.98039216 0.80147059 0.63529412
0.58504902 0.83602941 0.57426471
0.85073529 0.87720588 0.61488971
0.95343137 0.90465686 0.64105392
0.98431373 0.92745098 0.66666667
0.98823529 0.96691176 0.70710784
0.72352941 0.99607843 0.65784314
0.93455882 0.98823529 0.69681373
0.98039216 0.98823529 0.68921569
0.98431373 0.98431373 0.74803922
0.98039216 0.98039216 0.7754902
0.23529412 0.088235294 0.4627451
0.52941176 0.14166667 0.50539216
0.73333333 0.16862745 0.53039216
0.88676471 0.23039216 0.56519608
0.99019608 0.24705882 0.59019608
0.42745098 0.38284314 0.55
0.67818627 0.4245098 0.58088235
0.84558824 0.46691176 0.60686275
0.95526961 0.52990196 0.63823529
0.99411765 0.58431373 0.67156863
0.53235294 0.64117647 0.60784314
0.78676471 0.69534314 0.64460784
0.91176471 0.73921569 0.67156863
0.98897059 0.78259804 0.70343137
0.99117647 0.8254902 0.73039216
0.59705882 0.84705882 0.66323529
0.87487745 0.90723039 0.71470588
0.96715686 0.92009804 0.73431373
0.99215686 0.93566176 0.75441176
0.99215686 0.96568627 0.78921569
0.74117647 1 0.74705882
0.94558824 0.99215686 0.78431373
0.98333333 0.99509804 0.77058824
0.98872549 0.98186275 0.78333333
0.99215686 0.98823529 0.81960784
0.30294118 0.099019608 0.55098039
0.53921569 0.15318627 0.58921569
0.73529412 0.17156863 0.6127451
0.88333333 0.20294118 0.64117647
0.97156863 0.26176471 0.67156863
0.38897059 0.37303922 0.62941176
0.68897059 0.43137255 0.66495098
0.85502451 0.50110294 0.69607843
0.95373775 0.53823529 0.72181373
0.99289216 0.62965686 0.76936275
0.57303922 0.65294118 0.69656863
0.79080882 0.70134804 0.72487745
0.9122549 0.74803922 0.75588235
0.98137255 0.78627451 0.78039216
0.98039216 0.82107843 0.80686275
0.62941176 0.85465686 0.75073529
0.87261029 0.89901961 0.79001225
0.96593137 0.92046569 0.81482843
0.99117647 0.9348652 0.84001225
0.98039216 0.95367647 0.85882353
0.74901961 0.99607843 0.83235294
0.94093137 0.9875 0.8620098
0.96617647 0.96078431 0.82598039
0.98431373 0.95686275 0.83529412
0.99509804 0.99509804 0.87745098
0.30196078 0.10196078 0.61960784
0.53431373 0.14509804 0.64215686
0.72745098 0.17058824 0.67843137
0.87254902 0.21568627 0.70686275
0.95294118 0.23921569 0.7372549
0.44411765 0.39509804 0.70098039
0.68235294 0.43039216 0.73137255
0.83970588 0.49852941 0.75931373
0.94044118 0.54509804 0.78235294
0.96176471 0.5745098 0.81176471
0.51960784 0.64117647 0.75490196
0.79313725 0.70539216 0.79852941
0.89803922 0.74117647 0.82254902
0.97009804 0.78235294 0.84215686
0.97254902 0.83529412 0.85882353
0.60490196 0.82843137 0.8127451
0.86176471 0.89607843 0.84411765
0.95441176 0.90637255 0.85980392
0.96470588 0.92352941 0.85098039
0.96470588 0.93823529 0.85098039
0.69019608 0.96470588 0.85490196
0.91176471 0.96764706 0.85098039
0.96078431 0.96470588 0.85098039
0.95980392 0.95686275 0.84313725
0.95686275 0.95294118 0.84313725
