site/assets/luts/sha256-bbd29985ab7adf11bc134a15c3664460fcef2a0cf6ae4fc1bff6f18504bcec20.cube
# LUTr-Schema-Version: 2
# LUTr-ID: sha256-bbd29985ab7adf11bc134a15c3664460fcef2a0cf6ae4fc1bff6f18504bcec20
# LUTr-Title: fuji velvia 50
# LUTr-Collection: Natron HaldCLUT
# LUTr-Collection-ID: natron-haldclut-presets
# LUTr-Source: https://github.com/NatronGitHub/clut
# LUTr-Retrieved: 2026-07-27
# LUTr-Source-File: submissions/natron-haldclut-presets/colorslide/fuji_velvia_50.png
# LUTr-Source-Format: HALD-PNG
# LUTr-Source-SHA256: bbd29985ab7adf11bc134a15c3664460fcef2a0cf6ae4fc1bff6f18504bcec20
# LUTr-License: CC-BY-SA-4.0
# LUTr-License-URL: https://github.com/NatronGitHub/clut#license
# LUTr-License-Basis: repo-license-file
# LUTr-Transform-Class: film-emulation
# LUTr-Tags: creative, film, film-emulation, hald-clut, natron, png, cube
# LUTr-Input-Color-Space: srgb
# LUTr-Input-Gamut: rec709
# LUTr-Input-Transfer: srgb
# LUTr-Output-Color-Space: srgb
# LUTr-Output-Gamut: rec709
# LUTr-Output-Transfer: srgb
# LUTr-Color-Space-Confidence: assumed-display-referred
# LUTr-Domain-Normalized: true
# LUTr-Shaper: none
# LUTr-Original-Grid: 64x64x64
# LUTr-Conversion-Grid: 25x25x25
# LUTr-Conversion-Interpolation: trilinear
# LUTr-Conversion-Method: HALD-PNG LUT image decoded at 16-bit and sampled to 25x25x25 3D CUBE
# LUTr-Conversion-Tool: LUTr scripts/convert-all-to-cube.mjs 2.0.0
# LUTr-Conversion-Date: 2026-07-27
# LUTr-Note: Preserve this metadata and the upstream license notices when redistributing.
TITLE "fuji velvia 50"
LUT_3D_SIZE 9
DOMAIN_MIN 0 0 0
DOMAIN_MAX 1 1 1
0.0039215686 0 0
0.069607843 0.0078431373 0.023039216
0.17156863 0.014705882 0.031372549
0.32205882 0.0053921569 0.023529412
0.45098039 0 0.011764706
0.58627451 0.0039215686 0.025980392
0.70980392 0.0078431373 0.023529412
0.8372549 0.0039215686 0.019607843
0.96078431 0 0.0039215686
0.042156863 0.065686275 0.015196078
0.058333333 0.061764706 0.011764706
0.18419118 0.039338235 0.020098039
0.32352941 0.019301471 0.019607843
0.45490196 0.0017156863 0.006127451
0.58627451 0.0078431373 0.012254902
0.70980392 0.015196078 0.019607843
0.84117647 0.0039215686 0.015686275
0.97254902 0.0034313725 0.0034313725
0.040196078 0.18333333 0.034313725
0.060906863 0.18590686 0.034313725
0.17965686 0.17254902 0.042156863
0.32205882 0.14914216 0.03247549
0.45490196 0.13823529 0.027941176
0.59411765 0.098529412 0.02254902
0.72058824 0.084068627 0.025735294
0.84901961 0.040686275 0.014705882
0.97156863 0.017647059 0.015686275
0.0053921569 0.34803922 0.066666667
0.018137255 0.34558824 0.050980392
0.14313725 0.33811275 0.057843137
0.3 0.31960784 0.054901961
0.45490196 0.3004902 0.037745098
0.59411765 0.27598039 0.050980392
0.72585784 0.25833333 0.046078431
0.85539216 0.22383578 0.020098039
0.975 0.19901961 0.011764706
0 0.5 0.078431373
0.0075980392 0.5 0.068627451
0.07745098 0.49264706 0.092156863
0.28602941 0.47794118 0.077205882
0.44313725 0.46372549 0.079411765
0.59019608 0.44436275 0.067156863
0.7254902 0.41666667 0.054901961
0.85294118 0.38578431 0.056862745
0.96862745 0.36666667 0.049019608
0 0.64117647 0.08627451
0.019117647 0.64509804 0.09754902
0.049019608 0.63370098 0.098039216
0.25435049 0.62156863 0.091666667
0.42671569 0.6125 0.11789216
0.58235294 0.59319853 0.098039216
0.71654412 0.57169118 0.079901961
0.85324755 0.54411765 0.067953431
0.97647059 0.52254902 0.050980392
0 0.77745098 0.08627451
0.0078431373 0.77781863 0.11335784
0.015686275 0.77034314 0.12254902
0.20147059 0.75894608 0.1122549
0.42156863 0.74705882 0.10147059
0.57352941 0.73223039 0.10012255
0.70294118 0.71372549 0.10196078
0.84019608 0.69460784 0.077941176
0.95980392 0.67156863 0.054901961
0 0.9004902 0.1377451
0.0038602941 0.90784314 0.14515931
0.011887255 0.9 0.15355392
0.16488971 0.9004902 0.16194853
0.3997549 0.87867647 0.13627451
0.55459559 0.86470588 0.12058824
0.69889706 0.86115196 0.094485294
0.8377451 0.84509804 0.070098039
0.97598039 0.82598039 0.050490196
0 0.99215686 0.15686275
0 1 0.15294118
0.015686275 0.9872549 0.17352941
0.1745098 0.99607843 0.17009804
0.37843137 0.99019608 0.16862745
0.54460784 0.98578431 0.14362745
0.6872549 0.98823529 0.11666667
0.83382353 0.98382353 0.077941176
0.96470588 0.96862745 0.02745098
0.019607843 0.015686275 0.046568627
0.069607843 0.0078431373 0.038296569
0.16409314 0.00049019608 0.031004902
0.31813725 0.00049019608 0.021078431
0.45686275 0 0.026960784
0.59019608 0.0039215686 0.02745098
0.71458333 0.0039215686 0.03002451
0.84509804 0 0.019607843
0.96813725 0 0.0078431373
0.031801471 0.057843137 0.057414216
0.062683824 0.057414216 0.053439032
0.17156863 0.043627451 0.049509804
0.31964614 0.020856311 0.049509804
0.45465686 0.0039215686 0.042647059
0.58627451 0.012852328 0.042156863
0.71764706 0.019117647 0.037484681
0.84859069 0.0069240196 0.026524203
0.97254902 0 0.022977941
0.031495098 0.1872549 0.073529412
0.069715074 0.19375 0.073039216
0.17190564 0.17904412 0.072457108
0.32205882 0.15883885 0.082965686
0.45876225 0.13339461 0.071813725
0.5935049 0.10703125 0.064292279
0.72938113 0.065931373 0.049509804
0.85208333 0.05010723 0.049509804
0.98382353 0.010416667 0.02254902
0.0049019608 0.35520833 0.093321078
0.022280944 0.34904259 0.097058824
0.14644608 0.34166667 0.10343137
0.31568627 0.32609528 0.11096814
0.46338848 0.30376838 0.10906863
0.6017693 0.27352941 0.095098039
0.72941176 0.2504902 0.08671875
0.85686275 0.22179075 0.075
0.97267157 0.19117647 0.054105392
0.0039215686 0.49632353 0.12598039
0.0076286765 0.49240196 0.12643995
0.090318627 0.48872549 0.12794118
0.29647672 0.47647059 0.13128064
0.45085784 0.46482843 0.13296569
0.59460784 0.43970588 0.12613358
0.72941176 0.41323529 0.11372549
0.86056985 0.38529412 0.099019608
0.98382353 0.36446078 0.069852941
0.0039215686 0.64117647 0.15294118
0.0039215686 0.63872549 0.15340839
0.05111826 0.6314951 0.15686275
0.25343137 0.62395833 0.15031403
0.43048407 0.61053922 0.15015319
0.58535539 0.59100031 0.15428156
0.7182598 0.56354167 0.14154412
0.85294118 0.54368873 0.12532935
0.95637255 0.53284314 0.11666667
0 0.78039216 0.18370098
0.0039215686 0.78051471 0.18682598
0.011060049 0.77034314 0.1807598
0.18261336 0.75880821 0.17990196
0.40784314 0.74362745 0.17352941
0.57443321 0.72905944 0.17205882
0.70876225 0.71467525 0.16706495
0.84859069 0.69460784 0.14244792
0.98382353 0.67536765 0.10796569
0 0.91176471 0.20686275
0.0039215686 0.91176471 0.21121324
0.022227328 0.90085784 0.21470588
0.15676317 0.90026808 0.20814951
0.37625613 0.88823529 0.20291054
0.54761029 0.87647059 0.19697457
0.69889706 0.86372549 0.18665748
0.84160539 0.84515165 0.15789675
0.97653186 0.82990196 0.095036765
0 0.99166667 0.22598039
0.0034926471 0.99601716 0.22647059
0.030147059 0.99215686 0.23382353
0.19068627 0.99754902 0.22334559
0.36127451 0.99215686 0.21813725
0.54460784 0.98431373 0.21403186
0.69117647 0.99473039 0.19889706
0.83382353 0.97297794 0.1783701
0.96862745 0.96862745 0.095098039
0.0039215686 0.0039215686 0.11372549
0.061764706 0.014828431 0.12242647
0.16372549 0.018627451 0.12647059
0.31421569 0.010784314 0.12830882
0.45686275 0.0073529412 0.11617647
0.59411765 0 0.099019608
0.7247549 0 0.088235294
0.85330882 0 0.076348039
0.98039216 0 0.059803922
0.023529412 0.060784314 0.13333333
0.065196078 0.054626225 0.13296569
0.16813725 0.039001225 0.13802083
0.31813725 0.020496324 0.13886336
0.45490196 0.01127451 0.14068627
0.59327512 0.0039215686 0.13382353
0.72230392 0.0048713235 0.11813725
0.85330882 0.0039215686 0.098422181
0.9754902 0 0.076470588
0.02745098 0.19803922 0.16372549
0.060723039 0.19411765 0.16372549
0.16862745 0.1747549 0.16470588
0.32205882 0.15245098 0.17156863
0.46458333 0.12941176 0.1754902
0.60171569 0.095588235 0.16780025
0.72941176 0.084129902 0.15122549
0.86078431 0.038480392 0.1299326
0.97573529 0.017647059 0.10416667
0.013235294 0.35551471 0.20245098
0.03583027 0.35490196 0.19526654
0.15272672 0.34166667 0.20171569
0.31813725 0.32352941 0.20245098
0.46439951 0.29901961 0.20153186
0.60473346 0.27421875 0.19499081
0.73333333 0.24656863 0.18578431
0.86239277 0.22352941 0.17095588
0.97254902 0.19227941 0.15894608
0 0.49656863 0.23431373
0.013419118 0.49215686 0.22953431
0.10759804 0.49031863 0.22634804
0.2997549 0.48039216 0.23278186
0.45465686 0.4627451 0.23406863
0.59803922 0.44025735 0.23094363
0.7314951 0.41629902 0.22058824
0.86384804 0.3877451 0.20539216
0.97892157 0.36470588 0.1877451
0 0.63480392 0.25919118
0.0039215686 0.63480392 0.25306373
0.050980392 0.63333333 0.25637255
0.25660233 0.6278799 0.25735294
0.43547794 0.61084559 0.25827206
0.588894 0.59306066 0.2627451
0.72218137 0.56761642 0.25401348
0.85686275 0.54411765 0.24033395
0.98431373 0.52892157 0.2122549
0 0.78039216 0.28406863
0.0039215686 0.77846201 0.28428309
0.0082107843 0.77034314 0.29136029
0.20487132 0.76590074 0.29117647
0.425 0.74313725 0.2872549
0.57561275 0.73039216 0.28651961
0.70906863 0.71819853 0.28253676
0.8495098 0.69852941 0.2674326
0.97941176 0.67769608 0.24387255
0 0.91568627 0.30637255
0.0039215686 0.91568627 0.30632659
0.0078431373 0.90833333 0.31317402
0.13828125 0.90410539 0.31384804
0.37953431 0.89068627 0.31011029
0.54803922 0.87645527 0.3060049
0.69767157 0.86813725 0.30597426
0.84499081 0.84901961 0.28235294
0.96335784 0.82683824 0.25134804
0 1 0.32156863
0.01127451 1 0.32254902
0.02254902 0.99607843 0.3254902
0.17671569 0.99607843 0.32647059
0.35784314 0.98627451 0.32205882
0.53039216 0.98039216 0.31470588
0.69509804 0.99093137 0.3127451
0.8372549 0.97352941 0.28884804
0.95294118 0.96078431 0.25392157
0.0039215686 0.0053921569 0.23088235
0.054105392 0.009620098 0.22334559
0.15588235 0.0050245098 0.22267157
0.31029412 0.011764706 0.24025735
0.45808824 0.0066176471 0.225
0.59803922 0 0.20196078
0.73039216 0 0.19411765
0.86078431 0.0039215686 0.18578431
0.97254902 0 0.1745098
0.017156863 0.069607843 0.25245098
0.061764706 0.069446998 0.24826134
0.16813725 0.043137255 0.24460784
0.31292126 0.021507353 0.25545343
0.46265319 0.0078431373 0.25646446
0.59803922 0 0.24137561
0.72830882 0.0074754902 0.22884498
0.85692402 0.0078431373 0.21693474
0.97254902 0.0039215686 0.20128676
0.019607843 0.18443627 0.28333333
0.054901961 0.18685662 0.27593444
0.17610294 0.16580882 0.27941176
0.32182904 0.14276961 0.28817402
0.46666667 0.12064951 0.29117647
0.5995098 0.090686275 0.28402267
0.7330576 0.061887255 0.2754902
0.86438419 0.035294118 0.2629136
0.9872549 0.021446078 0.24264706
0.0083946078 0.3495098 0.30784314
0.017953431 0.35343137 0.30637255
0.15919118 0.34120711 0.31029412
0.31960784 0.31534161 0.32058824
0.46590074 0.29733456 0.32205882
0.60496324 0.27598039 0.31547947
0.73333333 0.24509804 0.31029412
0.86489737 0.21813725 0.30245098
0.98431373 0.19509804 0.28676471
0.0031862745 0.49019608 0.34509804
0.011458333 0.49215686 0.3372549
0.10833333 0.48946078 0.3372549
0.28921569 0.47598039 0.34733456
0.45232843 0.46213235 0.3504902
0.59512868 0.44362745 0.34901961
0.73039216 0.42058824 0.34117647
0.86470588 0.39362745 0.33284314
0.97867647 0.36593137 0.31764706
0.00055147059 0.63088235 0.36960784
0.0078431373 0.63088235 0.36433058
0.033900123 0.63656556 0.36531863
0.24944853 0.62473958 0.37171415
0.43529412 0.6125 0.37429534
0.5911152 0.59503676 0.37205882
0.72507659 0.575 0.36813725
0.86078431 0.55196078 0.3641008
0.97156863 0.53137255 0.35245098
0 0.77647059 0.39509804
0.0039215686 0.77928922 0.39149816
0.012346814 0.77279412 0.39656863
0.20833333 0.76617647 0.4004902
0.42843137 0.74558824 0.39901961
0.5745864 0.73477328 0.39901961
0.71344975 0.72156863 0.39656863
0.85338542 0.70245098 0.38975184
0.98970588 0.67941176 0.3754902
0 0.9122549 0.42175245
0.011335784 0.91568627 0.42148437
0.011764706 0.91015625 0.42495404
0.15556832 0.90410539 0.4258655
0.38489583 0.89044118 0.42270221
0.54663756 0.87910539 0.41776195
0.69894301 0.86515012 0.41678922
0.84558824 0.85132506 0.40964308
0.95606618 0.82990196 0.39675245
0 1 0.4372549
0.019301471 0.99607843 0.4372549
0.028553922 0.99607843 0.43872549
0.17996324 0.9966299 0.44117647
0.36397059 0.9875 0.43333333
0.53192402 0.98039216 0.4254902
0.69509804 0.98284314 0.4245098
0.84166667 0.97254902 0.41323529
0.94901961 0.975 0.40196078
0.0078431373 0.0078431373 0.33137255
0.042401961 0.011764706 0.33529412
0.15147059 0.0058823529 0.3254902
0.3127451 0.0039215686 0.33137255
0.46568627 0.0019607843 0.33529412
0.60588235 0 0.3254902
0.73578431 0 0.31764706
0.86470588 0 0.30980392
0.98235294 0 0.29411765
0.023039216 0.065196078 0.35833333
0.053921569 0.069607843 0.36029412
0.16525735 0.041421569 0.35827206
0.31421569 0.016973039 0.36544118
0.46495098 0.0039215686 0.36703431
0.60481005 0 0.35637255
0.7377451 0.0078431373 0.35196078
0.86446078 0.0078431373 0.34761029
0.975 0.0017156863 0.33284314
0.023529412 0.19509804 0.38921569
0.052696078 0.17941176 0.39099265
0.1745098 0.15245098 0.39313725
0.32205882 0.13229167 0.39705882
0.46862745 0.11446078 0.39901961
0.60643382 0.091176471 0.39834559
0.73921569 0.057107843 0.39264706
0.86488971 0.040012255 0.3872549
0.98872549 0.032352941 0.3745098
0.010539216 0.35343137 0.41813725
0.015349265 0.35 0.41813725
0.15612745 0.32769608 0.42352941
0.31841299 0.30637255 0.42990196
0.46544118 0.28664216 0.43186275
0.60588235 0.2622549 0.43186275
0.73823529 0.2372549 0.43137255
0.86911765 0.20857843 0.42270221
0.98039216 0.19387255 0.41029412
0.0039215686 0.49705882 0.45098039
0.01127451 0.49620098 0.45012255
0.094117647 0.48872549 0.45294118
0.29436275 0.47463235 0.45882353
0.45539216 0.45539216 0.46176471
0.59620098 0.43786765 0.46078431
0.73382353 0.41470588 0.45661765
0.86458333 0.38394608 0.44791667
0.96176471 0.36666667 0.44313725
0 0.63872549 0.48308824
0.0073529412 0.63808211 0.47925858
0.035723039 0.63370098 0.47579657
0.24754902 0.61911765 0.48308824
0.44509804 0.60625 0.48308824
0.59319853 0.59558824 0.48112745
0.72610294 0.57389706 0.47598039
0.86078431 0.55196078 0.47588848
0.99068627 0.52892157 0.46813725
0 0.77745098 0.50441176
0.0078431373 0.77745098 0.50294118
0.018504902 0.77352941 0.50490196
0.19479167 0.76115196 0.50490196
0.425 0.7497549 0.50882353
0.57781863 0.7341299 0.50490196
0.71838235 0.72156863 0.5064951
0.85686275 0.70661765 0.5033701
0.96078431 0.69117647 0.49901961
0 0.91789216 0.52401961
0.0078431373 0.90983456 0.52552083
0.0080882353 0.9036152 0.52922794
0.13072917 0.90603554 0.53293505
0.38370098 0.89632353 0.53651961
0.54960172 0.88069853 0.52965686
0.70202206 0.86776961 0.53229167
0.8495098 0.85315564 0.52941176
0.9877451 0.83333333 0.51789216
0 1 0.53921569
0.0039215686 0.99411765 0.54313725
0.0068627451 1 0.55245098
0.17916667 0.99534314 0.55294118
0.3745098 0.99607843 0.54901961
0.53553922 0.98431373 0.54117647
0.69656863 0.97843137 0.53970588
0.84509804 0.96617647 0.53897059
0.96666667 0.96862745 0.52352941
0.011764706 0.0039215686 0.42401961
0.045588235 0.0039215686 0.42794118
0.14264706 0.0039215686 0.43186275
0.30637255 0.0039215686 0.4372549
0.46078431 0 0.44240196
0.60588235 0 0.45202206
0.7372549 0 0.44509804
0.86078431 0 0.4341299
0.98431373 0 0.4372549
0.011764706 0.03872549 0.45882353
0.057682292 0.050268076 0.4627068
0.15203738 0.039215686 0.46659007
0.31156556 0.015310968 0.47150735
0.4622549 0.0049938725 0.4745098
0.60680147 0.0036151961 0.47990196
0.74332108 0.0073529412 0.47598039
0.86862745 0.0039215686 0.46421569
0.97432598 0.0034313725 0.45851716
0.019607843 0.19865196 0.49362745
0.056878064 0.175 0.49851409
0.15242034 0.14384191 0.50147059
0.31421569 0.12953431 0.50516238
0.465625 0.10686275 0.50686275
0.60980392 0.072058824 0.50778186
0.74215686 0.035661765 0.5064951
0.87351409 0.025842525 0.50147059
0.98578431 0.012254902 0.49117647
0.015686275 0.35643382 0.52990196
0.024624694 0.34349724 0.52598039
0.11568627 0.31764706 0.52912071
0.31148131 0.3033701 0.53627451
0.46516544 0.27941176 0.54019608
0.60827206 0.24818474 0.54019608
0.74394914 0.22794118 0.54019608
0.87254902 0.19852941 0.53204657
0.98431373 0.17101716 0.52205882
0.0078431373 0.49607843 0.56078431
0.0078431373 0.48961397 0.55686275
0.041176471 0.48584559 0.55931373
0.27815564 0.46908701 0.56397059
0.45551471 0.45098039 0.5682598
0.59923407 0.43259804 0.57107843
0.7372549 0.41096814 0.56685049
0.86862745 0.38186275 0.55677083
0.99289216 0.35490196 0.55612745
0 0.63872549 0.58627451
0.0078431373 0.63824295 0.58627451
0.029779412 0.63287377 0.58558517
0.22154565 0.62003676 0.58776808
0.43897059 0.60735294 0.59319853
0.5911152 0.59166667 0.59262408
0.72693015 0.57316176 0.58719363
0.86488971 0.54815411 0.58382353
0.97947304 0.52984069 0.58382353
0 0.78431373 0.6064951
0.0039215686 0.78137255 0.60870098
0.019607843 0.77352941 0.60814951
0.16839767 0.76286765 0.60972733
0.4161152 0.75392157 0.61593137
0.57823223 0.73938419 0.61585478
0.72083333 0.72254902 0.61470588
0.86119792 0.70116422 0.61323529
0.98039216 0.6872549 0.61323529
0 0.92745098 0.62843137
0.0069240196 0.91999081 0.62843137
0.013296569 0.91279105 0.62579657
0.12860754 0.90581342 0.63235294
0.37784926 0.89803922 0.64083946
0.55314032 0.87903646 0.63901654
0.70551471 0.86484375 0.6399663
0.85138634 0.85251225 0.63752298
0.98841912 0.83903186 0.63363971
0 1 0.64117647
0 0.99264706 0.64362745
0.0039215686 0.99362745 0.64362745
0.15833333 0.99460784 0.65055147
0.36666667 0.99607843 0.65931373
0.53284314 0.99215686 0.65686275
0.69509804 0.97401961 0.65539216
0.84558824 0.97254902 0.64852941
0.95882353 0.97647059 0.6372549
0.011764706 0.0078431373 0.52941176
0.036887255 0.015686275 0.55257353
0.14509804 0.0049019608 0.54215686
0.29460784 0 0.54693627
0.45588235 0 0.56078431
0.59803922 0 0.57254902
0.72941176 0 0.55882353
0.86421569 0 0.54411765
0.96568627 0 0.54411765
0.019607843 0.038602941 0.56421569
0.034528186 0.033333333 0.56715686
0.14803922 0.02622549 0.57107843
0.30245098 0.0048866422 0.575
0.45637255 0.0017156863 0.58161765
0.60338542 0 0.58296569
0.73333333 0.0029411765 0.58284314
0.86384804 0 0.57431066
0.97218137 0 0.57107843
0.023529412 0.18235294 0.59411765
0.04129902 0.17426471 0.59803922
0.13780637 0.14117647 0.60196078
0.30456495 0.12561275 0.60588235
0.46078431 0.09877451 0.60980392
0.60735294 0.055392157 0.60597426
0.74172794 0.033026961 0.60588235
0.87083333 0.0055147059 0.60612745
0.97377451 0.02254902 0.60196078
0.017156863 0.34558824 0.62892157
0.017693015 0.33587623 0.62115502
0.089460784 0.31703431 0.62818627
0.29446998 0.30170037 0.63676471
0.46078431 0.27530637 0.64068627
0.60343137 0.24667586 0.64068627
0.73823529 0.22156863 0.64068627
0.86862745 0.19252451 0.63676471
0.98786765 0.15870098 0.62990196
0.011764706 0.49215686 0.65980392
0.011764706 0.484375 0.65588235
0.029044118 0.48431373 0.65588235
0.27101716 0.46617647 0.66176471
0.44436275 0.44877451 0.66764706
0.59773284 0.42867647 0.66960784
0.73382353 0.40882353 0.67156863
0.86862745 0.38210784 0.66746324
0.98382353 0.35294118 0.65980392
0.0039215686 0.63762255 0.68566176
0.0087009804 0.63534007 0.68284314
0.026470588 0.63495711 0.6817402
0.2151348 0.62234988 0.68284314
0.42426471 0.60931373 0.68431373
0.588894 0.59166667 0.69068627
0.72941176 0.575 0.6953125
0.86911765 0.54411765 0.69460784
0.98541667 0.52107843 0.69068627
0 0.78529412 0.70980392
0.0035232843 0.78137255 0.70980392
0.027634804 0.77647059 0.70588235
0.17303922 0.76724877 0.70952819
0.40196078 0.75735294 0.71580882
0.57107843 0.74178922 0.71862745
0.71764706 0.72530637 0.72101716
0.8611826 0.69852941 0.71859681
0.9872549 0.68039216 0.71862745
0 0.92794118 0.73284314
0.0039215686 0.92359069 0.72979473
0.019852941 0.91081495 0.72855392
0.087208946 0.9122549 0.73676471
0.35386029 0.90012255 0.74068627
0.54411765 0.882981 0.74460784
0.70094975 0.87588848 0.74558824
0.84558824 0.85294118 0.74557292
0.97647059 0.8377451 0.74154412
0 0.99607843 0.74803922
0.0039215686 0.98958333 0.74411765
0.015441176 0.98431373 0.74117647
0.14313725 0.99546569 0.75686275
0.35588235 0.99607843 0.75980392
0.52830882 0.99264706 0.76017157
0.69509804 0.97156863 0.76078431
0.84901961 0.98125 0.76078431
0.98333333 0.98137255 0.75686275
0.01127451 0.0078431373 0.64068627
0.030882353 0.015686275 0.66721814
0.13676471 0.0047794118 0.65343137
0.28658088 0 0.65275735
0.44509804 0 0.66421569
0.5995098 0 0.66158088
0.73333333 0 0.65245098
0.86470588 0 0.64417892
0.99558824 0 0.64460784
0.015686275 0.034313725 0.66721814
0.027389706 0.023039216 0.66813725
0.13590686 0.016544118 0.67169118
0.290625 0.0052083333 0.6754902
0.44852941 0.0039215686 0.67941176
0.60278033 0 0.67941176
0.73682598 0 0.67630208
0.86164982 0 0.67591912
0.98731618 0 0.6754902
0.019607843 0.14705882 0.69460784
0.030882353 0.15147059 0.69198836
0.12941176 0.12794118 0.69852941
0.29054841 0.10410539 0.70245098
0.45159314 0.074816176 0.70637255
0.60294118 0.037423407 0.70245098
0.7372549 0.022426471 0.70379902
0.86766238 0.0068627451 0.70605086
0.97585784 0 0.70294118
0.013235294 0.32794118 0.72009804
0.015686275 0.32101716 0.71764706
0.076960784 0.30553002 0.72193627
0.28106618 0.28020833 0.72941176
0.45670956 0.25278799 0.7372549
0.5995098 0.23927696 0.73607537
0.7373315 0.2096201 0.73333333
0.86911765 0.18088235 0.73363971
0.98186275 0.15196078 0.73596814
0.0056372549 0.48602941 0.75245098
0.01127451 0.4823223 0.75245098
0.038235294 0.47610294 0.7528799
0.25585172 0.45744485 0.76029412
0.43431373 0.4379902 0.76421569
0.59935662 0.41798407 0.76421569
0.73578431 0.40073529 0.76556373
0.86712623 0.37205882 0.76813725
0.97426471 0.34901961 0.76813725
0.0021446078 0.64264706 0.78333333
0.018688725 0.634375 0.77941176
0.043688725 0.63069853 0.78151042
0.20637255 0.62040441 0.78516391
0.41813725 0.60382966 0.7872549
0.58615962 0.58585325 0.79117647
0.72642463 0.56286765 0.79901961
0.86862745 0.54365043 0.79901961
0.97224265 0.52469363 0.79901961
0.00049019608 0.78431373 0.80551471
0.014445466 0.78049939 0.80637255
0.028094363 0.77417279 0.80615809
0.12941176 0.76711091 0.81421569
0.38823529 0.75189951 0.81813725
0.56288297 0.73786765 0.82205882
0.71470588 0.71727941 0.82634804
0.86127451 0.69863664 0.82647059
0.97598039 0.68333333 0.82647059
0 0.92401961 0.83682598
0.0038602941 0.92358303 0.83382353
0.014767157 0.91188725 0.83333333
0.043811275 0.91223192 0.84117647
0.31721814 0.89068627 0.84880515
0.52971814 0.87518382 0.84901961
0.69505208 0.86384804 0.85251225
0.85343137 0.85251225 0.85343137
0.98823529 0.84117647 0.85343137
0 0.99215686 0.84901961
0 0.98823529 0.84852941
0.0078431373 0.99166667 0.85159314
0.11207108 0.98952206 0.86029412
0.3254902 0.98455882 0.86862745
0.51421569 0.98823529 0.87205882
0.68676471 0.98431373 0.87242647
0.8495098 0.97751225 0.87653186
0.98088235 0.95392157 0.87254902
0.0039215686 0 0.7372549
0.030882353 0.0039215686 0.74117647
0.12058824 0 0.74509804
0.27892157 0 0.75147059
0.4372549 0 0.74901961
0.59558824 0 0.74117647
0.7372549 0 0.74117647
0.86862745 0 0.74901961
0.98823529 0 0.76078431
0.01127451 0.033823529 0.72598039
0.030882353 0.018688725 0.75245098
0.11531863 0.0073529412 0.76029412
0.27892157 0.0036151961 0.76421569
0.4370098 0.0039215686 0.75073529
0.59558824 0.0039215686 0.76029412
0.7372549 0 0.76421569
0.86862745 0 0.76421569
0.99607843 0 0.77696078
0.0078431373 0.10392157 0.78921569
0.026960784 0.11311275 0.77904412
0.1245098 0.1 0.78333333
0.2807598 0.057843137 0.79264706
0.44362745 0.043627451 0.7877451
0.59019608 0.01875 0.79178922
0.7379902 0 0.80294118
0.87254902 0.0037990196 0.79901961
0.94607843 0 0.79901961
0.0053921569 0.30735294 0.80735294
0.023223039 0.29491422 0.80245098
0.084436275 0.28235294 0.81213235
0.27107843 0.25931373 0.81568627
0.44509804 0.23872549 0.83039216
0.59503676 0.21568627 0.79852941
0.7372549 0.19264706 0.81911765
0.87401961 0.16176471 0.82990196
0.96568627 0.1377451 0.82990196
0 0.47647059 0.8372549
0.0058823529 0.4745098 0.83627451
0.023529412 0.46470588 0.84313725
0.24117647 0.44460784 0.81715686
0.43529412 0.42156863 0.82058824
0.59362745 0.40441176 0.82892157
0.73431373 0.37794118 0.85931373
0.87083333 0.36029412 0.86053922
0.97843137 0.33333333 0.86078431
0 0.63872549 0.87745098
0.0078431373 0.62696078 0.86813725
0.040073529 0.62303922 0.86029412
0.18180147 0.61519608 0.84601716
0.40637255 0.58970588 0.86372549
0.57604167 0.57267157 0.86145833
0.72610294 0.54791667 0.88627451
0.87303922 0.52843137 0.88823529
0.96470588 0.51078431 0.89166667
0.0039215686 0.78137255 0.89411765
0.01127451 0.77745098 0.88762255
0.0078431373 0.76642157 0.89877451
0.082720588 0.76323529 0.89779412
0.35 0.74558824 0.90882353
0.55085784 0.73223039 0.90784314
0.71004902 0.70686275 0.92867647
0.86127451 0.69068627 0.9189951
0.96862745 0.66862745 0.9254902
0.0034313725 0.93186275 0.93039216
0.0039215686 0.92444853 0.91813725
0.018627451 0.9127451 0.92205882
0.041176471 0.90441176 0.93627451
0.28897059 0.89681373 0.94558824
0.51372549 0.88186275 0.9377451
0.68284314 0.86776961 0.94068627
0.84901961 0.84901961 0.93382353
0.98921569 0.82990196 0.96568627
0 1 0.98039216
0 0.98823529 0.93333333
0.00098039216 0.99117647 0.95196078
0.018137255 0.99215686 0.9622549
0.26078431 0.97843137 0.95686275
0.48480392 0.97009804 0.9622549
0.67156863 0.9872549 0.97156863
0.8377451 0.98431373 0.95637255
0.98039216 0.98431373 0.94117647
