site/assets/luts/sha256-9e11ba97c9f3abdd3ae06839dbd50767a6a04564d919f2d988bfe46967877127.cube
# LUTr-Schema-Version: 2
# LUTr-ID: sha256-9e11ba97c9f3abdd3ae06839dbd50767a6a04564d919f2d988bfe46967877127
# LUTr-Title: polaroid px-680 cold
# LUTr-Collection: Natron HaldCLUT
# LUTr-Collection-ID: natron-haldclut-presets
# LUTr-Source: https://github.com/NatronGitHub/clut
# LUTr-Retrieved: 2026-07-27
# LUTr-Source-File: submissions/natron-haldclut-presets/instant_consumer/polaroid_px-680_cold.png
# LUTr-Source-Format: HALD-PNG
# LUTr-Source-SHA256: 9e11ba97c9f3abdd3ae06839dbd50767a6a04564d919f2d988bfe46967877127
# LUTr-License: CC-BY-SA-4.0
# LUTr-License-URL: https://github.com/NatronGitHub/clut#license
# LUTr-License-Basis: repo-license-file
# LUTr-Transform-Class: film-emulation
# LUTr-Tags: creative, film, film-emulation, hald-clut, natron, png, cool, cube
# LUTr-Input-Color-Space: srgb
# LUTr-Input-Gamut: rec709
# LUTr-Input-Transfer: srgb
# LUTr-Output-Color-Space: srgb
# LUTr-Output-Gamut: rec709
# LUTr-Output-Transfer: srgb
# LUTr-Color-Space-Confidence: assumed-display-referred
# LUTr-Domain-Normalized: true
# LUTr-Shaper: none
# LUTr-Original-Grid: 64x64x64
# LUTr-Conversion-Grid: 25x25x25
# LUTr-Conversion-Interpolation: trilinear
# LUTr-Conversion-Method: HALD-PNG LUT image decoded at 16-bit and sampled to 25x25x25 3D CUBE
# LUTr-Conversion-Tool: LUTr scripts/convert-all-to-cube.mjs 2.0.0
# LUTr-Conversion-Date: 2026-07-27
# LUTr-Note: Preserve this metadata and the upstream license notices when redistributing.
TITLE "polaroid px-680 cold"
LUT_3D_SIZE 9
DOMAIN_MIN 0 0 0
DOMAIN_MAX 1 1 1
0.16470588 0.22745098 0.24705882
0.16470588 0.22352941 0.24705882
0.16862745 0.21568627 0.24705882
0.21519608 0.21176471 0.24705882
0.37254902 0.21176471 0.24313725
0.6377451 0.21029412 0.23382353
0.80490196 0.27647059 0.22352941
0.90294118 0.37009804 0.23578431
0.96470588 0.46666667 0.27843137
0.1495098 0.23872549 0.24313725
0.16421569 0.2278799 0.24705882
0.18026961 0.22046569 0.24705882
0.20735294 0.21519608 0.24705882
0.39362745 0.21911765 0.24117647
0.62990196 0.25343137 0.22775735
0.80784314 0.31875 0.22058824
0.90294118 0.4 0.23229167
0.95245098 0.46078431 0.26568627
0.14117647 0.24705882 0.24313725
0.15257353 0.23566176 0.24705882
0.18112745 0.23039216 0.24705882
0.26764706 0.24215686 0.2435049
0.45196078 0.27647059 0.23186275
0.64914216 0.32156863 0.2185049
0.81960784 0.3872549 0.20465686
0.90698529 0.44607843 0.21997549
0.94215686 0.50882353 0.2745098
0.090196078 0.27892157 0.24068627
0.088235294 0.3036152 0.24068627
0.15245098 0.30833333 0.23566176
0.29705882 0.36372549 0.22800245
0.50563725 0.4129902 0.21323529
0.66525735 0.44264706 0.19362745
0.79718137 0.45968137 0.19068627
0.88743873 0.51390931 0.23609069
0.94019608 0.56323529 0.28382353
0 0.43529412 0.23333333
0.0058823529 0.4372549 0.23137255
0.0098039216 0.44215686 0.22745098
0.24313725 0.49460784 0.22156863
0.4627451 0.5254902 0.21470588
0.65318627 0.57009804 0.19926471
0.76960784 0.57843137 0.21029412
0.86127451 0.59803922 0.24191176
0.87843137 0.61176471 0.26862745
0 0.57843137 0.23529412
0 0.57843137 0.23137255
0.0039215686 0.57843137 0.23676471
0.15392157 0.59656863 0.24944853
0.41960784 0.62279412 0.24485294
0.6122549 0.66323529 0.25778186
0.73480392 0.67781863 0.27205882
0.83088235 0.69246324 0.3122549
0.87205882 0.7 0.33921569
0 0.68529412 0.28431373
0.0078431373 0.6814951 0.28921569
0.016666667 0.68235294 0.28529412
0.21727941 0.6995098 0.30453431
0.42156863 0.70980392 0.31764706
0.58345588 0.7317402 0.35343137
0.70563725 0.74705882 0.36960784
0.80404412 0.77107843 0.41433824
0.87352941 0.79117647 0.44607843
0.2127451 0.78137255 0.38235294
0.23431373 0.77794118 0.38235294
0.31335784 0.77794118 0.39705882
0.39117647 0.77794118 0.4004902
0.49779412 0.7875 0.42352941
0.61127451 0.80116422 0.44901961
0.70539216 0.81286765 0.46960784
0.79705882 0.83235294 0.5004902
0.87058824 0.85980392 0.54264706
0.52156863 0.8627451 0.50980392
0.54117647 0.86666667 0.51764706
0.55294118 0.8627451 0.51764706
0.57990196 0.85882353 0.52009804
0.64509804 0.87058824 0.54509804
0.71029412 0.88382353 0.56764706
0.75882353 0.88627451 0.58039216
0.82058824 0.89803922 0.60441176
0.85882353 0.90196078 0.61960784
0.16078431 0.22352941 0.25098039
0.16470588 0.21960784 0.25098039
0.16862745 0.21568627 0.25098039
0.21176471 0.20784314 0.24705882
0.39387255 0.20784314 0.24313725
0.63511029 0.21617647 0.23854167
0.81960784 0.30183824 0.23921569
0.91035539 0.40490196 0.27401961
0.95343137 0.49362745 0.33627451
0.15251225 0.23529412 0.2504902
0.16421569 0.22745098 0.25098039
0.18236826 0.21960784 0.25098039
0.23039216 0.21176471 0.25022212
0.42625613 0.22132353 0.24313725
0.647572 0.25659467 0.23872549
0.8182598 0.32745098 0.2394761
0.90691636 0.41655178 0.27407322
0.9495098 0.49754902 0.32843137
0.14068627 0.24754902 0.24705882
0.15637255 0.23186275 0.2504902
0.20061275 0.23746936 0.24727328
0.27009804 0.24791667 0.2435049
0.47126225 0.27628676 0.2375
0.67193627 0.32120098 0.2270527
0.81216299 0.39117647 0.23832721
0.89875919 0.45522365 0.26441483
0.93860294 0.52830882 0.32757353
0.071078431 0.29479167 0.24313725
0.065770527 0.30708487 0.24426317
0.14264706 0.32224265 0.24345895
0.30079657 0.36146599 0.23738511
0.51642157 0.41421569 0.21985294
0.67756587 0.43743873 0.21519608
0.7993413 0.47117034 0.22156863
0.88741575 0.51942402 0.27009804
0.93333333 0.58088235 0.33609069
0.0039215686 0.44681373 0.24460784
0.0043504902 0.44852941 0.24607843
0.011029412 0.4596201 0.23927696
0.24779412 0.49656863 0.2375
0.46875 0.53088235 0.23186275
0.64852941 0.56617647 0.2403799
0.784375 0.58235294 0.24362745
0.86525735 0.59068627 0.27230392
0.8995098 0.60196078 0.29534314
0.0039215686 0.58609069 0.25716912
0.0053921569 0.58449755 0.25584406
0.0077971814 0.58788297 0.26012561
0.18932292 0.60686275 0.26372549
0.42729779 0.63318015 0.26976103
0.61441483 0.66323529 0.29148284
0.7558364 0.68921569 0.30686275
0.83845741 0.69826134 0.34005055
0.90147059 0.71158088 0.37598039
0.0037990196 0.69313725 0.31470588
0.01518076 0.68627451 0.30735294
0.010171569 0.69240196 0.30343137
0.25470282 0.69866728 0.32593444
0.4370098 0.71372549 0.34920343
0.58604473 0.73506434 0.37242647
0.71666667 0.75588235 0.39917279
0.8161152 0.78181679 0.43109681
0.87058824 0.80147059 0.46176471
0.259375 0.78137255 0.39411765
0.25331648 0.78137255 0.40147059
0.32205882 0.78138787 0.4057598
0.41390931 0.78373928 0.41960784
0.51547181 0.78949142 0.43655025
0.62894455 0.80539216 0.46595435
0.71237745 0.81711091 0.48861826
0.80104167 0.83321844 0.51525735
0.86317402 0.85931373 0.54957108
0.50637255 0.85147059 0.49852941
0.5254902 0.85925245 0.51329657
0.55980392 0.8627451 0.52156863
0.60018382 0.86666667 0.53529412
0.64852941 0.87426471 0.55073529
0.70520833 0.87843137 0.56470588
0.76654412 0.89019608 0.58909314
0.82395833 0.9004902 0.61023284
0.85882353 0.90980392 0.63529412
0.16470588 0.21666667 0.26568627
0.16862745 0.21568627 0.26568627
0.18039216 0.21176471 0.25882353
0.20183824 0.20784314 0.25098039
0.38823529 0.17990196 0.26372549
0.66752451 0.10980392 0.27352941
0.83039216 0.31372549 0.32132353
0.89901961 0.44705882 0.37058824
0.94215686 0.53627451 0.41764706
0.15723039 0.22058824 0.26311275
0.16438419 0.21971507 0.26568627
0.19203431 0.21914828 0.26197917
0.23681066 0.21092218 0.25845588
0.44264706 0.19338235 0.26764706
0.68328738 0.23834252 0.29060968
0.82254902 0.35729167 0.32254902
0.89901961 0.46568627 0.37035846
0.93860294 0.55098039 0.41960784
0.15 0.23039216 0.26176471
0.16029412 0.22745098 0.25946691
0.19411765 0.25741422 0.26568627
0.29212623 0.25 0.27144608
0.50208333 0.27561275 0.2817402
0.70094975 0.32178309 0.29142157
0.81887255 0.42567402 0.32720588
0.89503676 0.50833333 0.37377451
0.94191176 0.59387255 0.43602941
0.081372549 0.31029412 0.27598039
0.1 0.33020833 0.27532169
0.15772059 0.34068627 0.27371324
0.33183211 0.37473958 0.27830882
0.53161765 0.41544118 0.27935049
0.69607843 0.44600184 0.29319853
0.8080576 0.49644608 0.31360294
0.87941176 0.54560355 0.35586703
0.9254902 0.6122549 0.41605392
0.0098039216 0.47009804 0.30392157
0.016911765 0.47922794 0.29816176
0.056617647 0.48860294 0.28431373
0.284375 0.51568627 0.29436275
0.51323529 0.55637255 0.3004902
0.67426471 0.57941176 0.31666667
0.78517157 0.59166667 0.32843137
0.86176471 0.61004902 0.35539216
0.9122549 0.64460784 0.3995098
0.006372549 0.60772059 0.32107843
0.017647059 0.60393689 0.31738664
0.022426471 0.60425858 0.3060049
0.25698529 0.61801471 0.32176777
0.46268382 0.64093137 0.3370098
0.63186275 0.67107843 0.35479473
0.7622549 0.6958027 0.38091299
0.83872549 0.69897365 0.39250919
0.89264706 0.71421569 0.42843137
0.021078431 0.70073529 0.35294118
0.016544118 0.6950674 0.34132966
0.12769608 0.69589461 0.35196078
0.33042279 0.70281863 0.37144608
0.46727941 0.71727941 0.39803922
0.60284926 0.73921569 0.41338848
0.72389706 0.7620098 0.44117647
0.82257966 0.78998162 0.47662377
0.87818627 0.79411765 0.49215686
0.3182598 0.78186275 0.43186275
0.31567096 0.78186275 0.42440257
0.3708027 0.77794118 0.42833946
0.44803922 0.7823989 0.44370404
0.54001225 0.79338235 0.46372549
0.62892157 0.80667892 0.48782169
0.71764706 0.82068015 0.5111826
0.79705882 0.83676471 0.5377451
0.86580882 0.85490196 0.56911765
0.52352941 0.85882353 0.51666667
0.53553922 0.86078431 0.51960784
0.57622549 0.87132353 0.5379902
0.60196078 0.86727941 0.54362745
0.64803922 0.87156863 0.55735294
0.70208333 0.87892157 0.57340686
0.75441176 0.87426471 0.57622549
0.82009804 0.89840686 0.61617647
0.86862745 0.91470588 0.65196078
0.16470588 0.20784314 0.2872549
0.16862745 0.20784314 0.28088235
0.20330882 0.20784314 0.29803922
0.24564951 0.20784314 0.29601716
0.40588235 0.1872549 0.31715686
0.6627451 0.15545343 0.35484069
0.83223039 0.225 0.3872549
0.90116422 0.45520833 0.45686275
0.92941176 0.60147059 0.51617647
0.15471814 0.21911765 0.29675245
0.16067708 0.21568627 0.2904182
0.21220895 0.2185815 0.30030637
0.27500766 0.21831342 0.30834099
0.44509804 0.20802696 0.32852328
0.68743107 0.19836091 0.36764706
0.83039216 0.31942402 0.40635723
0.89552696 0.48306526 0.45851716
0.92941176 0.61323529 0.51881127
0.10686275 0.25539216 0.325
0.13051471 0.24411765 0.31675858
0.20257353 0.26164216 0.3286152
0.34719669 0.27794118 0.33892463
0.51464461 0.27218137 0.36519608
0.69734988 0.34713542 0.39607843
0.81960784 0.46878064 0.44448529
0.87896752 0.58363971 0.49327512
0.92156863 0.64767157 0.52561275
0.046078431 0.32352941 0.3283701
0.038120404 0.35697763 0.34734988
0.18932292 0.36943934 0.35614277
0.37943474 0.40686275 0.36888787
0.55686275 0.44362745 0.39215686
0.709375 0.47941176 0.41070006
0.80625 0.54486826 0.43224571
0.86893382 0.60752911 0.47843137
0.90827206 0.65588235 0.51078431
0.01372549 0.48235294 0.36372549
0.053247549 0.49166667 0.36731005
0.23590686 0.51231618 0.37849265
0.39319853 0.53262868 0.39047181
0.54252451 0.56495098 0.40232843
0.69019608 0.59561887 0.41295956
0.78823529 0.62285539 0.43039216
0.85456495 0.64273897 0.45931373
0.90661765 0.6879902 0.49485294
0.19148284 0.62156863 0.4033701
0.22155331 0.62009804 0.40085784
0.26911765 0.62216605 0.40061275
0.37606464 0.63062194 0.40712316
0.50689338 0.65196078 0.41908701
0.65126379 0.68284314 0.43866422
0.76519608 0.70384498 0.45911458
0.83890931 0.71452206 0.47787224
0.89117647 0.72996324 0.49601716
0.28002451 0.7060049 0.42794118
0.29056373 0.70784314 0.42547488
0.32340686 0.70281863 0.42512255
0.41403186 0.70997243 0.43333333
0.50196078 0.72101716 0.44724265
0.62143076 0.74068627 0.47107843
0.73419118 0.76348039 0.49705882
0.81996017 0.78284314 0.51626838
0.87156863 0.79509804 0.52843137
0.38253676 0.78578431 0.46881127
0.39672947 0.78186275 0.46862745
0.42945772 0.78167892 0.46881127
0.48382353 0.78560049 0.47794118
0.55873162 0.79353554 0.49574142
0.65226716 0.80889246 0.52114737
0.72859988 0.82179841 0.54215686
0.8036152 0.84068627 0.56464461
0.87009804 0.86354167 0.59136029
0.54264706 0.86029412 0.54117647
0.54705882 0.86648284 0.54313725
0.575 0.86948529 0.54791667
0.60245098 0.86666667 0.55539216
0.65220588 0.87254902 0.57107843
0.70882353 0.88088235 0.58915441
0.76482843 0.88431373 0.60379902
0.81795343 0.8877451 0.61354167
0.86519608 0.9122549 0.65980392
0.094117647 0.21176471 0.39019608
0.16372549 0.20784314 0.38823529
0.25147059 0.21029412 0.39607843
0.37647059 0.23823529 0.41029412
0.50294118 0.28627451 0.43333333
0.65857843 0.25808824 0.4622549
0.81372549 0.29313725 0.49313725
0.89093137 0.44338235 0.51813725
0.92941176 0.57254902 0.55098039
0.095098039 0.23284314 0.40563725
0.16859681 0.22696078 0.41127451
0.26911765 0.23106618 0.41476716
0.40784314 0.26969975 0.43333333
0.53308824 0.31936275 0.44963235
0.67803309 0.3245098 0.47377451
0.80294118 0.37083333 0.50355392
0.88529412 0.48872549 0.52748162
0.93186275 0.5877451 0.55465686
0.023529412 0.27058824 0.43872549
0.086580882 0.26893382 0.43878676
0.26066176 0.28823529 0.44436275
0.44497549 0.34601716 0.45974265
0.56544118 0.39632353 0.47377451
0.68823529 0.42457108 0.49313725
0.80490196 0.49215686 0.51813725
0.87181373 0.5627451 0.54068627
0.92254902 0.64803922 0.5745098
0.017647059 0.37843137 0.44044118
0.015686275 0.38416054 0.44696691
0.19485294 0.40073529 0.46084559
0.43897059 0.44454657 0.47965686
0.60257353 0.50539216 0.49730392
0.7083027 0.52870711 0.50980392
0.79816176 0.58382353 0.53161765
0.85637255 0.64381127 0.56053922
0.89607843 0.68529412 0.57965686
0.012745098 0.49607843 0.44313725
0.013357843 0.5067402 0.45098039
0.23553922 0.52181373 0.46004902
0.44203431 0.5497549 0.48553922
0.59460784 0.58676471 0.50784314
0.69460784 0.61715686 0.51642157
0.78676471 0.66715686 0.54607843
0.84803922 0.68590686 0.55428922
0.9 0.72941176 0.58039216
0.125 0.60980392 0.44852941
0.18072917 0.60793505 0.45597426
0.32303922 0.61960784 0.4629902
0.47135417 0.64068627 0.49065564
0.58357843 0.66605392 0.51078431
0.67941176 0.6879902 0.5221201
0.77034314 0.70980392 0.53431373
0.83872549 0.72760417 0.55
0.89019608 0.74852941 0.5620098
0.33137255 0.69656863 0.48137255
0.36427696 0.69852941 0.48180147
0.43051471 0.70710784 0.48627451
0.50931373 0.71813725 0.50349265
0.58357843 0.72941176 0.51838235
0.65716912 0.74761029 0.52959559
0.74742647 0.77058824 0.54693627
0.82965686 0.79221814 0.56617647
0.88235294 0.79803922 0.57009804
0.46838235 0.78186275 0.52009804
0.47772672 0.78011642 0.52058824
0.4903799 0.78051471 0.51421569
0.52990196 0.78792892 0.52117034
0.59509804 0.79534314 0.5370098
0.65931373 0.80667892 0.55073529
0.73621324 0.82696078 0.57181373
0.8129902 0.84610907 0.5953125
0.87009804 0.86348039 0.61495098
0.57254902 0.86666667 0.57254902
0.56838235 0.8625 0.57034314
0.5877451 0.86666667 0.5745098
0.57867647 0.83946078 0.55196078
0.64607843 0.85980392 0.58137255
0.7127451 0.88308824 0.61053922
0.76813725 0.89019608 0.62647059
0.82034314 0.88651961 0.63578431
0.87843137 0.91960784 0.69411765
0.13578431 0.22107843 0.51960784
0.20900735 0.21568627 0.52481618
0.3627451 0.23480392 0.54558824
0.49957108 0.27640931 0.54705882
0.61740196 0.41495098 0.5502451
0.71084559 0.48480392 0.56758578
0.78909314 0.48284314 0.57757353
0.86488971 0.51403186 0.58511029
0.9004902 0.56862745 0.59901961
0.175 0.24932598 0.53921569
0.23959865 0.2468367 0.53921569
0.36168811 0.26631434 0.546875
0.5169807 0.33927696 0.55343137
0.64289216 0.45833333 0.56176471
0.72634038 0.52402727 0.57273284
0.79362745 0.51237745 0.58333333
0.85833333 0.55349265 0.59279259
0.90833333 0.60900735 0.60686275
0.11127451 0.3122549 0.54889706
0.21813725 0.32941176 0.5522212
0.36078431 0.3408701 0.56066176
0.52970282 0.41450674 0.56911765
0.65006127 0.52420343 0.5723652
0.71591605 0.57084865 0.5790288
0.78379289 0.56835172 0.5872549
0.85441176 0.58860294 0.59558824
0.90931373 0.64754902 0.61862745
0.018872549 0.43235294 0.5495098
0.10368413 0.43682598 0.55343137
0.33203125 0.45637255 0.55735294
0.5098652 0.50484069 0.56707261
0.65027574 0.57870711 0.57941176
0.7222886 0.61954657 0.58633578
0.7745098 0.63143382 0.5939951
0.84503676 0.65637255 0.60716912
0.88780637 0.68970588 0.62107843
0.016421569 0.53676471 0.53897059
0.064552696 0.53676471 0.54157475
0.26188725 0.54460784 0.54093137
0.45465686 0.57104779 0.5546875
0.61875 0.63284314 0.57647059
0.72990196 0.67791054 0.59145221
0.78590686 0.6875 0.6057598
0.84019608 0.70980392 0.61749387
0.88357843 0.74313725 0.63676471
0.2098652 0.62941176 0.52990196
0.24155178 0.63008578 0.53235294
0.34538909 0.63273591 0.53714767
0.4812883 0.65170037 0.5564568
0.60242034 0.67640931 0.57037377
0.71029412 0.71029412 0.58872549
0.78379289 0.7301011 0.60330882
0.84362745 0.74993107 0.61862745
0.88535539 0.77457108 0.63431373
0.26139706 0.68884804 0.51519608
0.30672488 0.68916973 0.51888787
0.38529412 0.6958027 0.52331495
0.51294424 0.71813725 0.55330882
0.60857843 0.72941176 0.5629902
0.69048713 0.7557598 0.58702512
0.76605392 0.77870711 0.60438113
0.83506434 0.80333946 0.62254902
0.87843137 0.81764706 0.63823529
0.41519608 0.77401961 0.55098039
0.44430147 0.77401961 0.5470818
0.48051471 0.77401961 0.55235907
0.56292126 0.78571538 0.56685815
0.62466299 0.79730392 0.58299632
0.67794118 0.80813419 0.59026501
0.74764093 0.82941176 0.61078431
0.8245098 0.85153186 0.63351716
0.8745098 0.86372549 0.653125
0.56078431 0.86029412 0.59754902
0.57555147 0.86145833 0.60018382
0.58431373 0.85882353 0.6
0.63492647 0.86868873 0.61078431
0.65955882 0.86617647 0.6120098
0.7127451 0.88627451 0.62984069
0.77058824 0.89129902 0.6495098
0.8245098 0.89068627 0.67107843
0.86666667 0.89656863 0.68872549
0.31666667 0.29215686 0.63431373
0.38872549 0.31642157 0.63431373
0.4745098 0.31887255 0.64117647
0.59767157 0.41801471 0.64007353
0.7 0.5245098 0.64509804
0.76139706 0.6377451 0.64509804
0.80196078 0.64926471 0.64901961
0.84007353 0.63272059 0.64901961
0.88235294 0.64607843 0.65686275
0.36752451 0.33676471 0.64558824
0.39929534 0.34008885 0.64607843
0.4879902 0.37193627 0.64436275
0.6 0.44174326 0.64509804
0.70588235 0.54779412 0.64607843
0.76715686 0.6457261 0.64878983
0.80903799 0.6620098 0.65294118
0.85147059 0.65839461 0.65730699
0.89669118 0.67696078 0.6685049
0.3254902 0.40882353 0.63823529
0.38985907 0.41369485 0.63924632
0.48707108 0.43921569 0.640625
0.60526961 0.50784314 0.64436275
0.70122549 0.59473039 0.64509804
0.76568627 0.6745098 0.65404412
0.80196078 0.68553922 0.65533088
0.83716299 0.67683824 0.65686275
0.88529412 0.69509804 0.66470588
0.32536765 0.50588235 0.63370098
0.38529412 0.5069087 0.63370098
0.47120098 0.52058824 0.63360907
0.58970588 0.56885723 0.64261642
0.69166667 0.63186275 0.64901961
0.76176471 0.70496324 0.65441176
0.80490196 0.72588848 0.66360294
0.84666054 0.71487439 0.66501225
0.87941176 0.71911765 0.67254902
0.11519608 0.56764706 0.61421569
0.22175245 0.57377451 0.61231618
0.3622549 0.58296569 0.6192402
0.54564951 0.61329657 0.63082108
0.67156863 0.66593137 0.64142157
0.74883578 0.71887255 0.65330882
0.79889706 0.73982843 0.66470588
0.84001225 0.74117647 0.66911765
0.87058824 0.75588235 0.67647059
0.26360294 0.64852941 0.60588235
0.30551471 0.65252757 0.60588235
0.38109681 0.65428922 0.60588235
0.48763787 0.6627451 0.61358762
0.60612745 0.68946078 0.62671569
0.73097426 0.73241422 0.6504902
0.80294118 0.77650123 0.66988358
0.84594056 0.77768076 0.67665441
0.87879902 0.78823529 0.68578431
0.36470588 0.71960784 0.59705882
0.35137868 0.71188725 0.5885723
0.40784314 0.7125 0.58946078
0.49954044 0.72233456 0.60116422
0.60551471 0.73762255 0.61482843
0.70284926 0.76204044 0.63792892
0.7754902 0.78823529 0.65857843
0.84699755 0.8254902 0.68431373
0.88627451 0.82867647 0.69215686
0.33578431 0.76262255 0.57181373
0.37378983 0.76960784 0.57879902
0.42521446 0.76997549 0.58186275
0.50343137 0.77598039 0.59166667
0.61102941 0.79313725 0.61666667
0.68333333 0.80637255 0.62740502
0.76427696 0.83612132 0.65833333
0.83235294 0.85707721 0.68501838
0.88321078 0.87156863 0.70441176
0.51568627 0.8627451 0.6245098
0.51960784 0.86004902 0.62340686
0.5379902 0.85416667 0.6245098
0.58382353 0.85428922 0.62843137
0.64558824 0.86666667 0.64117647
0.71666667 0.88627451 0.66409314
0.76911765 0.88480392 0.67892157
0.83235294 0.90294118 0.70870098
0.88627451 0.92254902 0.74705882
0.54411765 0.47794118 0.71470588
0.56666667 0.47702206 0.71519608
0.62352941 0.51568627 0.71519608
0.67824755 0.55392157 0.71127451
0.75171569 0.63480392 0.71470588
0.80343137 0.70373775 0.71488971
0.83676471 0.76360294 0.71862745
0.85931373 0.76176471 0.71862745
0.87843137 0.74705882 0.71862745
0.55104167 0.49957108 0.71819853
0.57058824 0.50435049 0.71868107
0.62052696 0.53705576 0.71519608
0.68727788 0.58155637 0.71519608
0.75713848 0.64828431 0.71470588
0.80980392 0.71372549 0.71835937
0.83676471 0.7475337 0.71862745
0.85588235 0.76617647 0.72254902
0.87843137 0.75784314 0.72254902
0.55159314 0.55343137 0.71519608
0.56012561 0.55430453 0.71487439
0.61672794 0.57303922 0.71470588
0.68270527 0.61328125 0.71256127
0.75171569 0.66758578 0.71470588
0.80588235 0.72544424 0.71484375
0.83777574 0.76911765 0.72254902
0.8588848 0.76617647 0.71910233
0.87107843 0.76617647 0.7189951
0.53547794 0.60814951 0.71078431
0.54052543 0.60245098 0.71256127
0.60539216 0.61832108 0.70767463
0.67028952 0.64277727 0.70815717
0.74329044 0.69427083 0.71470588
0.80196078 0.74196538 0.71862745
0.83284314 0.78431373 0.72647059
0.85942096 0.79607843 0.72910539
0.87696078 0.78823529 0.72892157
0.45416667 0.63872549 0.69362745
0.47996324 0.64264706 0.6955576
0.54301471 0.65569853 0.69754902
0.6270527 0.67239583 0.6995098
0.71838235 0.7125 0.71115196
0.77156863 0.75401348 0.71755515
0.82598039 0.80594363 0.73137255
0.8588848 0.81816789 0.73823529
0.8745098 0.80710784 0.73823529
0.35079657 0.68627451 0.67598039
0.37843137 0.69019608 0.67971814
0.42959559 0.68650429 0.67781863
0.52788756 0.69901961 0.68615962
0.65294118 0.71985294 0.69656863
0.74852941 0.76029412 0.71244638
0.82463235 0.81692708 0.73431373
0.86323529 0.83204657 0.73872549
0.87971814 0.83333333 0.74215686
0.39497549 0.7439951 0.66801471
0.42161458 0.74411765 0.66818321
0.45811887 0.7439951 0.66678922
0.5239277 0.74722733 0.67161458
0.6125 0.76102941 0.68327206
0.70196078 0.77941176 0.69571078
0.79917279 0.82598039 0.72858456
0.86012561 0.85637255 0.74607843
0.88627451 0.85637255 0.75
0.42107843 0.7971201 0.65637255
0.43627451 0.79760263 0.65712316
0.46977635 0.79497549 0.66029412
0.53302696 0.80128676 0.66029412
0.61197917 0.80931373 0.6754902
0.67892157 0.81824449 0.685072
0.76597733 0.84509804 0.71487439
0.84754902 0.87189032 0.74650735
0.88186275 0.88333333 0.75784314
0.42941176 0.85539216 0.66078431
0.44160539 0.84761029 0.66078431
0.46617647 0.83958333 0.65686275
0.50931373 0.8536152 0.66029412
0.58676471 0.85367647 0.66813725
0.67941176 0.86078431 0.68823529
0.75980392 0.87242647 0.7192402
0.83627451 0.89803922 0.75435049
0.89019608 0.92598039 0.78921569
0.69803922 0.66666667 0.78823529
0.70931373 0.6627451 0.7877451
0.73333333 0.68137255 0.78823529
0.75931373 0.7004902 0.78431373
0.80196078 0.73529412 0.78431373
0.83676471 0.77401961 0.78039216
0.86372549 0.8127451 0.78039216
0.87892157 0.84803922 0.78088235
0.88235294 0.84313725 0.77647059
0.70637255 0.67843137 0.79215686
0.7127451 0.67702206 0.78823529
0.73982843 0.69656863 0.78823529
0.77322304 0.71832108 0.7903799
0.80196078 0.73921569 0.78406863
0.83284314 0.77401961 0.78008578
0.86262255 0.80833333 0.77683824
0.87843137 0.83529412 0.78039216
0.88627451 0.84705882 0.78431373
0.69411765 0.68921569 0.78823529
0.70330882 0.69362745 0.78872549
0.71642157 0.69362745 0.77916667
0.76139706 0.72401961 0.78431373
0.79656863 0.74705882 0.78431373
0.83492647 0.78615196 0.78247549
0.85196078 0.80073529 0.75588235
0.87843137 0.85392157 0.78431373
0.89019608 0.84705882 0.78431373
0.67843137 0.7122549 0.79215686
0.68609069 0.71207108 0.79068627
0.71752451 0.72487745 0.78970588
0.73719363 0.72542892 0.77640931
0.78823529 0.75808824 0.78357843
0.82205882 0.78229167 0.77150735
0.85882353 0.82634804 0.78578431
0.86844363 0.83547794 0.76207108
0.88235294 0.84656863 0.77598039
0.62156863 0.73137255 0.78039216
0.64803922 0.73504902 0.78406863
0.67352941 0.73872549 0.78382353
0.7122549 0.74509804 0.77843137
0.75 0.74803922 0.76470588
0.81519608 0.80147059 0.78431373
0.84607843 0.82892157 0.78137255
0.8745098 0.85686275 0.78406863
0.88235294 0.8627451 0.79019608
0.53823529 0.76617647 0.77647059
0.56176471 0.76617647 0.77696078
0.59754902 0.76617647 0.77647059
0.65931373 0.76862745 0.77984069
0.73063725 0.77990196 0.78578431
0.78731618 0.80202206 0.77555147
0.84803922 0.84411765 0.79509804
0.87714461 0.87205882 0.79215686
0.88627451 0.88382353 0.80147059
0.50196078 0.79705882 0.75196078
0.52377451 0.80147059 0.76348039
0.53921569 0.79313725 0.75294118
0.60539216 0.80098039 0.76862745
0.64215686 0.80196078 0.76470588
0.73333333 0.81029412 0.7682598
0.81666667 0.84803922 0.78823529
0.87401961 0.88284314 0.78872549
0.89019608 0.89803922 0.80686275
0.5372549 0.85588235 0.76862745
0.53431373 0.85196078 0.76470588
0.55637255 0.85061275 0.76470588
0.59509804 0.85324755 0.77009804
0.63578431 0.85196078 0.76887255
0.696875 0.85569853 0.78235294
0.76703431 0.86029412 0.77879902
0.83186275 0.88327206 0.80392157
0.88627451 0.90637255 0.80784314
0.56862745 0.90588235 0.78039216
0.57696078 0.90637255 0.78137255
0.56078431 0.87058824 0.76078431
0.61127451 0.89901961 0.78137255
0.64509804 0.88823529 0.76862745
0.71029412 0.91421569 0.8004902
0.76568627 0.88921569 0.79607843
0.82843137 0.89068627 0.80392157
0.89019608 0.92941176 0.81176471
