site/assets/luts/sha256-ef3c1648f916ab363c8226586502e61973d48dcf229119ee93af25a1b94d0285.cube
# LUTr-Schema-Version: 2
# LUTr-ID: sha256-ef3c1648f916ab363c8226586502e61973d48dcf229119ee93af25a1b94d0285
# LUTr-Title: fuji neopan acros 100
# LUTr-Collection: Natron HaldCLUT
# LUTr-Collection-ID: natron-haldclut-presets
# LUTr-Source: https://github.com/NatronGitHub/clut
# LUTr-Retrieved: 2026-07-27
# LUTr-Source-File: submissions/natron-haldclut-presets/bw/fuji_neopan_acros_100.png
# LUTr-Source-Format: HALD-PNG
# LUTr-Source-SHA256: ef3c1648f916ab363c8226586502e61973d48dcf229119ee93af25a1b94d0285
# LUTr-License: CC-BY-SA-4.0
# LUTr-License-URL: https://github.com/NatronGitHub/clut#license
# LUTr-License-Basis: repo-license-file
# LUTr-Transform-Class: film-emulation
# LUTr-Tags: creative, film, film-emulation, hald-clut, natron, png, black-and-white, cube
# LUTr-Input-Color-Space: srgb
# LUTr-Input-Gamut: rec709
# LUTr-Input-Transfer: srgb
# LUTr-Output-Color-Space: srgb
# LUTr-Output-Gamut: rec709
# LUTr-Output-Transfer: srgb
# LUTr-Color-Space-Confidence: assumed-display-referred
# LUTr-Domain-Normalized: true
# LUTr-Shaper: none
# LUTr-Original-Grid: 64x64x64
# LUTr-Conversion-Grid: 25x25x25
# LUTr-Conversion-Interpolation: trilinear
# LUTr-Conversion-Method: HALD-PNG LUT image decoded at 16-bit and sampled to 25x25x25 3D CUBE
# LUTr-Conversion-Tool: LUTr scripts/convert-all-to-cube.mjs 2.0.0
# LUTr-Conversion-Date: 2026-07-27
# LUTr-Note: Preserve this metadata and the upstream license notices when redistributing.
TITLE "fuji neopan acros 100"
LUT_3D_SIZE 9
DOMAIN_MIN 0 0 0
DOMAIN_MAX 1 1 1
0.02745098 0.02745098 0.02745098
0.019607843 0.019607843 0.019607843
0.026470588 0.026470588 0.026470588
0.053431373 0.053431373 0.053431373
0.088235294 0.088235294 0.088235294
0.11911765 0.11911765 0.11911765
0.14215686 0.14215686 0.14215686
0.18578431 0.18578431 0.18578431
0.23529412 0.23529412 0.23529412
0.085294118 0.085294118 0.085294118
0.084803922 0.084803922 0.084803922
0.095710784 0.095710784 0.095710784
0.11862745 0.11862745 0.11862745
0.14607843 0.14607843 0.14607843
0.18088235 0.18088235 0.18088235
0.20784314 0.20784314 0.20784314
0.25925245 0.25925245 0.25925245
0.30490196 0.30490196 0.30490196
0.15882353 0.15882353 0.15882353
0.16531863 0.16531863 0.16531863
0.1745098 0.1745098 0.1745098
0.19264706 0.19264706 0.19264706
0.21568627 0.21568627 0.21568627
0.2495098 0.2495098 0.2495098
0.28921569 0.28921569 0.28921569
0.34007353 0.34007353 0.34007353
0.38529412 0.38529412 0.38529412
0.25294118 0.25294118 0.25294118
0.26078431 0.26078431 0.26078431
0.27193627 0.27193627 0.27193627
0.28339461 0.28339461 0.28339461
0.30735294 0.30735294 0.30735294
0.33823529 0.33823529 0.33823529
0.37009804 0.37009804 0.37009804
0.41979167 0.41979167 0.41979167
0.46372549 0.46372549 0.46372549
0.36862745 0.36862745 0.36862745
0.37647059 0.37647059 0.37647059
0.38823529 0.38823529 0.38823529
0.39852941 0.39852941 0.39852941
0.41470588 0.41470588 0.41470588
0.43872549 0.43872549 0.43872549
0.46617647 0.46617647 0.46617647
0.50833333 0.50833333 0.50833333
0.53333333 0.53333333 0.53333333
0.49215686 0.49215686 0.49215686
0.50343137 0.50343137 0.50343137
0.51176471 0.51176471 0.51176471
0.52352941 0.52352941 0.52352941
0.53529412 0.53529412 0.53529412
0.54613971 0.54613971 0.54613971
0.56617647 0.56617647 0.56617647
0.58872549 0.58872549 0.58872549
0.60686275 0.60686275 0.60686275
0.62058824 0.62058824 0.62058824
0.62745098 0.62745098 0.62745098
0.63921569 0.63921569 0.63921569
0.64705882 0.64705882 0.64705882
0.65490196 0.65490196 0.65490196
0.6627451 0.6627451 0.6627451
0.6752451 0.6752451 0.6752451
0.68933824 0.68933824 0.68933824
0.69705882 0.69705882 0.69705882
0.74313725 0.74313725 0.74313725
0.74705882 0.74705882 0.74705882
0.75870098 0.75870098 0.75870098
0.76617647 0.76617647 0.76617647
0.77058824 0.77058824 0.77058824
0.77971814 0.77971814 0.77971814
0.79019608 0.79019608 0.79019608
0.79803922 0.79803922 0.79803922
0.80196078 0.80196078 0.80196078
0.83529412 0.83529412 0.83529412
0.83921569 0.83921569 0.83921569
0.85392157 0.85392157 0.85392157
0.85490196 0.85490196 0.85490196
0.85882353 0.85882353 0.85882353
0.87205882 0.87205882 0.87205882
0.89901961 0.89901961 0.89901961
0.89901961 0.89901961 0.89901961
0.90588235 0.90588235 0.90588235
0.035294118 0.035294118 0.035294118
0.027879902 0.027879902 0.027879902
0.034313725 0.034313725 0.034313725
0.041666667 0.041666667 0.041666667
0.084313725 0.084313725 0.084313725
0.11893382 0.11893382 0.11893382
0.15294118 0.15294118 0.15294118
0.19178922 0.19178922 0.19178922
0.25098039 0.25098039 0.25098039
0.092708333 0.092708333 0.092708333
0.093022365 0.093022365 0.093022365
0.10096507 0.10096507 0.10096507
0.1162837 0.1162837 0.1162837
0.14558824 0.14558824 0.14558824
0.1780867 0.1780867 0.1780867
0.21246936 0.21246936 0.21246936
0.2613894 0.2613894 0.2613894
0.31268382 0.31268382 0.31268382
0.16654412 0.16654412 0.16654412
0.17035846 0.17035846 0.17035846
0.18137255 0.18137255 0.18137255
0.19928002 0.19928002 0.19928002
0.2223652 0.2223652 0.2223652
0.25433517 0.25433517 0.25433517
0.29387255 0.29387255 0.29387255
0.34276961 0.34276961 0.34276961
0.38627451 0.38627451 0.38627451
0.26047794 0.26047794 0.26047794
0.26832108 0.26832108 0.26832108
0.27743566 0.27743566 0.27743566
0.2881204 0.2881204 0.2881204
0.31127451 0.31127451 0.31127451
0.34215686 0.34215686 0.34215686
0.38065257 0.38065257 0.38065257
0.42395833 0.42395833 0.42395833
0.45980392 0.45980392 0.45980392
0.37622549 0.37622549 0.37622549
0.38360907 0.38360907 0.38360907
0.39099265 0.39099265 0.39099265
0.39990809 0.39990809 0.39990809
0.41666667 0.41666667 0.41666667
0.44240196 0.44240196 0.44240196
0.47567402 0.47567402 0.47567402
0.51246936 0.51246936 0.51246936
0.53504902 0.53504902 0.53504902
0.5 0.5 0.5
0.50692402 0.50692402 0.50692402
0.51470588 0.51470588 0.51470588
0.52352941 0.52352941 0.52352941
0.53333333 0.53333333 0.53333333
0.54460784 0.54460784 0.54460784
0.57267157 0.57267157 0.57267157
0.59501379 0.59501379 0.59501379
0.60686275 0.60686275 0.60686275
0.62745098 0.62745098 0.62745098
0.63132659 0.63132659 0.63132659
0.63921569 0.63921569 0.63921569
0.6495098 0.6495098 0.6495098
0.65618873 0.65618873 0.65618873
0.6626685 0.6626685 0.6626685
0.67356005 0.67356005 0.67356005
0.68541667 0.68541667 0.68541667
0.69803922 0.69803922 0.69803922
0.74705882 0.74705882 0.74705882
0.75473346 0.75473346 0.75473346
0.7627451 0.7627451 0.7627451
0.77009804 0.77009804 0.77009804
0.77208946 0.77208946 0.77208946
0.77843137 0.77843137 0.77843137
0.78627451 0.78627451 0.78627451
0.79846814 0.79846814 0.79846814
0.80980392 0.80980392 0.80980392
0.83921569 0.83921569 0.83921569
0.84699755 0.84699755 0.84699755
0.85882353 0.85882353 0.85882353
0.86011029 0.86011029 0.86011029
0.86053922 0.86053922 0.86053922
0.87420343 0.87420343 0.87420343
0.88590686 0.88590686 0.88590686
0.89803922 0.89803922 0.89803922
0.925 0.925 0.925
0.02745098 0.02745098 0.02745098
0.019730392 0.019730392 0.019730392
0.042156863 0.042156863 0.042156863
0.05245098 0.05245098 0.05245098
0.076470588 0.076470588 0.076470588
0.12732843 0.12732843 0.12732843
0.16176471 0.16176471 0.16176471
0.22745098 0.22745098 0.22745098
0.27745098 0.27745098 0.27745098
0.096936275 0.096936275 0.096936275
0.096568627 0.096568627 0.096568627
0.10477941 0.10477941 0.10477941
0.12268689 0.12268689 0.12268689
0.1495098 0.1495098 0.1495098
0.18609069 0.18609069 0.18609069
0.22417279 0.22417279 0.22417279
0.28137255 0.28137255 0.28137255
0.33492647 0.33492647 0.33492647
0.18210784 0.18210784 0.18210784
0.18137255 0.18137255 0.18137255
0.18694853 0.18694853 0.18694853
0.20370711 0.20370711 0.20370711
0.22647059 0.22647059 0.22647059
0.25916054 0.25916054 0.25916054
0.30355392 0.30355392 0.30355392
0.34803922 0.34803922 0.34803922
0.39411765 0.39411765 0.39411765
0.27193627 0.27193627 0.27193627
0.2834712 0.2834712 0.2834712
0.28933824 0.28933824 0.28933824
0.30068934 0.30068934 0.30068934
0.31893382 0.31893382 0.31893382
0.34977022 0.34977022 0.34977022
0.38946078 0.38946078 0.38946078
0.4277114 0.4277114 0.4277114
0.4504902 0.4504902 0.4504902
0.38823529 0.38823529 0.38823529
0.39552696 0.39552696 0.39552696
0.39938725 0.39938725 0.39938725
0.40710784 0.40710784 0.40710784
0.42328431 0.42328431 0.42328431
0.4504902 0.4504902 0.4504902
0.48529412 0.48529412 0.48529412
0.52009804 0.52009804 0.52009804
0.5372549 0.5372549 0.5372549
0.51176471 0.51176471 0.51176471
0.51568627 0.51568627 0.51568627
0.51835172 0.51835172 0.51835172
0.52352941 0.52352941 0.52352941
0.53333333 0.53333333 0.53333333
0.55098039 0.55098039 0.55098039
0.58186275 0.58186275 0.58186275
0.604856 0.604856 0.604856
0.61188725 0.61188725 0.61188725
0.63529412 0.63529412 0.63529412
0.63921569 0.63921569 0.63921569
0.64142157 0.64142157 0.64142157
0.64705882 0.64705882 0.64705882
0.65686275 0.65686275 0.65686275
0.6627451 0.6627451 0.6627451
0.6752451 0.6752451 0.6752451
0.69258578 0.69258578 0.69258578
0.70490196 0.70490196 0.70490196
0.75747549 0.75747549 0.75747549
0.76251532 0.76251532 0.76251532
0.76666667 0.76666667 0.76666667
0.77120098 0.77120098 0.77120098
0.778125 0.778125 0.778125
0.78377757 0.78377757 0.78377757
0.79093137 0.79093137 0.79093137
0.8046875 0.8046875 0.8046875
0.81764706 0.81764706 0.81764706
0.85392157 0.85392157 0.85392157
0.86139706 0.86139706 0.86139706
0.88039216 0.88039216 0.88039216
0.87058824 0.87058824 0.87058824
0.86813725 0.86813725 0.86813725
0.88345588 0.88345588 0.88345588
0.89803922 0.89803922 0.89803922
0.91323529 0.91323529 0.91323529
0.91372549 0.91372549 0.91372549
0.031372549 0.031372549 0.031372549
0.029595588 0.029595588 0.029595588
0.042769608 0.042769608 0.042769608
0.057352941 0.057352941 0.057352941
0.078921569 0.078921569 0.078921569
0.11127451 0.11127451 0.11127451
0.15698529 0.15698529 0.15698529
0.24803922 0.24803922 0.24803922
0.30441176 0.30441176 0.30441176
0.10833333 0.10833333 0.10833333
0.10471814 0.10471814 0.10471814
0.11216299 0.11216299 0.11216299
0.13039216 0.13039216 0.13039216
0.15735294 0.15735294 0.15735294
0.18854167 0.18854167 0.18854167
0.22703738 0.22703738 0.22703738
0.29807751 0.29807751 0.29807751
0.34460784 0.34460784 0.34460784
0.19313725 0.19313725 0.19313725
0.19313725 0.19313725 0.19313725
0.19641544 0.19641544 0.19641544
0.21427696 0.21427696 0.21427696
0.23492647 0.23492647 0.23492647
0.26801471 0.26801471 0.26801471
0.30900735 0.30900735 0.30900735
0.35546875 0.35546875 0.35546875
0.3754902 0.3754902 0.3754902
0.28186275 0.28186275 0.28186275
0.29296109 0.29296109 0.29296109
0.29754902 0.29754902 0.29754902
0.31142004 0.31142004 0.31142004
0.33060662 0.33060662 0.33060662
0.35784314 0.35784314 0.35784314
0.39546569 0.39546569 0.39546569
0.42745098 0.42745098 0.42745098
0.43235294 0.43235294 0.43235294
0.39730392 0.39730392 0.39730392
0.40186887 0.40186887 0.40186887
0.40392157 0.40392157 0.40392157
0.41645221 0.41645221 0.41645221
0.43198529 0.43198529 0.43198529
0.45833333 0.45833333 0.45833333
0.48670343 0.48670343 0.48670343
0.51568627 0.51568627 0.51568627
0.52352941 0.52352941 0.52352941
0.51960784 0.51960784 0.51960784
0.51960784 0.51960784 0.51960784
0.52251838 0.52251838 0.52251838
0.52840839 0.52840839 0.52840839
0.5377451 0.5377451 0.5377451
0.55755974 0.55755974 0.55755974
0.58147978 0.58147978 0.58147978
0.60844822 0.60844822 0.60844822
0.61617647 0.61617647 0.61617647
0.63921569 0.63921569 0.63921569
0.64136029 0.64136029 0.64136029
0.64313725 0.64313725 0.64313725
0.64705882 0.64705882 0.64705882
0.65294118 0.65294118 0.65294118
0.66605392 0.66605392 0.66605392
0.68235294 0.68235294 0.68235294
0.70753676 0.70753676 0.70753676
0.71519608 0.71519608 0.71519608
0.7627451 0.7627451 0.7627451
0.7662837 0.7662837 0.7662837
0.76643689 0.76643689 0.76643689
0.77058824 0.77058824 0.77058824
0.77735907 0.77735907 0.77735907
0.7877451 0.7877451 0.7877451
0.79803922 0.79803922 0.79803922
0.805553 0.805553 0.805553
0.81194853 0.81194853 0.81194853
0.85882353 0.85882353 0.85882353
0.86666667 0.86666667 0.86666667
0.87267157 0.87267157 0.87267157
0.87696078 0.87696078 0.87696078
0.88480392 0.88480392 0.88480392
0.89019608 0.89019608 0.89019608
0.89019608 0.89019608 0.89019608
0.89589461 0.89589461 0.89589461
0.90196078 0.90196078 0.90196078
0.023529412 0.023529412 0.023529412
0.044607843 0.044607843 0.044607843
0.055392157 0.055392157 0.055392157
0.063235294 0.063235294 0.063235294
0.090196078 0.090196078 0.090196078
0.12254902 0.12254902 0.12254902
0.17254902 0.17254902 0.17254902
0.22867647 0.22867647 0.22867647
0.32156863 0.32156863 0.32156863
0.10833333 0.10833333 0.10833333
0.11026348 0.11026348 0.11026348
0.12181373 0.12181373 0.12181373
0.14215686 0.14215686 0.14215686
0.16727941 0.16727941 0.16727941
0.20392157 0.20392157 0.20392157
0.2379902 0.2379902 0.2379902
0.29368873 0.29368873 0.29368873
0.3504902 0.3504902 0.3504902
0.20098039 0.20098039 0.20098039
0.20098039 0.20098039 0.20098039
0.20784314 0.20784314 0.20784314
0.22965686 0.22965686 0.22965686
0.25294118 0.25294118 0.25294118
0.28333333 0.28333333 0.28333333
0.31960784 0.31960784 0.31960784
0.36544118 0.36544118 0.36544118
0.37990196 0.37990196 0.37990196
0.29166667 0.29166667 0.29166667
0.29745711 0.29745711 0.29745711
0.30808824 0.30808824 0.30808824
0.3254902 0.3254902 0.3254902
0.34852941 0.34852941 0.34852941
0.37352941 0.37352941 0.37352941
0.40441176 0.40441176 0.40441176
0.43112745 0.43112745 0.43112745
0.43284314 0.43284314 0.43284314
0.40392157 0.40392157 0.40392157
0.40686275 0.40686275 0.40686275
0.41642157 0.41642157 0.41642157
0.43161765 0.43161765 0.43161765
0.44313725 0.44313725 0.44313725
0.46617647 0.46617647 0.46617647
0.49313725 0.49313725 0.49313725
0.52009804 0.52009804 0.52009804
0.52941176 0.52941176 0.52941176
0.52352941 0.52352941 0.52352941
0.52352941 0.52352941 0.52352941
0.53229167 0.53229167 0.53229167
0.54240196 0.54240196 0.54240196
0.54889706 0.54889706 0.54889706
0.56050858 0.56050858 0.56050858
0.58382353 0.58382353 0.58382353
0.6127451 0.6127451 0.6127451
0.62867647 0.62867647 0.62867647
0.64705882 0.64705882 0.64705882
0.64705882 0.64705882 0.64705882
0.65098039 0.65098039 0.65098039
0.65490196 0.65490196 0.65490196
0.65882353 0.65882353 0.65882353
0.66832108 0.66832108 0.66832108
0.68321078 0.68321078 0.68321078
0.71305147 0.71305147 0.71305147
0.73088235 0.73088235 0.73088235
0.77058824 0.77058824 0.77058824
0.77254902 0.77254902 0.77254902
0.7745098 0.7745098 0.7745098
0.7745098 0.7745098 0.7745098
0.78137255 0.78137255 0.78137255
0.79093137 0.79093137 0.79093137
0.79846814 0.79846814 0.79846814
0.81393995 0.81393995 0.81393995
0.83308824 0.83308824 0.83308824
0.86862745 0.86862745 0.86862745
0.87254902 0.87254902 0.87254902
0.88529412 0.88529412 0.88529412
0.88186275 0.88186275 0.88186275
0.88627451 0.88627451 0.88627451
0.89142157 0.89142157 0.89142157
0.89264706 0.89264706 0.89264706
0.90637255 0.90637255 0.90637255
0.9372549 0.9372549 0.9372549
0.044607843 0.044607843 0.044607843
0.05245098 0.05245098 0.05245098
0.067156863 0.067156863 0.067156863
0.085355392 0.085355392 0.085355392
0.10465686 0.10465686 0.10465686
0.14019608 0.14019608 0.14019608
0.19522059 0.19522059 0.19522059
0.24215686 0.24215686 0.24215686
0.3372549 0.3372549 0.3372549
0.12009804 0.12009804 0.12009804
0.12028186 0.12028186 0.12028186
0.13319547 0.13319547 0.13319547
0.15177696 0.15177696 0.15177696
0.17588848 0.17588848 0.17588848
0.20862439 0.20862439 0.20862439
0.25891544 0.25891544 0.25891544
0.31170343 0.31170343 0.31170343
0.37567402 0.37567402 0.37567402
0.20882353 0.20882353 0.20882353
0.20882353 0.20882353 0.20882353
0.21605392 0.21605392 0.21605392
0.23927696 0.23927696 0.23927696
0.26568627 0.26568627 0.26568627
0.29656863 0.29656863 0.29656863
0.33189338 0.33189338 0.33189338
0.3808364 0.3808364 0.3808364
0.42009804 0.42009804 0.42009804
0.30294118 0.30294118 0.30294118
0.30631127 0.30631127 0.30631127
0.31678922 0.31678922 0.31678922
0.33563879 0.33563879 0.33563879
0.35833333 0.35833333 0.35833333
0.38529412 0.38529412 0.38529412
0.41349571 0.41349571 0.41349571
0.4463848 0.4463848 0.4463848
0.4838848 0.4838848 0.4838848
0.41446078 0.41446078 0.41446078
0.41568627 0.41568627 0.41568627
0.42573529 0.42573529 0.42573529
0.44209559 0.44209559 0.44209559
0.45919118 0.45919118 0.45919118
0.47794118 0.47794118 0.47794118
0.50153186 0.50153186 0.50153186
0.5265625 0.5265625 0.5265625
0.55906863 0.55906863 0.55906863
0.534375 0.534375 0.534375
0.53284314 0.53284314 0.53284314
0.53990502 0.53990502 0.53990502
0.55042892 0.55042892 0.55042892
0.56050858 0.56050858 0.56050858
0.57359069 0.57359069 0.57359069
0.59509804 0.59509804 0.59509804
0.62028186 0.62028186 0.62028186
0.63970588 0.63970588 0.63970588
0.65637255 0.65637255 0.65637255
0.65526961 0.65526961 0.65526961
0.65882353 0.65882353 0.65882353
0.6627451 0.6627451 0.6627451
0.67113971 0.67113971 0.67113971
0.6805913 0.6805913 0.6805913
0.69365809 0.69365809 0.69365809
0.71456801 0.71456801 0.71456801
0.73382353 0.73382353 0.73382353
0.78235294 0.78235294 0.78235294
0.78253676 0.78253676 0.78253676
0.78235294 0.78235294 0.78235294
0.78235294 0.78235294 0.78235294
0.78480392 0.78480392 0.78480392
0.79393382 0.79393382 0.79393382
0.79836091 0.79836091 0.79836091
0.81111366 0.81111366 0.81111366
0.83039216 0.83039216 0.83039216
0.88235294 0.88235294 0.88235294
0.88627451 0.88627451 0.88627451
0.90098039 0.90098039 0.90098039
0.87598039 0.87598039 0.87598039
0.87720588 0.87720588 0.87720588
0.87751225 0.87751225 0.87751225
0.88333333 0.88333333 0.88333333
0.9 0.9 0.9
0.93480392 0.93480392 0.93480392
0.054901961 0.054901961 0.054901961
0.062254902 0.062254902 0.062254902
0.07254902 0.07254902 0.07254902
0.096568627 0.096568627 0.096568627
0.12745098 0.12745098 0.12745098
0.15441176 0.15441176 0.15441176
0.19313725 0.19313725 0.19313725
0.26813725 0.26813725 0.26813725
0.33333333 0.33333333 0.33333333
0.12928922 0.12928922 0.12928922
0.13196998 0.13196998 0.13196998
0.1426777 0.1426777 0.1426777
0.16568627 0.16568627 0.16568627
0.19362745 0.19362745 0.19362745
0.22464767 0.22464767 0.22464767
0.26715686 0.26715686 0.26715686
0.3254902 0.3254902 0.3254902
0.38333333 0.38333333 0.38333333
0.22156863 0.22156863 0.22156863
0.22058824 0.22058824 0.22058824
0.22745098 0.22745098 0.22745098
0.2504902 0.2504902 0.2504902
0.27745098 0.27745098 0.27745098
0.30465686 0.30465686 0.30465686
0.34172794 0.34172794 0.34172794
0.39500613 0.39500613 0.39500613
0.44509804 0.44509804 0.44509804
0.32169118 0.32169118 0.32169118
0.32169118 0.32169118 0.32169118
0.33118873 0.33118873 0.33118873
0.351731 0.351731 0.351731
0.36985294 0.36985294 0.36985294
0.39313725 0.39313725 0.39313725
0.42401961 0.42401961 0.42401961
0.46433824 0.46433824 0.46433824
0.51078431 0.51078431 0.51078431
0.42843137 0.42843137 0.42843137
0.42990196 0.42990196 0.42990196
0.44117647 0.44117647 0.44117647
0.45661765 0.45661765 0.45661765
0.47205882 0.47205882 0.47205882
0.4875 0.4875 0.4875
0.50980392 0.50980392 0.50980392
0.54068627 0.54068627 0.54068627
0.57352941 0.57352941 0.57352941
0.54375 0.54375 0.54375
0.54705882 0.54705882 0.54705882
0.55324755 0.55324755 0.55324755
0.55879289 0.55879289 0.55879289
0.5721201 0.5721201 0.5721201
0.58757659 0.58757659 0.58757659
0.60621936 0.60621936 0.60621936
0.62928922 0.62928922 0.62928922
0.65183824 0.65183824 0.65183824
0.66593137 0.66593137 0.66593137
0.66666667 0.66666667 0.66666667
0.66930147 0.66930147 0.66930147
0.67285539 0.67285539 0.67285539
0.68198529 0.68198529 0.68198529
0.69439338 0.69439338 0.69439338
0.70514706 0.70514706 0.70514706
0.72585784 0.72585784 0.72585784
0.74803922 0.74803922 0.74803922
0.78627451 0.78627451 0.78627451
0.78627451 0.78627451 0.78627451
0.79145221 0.79145221 0.79145221
0.7910386 0.7910386 0.7910386
0.8028799 0.8028799 0.8028799
0.79644608 0.79644608 0.79644608
0.80379902 0.80379902 0.80379902
0.82167586 0.82167586 0.82167586
0.83811275 0.83811275 0.83811275
0.88235294 0.88235294 0.88235294
0.88627451 0.88627451 0.88627451
0.90098039 0.90098039 0.90098039
0.91372549 0.91372549 0.91372549
0.89656863 0.89656863 0.89656863
0.88688725 0.88688725 0.88688725
0.89607843 0.89607843 0.89607843
0.92303922 0.92303922 0.92303922
0.91960784 0.91960784 0.91960784
0.054901961 0.054901961 0.054901961
0.062316176 0.062316176 0.062316176
0.075 0.075 0.075
0.10471814 0.10471814 0.10471814
0.14264706 0.14264706 0.14264706
0.16617647 0.16617647 0.16617647
0.19901961 0.19901961 0.19901961
0.284375 0.284375 0.284375
0.32352941 0.32352941 0.32352941
0.14362745 0.14362745 0.14362745
0.14405637 0.14405637 0.14405637
0.1560815 0.1560815 0.1560815
0.17391238 0.17391238 0.17391238
0.20462623 0.20462623 0.20462623
0.23529412 0.23529412 0.23529412
0.27113971 0.27113971 0.27113971
0.33682598 0.33682598 0.33682598
0.39160539 0.39160539 0.39160539
0.24056373 0.24056373 0.24056373
0.23665748 0.23665748 0.23665748
0.24313725 0.24313725 0.24313725
0.26239277 0.26239277 0.26239277
0.28529412 0.28529412 0.28529412
0.3122549 0.3122549 0.3122549
0.34509804 0.34509804 0.34509804
0.40675551 0.40675551 0.40675551
0.45686275 0.45686275 0.45686275
0.34332108 0.34332108 0.34332108
0.34332108 0.34332108 0.34332108
0.35058211 0.35058211 0.35058211
0.3678462 0.3678462 0.3678462
0.38112745 0.38112745 0.38112745
0.39705882 0.39705882 0.39705882
0.43590686 0.43590686 0.43590686
0.48053768 0.48053768 0.48053768
0.52254902 0.52254902 0.52254902
0.44926471 0.44926471 0.44926471
0.44905025 0.44905025 0.44905025
0.45686275 0.45686275 0.45686275
0.46608456 0.46608456 0.46608456
0.48443627 0.48443627 0.48443627
0.49901961 0.49901961 0.49901961
0.52843137 0.52843137 0.52843137
0.56372549 0.56372549 0.56372549
0.59044118 0.59044118 0.59044118
0.55520833 0.55520833 0.55520833
0.55882353 0.55882353 0.55882353
0.56458333 0.56458333 0.56458333
0.56923254 0.56923254 0.56923254
0.58578431 0.58578431 0.58578431
0.60127145 0.60127145 0.60127145
0.62107843 0.62107843 0.62107843
0.64438572 0.64438572 0.64438572
0.66764706 0.66764706 0.66764706
0.67058824 0.67058824 0.67058824
0.67438725 0.67438725 0.67438725
0.67843137 0.67843137 0.67843137
0.68235294 0.68235294 0.68235294
0.69166667 0.69166667 0.69166667
0.70490196 0.70490196 0.70490196
0.7127451 0.7127451 0.7127451
0.73316483 0.73316483 0.73316483
0.75980392 0.75980392 0.75980392
0.79368873 0.79368873 0.79368873
0.79411765 0.79411765 0.79411765
0.79840686 0.79840686 0.79840686
0.80588235 0.80588235 0.80588235
0.80759804 0.80759804 0.80759804
0.81329657 0.81329657 0.81329657
0.81727941 0.81727941 0.81727941
0.83339461 0.83339461 0.83339461
0.84852941 0.84852941 0.84852941
0.89068627 0.89068627 0.89068627
0.89803922 0.89803922 0.89803922
0.91409314 0.91409314 0.91409314
0.90765931 0.90765931 0.90765931
0.89240196 0.89240196 0.89240196
0.90637255 0.90637255 0.90637255
0.91115196 0.91115196 0.91115196
0.9377451 0.9377451 0.9377451
0.92990196 0.92990196 0.92990196
0.062745098 0.062745098 0.062745098
0.074019608 0.074019608 0.074019608
0.08627451 0.08627451 0.08627451
0.1122549 0.1122549 0.1122549
0.14313725 0.14313725 0.14313725
0.17009804 0.17009804 0.17009804
0.20588235 0.20588235 0.20588235
0.31568627 0.31568627 0.31568627
0.42352941 0.42352941 0.42352941
0.14754902 0.14754902 0.14754902
0.15147059 0.15147059 0.15147059
0.16617647 0.16617647 0.16617647
0.17892157 0.17892157 0.17892157
0.20490196 0.20490196 0.20490196
0.23529412 0.23529412 0.23529412
0.275 0.275 0.275
0.34558824 0.34558824 0.34558824
0.43872549 0.43872549 0.43872549
0.24803922 0.24803922 0.24803922
0.24803922 0.24803922 0.24803922
0.25416667 0.25416667 0.25416667
0.27340686 0.27340686 0.27340686
0.28529412 0.28529412 0.28529412
0.31115196 0.31115196 0.31115196
0.34509804 0.34509804 0.34509804
0.41078431 0.41078431 0.41078431
0.47352941 0.47352941 0.47352941
0.34852941 0.34852941 0.34852941
0.35226716 0.35226716 0.35226716
0.36029412 0.36029412 0.36029412
0.37359069 0.37359069 0.37359069
0.37990196 0.37990196 0.37990196
0.39705882 0.39705882 0.39705882
0.43860294 0.43860294 0.43860294
0.49852941 0.49852941 0.49852941
0.53676471 0.53676471 0.53676471
0.45294118 0.45294118 0.45294118
0.45294118 0.45294118 0.45294118
0.45980392 0.45980392 0.45980392
0.47377451 0.47377451 0.47377451
0.48627451 0.48627451 0.48627451
0.50269608 0.50269608 0.50269608
0.53235294 0.53235294 0.53235294
0.57696078 0.57696078 0.57696078
0.6 0.6 0.6
0.55882353 0.55882353 0.55882353
0.55882353 0.55882353 0.55882353
0.56127451 0.56127451 0.56127451
0.5754902 0.5754902 0.5754902
0.59338235 0.59338235 0.59338235
0.61072304 0.61072304 0.61072304
0.62463235 0.62463235 0.62463235
0.64785539 0.64785539 0.64785539
0.67352941 0.67352941 0.67352941
0.67058824 0.67058824 0.67058824
0.67058824 0.67058824 0.67058824
0.67745098 0.67745098 0.67745098
0.68627451 0.68627451 0.68627451
0.70147059 0.70147059 0.70147059
0.70698529 0.70698529 0.70698529
0.7129902 0.7129902 0.7129902
0.73676471 0.73676471 0.73676471
0.76372549 0.76372549 0.76372549
0.79019608 0.79019608 0.79019608
0.79411765 0.79411765 0.79411765
0.79840686 0.79840686 0.79840686
0.80980392 0.80980392 0.80980392
0.81764706 0.81764706 0.81764706
0.8254902 0.8254902 0.8254902
0.8254902 0.8254902 0.8254902
0.8377451 0.8377451 0.8377451
0.85245098 0.85245098 0.85245098
0.89019608 0.89019608 0.89019608
0.89754902 0.89754902 0.89754902
0.9127451 0.9127451 0.9127451
0.91372549 0.91372549 0.91372549
0.92352941 0.92352941 0.92352941
0.93186275 0.93186275 0.93186275
0.91764706 0.91764706 0.91764706
0.92990196 0.92990196 0.92990196
0.92941176 0.92941176 0.92941176
