site/assets/luts/sha256-57b39e5b4cb84ba54ecd3712c434b1d9969af3e82cbfe1eb7d3f892489345c31.cube
# LUTr-Schema-Version: 2
# LUTr-ID: sha256-57b39e5b4cb84ba54ecd3712c434b1d9969af3e82cbfe1eb7d3f892489345c31
# LUTr-Title: fuji ilford delta 3200 +
# LUTr-Collection: Natron HaldCLUT
# LUTr-Collection-ID: natron-haldclut-presets
# LUTr-Source: https://github.com/NatronGitHub/clut
# LUTr-Retrieved: 2026-07-27
# LUTr-Source-File: submissions/natron-haldclut-presets/negative_old/fuji_ilford_delta_3200_+.png
# LUTr-Source-Format: HALD-PNG
# LUTr-Source-SHA256: 57b39e5b4cb84ba54ecd3712c434b1d9969af3e82cbfe1eb7d3f892489345c31
# LUTr-License: CC-BY-SA-4.0
# LUTr-License-URL: https://github.com/NatronGitHub/clut#license
# LUTr-License-Basis: repo-license-file
# LUTr-Transform-Class: film-emulation
# LUTr-Tags: creative, film, film-emulation, hald-clut, natron, png, cube
# LUTr-Input-Color-Space: srgb
# LUTr-Input-Gamut: rec709
# LUTr-Input-Transfer: srgb
# LUTr-Output-Color-Space: srgb
# LUTr-Output-Gamut: rec709
# LUTr-Output-Transfer: srgb
# LUTr-Color-Space-Confidence: assumed-display-referred
# LUTr-Domain-Normalized: true
# LUTr-Shaper: none
# LUTr-Original-Grid: 64x64x64
# LUTr-Conversion-Grid: 25x25x25
# LUTr-Conversion-Interpolation: trilinear
# LUTr-Conversion-Method: HALD-PNG LUT image decoded at 16-bit and sampled to 25x25x25 3D CUBE
# LUTr-Conversion-Tool: LUTr scripts/convert-all-to-cube.mjs 2.0.0
# LUTr-Conversion-Date: 2026-07-27
# LUTr-Note: Preserve this metadata and the upstream license notices when redistributing.
TITLE "fuji ilford delta 3200 +"
LUT_3D_SIZE 25
DOMAIN_MIN 0 0 0
DOMAIN_MAX 1 1 1
0.10980392 0.10980392 0.10980392
0.10980392 0.10980392 0.10980392
0.10980392 0.10980392 0.10980392
0.10588235 0.10588235 0.10588235
0.10588235 0.10588235 0.10588235
0.10588235 0.10588235 0.10588235
0.1127451 0.1127451 0.1127451
0.1245098 0.1245098 0.1245098
0.1372549 0.1372549 0.1372549
0.14754902 0.14754902 0.14754902
0.15784314 0.15784314 0.15784314
0.16813725 0.16813725 0.16813725
0.18431373 0.18431373 0.18431373
0.22156863 0.22156863 0.22156863
0.24215686 0.24215686 0.24215686
0.25294118 0.25294118 0.25294118
0.29019608 0.29019608 0.29019608
0.32745098 0.32745098 0.32745098
0.36372549 0.36372549 0.36372549
0.39460784 0.39460784 0.39460784
0.43333333 0.43333333 0.43333333
0.47647059 0.47647059 0.47647059
0.52058824 0.52058824 0.52058824
0.56127451 0.56127451 0.56127451
0.58823529 0.58823529 0.58823529
0.11372549 0.11372549 0.11372549
0.11280637 0.11280637 0.11280637
0.10980392 0.10980392 0.10980392
0.10980392 0.10980392 0.10980392
0.10833333 0.10833333 0.10833333
0.10833333 0.10833333 0.10833333
0.11519608 0.11519608 0.11519608
0.1278799 0.1278799 0.1278799
0.14117647 0.14117647 0.14117647
0.15392157 0.15392157 0.15392157
0.16421569 0.16421569 0.16421569
0.1745098 0.1745098 0.1745098
0.19142157 0.19142157 0.19142157
0.225 0.225 0.225
0.24215686 0.24215686 0.24215686
0.26176471 0.26176471 0.26176471
0.29656863 0.29656863 0.29656863
0.33045343 0.33045343 0.33045343
0.36372549 0.36372549 0.36372549
0.39460784 0.39460784 0.39460784
0.43137255 0.43137255 0.43137255
0.47647059 0.47647059 0.47647059
0.52120098 0.52120098 0.52120098
0.56372549 0.56372549 0.56372549
0.59068627 0.59068627 0.59068627
0.11372549 0.11372549 0.11372549
0.11372549 0.11372549 0.11372549
0.11372549 0.11372549 0.11372549
0.11372549 0.11372549 0.11372549
0.11078431 0.11078431 0.11078431
0.10992647 0.10992647 0.10992647
0.11985294 0.11985294 0.11985294
0.13235294 0.13235294 0.13235294
0.14607843 0.14607843 0.14607843
0.15931373 0.15931373 0.15931373
0.16985294 0.16985294 0.16985294
0.18345588 0.18345588 0.18345588
0.2004902 0.2004902 0.2004902
0.22585784 0.22585784 0.22585784
0.2497549 0.2497549 0.2497549
0.27058824 0.27058824 0.27058824
0.29803922 0.29803922 0.29803922
0.33284314 0.33284314 0.33284314
0.36372549 0.36372549 0.36372549
0.39460784 0.39460784 0.39460784
0.43137255 0.43137255 0.43137255
0.47781863 0.47781863 0.47781863
0.5254902 0.5254902 0.5254902
0.57156863 0.57156863 0.57156863
0.60098039 0.60098039 0.60098039
0.11715686 0.11715686 0.11715686
0.1158701 0.1158701 0.1158701
0.11727941 0.11727941 0.11727941
0.11715686 0.11715686 0.11715686
0.11372549 0.11372549 0.11372549
0.11372549 0.11372549 0.11372549
0.12058824 0.12058824 0.12058824
0.13609069 0.13609069 0.13609069
0.14901961 0.14901961 0.14901961
0.1627451 0.1627451 0.1627451
0.17352941 0.17352941 0.17352941
0.18382353 0.18382353 0.18382353
0.20563725 0.20563725 0.20563725
0.23192402 0.23192402 0.23192402
0.25637255 0.25637255 0.25637255
0.27696078 0.27696078 0.27696078
0.30147059 0.30147059 0.30147059
0.33627451 0.33627451 0.33627451
0.36715686 0.36715686 0.36715686
0.39503676 0.39503676 0.39503676
0.43504902 0.43504902 0.43504902
0.4838848 0.4838848 0.4838848
0.53186275 0.53186275 0.53186275
0.578125 0.578125 0.578125
0.61127451 0.61127451 0.61127451
0.11764706 0.11764706 0.11764706
0.11764706 0.11764706 0.11764706
0.11960784 0.11960784 0.11960784
0.11960784 0.11960784 0.11960784
0.11764706 0.11764706 0.11764706
0.11593137 0.11593137 0.11593137
0.1245098 0.1245098 0.1245098
0.14142157 0.14142157 0.14142157
0.15490196 0.15490196 0.15490196
0.16715686 0.16715686 0.16715686
0.18039216 0.18039216 0.18039216
0.19705882 0.19705882 0.19705882
0.21764706 0.21764706 0.21764706
0.24436275 0.24436275 0.24436275
0.27009804 0.27009804 0.27009804
0.29313725 0.29313725 0.29313725
0.31764706 0.31764706 0.31764706
0.34656863 0.34656863 0.34656863
0.375 0.375 0.375
0.40441176 0.40441176 0.40441176
0.44215686 0.44215686 0.44215686
0.48848039 0.48848039 0.48848039
0.53627451 0.53627451 0.53627451
0.58308824 0.58308824 0.58308824
0.62156863 0.62156863 0.62156863
0.11764706 0.11764706 0.11764706
0.11795343 0.11795343 0.11795343
0.12205882 0.12205882 0.12205882
0.12598039 0.12598039 0.12598039
0.12254902 0.12254902 0.12254902
0.11868873 0.11868873 0.11868873
0.13235294 0.13235294 0.13235294
0.14705882 0.14705882 0.14705882
0.15735294 0.15735294 0.15735294
0.17401961 0.17401961 0.17401961
0.19460784 0.19460784 0.19460784
0.21176471 0.21176471 0.21176471
0.23235294 0.23235294 0.23235294
0.25686275 0.25686275 0.25686275
0.28382353 0.28382353 0.28382353
0.30716912 0.30716912 0.30716912
0.33039216 0.33039216 0.33039216
0.35833333 0.35833333 0.35833333
0.38382353 0.38382353 0.38382353
0.41470588 0.41470588 0.41470588
0.44926471 0.44926471 0.44926471
0.49307598 0.49307598 0.49307598
0.54068627 0.54068627 0.54068627
0.58823529 0.58823529 0.58823529
0.62794118 0.62794118 0.62794118
0.11764706 0.11764706 0.11764706
0.12696078 0.12696078 0.12696078
0.13333333 0.13333333 0.13333333
0.14007353 0.14007353 0.14007353
0.14019608 0.14019608 0.14019608
0.14264706 0.14264706 0.14264706
0.15220588 0.15220588 0.15220588
0.16029412 0.16029412 0.16029412
0.17058824 0.17058824 0.17058824
0.18823529 0.18823529 0.18823529
0.20882353 0.20882353 0.20882353
0.22855392 0.22855392 0.22855392
0.2495098 0.2495098 0.2495098
0.27058824 0.27058824 0.27058824
0.29509804 0.29509804 0.29509804
0.31960784 0.31960784 0.31960784
0.34411765 0.34411765 0.34411765
0.37107843 0.37107843 0.37107843
0.39779412 0.39779412 0.39779412
0.425 0.425 0.425
0.45784314 0.45784314 0.45784314
0.50294118 0.50294118 0.50294118
0.55098039 0.55098039 0.55098039
0.59852941 0.59852941 0.59852941
0.63823529 0.63823529 0.63823529
0.14166667 0.14166667 0.14166667
0.14503676 0.14503676 0.14503676
0.15196078 0.15196078 0.15196078
0.15410539 0.15410539 0.15410539
0.15588235 0.15588235 0.15588235
0.16421569 0.16421569 0.16421569
0.1745098 0.1745098 0.1745098
0.18180147 0.18180147 0.18180147
0.19117647 0.19117647 0.19117647
0.20692402 0.20692402 0.20692402
0.2245098 0.2245098 0.2245098
0.24509804 0.24509804 0.24509804
0.26568627 0.26568627 0.26568627
0.28627451 0.28627451 0.28627451
0.30686275 0.30686275 0.30686275
0.33229167 0.33229167 0.33229167
0.35833333 0.35833333 0.35833333
0.38376225 0.38376225 0.38376225
0.40980392 0.40980392 0.40980392
0.44068627 0.44068627 0.44068627
0.47352941 0.47352941 0.47352941
0.51470588 0.51470588 0.51470588
0.56127451 0.56127451 0.56127451
0.6127451 0.6127451 0.6127451
0.64852941 0.64852941 0.64852941
0.16862745 0.16862745 0.16862745
0.16862745 0.16862745 0.16862745
0.17254902 0.17254902 0.17254902
0.17254902 0.17254902 0.17254902
0.17058824 0.17058824 0.17058824
0.18480392 0.18480392 0.18480392
0.19509804 0.19509804 0.19509804
0.20539216 0.20539216 0.20539216
0.21568627 0.21568627 0.21568627
0.22598039 0.22598039 0.22598039
0.24117647 0.24117647 0.24117647
0.26176471 0.26176471 0.26176471
0.28235294 0.28235294 0.28235294
0.30294118 0.30294118 0.30294118
0.32352941 0.32352941 0.32352941
0.34803922 0.34803922 0.34803922
0.37254902 0.37254902 0.37254902
0.39705882 0.39705882 0.39705882
0.42647059 0.42647059 0.42647059
0.46127451 0.46127451 0.46127451
0.49607843 0.49607843 0.49607843
0.53529412 0.53529412 0.53529412
0.57647059 0.57647059 0.57647059
0.62303922 0.62303922 0.62303922
0.65882353 0.65882353 0.65882353
0.19313725 0.19313725 0.19313725
0.19466912 0.19466912 0.19466912
0.19620098 0.19620098 0.19620098
0.20165441 0.20165441 0.20165441
0.20343137 0.20343137 0.20343137
0.20784314 0.20784314 0.20784314
0.21813725 0.21813725 0.21813725
0.22598039 0.22598039 0.22598039
0.23627451 0.23627451 0.23627451
0.24656863 0.24656863 0.24656863
0.26078431 0.26078431 0.26078431
0.27628676 0.27628676 0.27628676
0.29901961 0.29901961 0.29901961
0.31979167 0.31979167 0.31979167
0.34166667 0.34166667 0.34166667
0.36470588 0.36470588 0.36470588
0.38676471 0.38676471 0.38676471
0.41617647 0.41617647 0.41617647
0.44987745 0.44987745 0.44987745
0.48400735 0.48400735 0.48400735
0.51862745 0.51862745 0.51862745
0.55802696 0.55802696 0.55802696
0.59705882 0.59705882 0.59705882
0.63823529 0.63823529 0.63823529
0.67156863 0.67156863 0.67156863
0.21372549 0.21372549 0.21372549
0.22107843 0.22107843 0.22107843
0.22818627 0.22818627 0.22818627
0.23382353 0.23382353 0.23382353
0.23431373 0.23431373 0.23431373
0.23860294 0.23860294 0.23860294
0.24436275 0.24436275 0.24436275
0.2504902 0.2504902 0.2504902
0.25686275 0.25686275 0.25686275
0.26960784 0.26960784 0.26960784
0.28235294 0.28235294 0.28235294
0.29644608 0.29644608 0.29644608
0.31568627 0.31568627 0.31568627
0.33933824 0.33933824 0.33933824
0.36078431 0.36078431 0.36078431
0.38137255 0.38137255 0.38137255
0.40588235 0.40588235 0.40588235
0.43676471 0.43676471 0.43676471
0.47156863 0.47156863 0.47156863
0.50637255 0.50637255 0.50637255
0.54313725 0.54313725 0.54313725
0.58039216 0.58039216 0.58039216
0.62156863 0.62156863 0.62156863
0.65845588 0.65845588 0.65845588
0.6872549 0.6872549 0.6872549
0.24901961 0.24901961 0.24901961
0.25196078 0.25196078 0.25196078
0.25833333 0.25833333 0.25833333
0.26519608 0.26519608 0.26519608
0.26519608 0.26519608 0.26519608
0.26911765 0.26911765 0.26911765
0.27218137 0.27218137 0.27218137
0.27714461 0.27714461 0.27714461
0.28137255 0.28137255 0.28137255
0.29509804 0.29509804 0.29509804
0.31029412 0.31029412 0.31029412
0.32352941 0.32352941 0.32352941
0.33627451 0.33627451 0.33627451
0.35686275 0.35686275 0.35686275
0.37781863 0.37781863 0.37781863
0.40196078 0.40196078 0.40196078
0.43039216 0.43039216 0.43039216
0.46109069 0.46109069 0.46109069
0.49301471 0.49301471 0.49301471
0.52696078 0.52696078 0.52696078
0.56568627 0.56568627 0.56568627
0.60140931 0.60140931 0.60140931
0.63835784 0.63835784 0.63835784
0.67420343 0.67420343 0.67420343
0.70147059 0.70147059 0.70147059
0.28431373 0.28431373 0.28431373
0.2875 0.2875 0.2875
0.29215686 0.29215686 0.29215686
0.29558824 0.29558824 0.29558824
0.29607843 0.29607843 0.29607843
0.3 0.3 0.3
0.3 0.3 0.3
0.30465686 0.30465686 0.30465686
0.31176471 0.31176471 0.31176471
0.3245098 0.3245098 0.3245098
0.34166667 0.34166667 0.34166667
0.3504902 0.3504902 0.3504902
0.36176471 0.36176471 0.36176471
0.37720588 0.37720588 0.37720588
0.39803922 0.39803922 0.39803922
0.42401961 0.42401961 0.42401961
0.45490196 0.45490196 0.45490196
0.48578431 0.48578431 0.48578431
0.51666667 0.51666667 0.51666667
0.55122549 0.55122549 0.55122549
0.58627451 0.58627451 0.58627451
0.62107843 0.62107843 0.62107843
0.65588235 0.65588235 0.65588235
0.69068627 0.69068627 0.69068627
0.71764706 0.71764706 0.71764706
0.31960784 0.31960784 0.31960784
0.32303922 0.32303922 0.32303922
0.32438725 0.32438725 0.32438725
0.32696078 0.32696078 0.32696078
0.32745098 0.32745098 0.32745098
0.3278799 0.3278799 0.3278799
0.33088235 0.33088235 0.33088235
0.33480392 0.33480392 0.33480392
0.34264706 0.34264706 0.34264706
0.35294118 0.35294118 0.35294118
0.36666667 0.36666667 0.36666667
0.37738971 0.37738971 0.37738971
0.3877451 0.3877451 0.3877451
0.39803922 0.39803922 0.39803922
0.41764706 0.41764706 0.41764706
0.44852941 0.44852941 0.44852941
0.47941176 0.47941176 0.47941176
0.51029412 0.51029412 0.51029412
0.54166667 0.54166667 0.54166667
0.57555147 0.57555147 0.57555147
0.60710784 0.60710784 0.60710784
0.64172794 0.64172794 0.64172794
0.67647059 0.67647059 0.67647059
0.71127451 0.71127451 0.71127451
0.73823529 0.73823529 0.73823529
0.35392157 0.35392157 0.35392157
0.3557598 0.3557598 0.3557598
0.35784314 0.35784314 0.35784314
0.36164216 0.36164216 0.36164216
0.36176471 0.36176471 0.36176471
0.36176471 0.36176471 0.36176471
0.36397059 0.36397059 0.36397059
0.3689951 0.3689951 0.3689951
0.37352941 0.37352941 0.37352941
0.38382353 0.38382353 0.38382353
0.39411765 0.39411765 0.39411765
0.40441176 0.40441176 0.40441176
0.42009804 0.42009804 0.42009804
0.43235294 0.43235294 0.43235294
0.4497549 0.4497549 0.4497549
0.47598039 0.47598039 0.47598039
0.50686275 0.50686275 0.50686275
0.53480392 0.53480392 0.53480392
0.56642157 0.56642157 0.56642157
0.59693627 0.59693627 0.59693627
0.63137255 0.63137255 0.63137255
0.66531863 0.66531863 0.66531863
0.69926471 0.69926471 0.69926471
0.73186275 0.73186275 0.73186275
0.75882353 0.75882353 0.75882353
0.38627451 0.38627451 0.38627451
0.38872549 0.38872549 0.38872549
0.39080882 0.39080882 0.39080882
0.39393382 0.39393382 0.39393382
0.39730392 0.39730392 0.39730392
0.4004902 0.4004902 0.4004902
0.40196078 0.40196078 0.40196078
0.40735294 0.40735294 0.40735294
0.41519608 0.41519608 0.41519608
0.42401961 0.42401961 0.42401961
0.43468137 0.43468137 0.43468137
0.44822304 0.44822304 0.44822304
0.46151961 0.46151961 0.46151961
0.47745098 0.47745098 0.47745098
0.49227941 0.49227941 0.49227941
0.51078431 0.51078431 0.51078431
0.53529412 0.53529412 0.53529412
0.56470588 0.56470588 0.56470588
0.5935049 0.5935049 0.5935049
0.62107843 0.62107843 0.62107843
0.65196078 0.65196078 0.65196078
0.68676471 0.68676471 0.68676471
0.72058824 0.72058824 0.72058824
0.75245098 0.75245098 0.75245098
0.7754902 0.7754902 0.7754902
0.43137255 0.43137255 0.43137255
0.43137255 0.43137255 0.43137255
0.43529412 0.43529412 0.43529412
0.43529412 0.43529412 0.43529412
0.43529412 0.43529412 0.43529412
0.43921569 0.43921569 0.43921569
0.44313725 0.44313725 0.44313725
0.45245098 0.45245098 0.45245098
0.4627451 0.4627451 0.4627451
0.47303922 0.47303922 0.47303922
0.48333333 0.48333333 0.48333333
0.49362745 0.49362745 0.49362745
0.50784314 0.50784314 0.50784314
0.52254902 0.52254902 0.52254902
0.53627451 0.53627451 0.53627451
0.5504902 0.5504902 0.5504902
0.56862745 0.56862745 0.56862745
0.59313725 0.59313725 0.59313725
0.61764706 0.61764706 0.61764706
0.64215686 0.64215686 0.64215686
0.67254902 0.67254902 0.67254902
0.70735294 0.70735294 0.70735294
0.73823529 0.73823529 0.73823529
0.76911765 0.76911765 0.76911765
0.79215686 0.79215686 0.79215686
0.48529412 0.48529412 0.48529412
0.48676471 0.48676471 0.48676471
0.48676471 0.48676471 0.48676471
0.48676471 0.48676471 0.48676471
0.48676471 0.48676471 0.48676471
0.49068627 0.49068627 0.49068627
0.49754902 0.49754902 0.49754902
0.50392157 0.50392157 0.50392157
0.51421569 0.51421569 0.51421569
0.52205882 0.52205882 0.52205882
0.53088235 0.53088235 0.53088235
0.54117647 0.54117647 0.54117647
0.55416667 0.55416667 0.55416667
0.56960784 0.56960784 0.56960784
0.57990196 0.57990196 0.57990196
0.59166667 0.59166667 0.59166667
0.60980392 0.60980392 0.60980392
0.62702206 0.62702206 0.62702206
0.64460784 0.64460784 0.64460784
0.66648284 0.66648284 0.66648284
0.69436275 0.69436275 0.69436275
0.72794118 0.72794118 0.72794118
0.75882353 0.75882353 0.75882353
0.78823529 0.78823529 0.78823529
0.80882353 0.80882353 0.80882353
0.54313725 0.54313725 0.54313725
0.54313725 0.54313725 0.54313725
0.54313725 0.54313725 0.54313725
0.54313725 0.54313725 0.54313725
0.54313725 0.54313725 0.54313725
0.54620098 0.54620098 0.54620098
0.55294118 0.55294118 0.55294118
0.55992647 0.55992647 0.55992647
0.56568627 0.56568627 0.56568627
0.57205882 0.57205882 0.57205882
0.58235294 0.58235294 0.58235294
0.59166667 0.59166667 0.59166667
0.60245098 0.60245098 0.60245098
0.61323529 0.61323529 0.61323529
0.62352941 0.62352941 0.62352941
0.63431373 0.63431373 0.63431373
0.65098039 0.65098039 0.65098039
0.66519608 0.66519608 0.66519608
0.68014706 0.68014706 0.68014706
0.69620098 0.69620098 0.69620098
0.71813725 0.71813725 0.71813725
0.74816176 0.74816176 0.74816176
0.7754902 0.7754902 0.7754902
0.8060049 0.8060049 0.8060049
0.8254902 0.8254902 0.8254902
0.60098039 0.60098039 0.60098039
0.60098039 0.60098039 0.60098039
0.60098039 0.60098039 0.60098039
0.60098039 0.60098039 0.60098039
0.60098039 0.60098039 0.60098039
0.60189951 0.60189951 0.60189951
0.60919118 0.60919118 0.60919118
0.61452206 0.61452206 0.61452206
0.62058824 0.62058824 0.62058824
0.62481618 0.62481618 0.62481618
0.63284314 0.63284314 0.63284314
0.64019608 0.64019608 0.64019608
0.6504902 0.6504902 0.6504902
0.66121324 0.66121324 0.66121324
0.6685049 0.6685049 0.6685049
0.67794118 0.67794118 0.67794118
0.69215686 0.69215686 0.69215686
0.70637255 0.70637255 0.70637255
0.72058824 0.72058824 0.72058824
0.734375 0.734375 0.734375
0.74926471 0.74926471 0.74926471
0.77254902 0.77254902 0.77254902
0.79963235 0.79963235 0.79963235
0.8254902 0.8254902 0.8254902
0.84264706 0.84264706 0.84264706
0.6627451 0.6627451 0.6627451
0.66151961 0.66151961 0.66151961
0.65882353 0.65882353 0.65882353
0.65882353 0.65882353 0.65882353
0.65882353 0.65882353 0.65882353
0.6627451 0.6627451 0.6627451
0.66470588 0.66470588 0.66470588
0.66936275 0.66936275 0.66936275
0.6745098 0.6745098 0.6745098
0.67892157 0.67892157 0.67892157
0.68480392 0.68480392 0.68480392
0.69166667 0.69166667 0.69166667
0.70196078 0.70196078 0.70196078
0.70808824 0.70808824 0.70808824
0.71519608 0.71519608 0.71519608
0.72303922 0.72303922 0.72303922
0.73333333 0.73333333 0.73333333
0.74754902 0.74754902 0.74754902
0.76029412 0.76029412 0.76029412
0.77205882 0.77205882 0.77205882
0.78333333 0.78333333 0.78333333
0.80343137 0.80343137 0.80343137
0.82892157 0.82892157 0.82892157
0.85122549 0.85122549 0.85122549
0.8627451 0.8627451 0.8627451
0.72401961 0.72401961 0.72401961
0.72028186 0.72028186 0.72028186
0.71666667 0.71666667 0.71666667
0.71666667 0.71666667 0.71666667
0.71666667 0.71666667 0.71666667
0.71666667 0.71666667 0.71666667
0.72046569 0.72046569 0.72046569
0.72420343 0.72420343 0.72420343
0.72843137 0.72843137 0.72843137
0.73431373 0.73431373 0.73431373
0.73970588 0.73970588 0.73970588
0.74356618 0.74356618 0.74356618
0.74926471 0.74926471 0.74926471
0.75496324 0.75496324 0.75496324
0.75919118 0.75919118 0.75919118
0.76685049 0.76685049 0.76685049
0.7745098 0.7745098 0.7745098
0.7872549 0.7872549 0.7872549
0.79901961 0.79901961 0.79901961
0.80931373 0.80931373 0.80931373
0.81911765 0.81911765 0.81911765
0.83382353 0.83382353 0.83382353
0.85833333 0.85833333 0.85833333
0.87696078 0.87696078 0.87696078
0.87941176 0.87941176 0.87941176
0.7754902 0.7754902 0.7754902
0.7754902 0.7754902 0.7754902
0.7745098 0.7745098 0.7745098
0.77193627 0.77193627 0.77193627
0.77303922 0.77303922 0.77303922
0.77156863 0.77156863 0.77156863
0.7745098 0.7745098 0.7745098
0.77941176 0.77941176 0.77941176
0.78333333 0.78333333 0.78333333
0.7872549 0.7872549 0.7872549
0.79117647 0.79117647 0.79117647
0.79203431 0.79203431 0.79203431
0.79607843 0.79607843 0.79607843
0.8 0.8 0.8
0.80367647 0.80367647 0.80367647
0.80931373 0.80931373 0.80931373
0.81862745 0.81862745 0.81862745
0.82659314 0.82659314 0.82659314
0.84019608 0.84019608 0.84019608
0.84669118 0.84669118 0.84669118
0.85343137 0.85343137 0.85343137
0.86470588 0.86470588 0.86470588
0.88529412 0.88529412 0.88529412
0.89754902 0.89754902 0.89754902
0.9 0.9 0.9
0.82156863 0.82156863 0.82156863
0.82156863 0.82156863 0.82156863
0.8254902 0.8254902 0.8254902
0.82677696 0.82677696 0.82677696
0.82696078 0.82696078 0.82696078
0.82647059 0.82647059 0.82647059
0.82659314 0.82659314 0.82659314
0.83180147 0.83180147 0.83180147
0.83333333 0.83333333 0.83333333
0.83333333 0.83333333 0.83333333
0.83333333 0.83333333 0.83333333
0.83707108 0.83707108 0.83707108
0.8372549 0.8372549 0.8372549
0.84148284 0.84148284 0.84148284
0.84693627 0.84693627 0.84693627
0.85202206 0.85202206 0.85202206
0.86078431 0.86078431 0.86078431
0.86954657 0.86954657 0.86954657
0.87928922 0.87928922 0.87928922
0.88284314 0.88284314 0.88284314
0.88872549 0.88872549 0.88872549
0.89901961 0.89901961 0.89901961
0.91323529 0.91323529 0.91323529
0.91666667 0.91666667 0.91666667
0.91666667 0.91666667 0.91666667
0.85098039 0.85098039 0.85098039
0.85490196 0.85490196 0.85490196
0.85588235 0.85588235 0.85588235
0.8622549 0.8622549 0.8622549
0.86862745 0.86862745 0.86862745
0.86666667 0.86666667 0.86666667
0.86960784 0.86960784 0.86960784
0.87058824 0.87058824 0.87058824
0.86666667 0.86666667 0.86666667
0.86666667 0.86666667 0.86666667
0.86666667 0.86666667 0.86666667
0.86666667 0.86666667 0.86666667
0.86862745 0.86862745 0.86862745
0.87107843 0.87107843 0.87107843
0.87745098 0.87745098 0.87745098
0.88382353 0.88382353 0.88382353
0.89019608 0.89019608 0.89019608
0.90441176 0.90441176 0.90441176
0.90980392 0.90980392 0.90980392
0.91323529 0.91323529 0.91323529
0.91764706 0.91764706 0.91764706
0.92598039 0.92598039 0.92598039
0.9372549 0.9372549 0.9372549
0.93333333 0.93333333 0.93333333
0.93333333 0.93333333 0.93333333
0.10980392 0.10980392 0.10980392
0.10980392 0.10980392 0.10980392
0.10980392 0.10980392 0.10980392
0.10588235 0.10588235 0.10588235
0.10588235 0.10588235 0.10588235
0.10245098 0.10245098 0.10245098
0.11213235 0.11213235 0.11213235
0.1245098 0.1245098 0.1245098
0.1372549 0.1372549 0.1372549
0.15091912 0.15091912 0.15091912
0.16176471 0.16176471 0.16176471
0.1745098 0.1745098 0.1745098
0.19264706 0.19264706 0.19264706
0.225 0.225 0.225
0.24215686 0.24215686 0.24215686
0.26176471 0.26176471 0.26176471
0.29411765 0.29411765 0.29411765
0.32892157 0.32892157 0.32892157
0.36372549 0.36372549 0.36372549
0.39460784 0.39460784 0.39460784
0.43333333 0.43333333 0.43333333
0.47647059 0.47647059 0.47647059
0.52156863 0.52156863 0.52156863
0.56127451 0.56127451 0.56127451
0.58823529 0.58823529 0.58823529
0.11372549 0.11372549 0.11372549
0.1124617 0.1124617 0.1124617
0.10980392 0.10980392 0.10980392
0.10980392 0.10980392 0.10980392
0.10833333 0.10833333 0.10833333
0.10618873 0.10618873 0.10618873
0.11519608 0.11519608 0.11519608
0.1278799 0.1278799 0.1278799
0.14117647 0.14117647 0.14117647
0.15449602 0.15449602 0.15449602
0.16721814 0.16721814 0.16721814
0.1792356 0.1792356 0.1792356
0.19629289 0.19629289 0.19629289
0.225 0.225 0.225
0.2450674 0.2450674 0.2450674
0.26756281 0.26756281 0.26756281
0.29748775 0.29748775 0.29748775
0.33102788 0.33102788 0.33102788
0.36372549 0.36372549 0.36372549
0.39460784 0.39460784 0.39460784
0.43137255 0.43137255 0.43137255
0.47647059 0.47647059 0.47647059
0.51764706 0.51764706 0.51764706
0.55905331 0.55905331 0.55905331
0.58523284 0.58523284 0.58523284
0.11372549 0.11372549 0.11372549
0.11372549 0.11372549 0.11372549
0.11372549 0.11372549 0.11372549
0.11372549 0.11372549 0.11372549
0.11170343 0.11170343 0.11170343
0.11078431 0.11078431 0.11078431
0.11985294 0.11985294 0.11985294
0.13296569 0.13296569 0.13296569
0.14607843 0.14607843 0.14607843
0.15931373 0.15931373 0.15931373
0.1703125 0.1703125 0.1703125
0.18368566 0.18368566 0.18368566
0.20140931 0.20140931 0.20140931
0.22843137 0.22843137 0.22843137
0.25128676 0.25128676 0.25128676
0.27242647 0.27242647 0.27242647
