site/assets/luts/sha256-a3eb610d4ed0c5b7297b7e23a9e69bf17bbabe48f6421b361294cf3dd73ef7b0.cube
# LUTr-Schema-Version: 2
# LUTr-ID: sha256-a3eb610d4ed0c5b7297b7e23a9e69bf17bbabe48f6421b361294cf3dd73ef7b0
# LUTr-Title: faux infrared
# LUTr-Collection: Natron HaldCLUT
# LUTr-Collection-ID: natron-haldclut-presets
# LUTr-Source: https://github.com/NatronGitHub/clut
# LUTr-Retrieved: 2026-07-27
# LUTr-Source-File: submissions/natron-haldclut-presets/various/faux_infrared.png
# LUTr-Source-Format: HALD-PNG
# LUTr-Source-SHA256: a3eb610d4ed0c5b7297b7e23a9e69bf17bbabe48f6421b361294cf3dd73ef7b0
# LUTr-License: CC-BY-SA-4.0
# LUTr-License-URL: https://github.com/NatronGitHub/clut#license
# LUTr-License-Basis: repo-license-file
# LUTr-Transform-Class: film-emulation
# LUTr-Tags: creative, film, film-emulation, hald-clut, natron, png, cube
# LUTr-Input-Color-Space: srgb
# LUTr-Input-Gamut: rec709
# LUTr-Input-Transfer: srgb
# LUTr-Output-Color-Space: srgb
# LUTr-Output-Gamut: rec709
# LUTr-Output-Transfer: srgb
# LUTr-Color-Space-Confidence: assumed-display-referred
# LUTr-Domain-Normalized: true
# LUTr-Shaper: none
# LUTr-Original-Grid: 64x64x64
# LUTr-Conversion-Grid: 25x25x25
# LUTr-Conversion-Interpolation: trilinear
# LUTr-Conversion-Method: HALD-PNG LUT image decoded at 16-bit and sampled to 25x25x25 3D CUBE
# LUTr-Conversion-Tool: LUTr scripts/convert-all-to-cube.mjs 2.0.0
# LUTr-Conversion-Date: 2026-07-27
# LUTr-Note: Preserve this metadata and the upstream license notices when redistributing.
TITLE "faux infrared"
LUT_3D_SIZE 9
DOMAIN_MIN 0 0 0
DOMAIN_MAX 1 1 1
0 0 0
0.1 0.10098039 0.13529412
0.18627451 0.18039216 0.25392157
0.28431373 0.27401961 0.37205882
0.38823529 0.35294118 0.48431373
0.51421569 0.45931373 0.60980392
0.61764706 0.55490196 0.73333333
0.71127451 0.64411765 0.85686275
0.80392157 0.72156863 0.98039216
0.11960784 0.11666667 0.10490196
0.075306373 0.1283701 0.099203431
0.18443627 0.21311275 0.24534314
0.27254902 0.29264706 0.37205882
0.38112745 0.36666667 0.49019608
0.45294118 0.45392157 0.60980392
0.54117647 0.52757353 0.74411765
0.6471201 0.61819853 0.86078431
0.72696078 0.69460784 0.9872549
0.25098039 0.22745098 0.21176471
0.18823529 0.17561275 0.24276961
0.14656863 0.25490196 0.21617647
0.23578431 0.34264706 0.35588235
0.33186275 0.40931373 0.49264706
0.40477941 0.48664216 0.61372549
0.52745098 0.56642157 0.74411765
0.59460784 0.63443627 0.86078431
0.67254902 0.70784314 0.98137255
0.37843137 0.34215686 0.31323529
0.33627451 0.2754902 0.3596201
0.22365196 0.2745098 0.36262255
0.20232843 0.37487745 0.29264706
0.29019608 0.48210784 0.47426471
0.38872549 0.56715686 0.62156863
0.47107843 0.62610294 0.73909314
0.56372549 0.6908701 0.85900735
0.62647059 0.76176471 0.96862745
0.48627451 0.40392157 0.40784314
0.50147059 0.37941176 0.46911765
0.3872549 0.34411765 0.49019608
0.3002451 0.41029412 0.48235294
0.25980392 0.49705882 0.39215686
0.36176471 0.60441176 0.57009804
0.44019608 0.70637255 0.72794118
0.54240196 0.76764706 0.86666667
0.61960784 0.82352941 0.97254902
0.60980392 0.52205882 0.49852941
0.60343137 0.48284314 0.56372549
0.53676471 0.42708333 0.61409314
0.39613971 0.41721814 0.61280637
0.36470588 0.56446078 0.61568627
0.31985294 0.62340686 0.47438725
0.4192402 0.73333333 0.66127451
0.52726716 0.83186275 0.84411765
0.60245098 0.90098039 0.98039216
0.73431373 0.61470588 0.59509804
0.73333333 0.59019608 0.63737745
0.73504902 0.54019608 0.74215686
0.5504902 0.49166667 0.74117647
0.45588235 0.54901961 0.74068627
0.425 0.6997549 0.73431373
0.3875 0.74460784 0.58014706
0.49362745 0.86078431 0.76764706
0.56764706 0.97941176 0.96862745
0.85686275 0.71960784 0.7
0.86078431 0.65784314 0.76862745
0.85784314 0.65735294 0.81421569
0.74197304 0.59656863 0.86599265
0.56053922 0.55514706 0.8629902
0.5254902 0.68707108 0.85735294
0.47892157 0.84178922 0.84583333
0.44093137 0.86642157 0.6591299
0.54068627 0.96813725 0.84460784
0.97254902 0.83921569 0.79215686
0.98382353 0.75784314 0.86519608
0.97941176 0.72843137 0.93529412
0.85735294 0.67107843 0.9622549
0.7254902 0.64117647 0.97843137
0.6127451 0.67401961 0.97990196
0.54313725 0.83627451 0.9245098
0.54019608 0.98039216 0.95980392
0.52156863 0.98431373 0.75294118
0.096078431 0.096078431 0.12745098
0.080453431 0.080882353 0.13394608
0.17904412 0.16433824 0.24754902
0.27843137 0.2495098 0.36666667
0.37867647 0.34705882 0.48651961
0.47941176 0.43449755 0.60980392
0.57696078 0.52071078 0.73333333
0.69215686 0.62113971 0.86029412
0.79607843 0.71764706 0.96470588
0.11452206 0.13180147 0.12830882
0.13877911 0.1513557 0.16182598
0.20845588 0.21178002 0.25098039
0.30553768 0.30116422 0.37359069
0.39387255 0.37444853 0.49362745
0.52244945 0.47581955 0.61764706
0.62533701 0.56966912 0.74105392
0.71912531 0.65594363 0.8608992
0.82279412 0.74822304 0.9848652
0.23872549 0.24656863 0.21666667
0.23578431 0.22832414 0.23719363
0.20088848 0.25171569 0.23606005
0.27830882 0.3372549 0.36234681
0.37058824 0.40410539 0.49509804
0.45142463 0.47973346 0.61164216
0.55217525 0.56559436 0.74316789
0.65294118 0.64842218 0.86078431
0.74252451 0.72855392 0.97634804
0.36715686 0.35588235 0.30667892
0.37058824 0.32843137 0.34019608
0.30304841 0.29485294 0.36698836
0.25968137 0.37866115 0.33475031
0.34672181 0.47328431 0.49151348
0.42714461 0.54547335 0.61716452
0.51323529 0.61470588 0.73671875
0.60588235 0.685072 0.85716912
0.69050245 0.75735294 0.97205882
0.49019608 0.45931373 0.4002451
0.49368873 0.425 0.44286152
0.44785539 0.3903799 0.47867647
0.35147059 0.40245098 0.49715074
0.32561275 0.50159314 0.44436275
0.40410539 0.60940564 0.59518995
0.48627451 0.68284314 0.73204657
0.575 0.74702819 0.85686275
0.65808824 0.81593137 0.9745098
0.61372549 0.56519608 0.50214461
0.61323529 0.52551317 0.5411152
0.61081495 0.48676471 0.60122549
0.48382353 0.45196078 0.60980392
0.41323529 0.54044118 0.61265319
0.37879136 0.6278799 0.51574755
0.46470588 0.73664216 0.69411765
0.54849112 0.82165288 0.841322
0.63333333 0.88970588 0.97892157
0.74375 0.66862745 0.59901961
0.73350184 0.62173713 0.62250306
0.73324142 0.5872549 0.69996936
0.66568627 0.55343137 0.73871017
0.51991422 0.55533088 0.7372549
0.47066483 0.69528186 0.73570772
0.4395527 0.74558824 0.61320466
0.525 0.86078431 0.78431373
0.61507353 0.9754902 0.97647059
0.85300245 0.75778186 0.69258578
0.84907322 0.71600031 0.71880362
0.85992647 0.68386949 0.79123775
0.83122702 0.65686275 0.8689568
0.68091299 0.62619485 0.86078431
0.56844363 0.6745098 0.86078431
0.53284314 0.82659314 0.84915748
0.5067402 0.87248775 0.70416667
0.58327206 0.97696078 0.87647059
0.97696078 0.8622549 0.79215686
0.97598039 0.81127451 0.82696078
0.96605392 0.76605392 0.88517157
0.9658701 0.73952206 0.96666667
0.83578431 0.70294118 0.97696078
0.65588235 0.66617647 0.95716912
0.62156863 0.81715686 0.96948529
0.59368873 0.965625 0.95735294
0.56078431 0.97745098 0.80245098
0.20098039 0.20098039 0.24803922
0.16531863 0.1692402 0.24313725
0.12892157 0.12892157 0.25808824
0.24154412 0.2314951 0.36960784
0.34656863 0.3245098 0.49019608
0.44852941 0.40784314 0.62058824
0.55220588 0.49803922 0.74509804
0.64705882 0.58026961 0.8685049
0.7627451 0.68823529 0.98039216
0.20477941 0.22401961 0.24705882
0.2120864 0.21999081 0.254519
0.21348039 0.21596201 0.27438725
0.28639706 0.28578431 0.37835478
0.39417892 0.3745098 0.49411765
0.49857537 0.45931373 0.61764706
0.59552696 0.54460784 0.74117647
0.69640012 0.63676471 0.86078431
0.79607843 0.7245098 0.98088235
0.24877451 0.28308824 0.27132353
0.25269608 0.27398897 0.26675858
0.2627451 0.26758578 0.27132353
0.31078431 0.33259804 0.36875
0.42904412 0.42316176 0.49105392
0.53685662 0.5106924 0.61372549
0.64730392 0.60471814 0.74074755
0.73710172 0.69068627 0.86776961
0.81813725 0.76764706 0.96887255
0.32659314 0.37389706 0.32156863
0.35004596 0.36986826 0.33235294
0.35980392 0.34754902 0.35931373
0.32284007 0.37990196 0.36654412
0.4 0.46041667 0.48756127
0.49595588 0.54033395 0.61803002
0.58146446 0.60857843 0.7372549
0.68221507 0.68737745 0.86862745
0.77254902 0.76764706 0.98897059
0.46960784 0.49411765 0.41764706
0.48314951 0.48584559 0.42696078
0.48958333 0.44227941 0.45955882
0.42634804 0.41605392 0.49001225
0.38382353 0.50098039 0.46813725
0.46666667 0.59411765 0.6064951
0.55588235 0.67352941 0.7372549
0.63805147 0.73823529 0.85882353
0.70490196 0.7872549 0.94754902
0.6064951 0.6182598 0.50539216
0.61372549 0.59117647 0.5254902
0.61400123 0.54626225 0.56320466
0.57356005 0.50911458 0.60372243
0.47469363 0.5276348 0.61764706
0.44307598 0.62530637 0.55539216
0.52938113 0.73900123 0.72634804
0.61311275 0.80992647 0.85700061
0.70306373 0.87058824 0.99166667
0.74044118 0.71887255 0.60686275
0.73627451 0.68878676 0.62205882
0.7370098 0.64901961 0.65943627
0.73333333 0.60637255 0.72144608
0.61335784 0.5754902 0.7372549
0.53520221 0.66844363 0.7372549
0.50067402 0.74675245 0.64221814
0.58676471 0.86335784 0.82071078
0.68039216 0.95367647 0.98921569
0.86176471 0.83590686 0.69852941
0.86372549 0.7917739 0.71931679
0.85980392 0.74240196 0.75073529
0.86086091 0.70716912 0.82696078
0.79142157 0.67990196 0.86470588
0.64313725 0.66813725 0.86041667
0.59880515 0.8078125 0.86663603
0.56136642 0.87066483 0.72564338
0.64497549 0.97683824 0.90735294
0.9872549 0.93431373 0.79901961
0.97683824 0.8817402 0.81213235
0.97843137 0.83308824 0.84705882
0.97745098 0.7995098 0.91911765
0.94901961 0.76862745 0.98578431
0.8004902 0.73627451 0.97977941
0.67941176 0.79828431 0.97352941
0.64803922 0.9567402 0.97181373
0.61372549 0.96862745 0.80196078
0.27401961 0.28186275 0.36666667
0.2627451 0.26930147 0.36715686
0.23431373 0.23823529 0.37058824
0.21758578 0.21366422 0.38719363
0.29901961 0.28848039 0.49411765
0.40827206 0.37843137 0.61764706
0.51458333 0.46715686 0.74509804
0.61519608 0.55833333 0.86862745
0.70490196 0.64460784 0.98970588
0.30490196 0.32058824 0.37058824
0.30520833 0.31681219 0.37434896
0.28363971 0.29362745 0.37843137
0.25752145 0.265625 0.38603707
0.35416667 0.34427083 0.49803922
0.46035539 0.43235294 0.61379442
0.56164216 0.52107843 0.74117647
0.66648284 0.61372549 0.86862745
0.75882353 0.69981618 0.98008578
0.30931373 0.35147059 0.37058824
0.31711091 0.34865196 0.36666667
0.33333333 0.34362745 0.37432598
0.33258272 0.3316636 0.38835784
0.41323529 0.40294118 0.49019608
0.51519608 0.49375 0.61372549
0.62178309 0.58596814 0.74301471
0.71875 0.66862745 0.86144301
0.81164216 0.75453431 0.97291667
0.33529412 0.3971201 0.38535539
0.35980392 0.40520833 0.3877451
0.36796875 0.38144914 0.37470895
0.3780867 0.39224112 0.39985447
0.45523897 0.46176471 0.49022672
0.57252604 0.55349265 0.61986826
0.65692402 0.63578431 0.73817402
0.76599265 0.7207644 0.86078431
0.85882353 0.81476716 0.98186275
0.43014706 0.49411765 0.44093137
0.43872549 0.49454657 0.44077819
0.46715686 0.48474265 0.44828431
0.48719363 0.47061887 0.48189338
0.46164216 0.50257353 0.49644608
0.53480392 0.59096201 0.60416667
0.62040441 0.67334559 0.73333333
0.71642157 0.74656863 0.86078431
0.80416667 0.81348039 0.98235294
0.55147059 0.61372549 0.51813725
0.56666667 0.61029412 0.53052237
0.60061275 0.59754902 0.55343137
0.61615349 0.56888787 0.58872549
0.54411765 0.53431373 0.61072304
0.50324755 0.61914063 0.57469363
0.59160539 0.72352941 0.7375
0.68333333 0.8 0.86463695
0.759375 0.85 0.97346814
0.70232843 0.74117647 0.61960784
0.71862745 0.73435968 0.62997855
0.73872549 0.7166973 0.64947917
0.73762255 0.67219669 0.68488051
0.70686275 0.63333333 0.73057598
0.59221814 0.65019914 0.73291973
0.56859681 0.7497549 0.68342525
0.64820772 0.84938725 0.84162071
0.72977941 0.92352941 0.97009804
0.83020833 0.85686275 0.71470588
0.85975797 0.85128676 0.72696078
0.86386336 0.81531863 0.74558824
0.86501225 0.77372855 0.77794118
0.84387255 0.73063725 0.83216912
0.72960325 0.70019148 0.85428156
0.66715686 0.79901961 0.86433824
0.62932751 0.87248775 0.76019455
0.70196078 0.96029412 0.90735294
0.95980392 0.97156863 0.79215686
0.98854167 0.96519608 0.82175245
0.97818627 0.91053922 0.83713235
0.98670343 0.86758578 0.86758578
0.9502451 0.80294118 0.91470588
0.90196078 0.79466912 0.97800245
0.77205882 0.80441176 0.98039216
0.70294118 0.93560049 0.95569853
0.67941176 0.98529412 0.83235294
0.39607843 0.40392157 0.49607843
0.35955882 0.36151961 0.49019608
0.34558824 0.34803922 0.49019608
0.30294118 0.30294118 0.49607843
0.25196078 0.25196078 0.49509804
0.36593137 0.35147059 0.6125
0.47401961 0.43823529 0.74117647
0.57990196 0.53284314 0.8625
0.6627451 0.60980392 0.96862745
0.40588235 0.42132353 0.49803922
0.41302083 0.41715686 0.50189951
0.39019608 0.39393382 0.50238971
0.34754902 0.35 0.49500613
0.32254902 0.32352941 0.50490196
0.41789216 0.40539216 0.61734069
0.52990196 0.49803922 0.74724265
0.62990196 0.58284314 0.86862745
0.71691176 0.6620098 0.97867647
0.40980392 0.45196078 0.49411765
0.42083333 0.44803922 0.49607843
0.42892157 0.43835784 0.49460784
0.40931373 0.41109069 0.49534314
0.38284314 0.38382353 0.50539216
0.47965686 0.46715686 0.61764706
0.58615196 0.55625 0.74571078
0.68517157 0.64460784 0.86862745
0.77254902 0.72352941 0.97254902
0.41568627 0.475 0.49411765
0.42328431 0.46789216 0.49004289
0.44810049 0.471875 0.49442402
0.45931373 0.46446078 0.49411765
0.44595588 0.44497549 0.50845588
0.54142157 0.52892157 0.62156863
0.6307598 0.60765931 0.73817402
0.74451593 0.70548407 0.86822917
0.83235294 0.78529412 0.9745098
0.42745098 0.51372549 0.50294118
0.45061275 0.51470588 0.50196078
0.47622549 0.51568627 0.50588235
0.47830882 0.50098039 0.50453431
0.50637255 0.50784314 0.51519608
0.58186275 0.57757353 0.60612745
0.6872549 0.67132353 0.73970588
0.79264706 0.76789216 0.86838235
0.8627451 0.83137255 0.96666667
0.50980392 0.61568627 0.55318627
0.53268995 0.62028186 0.55523897
0.56102941 0.61495098 0.56488971
0.5921875 0.61222426 0.57791054
0.60379902 0.59068627 0.60784314
0.57570466 0.62990196 0.62245711
0.65545343 0.71017157 0.74136029
0.74117647 0.78302696 0.86470588
0.81078431 0.83946078 0.95098039
0.62598039 0.7372549 0.62058824
0.65447304 0.73946078 0.63186275
0.70196078 0.74007353 0.65294118
0.72150735 0.72058824 0.66813725
0.74044118 0.69411765 0.71862745
0.67745098 0.66574755 0.73823529
0.63394608 0.74742647 0.70894608
0.71384804 0.84393382 0.86207108
0.78921569 0.90245098 0.96519608
0.75367647 0.86446078 0.70563725
0.8051777 0.86470588 0.72913603
0.84411765 0.86078431 0.74430147
0.85701593 0.83048407 0.77647059
0.85404412 0.79166667 0.80747549
0.82000613 0.75401348 0.84754902
0.71813725 0.77009804 0.85520833
0.69329044 0.86905637 0.80438113
0.76421569 0.96666667 0.94534314
0.92352941 0.97843137 0.81372549
0.93897059 0.98284314 0.82377451
0.97696078 0.97647059 0.84362745
0.98235294 0.92769608 0.86127451
0.98235294 0.88627451 0.90196078
0.96838235 0.84240196 0.95906863
0.86911765 0.83333333 0.98039216
0.75833333 0.91789216 0.9625
0.74509804 0.98039216 0.88823529
0.49068627 0.49460784 0.60980392
0.46911765 0.46911765 0.61372549
0.44068627 0.44068627 0.60833333
0.40196078 0.3995098 0.60980392
0.35147059 0.35539216 0.60588235
0.31348039 0.31740196 0.62040441
0.43345588 0.41470588 0.7372549
0.54117647 0.50324755 0.85686275
0.62205882 0.57647059 0.97254902
0.50196078 0.51372549 0.61372549
0.50949755 0.51323529 0.62107843
0.47945772 0.47892157 0.61458333
0.44430147 0.44411765 0.61653646
0.40931373 0.41308211 0.6158701
0.3870098 0.38811275 0.62934283
0.4817402 0.46678922 0.74278493
0.58596814 0.55196078 0.86470588
0.68235294 0.63676471 0.9786152
0.51029412 0.54852941 0.61764706
0.52585784 0.54852941 0.6254902
0.53446691 0.54096201 0.62218137
0.50602022 0.50735294 0.61764706
0.47107843 0.475 0.62156863
0.44650735 0.44790135 0.63065257
0.54129902 0.52598039 0.7448223
0.64932598 0.62156863 0.86870404
0.74620098 0.70343137 0.98529412
0.51029412 0.57156863 0.61764706
0.52567402 0.57156863 0.61911765
0.54535846 0.56764706 0.61764706
0.55980392 0.56280637 0.61372549
0.5299326 0.53207721 0.61810662
0.50056679 0.50356924 0.62317708
0.60029105 0.58284314 0.7372549
0.70686275 0.67941176 0.86470588
0.78431373 0.74656863 0.95772059
0.51617647 0.60245098 0.62156863
0.53118873 0.59745711 0.61764706
0.54368873 0.58553922 0.60980392
0.56473652 0.58823529 0.61418505
0.58321078 0.58578431 0.61764706
0.58033088 0.58379289 0.64136029
0.66544118 0.65392157 0.74779412
0.76470588 0.74117647 0.86470588
0.85931373 0.82401961 0.98504902
0.51415441 0.6185049 0.61219363
0.54803156 0.63859528 0.62929687
0.56698836 0.63402267 0.62510723
0.60441176 0.64322151 0.63748468
0.6254902 0.63921569 0.63921569
0.62528339 0.63033088 0.62317708
0.67647059 0.69685968 0.73970588
0.80165441 0.79117647 0.86862745
0.88762255 0.86017157 0.9625
0.61862745 0.74117647 0.6754902
0.63039216 0.74509804 0.67334559
0.65355392 0.74117647 0.67775735
0.68425245 0.7372549 0.68745404
0.71623775 0.73639706 0.71072304
0.72964154 0.70804228 0.72774203
0.69595588 0.74117647 0.7307598
0.78003983 0.8350337 0.85784314
0.85980392 0.90441176 0.97254902
0.72175245 0.86470588 0.73988971
0.73736213 0.86862745 0.73609069
0.7814951 0.86337316 0.75712316
0.82272518 0.86040901 0.77647059
0.85505515 0.84966299 0.80196078
0.86440717 0.81782322 0.83523284
0.78636642 0.77743566 0.85338542
0.74352022 0.86750153 0.81602328
0.82794118 0.97028186 0.9786152
0.85196078 0.98578431 0.81568627
0.88302696 0.98449755 0.82714461
0.91372549 0.97291667 0.83823529
0.96623775 0.98480392 0.8627451
0.96789216 0.94803922 0.8870098
0.965625 0.90343137 0.92696078
0.95845588 0.88039216 0.97647059
0.83186275 0.89754902 0.9653799
0.8004902 0.97647059 0.88529412
0.59901961 0.59901961 0.7372549
0.56764706 0.5685049 0.73333333
0.5254902 0.5254902 0.73333333
0.49068627 0.48823529 0.74178922
0.4504902 0.45196078 0.72990196
0.41715686 0.42107843 0.74215686
0.3995098 0.3995098 0.7504902
0.49019608 0.47107843 0.86470588
0.58627451 0.55098039 0.9754902
0.60698529 0.61519608 0.7372549
0.62173713 0.61793811 0.74471507
0.58112745 0.58333333 0.74117647
0.54669118 0.54852941 0.74509804
0.50588235 0.50980392 0.73903186
0.47107843 0.47161458 0.74019608
0.44972426 0.45232843 0.75422794
0.54019608 0.525 0.861106
0.64803922 0.61666667 0.98676471
0.61372549 0.64509804 0.74509804
0.63026961 0.64901961 0.74825368
0.64295343 0.64552696 0.74515931
0.61029412 0.61222426 0.74117647
0.5685049 0.57156863 0.74117647
0.52953431 0.53284314 0.7372549
0.49993873 0.50128676 0.7466299
0.60281863 0.59068627 0.86822917
0.69901961 0.67156863 0.97254902
0.61078431 0.67205882 0.74117647
0.63016238 0.67205882 0.74509804
0.64534314 0.66568627 0.7372549
0.65536152 0.66176471 0.7372549
0.62886029 0.62941176 0.74117647
0.59460784 0.59852941 0.74496017
0.55882353 0.56510417 0.74656863
0.66174939 0.64901961 0.86096814
0.76311275 0.73382353 0.97303922
0.61470588 0.6995098 0.74509804
0.63020833 0.69577206 0.74252451
0.65183824 0.69154412 0.74117647
0.66936275 0.69025735 0.73970588
0.68259804 0.68088235 0.7375
0.65465686 0.65526961 0.74215686
0.62328431 0.63112745 0.7504902
0.72254902 0.71421569 0.8564951
0.82696078 0.79656863 0.99068627
0.61470588 0.72095588 0.74080882
0.62605699 0.71703431 0.74117647
0.65686275 0.72205882 0.74583333
0.67875306 0.72205882 0.74509804
0.69387255 0.71421569 0.74117647
0.7033701 0.70698529 0.74509804
0.68042279 0.68434436 0.74656863
0.77700674 0.7691636 0.86470588
0.87009804 0.84693627 0.97156863
0.62720588 0.75686275 0.74583333
0.65113358 0.76519608 0.74987745
0.66960784 0.76170343 0.74920343
0.68480392 0.75367647 0.74583333
0.71629902 0.75416667 0.7502451
0.73581495 0.75612745 0.75220588
0.75 0.75955882 0.76176471
0.82916667 0.82300858 0.86786152
0.94411765 0.92009804 0.98259804
0.7122549 0.86421569 0.79901961
0.73443627 0.86421569 0.79252451
0.76176471 0.86443015 0.80294118
0.7856924 0.86286765 0.80992647
0.81127451 0.86470588 0.80294118
0.8470435 0.86470588 0.83132659
0.84215686 0.8377451 0.84779412
0.82438725 0.87254902 0.86622243
0.9004902 0.94558824 0.96948529
0.81862745 0.96470588 0.85294118
0.82990196 0.96335784 0.85294118
0.85490196 0.9627451 0.85588235
0.89803922 0.975 0.87218137
0.93921569 0.97794118 0.89705882
0.97401961 0.96715686 0.91421569
0.9745098 0.92867647 0.94215686
0.9122549 0.91458333 0.97401961
0.86862745 0.97745098 0.94117647
0.69166667 0.7 0.86470588
0.6495098 0.65735294 0.85343137
0.625 0.62512255 0.86372549
0.603125 0.5995098 0.87383578
0.55490196 0.55661765 0.85465686
0.51372549 0.51764706 0.86078431
0.47401961 0.47794118 0.86470588
0.45018382 0.4497549 0.87775735
0.53137255 0.5122549 0.96666667
0.70343137 0.715625 0.86078431
0.71438419 0.71170343 0.8651348
0.67990196 0.68382353 0.86465993
0.64714308 0.64924173 0.86474418
0.60465686 0.60637255 0.86078431
0.57113971 0.57156863 0.86078431
0.53589154 0.53676471 0.8651348
0.49834559 0.50265012 0.87248009
0.59509804 0.58290441 0.98835784
0.70735294 0.7495098 0.86470588
0.72254902 0.74558824 0.86470588
0.73088235 0.73480392 0.86443015
0.7019761 0.70428922 0.86470588
0.66991422 0.67205882 0.86421569
0.63377757 0.63377757 0.86078431
0.59767157 0.59852941 0.86470588
0.57602635 0.57688419 0.87852328
0.65232843 0.64362745 0.9754902
0.69969363 0.76881127 0.86207108
0.72647059 0.76881127 0.86470588
0.74624694 0.76470588 0.86078431
0.75931373 0.76390165 0.86470588
0.72990196 0.72990196 0.86470588
0.69521293 0.69521293 0.86470588
0.6567402 0.65943627 0.86470588
0.63268229 0.63020833 0.87640931
0.69136029 0.68118873 0.94754902
0.70343137 0.79338235 0.86078431
0.73039216 0.79558824 0.86862745
0.74981618 0.79166667 0.86862745
0.78039216 0.80098039 0.87254902
0.78112745 0.78296569 0.8627451
0.74901961 0.75196078 0.86599265
0.7216299 0.72205882 0.86844363
0.70042892 0.70710784 0.88480392
0.77254902 0.75759804 0.9752451
0.71158088 0.81862745 0.86470588
0.73039216 0.81862745 0.86862745
0.75520833 0.82169118 0.87254902
0.77713695 0.82126225 0.86862745
0.79583333 0.81893382 0.86470588
0.80539216 0.81078431 0.86421569
0.7782935 0.78039216 0.86470588
0.7528799 0.75261183 0.87248775
0.83823529 0.81862745 0.97175245
0.71176471 0.8377451 0.86078431
0.73431373 0.84590993 0.86470588
0.75379902 0.84534314 0.86372549
0.77794118 0.84313725 0.86462929
0.79607843 0.83946078 0.8627451
0.81885723 0.84166667 0.86456801
0.83284314 0.83667279 0.8614277
0.80788909 0.80430453 0.86605392
0.89852941 0.88296569 0.97254902
0.73921569 0.88039216 0.86911765
0.75042892 0.88393076 0.86943934
0.7661152 0.88088235 0.86475184
0.78868719 0.87712163 0.86470588
0.81148897 0.87668505 0.86862745
0.82904412 0.8727788 0.87248775
0.86090686 0.87696078 0.86910233
0.87254902 0.88045343 0.87647059
0.94166667 0.93823529 0.97702206
0.82009804 0.98039216 0.91470588
0.83094363 0.98137255 0.915625
0.8307598 0.95906863 0.90147059
0.8754902 0.9903799 0.92126225
0.89607843 0.96666667 0.92647059
0.91979167 0.96292892 0.92567402
0.94742647 0.9622549 0.93002451
0.9622549 0.9622549 0.95790441
0.92696078 0.96421569 0.94607843
0.78431373 0.80784314 0.98823529
0.77254902 0.77647059 0.96862745
0.72254902 0.72254902 0.9872549
0.67990196 0.67990196 0.95833333
0.64901961 0.64901961 0.9627451
0.61029412 0.60882353 0.98676471
0.58627451 0.58627451 0.99215686
0.53284314 0.53676471 0.98480392
0.50588235 0.50588235 0.96078431
0.78823529 0.81960784 0.98480392
0.81654412 0.81568627 0.99209559
0.76482843 0.77254902 0.97647059
0.73627451 0.73970588 0.9745098
0.71053922 0.71078431 0.98186275
0.6622549 0.65882353 0.97598039
0.62512255 0.6247549 0.98345588
0.59509804 0.59417892 0.98082108
0.56813725 0.56421569 0.97647059
0.79705882 0.84803922 0.97843137
0.81127451 0.83921569 0.97647059
0.8254902 0.84019608 0.98627451
0.79007353 0.79509804 0.97598039
0.76862745 0.76715686 0.97843137
0.72990196 0.72892157 0.98039216
0.69117647 0.69117647 0.97671569
0.65980392 0.66372549 0.9877451
0.62156863 0.61764706 0.98137255
0.78676471 0.84558824 0.95539216
0.81764706 0.85735294 0.9723652
0.83676471 0.85698529 0.97401961
0.84558824 0.85343137 0.98339461
0.83112745 0.82720588 0.98504902
0.78627451 0.7877451 0.97892157
0.75294118 0.75294118 0.97892157
0.7254902 0.72156863 0.99166667
0.67941176 0.67941176 0.98039216
0.80392157 0.88039216 0.97254902
0.82107843 0.88627451 0.98235294
0.83921569 0.88039216 0.97990196
0.86642157 0.88627451 0.98357843
0.8872549 0.88235294 0.97647059
0.84558824 0.8495098 0.98431373
0.80637255 0.81176471 0.97647059
0.77205882 0.77205882 0.97279412
0.74901961 0.74509804 0.98039216
0.81323529 0.91666667 0.99117647
0.81930147 0.90704657 0.97990196
0.84607843 0.90796569 0.98431373
0.86366422 0.90343137 0.97254902
0.88676471 0.90857843 0.97647059
0.88627451 0.89803922 0.98431373
0.86323529 0.87009804 0.97830882
0.83792892 0.84185049 0.98057598
0.81617647 0.80833333 0.98039216
0.81568627 0.93039216 0.98039216
0.82732843 0.94117647 0.9872549
0.84828431 0.93651961 0.98039216
0.87058824 0.93578431 0.97855392
0.89166667 0.93921569 0.98186275
0.91470588 0.93492647 0.98492647
0.93897059 0.93897059 0.99215686
0.90661765 0.90220588 0.99191176
0.8872549 0.87647059 0.98431373
0.81911765 0.95735294 0.98431373
0.8278799 0.95735294 0.98088235
0.85 0.95870098 0.9817402
0.87745098 0.96372549 0.98431373
0.88823529 0.95147059 0.97083333
0.90980392 0.9495098 0.97107843
0.93394608 0.95 0.96519608
0.93333333 0.94080882 0.96911765
0.92990196 0.92598039 0.98382353
0.81176471 0.98431373 0.98431373
0.83872549 0.98431373 0.98431373
0.85392157 0.98431373 0.96568627
0.87843137 0.97647059 0.98431373
0.9 0.97843137 0.98823529
0.92303922 0.97254902 0.97647059
0.94215686 0.97745098 0.96078431
0.96421569 0.98382353 0.96078431
0.96862745 0.97254902 0.96862745
