site/assets/luts/sha256-82b0fcc53b1ab2dd4a6fe8b3cd863b30632d4d252eea722fa77d3650fa6db62e.cube
# LUTr-Schema-Version: 2
# LUTr-ID: sha256-82b0fcc53b1ab2dd4a6fe8b3cd863b30632d4d252eea722fa77d3650fa6db62e
# LUTr-Title: kodak ektachrome 100 vs
# LUTr-Collection: Natron HaldCLUT
# LUTr-Collection-ID: natron-haldclut-presets
# LUTr-Source: https://github.com/NatronGitHub/clut
# LUTr-Retrieved: 2026-07-27
# LUTr-Source-File: submissions/natron-haldclut-presets/colorslide/kodak_ektachrome_100_vs.png
# LUTr-Source-Format: HALD-PNG
# LUTr-Source-SHA256: 82b0fcc53b1ab2dd4a6fe8b3cd863b30632d4d252eea722fa77d3650fa6db62e
# LUTr-License: CC-BY-SA-4.0
# LUTr-License-URL: https://github.com/NatronGitHub/clut#license
# LUTr-License-Basis: repo-license-file
# LUTr-Transform-Class: film-emulation
# LUTr-Tags: creative, film, film-emulation, hald-clut, natron, png, cube
# LUTr-Input-Color-Space: srgb
# LUTr-Input-Gamut: rec709
# LUTr-Input-Transfer: srgb
# LUTr-Output-Color-Space: srgb
# LUTr-Output-Gamut: rec709
# LUTr-Output-Transfer: srgb
# LUTr-Color-Space-Confidence: assumed-display-referred
# LUTr-Domain-Normalized: true
# LUTr-Shaper: none
# LUTr-Original-Grid: 64x64x64
# LUTr-Conversion-Grid: 25x25x25
# LUTr-Conversion-Interpolation: trilinear
# LUTr-Conversion-Method: HALD-PNG LUT image decoded at 16-bit and sampled to 25x25x25 3D CUBE
# LUTr-Conversion-Tool: LUTr scripts/convert-all-to-cube.mjs 2.0.0
# LUTr-Conversion-Date: 2026-07-27
# LUTr-Note: Preserve this metadata and the upstream license notices when redistributing.
TITLE "kodak ektachrome 100 vs"
LUT_3D_SIZE 5
DOMAIN_MIN 0 0 0
DOMAIN_MAX 1 1 1
0 0 0
0.14117647 0 0.0029411765
0.43137255 0.0019607843 0.0019607843
0.75392157 0.0039215686 0.0078431373
0.99607843 0 0
0.092156863 0.18823529 0.081372549
0.2372549 0.18112745 0.057843137
0.51078431 0.15588235 0.02254902
0.79509804 0.1 0.018627451
0.99607843 0.026470588 0
0.23333333 0.48039216 0.18039216
0.36372549 0.48235294 0.17892157
0.58039216 0.46862745 0.13921569
0.83186275 0.43039216 0.1372549
0.99215686 0.39215686 0.15490196
0.48235294 0.76568627 0.28333333
0.55098039 0.76470588 0.27181373
0.71764706 0.76568627 0.23137255
0.92328431 0.75 0.18504902
1 0.70784314 0.19901961
0.79215686 0.98039216 0.35686275
0.83039216 0.98823529 0.35686275
0.8745098 0.96470588 0.32352941
1 0.9872549 0.30098039
1 1 0.25098039
0 0.0029411765 0.11862745
0.088970588 0.0078431373 0.10784314
0.41813725 0.0039215686 0.075980392
0.73529412 0 0.048284314
0.99607843 0 0.034313725
0.054166667 0.18014706 0.19901961
0.18431373 0.17328431 0.18357843
0.4685049 0.14105392 0.14607843
0.76887255 0.092401961 0.10490196
1 0.019607843 0.068382353
0.19852941 0.475 0.26715686
0.31372549 0.47352941 0.27352941
0.5502451 0.46715686 0.25931373
0.80294118 0.42512255 0.26176471
0.98823529 0.38872549 0.25882353
0.48406863 0.76764706 0.29019608
0.54148284 0.76642157 0.28455882
0.69987745 0.76470588 0.2752451
0.90410539 0.75128676 0.27769608
0.99779412 0.71470588 0.35955882
0.82156863 0.99901961 0.36862745
0.83921569 0.99289216 0.36078431
0.91764706 0.99019608 0.34117647
0.98823529 0.99117647 0.29313725
1 0.98921569 0.25490196
0 0.011764706 0.30392157
0.051960784 0.0039215686 0.25490196
0.37058824 0.0039215686 0.20980392
0.71519608 0 0.16470588
0.98039216 0 0.14117647
0.010784314 0.16862745 0.38039216
0.12512255 0.15723039 0.36397059
0.41470588 0.13553922 0.31495098
0.73235294 0.076470588 0.2442402
0.99215686 0.014705882 0.18137255
0.05 0.46078431 0.50392157
0.19656863 0.46470588 0.49632353
0.47205882 0.45294118 0.47352941
0.75392157 0.42426471 0.43627451
0.99607843 0.35 0.38627451
0.35686275 0.75147059 0.54460784
0.43529412 0.75134804 0.54264706
0.60882353 0.74681373 0.54313725
0.825 0.72990196 0.54129902
0.99264706 0.70490196 0.55392157
0.83529412 1 0.37254902
0.82843137 0.98627451 0.36127451
0.9245098 0.99411765 0.35686275
0.98676471 0.99215686 0.34460784
1 0.99411765 0.38431373
0 0.0039215686 0.42254902
0.011519608 0.0039215686 0.40759804
0.30490196 0.0039215686 0.35147059
0.67230392 0 0.29509804
0.95588235 0 0.24803922
0 0.15759804 0.55294118
0.054901961 0.14436275 0.5307598
0.34987745 0.12254902 0.46764706
0.68645833 0.064338235 0.38529412
0.97083333 0.0068627451 0.29877451
0.010784314 0.45686275 0.69313725
0.056495098 0.45330882 0.6810049
0.39852941 0.44093137 0.64681373
0.70980392 0.4127451 0.5872549
0.97598039 0.35735294 0.52892157
0.15686275 0.73333333 0.78921569
0.28572304 0.73651961 0.78848039
0.50490196 0.72647059 0.77071078
0.74981618 0.71372549 0.74583333
0.98823529 0.69411765 0.71936275
0.69019608 0.99215686 0.72058824
0.69730392 0.98259804 0.71936275
0.75931373 0.97745098 0.75196078
0.87696078 0.94926471 0.76838235
1 0.98137255 0.78137255
0 0 0.56862745
0.0039215686 0.0068627451 0.51372549
0.24901961 0 0.45098039
0.64607843 0 0.3745098
0.94509804 0 0.30196078
0 0.16764706 0.67156863
0.011519608 0.13333333 0.63431373
0.29803922 0.11764706 0.56764706
0.64730392 0.056862745 0.47745098
0.95196078 0.0078431373 0.37843137
0 0.44705882 0.79803922
0.0068627451 0.44509804 0.80392157
0.32058824 0.43333333 0.75196078
0.66960784 0.40882353 0.67892157
0.95490196 0.34705882 0.61176471
0.0039215686 0.72254902 0.93529412
0.056862745 0.72254902 0.93137255
0.41813725 0.71764706 0.90441176
0.69901961 0.70980392 0.86397059
0.95686275 0.67941176 0.81078431
0.52941176 0.98039216 0.99607843
0.5627451 0.97941176 0.99215686
0.6745098 0.98235294 0.99215686
0.80490196 0.96764706 0.99117647
0.98039216 0.97647059 0.98039216
