site/assets/luts/sha256-5adc0718a777e33b3f073ea0e0b8ce81e660c8abe606615e50fa03ed2527bcf1.cube
# LUTr-Schema-Version: 2
# LUTr-ID: sha256-5adc0718a777e33b3f073ea0e0b8ce81e660c8abe606615e50fa03ed2527bcf1
# LUTr-Title: kodak portra 160 -
# LUTr-Collection: Natron HaldCLUT
# LUTr-Collection-ID: natron-haldclut-presets
# LUTr-Source: https://github.com/NatronGitHub/clut
# LUTr-Retrieved: 2026-07-27
# LUTr-Source-File: submissions/natron-haldclut-presets/negative_new/kodak_portra_160_-.png
# LUTr-Source-Format: HALD-PNG
# LUTr-Source-SHA256: 5adc0718a777e33b3f073ea0e0b8ce81e660c8abe606615e50fa03ed2527bcf1
# LUTr-License: CC-BY-SA-4.0
# LUTr-License-URL: https://github.com/NatronGitHub/clut#license
# LUTr-License-Basis: repo-license-file
# LUTr-Transform-Class: film-emulation
# LUTr-Tags: creative, film, film-emulation, hald-clut, natron, png, cube
# LUTr-Input-Color-Space: srgb
# LUTr-Input-Gamut: rec709
# LUTr-Input-Transfer: srgb
# LUTr-Output-Color-Space: srgb
# LUTr-Output-Gamut: rec709
# LUTr-Output-Transfer: srgb
# LUTr-Color-Space-Confidence: assumed-display-referred
# LUTr-Domain-Normalized: true
# LUTr-Shaper: none
# LUTr-Original-Grid: 64x64x64
# LUTr-Conversion-Grid: 25x25x25
# LUTr-Conversion-Interpolation: trilinear
# LUTr-Conversion-Method: HALD-PNG LUT image decoded at 16-bit and sampled to 25x25x25 3D CUBE
# LUTr-Conversion-Tool: LUTr scripts/convert-all-to-cube.mjs 2.0.0
# LUTr-Conversion-Date: 2026-07-27
# LUTr-Note: Preserve this metadata and the upstream license notices when redistributing.
TITLE "kodak portra 160 -"
LUT_3D_SIZE 9
DOMAIN_MIN 0 0 0
DOMAIN_MAX 1 1 1
0.015686275 0.039215686 0.0078431373
0.075490196 0.0034313725 0.0034313725
0.25686275 0.020588235 0.012745098
0.44068627 0 0.0039215686
0.61568627 0 0
0.73382353 0 0.0039215686
0.82647059 0.0039215686 0.0039215686
0.91519608 0.041666667 0
0.98823529 0.16470588 0
0.0039215686 0.083823529 0.0073529412
0.077022059 0.092647059 0.0044117647
0.25551471 0.11127451 0.0039215686
0.44607843 0.092647059 0.0060661765
0.61764706 0.069607843 0.0039215686
0.73645833 0.057352941 0.0073529412
0.82647059 0.09754902 0.0039215686
0.91078431 0.16323529 0
0.98431373 0.22598039 0
0.0039215686 0.2372549 0.015686275
0.028431373 0.23823529 0.0052696078
0.2372549 0.26470588 0.0039215686
0.4495098 0.28823529 0.0078431373
0.61960784 0.27352941 0.0039215686
0.73382353 0.26507353 0.0078431373
0.82647059 0.26887255 0.014705882
0.90686275 0.29852941 0.0039215686
0.98039216 0.32647059 0
0 0.4004902 0.0078431373
0.024509804 0.38872549 0.0078431373
0.21335784 0.40882353 0.0078431373
0.40925245 0.42640931 0.0072916667
0.58676471 0.44387255 0.0039215686
0.70447304 0.4348652 0.0083946078
0.8122549 0.43970588 0.011764706
0.90098039 0.43970588 0.0076593137
0.99362745 0.43872549 0
0.021568627 0.51568627 0.019607843
0.063480392 0.50612745 0.010294118
0.22352941 0.50343137 0.0078431373
0.36323529 0.5129902 0.0024509804
0.50980392 0.54313725 0.012745098
0.65612745 0.56789216 0.010539216
0.77401961 0.5627451 0.0078431373
0.87843137 0.5625 0.0078431373
0.97647059 0.55294118 0.0039215686
0.15 0.59656863 0.076470588
0.20900735 0.58903186 0.065012255
0.26666667 0.58480392 0.049019608
0.38137255 0.59025735 0.042647059
0.49607843 0.60490196 0.075735294
0.61525735 0.63186275 0.05692402
0.72794118 0.6560049 0.060416667
0.85539216 0.66862745 0.0065563725
0.97892157 0.66470588 0.0039215686
0.29019608 0.67745098 0.18431373
0.31752451 0.67745098 0.18737745
0.34534314 0.66960784 0.16568627
0.40833333 0.66470588 0.15980392
0.49019608 0.67352941 0.15833333
0.60159314 0.69754902 0.17193627
0.7120098 0.7245098 0.19534314
0.82156863 0.75539216 0.20392157
0.94901961 0.7754902 0.13921569
0.40931373 0.77794118 0.29215686
0.41366422 0.77101716 0.28780637
0.42892157 0.76629902 0.27352941
0.47696078 0.77058824 0.28431373
0.53259804 0.76666667 0.27867647
0.6245098 0.78382353 0.28578431
0.7127451 0.80294118 0.30882353
0.82156863 0.8377451 0.32401961
0.90882353 0.86421569 0.31960784
0.51372549 0.90588235 0.42745098
0.51372549 0.89411765 0.42009804
0.5245098 0.87843137 0.40784314
0.56960784 0.89264706 0.41421569
0.61568627 0.88627451 0.40784314
0.67892157 0.89313725 0.40931373
0.75392157 0.90686275 0.42058824
0.84117647 0.93137255 0.43676471
0.8745098 0.94901961 0.44705882
0.0044117647 0.0083333333 0.073529412
0.084803922 0.020036765 0.07745098
0.25281863 0.015686275 0.084681373
0.45392157 0.0078431373 0.095772059
0.61593137 0.0073529412 0.081372549
0.7377451 0.0039215686 0.06372549
0.8254902 0.0025735294 0.055637255
0.90778186 0.091176471 0.060845588
0.98872549 0.18333333 0.04754902
0.0044117647 0.11954657 0.091237745
0.093627451 0.11171109 0.088181679
0.26738664 0.11438419 0.083501838
0.45751379 0.07310049 0.087147672
0.61740196 0.073253676 0.06026348
0.7377451 0.069607843 0.048491115
0.82647059 0.10571385 0.040808824
0.91078431 0.17058824 0.045963542
0.98431373 0.22947304 0.032843137
0.0039215686 0.25343137 0.098161765
0.043014706 0.2535386 0.085416667
0.25278799 0.27598039 0.076838235
0.46764706 0.29497549 0.031188725
0.62310049 0.27941176 0.023223039
0.74198836 0.27254902 0.007567402
0.82647059 0.2799326 0.0074448529
0.90735294 0.30245098 0.020680147
0.98039216 0.32941176 0.027818627
0.015870098 0.41176471 0.086764706
0.058111213 0.40931373 0.087254902
0.24067096 0.41456801 0.067156863
0.41305147 0.4348652 0.059734988
0.58676471 0.44813113 0.033425245
0.71758578 0.43852635 0.020404412
0.81862745 0.43578431 0.0056219363
0.8995098 0.43596814 0.01629902
0.98431373 0.44264706 0.0034313725
0.072058824 0.5252451 0.12058824
0.13599877 0.51222426 0.12129289
0.25863971 0.50827206 0.10998775
0.3734375 0.51510417 0.093137255
0.51764706 0.54301471 0.090563725
0.66853554 0.56780025 0.056617647
0.7875 0.56470588 0.019914216
0.89384191 0.56056985 0.0058823529
0.98431373 0.55490196 0
0.19754902 0.6004902 0.17009804
0.24234069 0.59656863 0.17107843
0.28668811 0.58858762 0.15503983
0.38137255 0.58736979 0.13449755
0.49534314 0.60490196 0.15808824
0.62235754 0.63578431 0.17401961
0.73800551 0.65992647 0.16280637
0.86176471 0.67107843 0.076164216
0.98039216 0.66862745 0.009129902
0.3122549 0.68394608 0.24362745
0.3317402 0.68137255 0.24362745
0.36528799 0.67352941 0.23590686
0.4105239 0.66568627 0.21412377
0.50490196 0.67935049 0.23045343
0.60410539 0.69644608 0.2334712
0.69512868 0.71602328 0.2421875
0.82058824 0.75104167 0.24793199
0.94019608 0.7745098 0.21875
0.40931373 0.7745098 0.33039216
0.42026654 0.77843137 0.32254902
0.43970588 0.77058824 0.31127451
0.47843137 0.76779259 0.31094516
0.53630515 0.76838235 0.30291054
0.61715686 0.78204657 0.31256127
0.7057598 0.79878983 0.32265625
0.8028799 0.82549786 0.34258578
0.92156863 0.86421569 0.35784314
0.50196078 0.88235294 0.42745098
0.52113971 0.90238971 0.44221814
0.53370098 0.89252451 0.43223039
0.5596201 0.87892157 0.42334559
0.61568627 0.89779412 0.43284314
0.68137255 0.90753676 0.43676471
0.75870098 0.91997549 0.44803922
0.84411765 0.94074755 0.45833333
0.94019608 0.96813725 0.48137255
0.0039215686 0.031372549 0.2754902
0.068137255 0.027083333 0.27512255
0.2627451 0.020588235 0.27254902
0.45931373 0.0078431373 0.27610294
0.62647059 0.011764706 0.28039216
0.7317402 0.0078431373 0.25931373
0.81397059 0.038235294 0.24117647
0.89558824 0.16421569 0.24031863
0.97254902 0.24215686 0.24509804
0.0078431373 0.14313725 0.26470588
0.049938725 0.1345435 0.26852022
0.26372549 0.12696078 0.26884191
0.46176471 0.11456801 0.2754902
0.61519608 0.092034314 0.26207108
0.72205882 0.10758272 0.25574449
0.81078431 0.16617647 0.24338235
0.89656863 0.22406556 0.23817402
0.97708333 0.26911765 0.25294118
0.0088235294 0.2879902 0.26691176
0.032843137 0.29564951 0.27230392
0.28235294 0.29705882 0.26917892
0.48039216 0.30067402 0.27254902
0.61568627 0.30232843 0.24754902
0.72303922 0.29791667 0.24828431
0.80839461 0.30827206 0.22671569
0.89647672 0.32791054 0.22892157
0.98112745 0.3497549 0.24803922
0.0011029412 0.44803922 0.26678922
0.16158088 0.44803922 0.28681066
0.29852941 0.44129902 0.27227328
0.45228248 0.43249081 0.27587316
0.58529412 0.44509804 0.25931373
0.72598039 0.44541973 0.2448989
0.80686275 0.44347426 0.21568627
0.89348958 0.44816176 0.23484988
0.96973039 0.45625 0.21433824
0.20490196 0.54411765 0.29607843
0.24810049 0.54215686 0.29632353
0.31568627 0.53272059 0.28664216
0.40643382 0.52512255 0.27984069
0.53455882 0.5502451 0.29485294
0.67254902 0.56029412 0.27769608
0.78186275 0.56384804 0.24522059
0.89044118 0.56427696 0.20839461
0.98872549 0.56421569 0.20686275
0.28627451 0.61862745 0.30882353
0.30539216 0.61527267 0.31279105
0.3513174 0.60625 0.3026348
0.40525429 0.5933364 0.28676471
0.51194853 0.60882353 0.30196078
0.62647059 0.63339461 0.3089614
0.73823529 0.65254289 0.2989277
0.86286765 0.66715686 0.28137255
0.98578431 0.67107843 0.22046569
0.35784314 0.69607843 0.34387255
0.36139706 0.69313725 0.3385723
0.39607843 0.68529412 0.33235294
0.43443627 0.67463235 0.31213235
0.50441176 0.67745098 0.31470588
0.6004902 0.69335172 0.32545956
0.70153186 0.71721814 0.34761029
0.81580882 0.73970588 0.34669118
0.94705882 0.77156863 0.32843137
0.42745098 0.78492647 0.39019608
0.43267463 0.7819087 0.38656556
0.45891544 0.77907475 0.3825674
0.48783701 0.7745098 0.37173713
0.54387255 0.7745098 0.37205882
0.61657475 0.78204657 0.37103248
0.70579044 0.79825368 0.3877451
0.79878983 0.81775429 0.40294118
0.92205882 0.86029412 0.41482843
0.5127451 0.89705882 0.47156863
0.52401961 0.90845588 0.47990196
0.53063725 0.89215686 0.4629902
0.5622549 0.89166667 0.46115196
0.61568627 0.90196078 0.46862745
0.68137255 0.90232843 0.46960784
0.7627451 0.93137255 0.48357843
0.83235294 0.91764706 0.47745098
0.91372549 0.94509804 0.49705882
0.0039215686 0.045588235 0.45539216
0.059497549 0.045772059 0.4596201
0.26654412 0.053431373 0.46568627
0.46268382 0.063419118 0.46715686
0.62941176 0.09754902 0.46446078
0.73229167 0.18235294 0.45
0.81078431 0.20441176 0.42941176
0.88382353 0.26519608 0.42647059
0.97009804 0.26862745 0.4122549
0.0039215686 0.15980392 0.44754902
0.068137255 0.16668964 0.45120251
0.28529412 0.1872549 0.45433517
0.47421875 0.19774816 0.45931373
0.62009804 0.20073529 0.46136642
0.73265165 0.25256587 0.45392157
0.8060049 0.27977941 0.43172488
0.88382353 0.28069853 0.41848192
0.95539216 0.31029412 0.42009804
0.011397059 0.30551471 0.45147059
0.066253064 0.30917586 0.45147059
0.30076593 0.33253676 0.45346201
0.4738511 0.34303002 0.46084559
0.60741422 0.34546569 0.45514706
0.70735294 0.35637255 0.4416973
0.79117647 0.35735294 0.42931985
0.87242647 0.36897978 0.42401961
0.95686275 0.38382353 0.4122549
0.018504902 0.47892157 0.45839461
0.18504136 0.48203891 0.45000766
0.3428462 0.46816789 0.45215993
0.46658241 0.46470588 0.45481771
0.58186275 0.46816789 0.45389093
0.6964231 0.47442555 0.43039216
0.78203125 0.46433824 0.43016238
0.86960784 0.46378676 0.41354167
0.94626225 0.46862745 0.40349265
0.23995098 0.57107843 0.44509804
0.29852941 0.575 0.45603554
0.38670343 0.56642157 0.46004902
0.46075368 0.55294118 0.44659926
0.55772059 0.56519608 0.44338235
0.66712623 0.57545956 0.44454657
0.78964461 0.57058824 0.42604167
0.87745098 0.56985294 0.40392157
0.96151961 0.57058824 0.38333333
0.3504902 0.64460784 0.44117647
0.38474265 0.64852941 0.45686275
0.42084865 0.63713235 0.4557598
0.45890778 0.61770833 0.43333333
0.5252451 0.61639093 0.42671569
0.62647059 0.63674173 0.4394761
0.74215686 0.65166973 0.44172794
0.86849724 0.6658701 0.42038909
0.97254902 0.67254902 0.39503676
0.39656863 0.71911765 0.45
0.41323529 0.71556373 0.4564951
0.44212623 0.70808824 0.45364583
0.47254902 0.69276961 0.43480392
0.52101716 0.68321078 0.42175245
0.6051011 0.69401042 0.42843137
0.70508578 0.72120098 0.45073529
0.82696078 0.74453125 0.44754902
0.94203431 0.76764706 0.43921569
0.45833333 0.80392157 0.48498775
0.46176471 0.79812347 0.48235294
0.47843137 0.78970588 0.47175245
0.50784314 0.78304228 0.45637255
0.54886642 0.77441789 0.44411765
0.62481618 0.78315717 0.45912224
0.70562194 0.79857537 0.46064645
0.80637255 0.828125 0.47657782
0.92647059 0.86568627 0.49215686
0.51372549 0.90833333 0.53039216
0.51764706 0.90490196 0.52824755
0.53627451 0.89705882 0.52254902
0.57352941 0.90980392 0.52254902
0.61568627 0.90514706 0.51666667
0.67408088 0.8971201 0.50833333
0.75490196 0.92156863 0.52401961
0.83707108 0.92598039 0.53057598
0.91764706 0.94803922 0.54362745
0.0039215686 0.11960784 0.59215686
0.090196078 0.12696078 0.59215686
0.30588235 0.14656863 0.59166667
0.47426471 0.16323529 0.60122549
0.61764706 0.19215686 0.60196078
0.71936275 0.26519608 0.59142157
0.81078431 0.31666667 0.58186275
0.89509804 0.36151961 0.57647059
0.96862745 0.38823529 0.5627451
0.006372549 0.20220588 0.58995098
0.13722426 0.21764706 0.58431373
0.32334559 0.23866422 0.58823529
0.48265931 0.25603554 0.59926471
0.61286765 0.28566176 0.59803922
0.72009804 0.33495711 0.5893076
0.80643382 0.36648284 0.5838848
0.8877451 0.38229167 0.57034314
0.96470588 0.40539216 0.5627451
0.12647059 0.34215686 0.58676471
0.22481618 0.3504902 0.58498775
0.36237745 0.36580882 0.58431373
0.48504902 0.3778799 0.5879902
0.60294118 0.39191176 0.58676471
0.71066176 0.42205882 0.58872549
0.79473039 0.42941176 0.57683824
0.87640931 0.43523284 0.56838235
0.96078431 0.43578431 0.55882353
0.15808824 0.48823529 0.5752451
0.25618873 0.48063725 0.57696078
0.36593137 0.4754902 0.578125
0.48235294 0.48746936 0.58039216
0.58504902 0.5004902 0.5817402
0.68722426 0.50808824 0.5828125
0.77395833 0.49993873 0.56832108
0.86102941 0.49901961 0.55759804
0.94436275 0.49901961 0.55367647
0.29117647 0.60392157 0.58333333
0.30441176 0.6002451 0.58235294
0.39779412 0.58382353 0.57647059
0.48455882 0.57977941 0.57254902
0.58382353 0.58382353 0.57254902
0.66519608 0.58627451 0.57377451
0.76568627 0.58382353 0.56029412
0.85539216 0.57058824 0.54093137
0.95490196 0.57058824 0.53529412
0.37107843 0.6754902 0.56715686
0.41176471 0.67925858 0.56593137
0.45520833 0.66917892 0.56985294
0.50490196 0.65511642 0.56620711
0.5620098 0.64411765 0.55539216
0.64019608 0.65223652 0.55882353
0.74411765 0.65998775 0.55477941
0.8627451 0.66323529 0.54117647
0.97328431 0.66323529 0.53186275
0.43823529 0.74509804 0.56323529
0.44607843 0.74117647 0.55882353
0.46948529 0.7372549 0.55796569
0.51452206 0.72567402 0.54957108
0.55980392 0.71421569 0.54191176
0.61709559 0.70588235 0.53480392
0.72058824 0.72806373 0.54313725
0.84411765 0.74846814 0.54295343
0.96421569 0.76372549 0.53578431
0.47720588 0.82083333 0.57867647
0.48504902 0.82303922 0.575
0.50128676 0.81519608 0.56366422
0.54215686 0.8127451 0.55891544
0.56911765 0.79375 0.5377451
0.62089461 0.7877451 0.53137255
0.7026348 0.80245098 0.53517157
0.82104779 0.82941176 0.55125613
0.94117647 0.86446078 0.57107843
0.51176471 0.91176471 0.60392157
0.525 0.91421569 0.60196078
0.54215686 0.8995098 0.59019608
0.57892157 0.91176471 0.58823529
0.61862745 0.90980392 0.57941176
0.67352941 0.91691176 0.57254902
0.74411765 0.90098039 0.57647059
0.84460784 0.94313725 0.59044118
0.92745098 0.9254902 0.59411765
0.13970588 0.19509804 0.69460784
0.23676471 0.21960784 0.69068627
0.35490196 0.22254902 0.69571078
0.48970588 0.25392157 0.70153186
0.60857843 0.29387255 0.69852941
0.71421569 0.33529412 0.69852941
0.80686275 0.35784314 0.69571078
0.89166667 0.41421569 0.68823529
0.96568627 0.47598039 0.69068627
0.18186275 0.27175245 0.69068627
0.26644455 0.27567402 0.69068627
0.37156863 0.29082414 0.69658395
0.49852941 0.32286305 0.70245098
0.60392157 0.36063113 0.70245098
0.71121324 0.39639246 0.69852941
0.80261949 0.41986826 0.69754902
0.8877451 0.44460784 0.68854167
0.975 0.48872549 0.69460784
0.25980392 0.38394608 0.68676471
0.31948529 0.39371936 0.68676471
0.40355392 0.40073529 0.68884804
0.50686275 0.42205882 0.69068627
0.60373775 0.45147059 0.68884804
0.70320159 0.47340686 0.69497549
0.79583333 0.48351716 0.69460784
0.87990196 0.49759498 0.69068627
0.95441176 0.52352941 0.69215686
0.30343137 0.49215686 0.675
0.34558824 0.49117647 0.675
0.41176471 0.49509804 0.67461703
0.50686275 0.50259651 0.67647059
0.59996936 0.52570466 0.68039216
0.69103094 0.5442019 0.68823529
0.78180147 0.54716605 0.68523284
0.87052696 0.55697763 0.68523284
0.93333333 0.56372549 0.68915441
0.32696078 0.59264706 0.66838235
0.36902574 0.59411765 0.67034314
0.41813725 0.58627451 0.66697304
0.50340074 0.58897059 0.66715686
0.59595588 0.59571078 0.67169118
0.68088235 0.61078431 0.67892157
0.76893382 0.6120098 0.67647059
0.85784314 0.60971201 0.67009804
0.95171569 0.60441176 0.66544118
0.3872549 0.69705882 0.67653186
0.40980392 0.69460784 0.67107843
0.46415441 0.68751532 0.66323529
0.51862745 0.67555147 0.66323529
0.58946078 0.66960784 0.66323529
0.66937806 0.67557445 0.66380974
0.75680147 0.68284314 0.66845895
0.86029412 0.6841299 0.66373315
0.95686275 0.65925245 0.64117647
0.44509804 0.76703431 0.66323529
0.46171875 0.76879596 0.66433824
0.51066176 0.77205882 0.66608456
0.55761336 0.76458333 0.66470588
0.59895833 0.75490196 0.65955882
0.63849571 0.72329963 0.63480392
0.73820466 0.73958333 0.64301471
0.85209865 0.76510417 0.65093444
0.97401961 0.76078431 0.64068627
0.48284314 0.85 0.66715686
0.50373775 0.85 0.66715686
0.54171262 0.85096507 0.67107843
0.57254902 0.84754902 0.665625
0.5995098 0.82843137 0.64917279
0.64803922 0.81648284 0.63677237
0.7185815 0.81515012 0.63186275
0.83333333 0.8377068 0.64046415
0.94313725 0.86060049 0.65018382
0.50980392 0.93480392 0.67892157
0.53284314 0.92696078 0.67745098
0.55735294 0.92696078 0.675
0.58584559 0.93872549 0.675
0.62941176 0.92303922 0.66323529
0.67653186 0.92003676 0.65
0.74448529 0.91372549 0.64362745
0.84479167 0.94313725 0.65569853
0.91715686 0.96078431 0.66568627
0.30196078 0.30098039 0.78333333
0.34656863 0.30441176 0.78333333
0.43063725 0.31348039 0.7872549
0.52095588 0.34656863 0.7872549
0.62156863 0.37892157 0.7872549
0.71629902 0.43308824 0.79301471
0.80294118 0.44117647 0.79117647
0.88345588 0.45747549 0.7872549
0.94215686 0.49901961 0.79117647
0.32843137 0.34558824 0.78333333
0.37804841 0.34963235 0.78331801
0.43844975 0.35860907 0.78627451
0.52948836 0.38782169 0.7872549
0.61470588 0.41856618 0.78982843
0.71029412 0.45686275 0.79131434
0.79813113 0.47205882 0.78946078
0.87979473 0.48469669 0.78650429
0.96421569 0.53333333 0.79509804
0.36691176 0.42745098 0.77941176
0.40425858 0.43039216 0.78030025
0.4627451 0.43921569 0.78468137
0.53137255 0.45940564 0.78259804
0.61764706 0.4872549 0.78492647
0.70753676 0.51090686 0.79117647
0.79246324 0.5245098 0.7872549
0.87598039 0.53676471 0.7872549
0.95588235 0.56372549 0.79117647
0.37941176 0.51813725 0.76519608
0.41178002 0.51536458 0.76796875
0.4627451 0.51813725 0.77156863
0.53921569 0.53382353 0.77156863
0.61801471 0.55294118 0.77567402
0.69996936 0.57556679 0.78333333
0.78452819 0.59019608 0.78333333
0.8745098 0.60196078 0.7872549
0.95392157 0.61372549 0.79117647
0.3754902 0.59558824 0.75196078
0.41446078 0.60226716 0.75588235
0.46188725 0.60588235 0.75784314
0.53063725 0.60153186 0.75637255
0.60465686 0.6127451 0.76397059
0.69117647 0.63651961 0.77457108
0.78039216 0.65196078 0.78333333
0.87205882 0.66372549 0.78333333
0.96323529 0.66813725 0.78627451
0.40539216 0.69571078 0.75919118
0.42682292 0.69460784 0.75588235
0.4622549 0.68676471 0.75196078
0.52352941 0.68492647 0.75297181
0.59050245 0.6747549 0.75196078
0.6817402 0.69281556 0.76072304
0.77693015 0.70906863 0.77273284
0.87213542 0.71764706 0.77610294
0.95931373 0.71409314 0.76715686
0.45196078 0.77941176 0.75588235
0.46914828 0.78324142 0.75588235
0.50545343 0.78333333 0.75980392
0.54522059 0.78020833 0.76161152
0.60098039 0.76764706 0.75686275
0.6752451 0.7671875 0.75640319
0.75980392 0.76764706 0.75196078
0.86862745 0.7754902 0.75980392
0.95294118 0.77941176 0.75588235
0.49166667 0.87205882 0.75980392
0.51824449 0.87173713 0.75980392
0.5372549 0.86813725 0.76372549
0.58480392 0.87169118 0.76629902
0.62426471 0.8627451 0.7622549
0.6786152 0.85343137 0.75454963
0.74056373 0.83321078 0.73627451
0.83463542 0.83344056 0.73247549
0.96482843 0.85637255 0.74901961
0.54215686 0.95686275 0.76372549
0.56531863 0.95404412 0.76384804
0.58897059 0.94901961 0.76764706
0.61556373 0.95183824 0.76764706
0.64411765 0.94754902 0.76029412
0.69656863 0.92843137 0.75147059
0.75514706 0.93137255 0.73235294
0.83823529 0.93431373 0.72892157
0.92352941 0.95294118 0.75196078
0.42941176 0.40196078 0.87205882
0.44846814 0.39454657 0.8754902
0.49705882 0.41666667 0.87205882
0.5627451 0.43921569 0.87598039
0.63970588 0.4504902 0.87794118
0.72628676 0.48529412 0.87990196
0.80686275 0.51605392 0.87990196
0.88768382 0.53088235 0.87990196
0.97745098 0.53529412 0.87990196
0.44362745 0.42401961 0.87598039
0.46366422 0.43535539 0.87506127
0.50925245 0.45061275 0.87598039
0.56666667 0.45802696 0.87598039
0.63970588 0.48112745 0.87506127
0.71481311 0.50784314 0.87555147
0.8019761 0.53872549 0.87732843
0.88344822 0.55735294 0.87990196
0.96078431 0.56519608 0.87990196
0.45147059 0.48578431 0.87205882
0.48198529 0.49587929 0.87598039
0.52132353 0.5010723 0.87598039
0.57058824 0.51519608 0.87340686
0.64319853 0.53823529 0.87598039
0.7185815 0.55557598 0.87982537
0.80196078 0.57328431 0.87855392
0.88380821 0.58823529 0.87990196
0.96470588 0.59607843 0.87990196
0.46372549 0.55863971 0.86599265
0.47910539 0.55882353 0.86813725
0.51764706 0.5627451 0.86813725
0.5745098 0.57696078 0.86813725
0.64362745 0.59083946 0.87205882
0.71862745 0.61115962 0.87598039
0.7988511 0.62892157 0.87598039
0.87990196 0.63694853 0.87598039
0.96421569 0.63480392 0.87598039
0.46421569 0.63186275 0.85637255
0.475 0.63186275 0.85857843
0.50520833 0.62794118 0.85612745
0.56436887 0.63514093 0.8604473
0.63578431 0.64571078 0.86813725
0.71577819 0.6620098 0.87215074
0.79816176 0.67990196 0.87598039
0.88360907 0.69460784 0.87598039
0.96078431 0.69117647 0.87990196
0.45441176 0.71060049 0.85294118
0.46334252 0.70667892 0.85251225
0.48333333 0.69460784 0.84894301
0.5372549 0.69705882 0.85508578
0.61078431 0.70269608 0.85401348
0.69901961 0.71452206 0.86329657
0.79554228 0.73151042 0.87598039
0.88251379 0.74460784 0.87657782
0.95490196 0.75245098 0.87990196
0.4567402 0.79117647 0.85637255
0.47928922 0.79166667 0.85637255
0.51017157 0.79117647 0.85637255
0.548606 0.78172488 0.85772059
0.60318627 0.77683824 0.85379902
0.6846201 0.78086703 0.85637255
0.78382353 0.7942402 0.86927083
0.87598039 0.80245098 0.87205882
0.98002451 0.81813725 0.88688725
0.48327206 0.88474265 0.86427696
0.50550705 0.88425245 0.86078431
0.54018076 0.88382353 0.86346507
0.59585631 0.88382353 0.8651348
0.63385417 0.88382353 0.86813725
0.70700827 0.87818627 0.86819853
0.78688725 0.87527574 0.87124694
0.87995558 0.86905637 0.86470588
0.97990196 0.88039216 0.86464461
0.58480392 0.96911765 0.86029412
0.5995098 0.96862745 0.86029412
0.62904412 0.96862745 0.86421569
0.66666667 0.97009804 0.86813725
0.71495098 0.97328431 0.87254902
0.7526348 0.95 0.86991422
0.81372549 0.95735294 0.85992647
0.86911765 0.95386029 0.84993873
0.97205882 0.97990196 0.86078431
0.5254902 0.50980392 0.97647059
0.53333333 0.50588235 0.95735294
0.56372549 0.52156863 0.96078431
0.60882353 0.5254902 0.95931373
0.67058824 0.53529412 0.95686275
0.74411765 0.56470588 0.96470588
0.81372549 0.58529412 0.95392157
0.8877451 0.61519608 0.96078431
0.96862745 0.58039216 0.92941176
0.51323529 0.50833333 0.94803922
0.53676471 0.52107843 0.95294118
0.57156863 0.53676471 0.96519608
0.6127451 0.54313725 0.95716912
0.67058824 0.55637255 0.95514706
0.73627451 0.57616422 0.95165441
0.80980392 0.59693627 0.95306373
0.8877451 0.62346814 0.9651348
0.96470588 0.6 0.9372549
0.5372549 0.56764706 0.96862745
0.54497549 0.56666667 0.95980392
0.57156863 0.57156863 0.95612745
0.62058824 0.58125 0.95931373
0.675 0.59117647 0.9627451
0.74019608 0.60686275 0.95588235
0.80980392 0.62352941 0.95294118
0.8872549 0.64203431 0.95980392
0.96862745 0.63333333 0.94509804
0.54362745 0.61666667 0.95686275
0.55030637 0.61813725 0.96207108
0.57022059 0.61642157 0.95171569
0.61905637 0.62843137 0.95833333
0.67132353 0.63186275 0.94852941
0.74411765 0.65098039 0.96525735
0.81372549 0.66409314 0.96078431
0.8872549 0.68088235 0.96470588
0.96470588 0.68480392 0.96323529
0.53529412 0.67058824 0.95686275
0.53921569 0.67058824 0.9627451
0.55784314 0.67303922 0.95686275
0.61078431 0.67843137 0.96078431
0.67058824 0.68627451 0.96372549
0.74019608 0.69289216 0.95686275
0.81470588 0.70833333 0.96078431
0.89117647 0.7254902 0.96421569
0.95882353 0.72941176 0.9627451
0.5004902 0.72843137 0.95686275
0.50784314 0.7245098 0.95637255
0.54166667 0.7245098 0.96654412
0.58137255 0.72843137 0.95741422
0.65147059 0.73357843 0.96078431
0.73235294 0.74019608 0.96078431
0.81470588 0.7564951 0.96470588
0.89381127 0.7754902 0.96862745
0.975 0.7872549 0.975
0.48627451 0.79901961 0.95588235
0.50147059 0.79901961 0.9560049
0.5247549 0.79901961 0.94068627
0.56776961 0.79509804 0.95686275
0.63333333 0.79656863 0.95490196
0.71384804 0.80012255 0.94411765
0.80686275 0.81372549 0.96176471
0.89166667 0.82990196 0.96470588
0.96960784 0.84509804 0.96960784
0.49411765 0.88823529 0.925
0.51721814 0.89558824 0.96770833
0.54460784 0.89558824 0.96078431
0.58970588 0.89344363 0.96372549
0.63970588 0.89166667 0.97034314
0.70931373 0.87990196 0.940625
0.79215686 0.8872549 0.9754902
0.9 0.9 0.97254902
0.96813725 0.91078431 0.97254902
0.54117647 0.98431373 0.94901961
0.54509804 0.97303922 0.94166667
0.57156863 0.9754902 0.9745098
0.62058824 0.96862745 0.96862745
0.66862745 0.97058824 0.97254902
0.76127451 0.9622549 0.93578431
0.84117647 0.96764706 0.94313725
0.90735294 0.98529412 0.98137255
0.9254902 0.97647059 0.97254902
