site/assets/luts/sha256-88c42e6b16a07be90360cc33baca006649f9cd538815efb8b54715c77c264bcc.cube
# LUTr-Schema-Version: 2
# LUTr-ID: sha256-88c42e6b16a07be90360cc33baca006649f9cd538815efb8b54715c77c264bcc
# LUTr-Title: kodak portra 160 nc -
# LUTr-Collection: Natron HaldCLUT
# LUTr-Collection-ID: natron-haldclut-presets
# LUTr-Source: https://github.com/NatronGitHub/clut
# LUTr-Retrieved: 2026-07-27
# LUTr-Source-File: submissions/natron-haldclut-presets/negative_old/kodak_portra_160_nc_-.png
# LUTr-Source-Format: HALD-PNG
# LUTr-Source-SHA256: 88c42e6b16a07be90360cc33baca006649f9cd538815efb8b54715c77c264bcc
# LUTr-License: CC-BY-SA-4.0
# LUTr-License-URL: https://github.com/NatronGitHub/clut#license
# LUTr-License-Basis: repo-license-file
# LUTr-Transform-Class: film-emulation
# LUTr-Tags: creative, film, film-emulation, hald-clut, natron, png, cube
# LUTr-Input-Color-Space: srgb
# LUTr-Input-Gamut: rec709
# LUTr-Input-Transfer: srgb
# LUTr-Output-Color-Space: srgb
# LUTr-Output-Gamut: rec709
# LUTr-Output-Transfer: srgb
# LUTr-Color-Space-Confidence: assumed-display-referred
# LUTr-Domain-Normalized: true
# LUTr-Shaper: none
# LUTr-Original-Grid: 64x64x64
# LUTr-Conversion-Grid: 25x25x25
# LUTr-Conversion-Interpolation: trilinear
# LUTr-Conversion-Method: HALD-PNG LUT image decoded at 16-bit and sampled to 25x25x25 3D CUBE
# LUTr-Conversion-Tool: LUTr scripts/convert-all-to-cube.mjs 2.0.0
# LUTr-Conversion-Date: 2026-07-27
# LUTr-Note: Preserve this metadata and the upstream license notices when redistributing.
TITLE "kodak portra 160 nc -"
LUT_3D_SIZE 9
DOMAIN_MIN 0 0 0
DOMAIN_MAX 1 1 1
0.0039215686 0 0.0039215686
0.061764706 0.011764706 0.015196078
0.18039216 0.030392157 0.011764706
0.34019608 0.039215686 0.010294118
0.51372549 0.033333333 0.021568627
0.65441176 0.041666667 0.0024509804
0.77254902 0.1127451 0.0039215686
0.89215686 0.18529412 0.0083333333
0.99215686 0.23529412 0.031372549
0.0044117647 0.061764706 0.011764706
0.047487745 0.083394608 0.0039215686
0.19767157 0.13333333 0.01997549
0.36685049 0.13707108 0.011764706
0.52107843 0.12352941 0.0073529412
0.66176471 0.14332108 0.0039215686
0.78419118 0.17340686 0.0039215686
0.89215686 0.21519608 0.0083333333
0.98382353 0.27009804 0.02745098
0 0.21470588 0.061764706
0 0.21862745 0.036887255
0.15465686 0.26470588 0.026470588
0.40404412 0.28480392 0.0014705882
0.55 0.26323529 0.0078431373
0.69509804 0.26605392 0.0049019608
0.7997549 0.27843137 0.0039215686
0.89509804 0.29558824 0.0083333333
0.97647059 0.33137255 0.02745098
0 0.36127451 0.11960784
0.0039215686 0.37432598 0.13400735
0.036887255 0.38921569 0.10110294
0.33284314 0.43186275 0.018014706
0.54313725 0.43039216 0.0078431373
0.71176471 0.40539216 0.0048406863
0.81323529 0.40196078 0
0.90588235 0.41421569 0.0078431373
0.98578431 0.42696078 0.015686275
0 0.48823529 0.21764706
0.0039215686 0.49803922 0.2372549
0.010294118 0.50147059 0.21862745
0.24828431 0.52990196 0.19632353
0.49509804 0.56568627 0.10294118
0.71102941 0.59068627 0.0078431373
0.81568627 0.55441176 0.0093137255
0.91911765 0.53504902 0.0039215686
0.97058824 0.52745098 0.021568627
0.013235294 0.60980392 0.31421569
0.0056985294 0.60588235 0.31666667
0.075490196 0.60943627 0.30637255
0.25294118 0.62254902 0.29607843
0.40784314 0.64754902 0.26348039
0.6122549 0.67254902 0.19901961
0.81053922 0.71004902 0.042401961
0.91158088 0.67745098 0.063235294
0.98676471 0.66617647 0.14656863
0.010784314 0.72058824 0.40098039
0.11017157 0.72156863 0.41176471
0.19117647 0.71372549 0.40882353
0.28615196 0.71556373 0.40392157
0.4127451 0.73578431 0.38529412
0.55833333 0.75698529 0.34852941
0.73137255 0.78014706 0.26764706
0.89595588 0.81115196 0.20551471
0.98333333 0.8 0.23137255
0.32598039 0.825 0.55098039
0.33676471 0.82156863 0.53235294
0.38933824 0.82156863 0.54313725
0.43498775 0.82107843 0.54362745
0.50122549 0.82867647 0.53014706
0.58382353 0.83823529 0.50557598
0.68811275 0.86029412 0.48480392
0.84117647 0.88425245 0.4377451
0.94803922 0.90294118 0.38872549
0.56078431 0.92156863 0.69411765
0.57254902 0.9254902 0.69803922
0.59117647 0.9254902 0.70490196
0.60637255 0.92009804 0.69656863
0.65098039 0.92941176 0.70588235
0.68137255 0.92941176 0.68235294
0.75490196 0.95294118 0.68921569
0.82892157 0.96470588 0.66617647
0.89019608 0.97647059 0.65490196
0.015686275 0.016176471 0.076960784
0.069117647 0.014705882 0.07254902
0.19558824 0.02745098 0.06997549
0.3495098 0.01439951 0.067340686
0.51372549 0.036764706 0.074509804
0.64509804 0.090686275 0.083823529
0.77254902 0.14313725 0.087745098
0.8877451 0.20833333 0.10042892
0.97647059 0.25392157 0.12303922
0.0039215686 0.091666667 0.092095588
0.053860294 0.092156863 0.087798713
0.20245098 0.10761336 0.076470588
0.37252604 0.11525735 0.071629902
0.52328431 0.12107843 0.072058824
0.65655637 0.15643382 0.08404565
0.78382353 0.18860294 0.091666667
0.89166667 0.22738971 0.10129442
0.97990196 0.28572304 0.13137255
0.0030637255 0.23419118 0.14558824
0.015686275 0.23463542 0.12979473
0.1877451 0.26087623 0.099387255
0.40021446 0.28074449 0.066099877
0.54681373 0.27408088 0.078431373
0.68860294 0.27556679 0.080759804
0.79806985 0.29004289 0.083455882
0.89488358 0.31078431 0.091666667
0.97990196 0.34656863 0.13529412
0.01127451 0.38186275 0.20863971
0.0020450368 0.38815104 0.20626532
0.10580576 0.39496017 0.190625
0.37609528 0.43278186 0.10459559
0.56559436 0.44197304 0.067401961
0.70434283 0.40931373 0.069921875
0.81323529 0.40543811 0.091176471
0.90700827 0.41550245 0.10376072
0.98823529 0.4408701 0.14295343
0.015441176 0.50539216 0.28137255
0.0054227941 0.50609681 0.27990196
0.11862745 0.50716912 0.27506127
0.28259804 0.5260723 0.24901961
0.50392157 0.56384804 0.15428922
0.70425858 0.58406863 0.080484069
0.81715686 0.55 0.10882353
0.91519608 0.54096201 0.12941176
0.98823529 0.55073529 0.1627451
0.011948529 0.6122549 0.33970588
0.042869179 0.61194853 0.34313725
0.14595588 0.61136642 0.34460784
0.29295343 0.62401961 0.33302696
0.4372549 0.64558824 0.30275735
0.63050705 0.67727482 0.23695619
0.80611213 0.69901961 0.16795343
0.90588235 0.68147978 0.17930453
0.98088235 0.66832108 0.20294118
0.10061275 0.71666667 0.42303922
0.1838848 0.72526042 0.43382353
0.24733456 0.71829044 0.43363971
0.33233762 0.72340686 0.42726716
0.42113971 0.73431373 0.41501225
0.55677083 0.75735294 0.37841605
0.73612132 0.78431373 0.33210784
0.88590686 0.80686275 0.28627451
0.98051471 0.8 0.29558824
0.35196078 0.8254902 0.56623775
0.36807598 0.82505362 0.5515242
0.40813419 0.825 0.55571385
0.44626225 0.82130055 0.55496324
0.50441176 0.82699142 0.54537377
0.58733915 0.84460784 0.53167892
0.69492953 0.86127451 0.50343137
0.83327972 0.88425245 0.46470588
0.95980392 0.90692402 0.42254902
0.58382353 0.93284314 0.70931373
0.58431373 0.92555147 0.70588235
0.59203431 0.92156863 0.7057598
0.61519608 0.92156863 0.70557598
0.64877451 0.92745098 0.71519608
0.68921569 0.93480392 0.70165441
0.75882353 0.95833333 0.70551471
0.82843137 0.9651348 0.67101716
0.8745098 0.97205882 0.65833333
0.011764706 0.023529412 0.22156863
0.076593137 0.022671569 0.21127451
0.21004902 0.017892157 0.21078431
0.36421569 0.024019608 0.20686275
0.52745098 0.023529412 0.2004902
0.65588235 0.061764706 0.20306373
0.76862745 0.18627451 0.23235294
0.87990196 0.24313725 0.24705882
0.97647059 0.28235294 0.24705882
0 0.11470588 0.23382353
0.06083027 0.11421569 0.22977941
0.22999387 0.12643995 0.22990196
0.38431373 0.12352941 0.22536765
0.53069853 0.11495098 0.21029412
0.66465993 0.15894608 0.21568627
0.7731924 0.22745098 0.23602941
0.88383885 0.27990196 0.24952512
0.97953431 0.31875 0.25870098
0.0075980392 0.24901961 0.2497549
0.052175245 0.25664828 0.26170343
0.23455882 0.26433824 0.26078431
0.41081495 0.27647059 0.25625
0.54546569 0.27291667 0.24411765
0.67181373 0.30098039 0.24607843
0.7841299 0.31838235 0.24332108
0.88391544 0.34558824 0.25401348
0.97352941 0.37352941 0.26568627
0.12794118 0.39987745 0.31813725
0.17826287 0.40379902 0.32383578
0.24203431 0.40579044 0.30686275
0.38382353 0.42257966 0.28713235
0.56053922 0.4254902 0.26813725
0.68921569 0.41556373 0.25507047
0.8057598 0.41519608 0.24972426
0.90196078 0.43431373 0.25526961
0.97598039 0.45441176 0.27414216
0.20784314 0.52058824 0.37352941
0.21029412 0.52107843 0.375
0.26017157 0.51911765 0.36409314
0.35790441 0.53382353 0.34656863
0.52941176 0.56421569 0.31470588
0.70055147 0.57303922 0.27058824
0.81078431 0.55098039 0.27156863
0.90790441 0.54901961 0.26881127
0.98627451 0.55686275 0.28627451
0.2057598 0.62401961 0.42708333
0.24215686 0.62794118 0.42745098
0.27938113 0.62313113 0.41822917
0.34859069 0.62794118 0.40784314
0.46960784 0.64681373 0.38308824
0.65454963 0.67892157 0.34895833
0.8057598 0.69754902 0.30940564
0.90350797 0.67990196 0.30490196
0.97610294 0.66678922 0.30098039
0.27083333 0.7245098 0.48627451
0.28933824 0.72843137 0.48268995
0.33474265 0.72377451 0.48333333
0.37843137 0.72377451 0.47950368
0.45686275 0.73431373 0.4685049
0.58118873 0.7578125 0.45147059
0.74509804 0.78278186 0.40710784
0.89080882 0.80392157 0.36458333
0.98627451 0.80392157 0.36372549
0.42071078 0.8254902 0.58970588
0.43535539 0.82924326 0.59575674
0.45909926 0.82892157 0.59322917
0.47843137 0.82504596 0.5834712
0.52953431 0.82720588 0.58443627
0.61703431 0.84215686 0.57526042
0.71295956 0.86155025 0.55379902
0.83236826 0.88000919 0.51911765
0.95110294 0.89558824 0.48676471
0.59901961 0.9254902 0.7245098
0.60036765 0.9254902 0.72193627
0.61764706 0.93235294 0.72843137
0.63235294 0.92610294 0.72401961
0.64803922 0.91764706 0.71078431
0.70392157 0.93443627 0.72242647
0.7627451 0.95392157 0.71740196
0.83284314 0.96213235 0.69019608
0.90784314 0.97156863 0.66470588
0.0039215686 0.044117647 0.38872549
0.056372549 0.038419118 0.37696078
0.24215686 0.056004902 0.38088235
0.40386029 0.067708333 0.38480392
0.54436275 0.13014706 0.37818627
0.66954657 0.12898284 0.35441176
0.79007353 0.15085784 0.33958333
0.8877451 0.24411765 0.35667892
0.97647059 0.2877451 0.35245098
0.0039215686 0.14166667 0.38872549
0.054679841 0.15079657 0.39215686
0.25494792 0.16813725 0.39257047
0.41029412 0.18081342 0.39479167
0.55147059 0.18921569 0.38563113
0.67254902 0.21016391 0.36501225
0.7879136 0.23319547 0.35863971
0.8877451 0.27579657 0.36636029
0.97696078 0.32028186 0.36764706
0.0039215686 0.27806373 0.4004902
0.045848652 0.28043811 0.40735294
0.26623775 0.29240196 0.41127451
0.43333333 0.3171875 0.41409314
0.55741422 0.32310049 0.40410539
0.67107843 0.33186275 0.39203431
0.78786765 0.32965686 0.37699142
0.88935355 0.35882353 0.38319547
0.975 0.40343137 0.39595588
0.077389706 0.41709559 0.41715686
0.17958793 0.41617647 0.43069853
0.30657169 0.42143076 0.44307598
0.43186275 0.43727788 0.43612898
0.57723652 0.46099877 0.41963848
0.68506434 0.44119945 0.41112898
0.79131434 0.43425245 0.39310662
0.89166667 0.45031403 0.38990502
0.97254902 0.47702206 0.40196078
0.27058824 0.53333333 0.45588235
0.30147059 0.53716299 0.46289828
0.36642157 0.54044118 0.46813725
0.4200674 0.54632353 0.46544118
0.55747549 0.56960784 0.44007353
0.69365809 0.5745098 0.42401961
0.79632353 0.56256127 0.41360294
0.89632353 0.54908088 0.40318627
0.97647059 0.55808824 0.40196078
0.36617647 0.63578431 0.51372549
0.39074755 0.64443168 0.52390472
0.3855239 0.63970588 0.50640319
0.44328278 0.64362745 0.50443474
0.50416667 0.64877451 0.48529412
0.66231618 0.67912837 0.4622549
0.80147059 0.69532782 0.44411765
0.90196078 0.67078738 0.43327206
0.97892157 0.66378676 0.42303922
0.42352941 0.73627451 0.57401961
0.42745098 0.73627451 0.57058824
0.43979779 0.73480392 0.56590074
0.46568627 0.73419118 0.55772059
0.51366422 0.73946078 0.54509804
0.60553002 0.75591299 0.52647059
0.73259804 0.77867647 0.51173407
0.88200061 0.79607843 0.48356311
0.9872549 0.79215686 0.46875
0.49558824 0.82892157 0.64558824
0.50817249 0.83284314 0.64918045
0.51715686 0.83284314 0.64362745
0.53106618 0.82892157 0.63431373
0.57313113 0.82892157 0.63431373
0.63174786 0.84215686 0.63039216
0.72633272 0.86061581 0.60980392
0.85114124 0.88253676 0.58943781
0.97677696 0.9122549 0.55490196
0.62598039 0.9254902 0.75147059
0.62941176 0.9254902 0.74969363
0.63921569 0.92941176 0.75147059
0.65496324 0.9254902 0.75
0.67573529 0.92156863 0.74632353
0.72003676 0.93817402 0.76023284
0.76164216 0.93394608 0.71862745
0.84068627 0.96648284 0.73051471
0.91127451 0.97647059 0.7122549
0.0078431373 0.10392157 0.5372549
0.054901961 0.10343137 0.53161765
0.2627451 0.125 0.53480392
0.43504902 0.16372549 0.53921569
0.57843137 0.20392157 0.5372549
0.68627451 0.20931373 0.51813725
0.79901961 0.25 0.49558824
0.89607843 0.26887255 0.48014706
0.95098039 0.28235294 0.46470588
0.0044117647 0.18088235 0.5372549
0.094362745 0.19068627 0.5372549
0.28284314 0.21176471 0.54289216
0.44509804 0.23063725 0.54681373
0.5745098 0.25759804 0.54313725
0.68449755 0.2770527 0.52205882
0.79509804 0.29148284 0.5064951
0.89558824 0.30125613 0.48403799
0.97696078 0.32696078 0.47254902
0.046078431 0.30686275 0.54901961
0.1192402 0.31164216 0.54852941
0.2942402 0.31752451 0.54901961
0.45704657 0.34656863 0.55324755
0.58235294 0.36715686 0.55269608
0.69019608 0.36979167 0.53321078
0.80343137 0.37352941 0.51789216
0.8995098 0.37745098 0.49730392
0.97254902 0.37892157 0.48480392
0.066421569 0.43333333 0.55294118
0.14932598 0.43529412 0.55637255
0.29270833 0.43694853 0.5598652
0.44705882 0.45294118 0.56231618
0.58566176 0.47132353 0.56629902
0.69702819 0.46813725 0.54996936
0.79632353 0.46617647 0.53351716
0.89166667 0.47141544 0.51479779
0.97843137 0.48651961 0.51176471
0.23431373 0.54803922 0.55588235
0.27561275 0.55490196 0.55772059
0.36911765 0.55294118 0.57352941
0.46507353 0.56041667 0.58125
0.57107843 0.56960784 0.58137255
0.69276961 0.5810049 0.56066176
0.79117647 0.56397059 0.54264706
0.88970588 0.56384804 0.53137255
0.97352941 0.57058824 0.52352941
0.37965686 0.65539216 0.58529412
0.39485294 0.65539216 0.60015319
0.44803922 0.65735294 0.60098039
0.52794118 0.65931373 0.61372549
0.56936275 0.65992647 0.60171569
0.67377451 0.67377451 0.58578431
0.78878676 0.68523284 0.56991422
0.90254289 0.67049632 0.54935662
0.97696078 0.66715686 0.54117647
0.49117647 0.74754902 0.64509804
0.50471814 0.75 0.65422794
0.53627451 0.75110294 0.65625
0.55196078 0.7495098 0.64515931
0.58039216 0.74803922 0.63553922
0.65226716 0.75667892 0.6310049
0.76911765 0.78333333 0.61715686
0.89166667 0.79515931 0.5875
0.96568627 0.78480392 0.57843137
0.58553922 0.83676471 0.71470588
0.57965686 0.83848039 0.70735294
0.5935049 0.84215686 0.7122549
0.60965074 0.84077819 0.70784314
0.63039216 0.83676471 0.69558824
0.67107843 0.84068627 0.69543505
0.74632353 0.86127451 0.68137255
0.8504902 0.88039216 0.66400123
0.96397059 0.89730392 0.65269608
0.67647059 0.93529412 0.79607843
0.67034314 0.92720588 0.78627451
0.67843137 0.92990196 0.78676471
0.68627451 0.93088235 0.78308824
0.69607843 0.92058824 0.77254902
0.72843137 0.92034314 0.7752451
0.78431373 0.94509804 0.77794118
0.85196078 0.96102941 0.7627451
0.93333333 0.98627451 0.76078431
0.0024509804 0.14656863 0.66862745
0.15392157 0.18137255 0.67383578
0.30821078 0.18284314 0.67107843
0.46954657 0.24460784 0.6716299
0.60465686 0.27696078 0.67254902
0.71470588 0.28676471 0.67156863
0.80588235 0.30943627 0.65134804
0.89166667 0.33872549 0.62647059
0.98186275 0.40196078 0.6245098
0.077267157 0.225 0.67040441
0.19015778 0.24030331 0.67383578
0.33391544 0.25821078 0.67365196
0.47009804 0.28669577 0.67909773
0.60465686 0.32530637 0.68382353
0.71831342 0.34394148 0.67506127
0.81974571 0.34767157 0.66314338
0.89166667 0.37107843 0.62865349
0.98400735 0.42745098 0.63057598
0.14105392 0.33762255 0.67647059
0.22018995 0.34656863 0.67918199
0.34767157 0.35395221 0.68039216
0.47794118 0.375 0.68431373
0.60857843 0.40441176 0.68823529
0.72022059 0.42284007 0.68823529
0.81617647 0.42916667 0.66580882
0.89816176 0.44068627 0.64028799
0.97708333 0.47009804 0.63370098
0.090196078 0.44656863 0.67009804
0.20196078 0.45588235 0.67647059
0.33307292 0.45925245 0.67715993
0.46617647 0.47067249 0.68339461
0.60101103 0.49286152 0.68376225
0.71268382 0.50833333 0.68823529
0.80925245 0.50833333 0.67503064
0.8995098 0.51525735 0.64970895
0.97738971 0.51911765 0.63633578
0.20857843 0.55686275 0.66862745
0.26323529 0.56078431 0.67637868
0.35441176 0.56348039 0.67892157
0.45563725 0.57058824 0.6879902
0.59117647 0.58897059 0.69558824
0.70906863 0.5995098 0.68777574
0.8004902 0.59313725 0.67647059
0.89166667 0.59420956 0.6614277
0.975 0.5872549 0.64509804
0.3495098 0.66715686 0.67647059
0.39039522 0.66715686 0.68431373
0.45081189 0.66931679 0.68431373
0.52101716 0.67346814 0.69290748
0.60435049 0.675 0.70245098
0.70841759 0.68284314 0.70091912
0.79509804 0.68183211 0.68477328
0.8877451 0.68442862 0.66931679
0.95392157 0.68284314 0.65931373
0.49656863 0.75980392 0.70980392
0.51122855 0.76127451 0.71580882
0.54623162 0.7635723 0.71862745
0.58785233 0.76372549 0.71908701
0.6495098 0.76311275 0.72303922
0.7033701 0.76565564 0.72696078
0.79537377 0.78679534 0.71421569
0.89381127 0.79764093 0.69509804
0.96813725 0.78823529 0.68382353
0.60147059 0.84607843 0.76323529
0.61479013 0.84822304 0.76501225
0.63555453 0.84852941 0.77054228
0.65765931 0.85 0.76862745
0.68284314 0.84852941 0.76167279
0.71734069 0.85164675 0.76078431
0.77357537 0.86038603 0.75240502
0.88335631 0.88731618 0.74246324
0.97518382 0.90392157 0.73039216
0.69558824 0.93333333 0.82892157
0.70410539 0.928125 0.83106618
0.70759804 0.91642157 0.82169118
0.74019608 0.93780637 0.83186275
0.74142157 0.93406863 0.82254902
0.76133578 0.9348652 0.82015931
0.80306373 0.94901961 0.8254902
0.86550245 0.96078431 0.81060049
0.94117647 0.97794118 0.8004902
0.20784314 0.24705882 0.78137255
0.28333333 0.26164216 0.78419118
0.38039216 0.26078431 0.79044118
0.50196078 0.30526961 0.7872549
0.6245098 0.34803922 0.7877451
0.74558824 0.37058824 0.79007353
0.83063725 0.39313725 0.77965686
0.9 0.41164216 0.76115196
0.96666667 0.45882353 0.74901961
0.23970588 0.29473039 0.7872549
0.29929534 0.30660233 0.7872549
0.40150123 0.31470588 0.78624387
0.5136489 0.34068627 0.7872549
0.63670343 0.3754902 0.79166667
0.74620098 0.4064951 0.79355086
0.83823529 0.42647059 0.79117647
0.90381434 0.44215686 0.76421569
0.96519608 0.48639706 0.75294118
0.2627451 0.38161765 0.7872549
0.32218137 0.39375 0.79408701
0.41078431 0.39509804 0.79234069
0.51764706 0.41421569 0.79117647
0.63284314 0.44411765 0.79117647
0.74264706 0.47190564 0.79509804
0.8372549 0.49730392 0.7872549
0.89914216 0.49852941 0.77242647
0.97058824 0.54411765 0.76862745
0.26078431 0.47107843 0.78762255
0.31421569 0.47892157 0.78762255
0.4004902 0.48367034 0.78458946
0.51260723 0.49784007 0.7872549
0.62395833 0.52009804 0.79117647
0.74131434 0.54673713 0.79901961
0.82683824 0.57156863 0.79436275
0.89624694 0.57023591 0.77958027
0.96078431 0.59166667 0.76372549
0.20588235 0.56568627 0.77156863
0.2754902 0.57058824 0.77941176
0.36482843 0.5754902 0.77941176
0.48627451 0.5872549 0.7872549
0.60808824 0.60490196 0.79117647
0.73161765 0.63333333 0.79901961
0.82181373 0.64840686 0.79803922
0.89117647 0.64460784 0.78296569
0.95294118 0.64509804 0.76372549
0.34656863 0.67536765 0.7754902
0.37735907 0.67219669 0.77941176
0.43811275 0.67527574 0.77941176
0.51409314 0.68284314 0.77941176
0.59718137 0.68063725 0.78333333
0.7067402 0.6995098 0.78987439
0.81124387 0.71553309 0.79583333
0.8902114 0.70686275 0.78026961
0.93125 0.7064951 0.76862745
0.47058824 0.76764706 0.77941176
0.48679534 0.77156863 0.78599877
0.53357843 0.77156863 0.78988971
0.58897059 0.77156863 0.79215686
0.64901961 0.76764706 0.79754902
0.72794118 0.77757353 0.80686275
0.80612745 0.79252451 0.80943627
0.88795956 0.78875613 0.79080882
0.93823529 0.7872549 0.78112745
0.59840686 0.85637255 0.81470588
0.61323529 0.85637255 0.81813725
0.63480392 0.85637255 0.81862745
0.67414216 0.85992647 0.82023591
0.71470588 0.85882353 0.82745098
0.76372549 0.86223958 0.83088235
0.80735294 0.87227328 0.83385417
0.89085478 0.88730086 0.82184436
0.96556373 0.8877451 0.81164216
0.71568627 0.94411765 0.87058824
0.7067402 0.93026961 0.85686275
0.73357843 0.94632353 0.87181373
0.75147059 0.94178922 0.87156863
0.77843137 0.94803922 0.8754902
0.80134804 0.94215686 0.87218137
0.82941176 0.95294118 0.87254902
0.88039216 0.9502451 0.8620098
0.93333333 0.97352941 0.86078431
0.38284314 0.35833333 0.87990196
0.40931373 0.35140931 0.8872549
0.48088235 0.37352941 0.87990196
0.57567402 0.40441176 0.88333333
0.67941176 0.42720588 0.88333333
0.76942402 0.44754902 0.87941176
0.85735294 0.50441176 0.88247549
0.92303922 0.51966912 0.86421569
0.95343137 0.52794118 0.86029412
0.38284314 0.38529412 0.87990196
0.42532169 0.40092678 0.88382353
0.48460478 0.40012255 0.88382353
0.57745098 0.4127451 0.88709406
0.67717525 0.44408701 0.88357843
0.77352941 0.48841912 0.87941176
0.8566636 0.52401961 0.87990196
0.92609528 0.54699755 0.87581189
0.95735294 0.55833333 0.86764706
0.39460784 0.43872549 0.88333333
0.42849265 0.45284926 0.87990196
0.49411765 0.46053922 0.88382353
0.58056066 0.47254902 0.88351716
0.68112745 0.50294118 0.87990196
0.77210478 0.53394608 0.87990196
0.85306373 0.56596201 0.87990196
0.92706801 0.58007047 0.87953431
0.95245098 0.58786765 0.87205882
0.39803922 0.51813725 0.88382353
0.42612592 0.52334559 0.88134957
0.49148284 0.53443627 0.88382353
0.57303922 0.5444087 0.87990196
0.67322304 0.56862745 0.88333333
0.7712546 0.60276501 0.88333333
0.85343137 0.63431373 0.88301164
0.91519608 0.6377451 0.87393536
0.96127451 0.64148284 0.86421569
0.36911765 0.60465686 0.86813725
0.39954044 0.60836397 0.86813725
0.46470588 0.6098652 0.87205882
0.55686275 0.61740196 0.87925858
0.65808824 0.63210784 0.8817402
0.75612745 0.66372549 0.88382353
0.84607843 0.69117647 0.88333333
0.91127451 0.70294118 0.87898284
0.95735294 0.70686275 0.86813725
0.36194853 0.68676471 0.86666667
0.396875 0.6872549 0.86813725
0.45346201 0.69117647 0.86813725
0.5287837 0.69282322 0.86813725
0.61838235 0.7004902 0.87205882
0.73431373 0.72254902 0.87745098
0.83325674 0.74719669 0.88382353
0.90696998 0.76432292 0.88335631
0.94430147 0.76470588 0.87598039
0.4745098 0.78382353 0.86507353
0.49705882 0.78370098 0.87113971
0.52555147 0.77990196 0.87205882
0.58062194 0.77990196 0.87205882
0.6372549 0.77598039 0.87248775
0.7189951 0.78863358 0.88177083
0.8229473 0.81023284 0.88863358
0.90611213 0.82598039 0.8877451
0.94607843 0.82340686 0.88125
0.60196078 0.8716299 0.88382353
0.60980392 0.87248775 0.88731618
0.6279565 0.86862745 0.88114277
0.66519608 0.87189798 0.88226869
0.70686275 0.86813725 0.88575368
0.76464461 0.87224265 0.89714308
0.83350184 0.88350184 0.89993873
0.90424326 0.89172028 0.89908088
0.98039216 0.89601716 0.89209559
0.72107843 0.94901961 0.91029412
0.72113971 0.94993873 0.91078431
0.7310049 0.95208333 0.91470588
0.7526348 0.9504902 0.91421569
0.78651961 0.95710784 0.91642157
0.82126225 0.95471814 0.91862745
0.86727941 0.96017157 0.9254902
0.90735294 0.96905637 0.92689951
0.95343137 0.97254902 0.92254902
0.54117647 0.4745098 0.97254902
0.54460784 0.47843137 0.96078431
0.58627451 0.48235294 0.96078431
0.65588235 0.5004902 0.96078431
0.72941176 0.51960784 0.95490196
0.79656863 0.53627451 0.94117647
0.88431373 0.60392157 0.95588235
0.94607843 0.62843137 0.94509804
0.98039216 0.65490196 0.95294118
0.53627451 0.49264706 0.96813725
0.55686275 0.50147059 0.96519608
0.60416667 0.51176471 0.97120098
0.65324755 0.5127451 0.9526348
0.72377451 0.52941176 0.94705882
0.80814951 0.57481618 0.95637255
0.88431373 0.62009804 0.95686275
0.94215686 0.6471201 0.95294118
0.98382353 0.66617647 0.95245098
0.55588235 0.54705882 0.97156863
0.55980392 0.54313725 0.96078431
0.60098039 0.55318627 0.9629902
0.6620098 0.56495098 0.96017157
0.72352941 0.57107843 0.94705882
0.81078431 0.61188725 0.95465686
0.88333333 0.64607843 0.95196078
0.94595588 0.68443627 0.95588235
0.9745098 0.67941176 0.94313725
0.5495098 0.60245098 0.96372549
0.56930147 0.60637255 0.96617647
0.5995098 0.60992647 0.96188725
0.65735294 0.61758578 0.96078431
0.72745098 0.63431373 0.95612745
0.80833333 0.66127451 0.95686275
0.87794118 0.68541667 0.94901961
0.94215686 0.71488971 0.95147059
0.99313725 0.73039216 0.96323529
0.49019608 0.64509804 0.93529412
0.53088235 0.65882353 0.95269608
0.58039216 0.6627451 0.95686275
0.64803922 0.6745098 0.96666667
0.72352941 0.68823529 0.96470588
0.79460784 0.70857843 0.95686275
0.875 0.73235294 0.9622549
0.93627451 0.75343137 0.95098039
0.97843137 0.76470588 0.95686275
0.4995098 0.72843137 0.96470588
0.50784314 0.728125 0.95294118
0.55294118 0.72843137 0.9557598
0.61911765 0.73235294 0.95686275
0.69534314 0.7375 0.96078431
0.76795343 0.74742647 0.94234069
0.85784314 0.77610294 0.95894608
0.93431373 0.79901961 0.96207108
0.98676471 0.81715686 0.96470588
0.53235294 0.81372549 0.95686275
0.54007353 0.81078431 0.95723039
0.56568627 0.80980392 0.95906863
0.61556373 0.80980392 0.95796569
0.68676471 0.80686275 0.95539216
0.73676471 0.80588235 0.94901961
0.84436275 0.82867647 0.96470588
0.92561275 0.85208333 0.96519608
0.97254902 0.86862745 0.96862745
0.61715686 0.89166667 0.96078431
0.62843137 0.89558824 0.96476716
0.64362745 0.89558824 0.96115196
0.67401961 0.89528186 0.96127451
0.71053922 0.88921569 0.95784314
0.75931373 0.8877451 0.953125
0.83921569 0.89914216 0.96997549
0.91519608 0.91127451 0.97205882
0.97647059 0.92647059 0.97254902
0.67058824 0.93333333 0.96470588
0.67401961 0.9372549 0.96519608
0.72647059 0.9745098 0.97352941
0.74215686 0.96715686 0.975
0.76862745 0.95490196 0.95490196
0.81862745 0.97647059 0.97647059
0.86764706 0.9627451 0.96764706
0.92254902 0.97598039 0.97647059
0.99215686 0.99215686 0.99215686
