site/assets/luts/sha256-1d3a43816efba5471f1e34be9ea7c2f77720c1f984b1e1e84a3f685350bb090b.cube
# LUTr-Schema-Version: 2
# LUTr-ID: sha256-1d3a43816efba5471f1e34be9ea7c2f77720c1f984b1e1e84a3f685350bb090b
# LUTr-Title: fuji fp-100c negative -
# LUTr-Collection: Natron HaldCLUT
# LUTr-Collection-ID: natron-haldclut-presets
# LUTr-Source: https://github.com/NatronGitHub/clut
# LUTr-Retrieved: 2026-07-27
# LUTr-Source-File: submissions/natron-haldclut-presets/instant_pro/fuji_fp-100c_negative_-.png
# LUTr-Source-Format: HALD-PNG
# LUTr-Source-SHA256: 1d3a43816efba5471f1e34be9ea7c2f77720c1f984b1e1e84a3f685350bb090b
# LUTr-License: CC-BY-SA-4.0
# LUTr-License-URL: https://github.com/NatronGitHub/clut#license
# LUTr-License-Basis: repo-license-file
# LUTr-Transform-Class: film-emulation
# LUTr-Tags: creative, film, film-emulation, hald-clut, natron, png, cube
# LUTr-Input-Color-Space: srgb
# LUTr-Input-Gamut: rec709
# LUTr-Input-Transfer: srgb
# LUTr-Output-Color-Space: srgb
# LUTr-Output-Gamut: rec709
# LUTr-Output-Transfer: srgb
# LUTr-Color-Space-Confidence: assumed-display-referred
# LUTr-Domain-Normalized: true
# LUTr-Shaper: none
# LUTr-Original-Grid: 64x64x64
# LUTr-Conversion-Grid: 25x25x25
# LUTr-Conversion-Interpolation: trilinear
# LUTr-Conversion-Method: HALD-PNG LUT image decoded at 16-bit and sampled to 25x25x25 3D CUBE
# LUTr-Conversion-Tool: LUTr scripts/convert-all-to-cube.mjs 2.0.0
# LUTr-Conversion-Date: 2026-07-27
# LUTr-Note: Preserve this metadata and the upstream license notices when redistributing.
TITLE "fuji fp-100c negative -"
LUT_3D_SIZE 25
DOMAIN_MIN 0 0 0
DOMAIN_MAX 1 1 1
0.0039215686 0.11372549 0.094117647
0.006372549 0.11372549 0.094117647
0.014705882 0.11372549 0.094117647
0.045588235 0.10980392 0.094117647
0.07254902 0.10980392 0.094117647
0.10490196 0.10588235 0.094117647
0.16666667 0.10588235 0.097058824
0.22696078 0.10588235 0.098039216
0.28235294 0.098039216 0.098039216
0.3377451 0.081372549 0.094117647
0.38921569 0.068627451 0.089215686
0.45196078 0.059313725 0.093627451
0.51960784 0.056862745 0.098039216
0.58284314 0.05 0.10196078
0.6372549 0.029411765 0.10196078
0.69362745 0.0073529412 0.098039216
0.73333333 0.043137255 0.10980392
0.77696078 0.094607843 0.11617647
0.82058824 0.14607843 0.11862745
0.85735294 0.19411765 0.13235294
0.89215686 0.24117647 0.15294118
0.92745098 0.29264706 0.16960784
0.96568627 0.34019608 0.18333333
0.98578431 0.3877451 0.19362745
0.99607843 0.42745098 0.2
0.0039215686 0.11372549 0.094117647
0.0039215686 0.11372549 0.094117647
0.014093137 0.11372549 0.092279412
0.045281863 0.11029412 0.094117647
0.078921569 0.1122549 0.096568627
0.11844363 0.1122549 0.098039216
0.16911765 0.11041667 0.094117647
0.22696078 0.10980392 0.094117647
0.28235294 0.10441176 0.094117647
0.3411152 0.091115196 0.095036765
0.4004902 0.082352941 0.096568627
0.45863971 0.069914216 0.096568627
0.52279412 0.056862745 0.098039216
0.58529412 0.050490196 0.10196078
0.63823529 0.042769608 0.10379902
0.68970588 0.049019608 0.1028799
0.7372549 0.07254902 0.10980392
0.77843137 0.11519608 0.11617647
0.82352941 0.15637255 0.1182598
0.85735294 0.19871324 0.13235294
0.89215686 0.24754902 0.14779412
0.92745098 0.29724265 0.16697304
0.96568627 0.34656863 0.18272059
0.98333333 0.3911152 0.19362745
0.99852941 0.43382353 0.2
0.0039215686 0.11372549 0.094117647
0.0039215686 0.11372549 0.092279412
0.01004902 0.11372549 0.090441176
0.049877451 0.11470588 0.09497549
0.091176471 0.11862745 0.1004902
0.12892157 0.11862745 0.10281863
0.17745098 0.11789216 0.098284314
0.22696078 0.11470588 0.090196078
0.28235294 0.10980392 0.090196078
0.34509804 0.10330882 0.09754902
0.41078431 0.098284314 0.10686275
0.47254902 0.085294118 0.1060049
0.53039216 0.069117647 0.10196078
0.59068627 0.056740196 0.10196078
0.63921569 0.076470588 0.10490196
0.68970588 0.095588235 0.10588235
0.7372549 0.1127451 0.10980392
0.77843137 0.14718137 0.11617647
0.81960784 0.18333333 0.12671569
0.85686275 0.21973039 0.1377451
0.89068627 0.26617647 0.15196078
0.9310049 0.31029412 0.15637255
0.9620098 0.35784314 0.17352941
0.97941176 0.39901961 0.1872549
0.99607843 0.43921569 0.20490196
0.01127451 0.12843137 0.10147059
0.01127451 0.12843137 0.09754902
0.015931373 0.12487745 0.09754902
0.049448529 0.125 0.10104167
0.094117647 0.12867647 0.10563725
0.13878676 0.12892157 0.1088848
0.18419118 0.12855392 0.10245098
0.23069853 0.12824755 0.092647059
0.28578431 0.12794118 0.090196078
0.35392157 0.12205882 0.09442402
0.42107843 0.11960784 0.099509804
0.47984069 0.10931373 0.098529412
0.54068627 0.1002451 0.098039216
0.59803922 0.10392157 0.10196078
0.64571078 0.11764706 0.10232843
0.69185049 0.13302696 0.10588235
0.7372549 0.14705882 0.10637255
0.77990196 0.17481618 0.11617647
0.81862745 0.21323529 0.13480392
0.85643382 0.24761029 0.14803922
0.89411765 0.28529412 0.14877451
0.93523284 0.33039216 0.14908088
0.95980392 0.3689951 0.16666667
0.9754902 0.40931373 0.19246324
0.99215686 0.44656863 0.21519608
0.021568627 0.14509804 0.11176471
0.021568627 0.14509804 0.10931373
0.023529412 0.14068627 0.10784314
0.043137255 0.13897059 0.10759804
0.092156863 0.14607843 0.11176471
0.13921569 0.15122549 0.11568627
0.18431373 0.15637255 0.10735294
0.23553922 0.16151961 0.09877451
0.29607843 0.15882353 0.094117647
0.3629902 0.14852941 0.090196078
0.42794118 0.14117647 0.088235294
0.48921569 0.1372549 0.08995098
0.54803922 0.14411765 0.099019608
0.60441176 0.14730392 0.098039216
0.65588235 0.15343137 0.098039216
0.70196078 0.16887255 0.10343137
0.74117647 0.18627451 0.11176471
0.77990196 0.21053922 0.12058824
0.81960784 0.24460784 0.13921569
0.85686275 0.2752451 0.15245098
0.89313725 0.31176471 0.15490196
0.93112745 0.35661765 0.15539216
0.95882353 0.38921569 0.17598039
0.9754902 0.42279412 0.20367647
0.99215686 0.45686275 0.22941176
0.023039216 0.16617647 0.12205882
0.023529412 0.1658701 0.11960784
0.028553922 0.1622549 0.11813725
0.05 0.16568627 0.11813725
0.090196078 0.17181373 0.12205882
0.13578431 0.17843137 0.12150735
0.1872549 0.18872549 0.10784314
0.23805147 0.19362745 0.09932598
0.30245098 0.19019608 0.094117647
0.3723652 0.1841299 0.091973039
0.43909314 0.17941176 0.086642157
0.49957108 0.18290441 0.089705882
0.55735294 0.18872549 0.1
0.61121324 0.19460784 0.098468137
0.66311275 0.19767157 0.095465686
0.70422794 0.21305147 0.10753676
0.74509804 0.23333333 0.11813725
0.78020833 0.25422794 0.12843137
0.81862745 0.28333333 0.14215686
0.85686275 0.31072304 0.14810049
0.89215686 0.34485294 0.15441176
0.92696078 0.38333333 0.16182598
0.95784314 0.41764706 0.18578431
0.97941176 0.44901961 0.21666667
0.99264706 0.47941176 0.24362745
0.015686275 0.19313725 0.13235294
0.022058824 0.19019608 0.13063725
0.039460784 0.19313725 0.13235294
0.060784314 0.1939951 0.13235294
0.094117647 0.1995098 0.13284314
0.13835784 0.20931373 0.12757353
0.1872549 0.21740196 0.10784314
0.24019608 0.2245098 0.095098039
0.3127451 0.23039216 0.098039216
0.38480392 0.23909314 0.097426471
0.45588235 0.24436275 0.092156863
0.51409314 0.24509804 0.086642157
0.56960784 0.24509804 0.097058824
0.62071078 0.24914216 0.10196078
0.66642157 0.25367647 0.098039216
0.70784314 0.26323529 0.10551471
0.74509804 0.27843137 0.12254902
0.78235294 0.29571078 0.13578431
0.81862745 0.32132353 0.13823529
0.85686275 0.34767157 0.13823529
0.89411765 0.37892157 0.14411765
0.92696078 0.41421569 0.1622549
0.95784314 0.44509804 0.19313725
0.97941176 0.47487745 0.22193627
0.98921569 0.49019608 0.2372549
0.006372549 0.21617647 0.13872549
0.022058824 0.21862745 0.14264706
0.050490196 0.22696078 0.15098039
0.067156863 0.22401961 0.14283088
0.098039216 0.22720588 0.14264706
0.14509804 0.2403799 0.13449755
0.19656863 0.25196078 0.12303922
0.24742647 0.26911765 0.11029412
0.32156863 0.2872549 0.10490196
0.39901961 0.30147059 0.099509804
0.46715686 0.30723039 0.088848039
0.52481618 0.31078431 0.079534314
0.57916667 0.31078431 0.084068627
0.62567402 0.31078431 0.091360294
0.66813725 0.31078431 0.092647059
0.71176471 0.31231618 0.095036765
0.74901961 0.32352941 0.10833333
0.78474265 0.34503676 0.125
0.82107843 0.36617647 0.13186275
0.86078431 0.38676471 0.13186275
0.89877451 0.41421569 0.13651961
0.92696078 0.44491422 0.16636029
0.96115196 0.4745098 0.19852941
0.97555147 0.4901348 0.21268382
0.97892157 0.49558824 0.21813725
0.0039215686 0.25098039 0.15686275
0.030882353 0.25735294 0.16078431
0.059803922 0.26568627 0.16764706
0.07745098 0.2627451 0.16127451
0.10588235 0.26470588 0.16078431
0.15539216 0.28284314 0.15686275
0.20686275 0.3 0.15392157
0.25686275 0.31666667 0.14362745
0.31764706 0.3372549 0.13333333
0.40147059 0.35931373 0.11029412
0.47352941 0.37254902 0.080392157
0.53480392 0.37254902 0.063235294
0.58627451 0.37647059 0.068627451
0.62941176 0.37254902 0.075490196
0.67058824 0.36960784 0.082352941
0.71176471 0.36470588 0.08627451
0.75294118 0.36862745 0.094117647
0.7877451 0.39313725 0.11470588
0.82352941 0.41372549 0.12647059
0.86127451 0.43431373 0.13333333
0.9 0.45098039 0.14901961
0.92696078 0.47205882 0.17401961
0.95784314 0.50294118 0.20490196
0.97647059 0.51764706 0.21715686
0.98039216 0.52156863 0.22352941
0.014215686 0.30637255 0.18529412
0.041176471 0.31029412 0.1877451
0.067156863 0.31139706 0.18884804
0.093627451 0.31029412 0.1877451
0.12647059 0.3129902 0.1877451
0.16960784 0.3245098 0.18743873
0.22107843 0.3439951 0.18198529
0.26623775 0.36176471 0.1745098
0.31127451 0.37843137 0.16421569
0.38578431 0.39901961 0.13872549
0.46568627 0.41960784 0.089093137
0.54056373 0.43762255 0.040134804
0.59019608 0.43431373 0.05122549
0.63333333 0.43167892 0.071752451
0.6745098 0.42647059 0.091544118
0.71268382 0.42254902 0.093198529
0.75294118 0.42647059 0.10343137
0.79019608 0.44068627 0.1122549
0.82647059 0.45882353 0.12647059
0.86127451 0.47579657 0.14283088
0.89803922 0.49019608 0.16446078
0.93039216 0.50637255 0.18805147
0.95784314 0.53088235 0.2122549
0.97794118 0.55 0.22745098
0.98676471 0.55637255 0.23382353
0.018627451 0.35784314 0.20882353
0.046568627 0.36176471 0.2122549
0.078676471 0.36176471 0.21470588
0.11286765 0.36176471 0.21470588
0.14509804 0.36176471 0.21470588
0.17990196 0.36911765 0.21470588
0.22818627 0.38627451 0.21004902
0.27144608 0.40294118 0.20147059
0.30686275 0.41960784 0.19019608
0.36335784 0.43566176 0.17022059
0.45 0.45416667 0.12965686
0.52536765 0.4689951 0.092279412
0.58676471 0.48333333 0.070588235
0.63333333 0.4872549 0.076960784
0.6745098 0.48431373 0.093382353
0.71176471 0.48333333 0.10232843
0.75294118 0.48333333 0.10294118
0.79019608 0.48517157 0.10490196
0.82745098 0.5 0.1252451
0.86470588 0.51703431 0.15159314
0.9 0.52892157 0.17107843
0.93088235 0.54203431 0.19963235
0.95882353 0.55784314 0.21470588
0.97941176 0.57843137 0.23284314
0.99313725 0.59117647 0.24313725
0.0088235294 0.40196078 0.22303922
0.050980392 0.40588235 0.22910539
0.097058824 0.40980392 0.23909314
0.13474265 0.40931373 0.24166667
0.16568627 0.40980392 0.24215686
0.19613971 0.41029412 0.24209559
0.23137255 0.42401961 0.23786765
0.27254902 0.43921569 0.23235294
0.31323529 0.45343137 0.22205882
0.36090686 0.46764706 0.20882353
0.43590686 0.48198529 0.18272059
0.50784314 0.49607843 0.15104167
0.56960784 0.51053922 0.13627451
0.62640931 0.5245098 0.11862745
0.67365196 0.53394608 0.11262255
0.71568627 0.53480392 0.11452206
0.75294118 0.53480392 0.11666667
0.79166667 0.53480392 0.12254902
0.83002451 0.54375 0.13345588
0.86519608 0.55441176 0.15196078
0.9 0.56519608 0.17254902
0.934375 0.5754902 0.1966299
0.9627451 0.58872549 0.21372549
0.98155637 0.60588235 0.23088235
0.9995098 0.62598039 0.2504902
0.050980392 0.44509804 0.24901961
0.081127451 0.4502451 0.25539216
0.12058824 0.45098039 0.26127451
0.15539216 0.45122549 0.26642157
0.18627451 0.45098039 0.26666667
0.22107843 0.45490196 0.26862745
0.24852941 0.46176471 0.26519608
0.27622549 0.47279412 0.26078431
0.31568627 0.48431373 0.25294118
0.36911765 0.49852941 0.24460784
0.4245098 0.50931373 0.23284314
0.49117647 0.52303922 0.2127451
0.55098039 0.53823529 0.2
0.60857843 0.55367647 0.17916667
0.66666667 0.56960784 0.15
0.71960784 0.58112745 0.12867647
0.75882353 0.58235294 0.13333333
0.79411765 0.58627451 0.14877451
0.83039216 0.59068627 0.15735294
0.86691176 0.59583333 0.16078431
0.90196078 0.60098039 0.17352941
0.93529412 0.61029412 0.19656863
0.97156863 0.62058824 0.21029412
0.98578431 0.63284314 0.23308824
0.99411765 0.64705882 0.25686275
0.12745098 0.48823529 0.28382353
0.15226716 0.49460784 0.29148284
0.16727941 0.49607843 0.29166667
0.17751225 0.49264706 0.2877451
0.20710784 0.49411765 0.28946078
0.24215686 0.49957108 0.29215686
0.27316176 0.50379902 0.29558824
0.29852941 0.5091299 0.29185049
0.32696078 0.51568627 0.29215686
0.36979167 0.5254902 0.28841912
0.41323529 0.53578431 0.28333333
0.47156863 0.54993873 0.27003676
0.53284314 0.56397059 0.25539216
0.59068627 0.57886029 0.23633578
0.65208333 0.59644608 0.20588235
0.7122549 0.61421569 0.17156863
0.75637255 0.625 0.16323529
0.79411765 0.62941176 0.17647059
0.83186275 0.63345588 0.18541667
0.86911765 0.6372549 0.19313725
0.90392157 0.63946078 0.20343137
0.93872549 0.64859069 0.21764706
0.96666667 0.65281863 0.23088235
0.98333333 0.66176471 0.25098039
0.99607843 0.67205882 0.27156863
0.17254902 0.5254902 0.31078431
0.19375 0.53039216 0.31752451
0.2127451 0.53333333 0.32156863
0.22169118 0.53039216 0.31862745
0.24264706 0.53186275 0.32009804
0.27610294 0.5372549 0.32561275
0.30857843 0.54044118 0.32647059
0.33272059 0.54546569 0.32941176
0.35784314 0.55 0.33333333
0.39215686 0.55747549 0.33333333
0.42941176 0.56666667 0.32843137
0.475 0.57696078 0.31727941
0.52745098 0.59117647 0.30392157
0.57990196 0.60551471 0.28958333
0.63455882 0.62034314 0.26985294
0.69166667 0.63590686 0.24178922
0.74313725 0.64901961 0.2254902
0.79117647 0.66507353 0.21580882
0.83823529 0.6754902 0.21053922
0.87291667 0.67843137 0.22009804
0.90539216 0.68235294 0.23284314
0.94166667 0.68676471 0.24460784
0.96593137 0.69019608 0.25808824
0.98186275 0.69840686 0.27843137
0.99607843 0.70294118 0.29607843
0.21519608 0.55882353 0.3377451
0.23186275 0.56127451 0.34411765
0.25061275 0.56519608 0.3495098
0.26764706 0.56519608 0.35294118
0.29093137 0.56789216 0.35612745
0.31715686 0.56930147 0.35753676
0.34362745 0.57414216 0.36127451
0.36660539 0.57935049 0.36666667
0.39264706 0.58480392 0.37303922
0.41868873 0.58964461 0.37542892
0.45392157 0.59754902 0.36997549
0.49264706 0.60784314 0.36323529
0.5375 0.62205882 0.34901961
0.58382353 0.63265931 0.33449755
0.62855392 0.64656863 0.32058824
0.67738971 0.65931373 0.30637255
0.72794118 0.67352941 0.28970588
0.77941176 0.68866422 0.27303922
0.82990196 0.70588235 0.2567402
0.87107843 0.71403186 0.25477941
0.90588235 0.71764706 0.27132353
0.94675245 0.72794118 0.27156863
0.96764706 0.73137255 0.28541667
0.98039216 0.72990196 0.3
0.99068627 0.73382353 0.31666667
0.26666667 0.59215686 0.37254902
0.27696078 0.59607843 0.375
0.29117647 0.59705882 0.38039216
0.3122549 0.6 0.38431373
0.33333333 0.6 0.38823529
0.35392157 0.60392157 0.39215686
0.37843137 0.60784314 0.39607843
0.4004902 0.61323529 0.40147059
0.42352941 0.61960784 0.40784314
0.44656863 0.62205882 0.41176471
0.47745098 0.62843137 0.40686275
0.5122549 0.63872549 0.4
0.54509804 0.64901961 0.39019608
0.59019608 0.66323529 0.3754902
0.63431373 0.67352941 0.36176471
0.67647059 0.68529412 0.35147059
0.72156863 0.69803922 0.34117647
0.76911765 0.7122549 0.32696078
0.81568627 0.72647059 0.31176471
0.86078431 0.73676471 0.29852941
0.89803922 0.74705882 0.30392157
0.93921569 0.75735294 0.31029412
0.96764706 0.76372549 0.31372549
0.97401961 0.76078431 0.32303922
0.98431373 0.76078431 0.3372549
0.31813725 0.62941176 0.40343137
0.32843137 0.63241422 0.40735294
0.33811275 0.63370098 0.41127451
0.35392157 0.63694853 0.41519608
0.37132353 0.6372549 0.41911765
0.38872549 0.63743873 0.42089461
0.40931373 0.64227941 0.42634804
0.43229167 0.64748775 0.43143382
0.45441176 0.6504902 0.43480392
0.475 0.65441176 0.43780637
0.50196078 0.65931373 0.4377451
0.53284314 0.66960784 0.43088235
0.55980392 0.67990196 0.425
0.59411765 0.69019608 0.41323529
0.6377451 0.7004902 0.40294118
0.68039216 0.71317402 0.39356618
0.72009804 0.725 0.38627451
0.76121324 0.73621324 0.37843137
0.80428922 0.74767157 0.36421569
0.8504902 0.76127451 0.35
0.89411765 0.77401961 0.34632353
0.92892157 0.78186275 0.35098039
0.96507353 0.79068627 0.35490196
0.97738971 0.79166667 0.35729167
0.98284314 0.79166667 0.36029412
0.36568627 0.66666667 0.43823529
0.375 0.66960784 0.44068627
0.38137255 0.66960784 0.44289216
0.3942402 0.67316176 0.44607843
0.40882353 0.67352941 0.45
0.42316176 0.67487745 0.45036765
0.44019608 0.67818627 0.45392157
0.46078431 0.6817402 0.45784314
0.48137255 0.68529412 0.46176471
0.50551471 0.68529412 0.46360294
0.52720588 0.69019608 0.46568627
0.55392157 0.7004902 0.46176471
0.57941176 0.70735294 0.45637255
0.60441176 0.71715686 0.44963235
0.64044118 0.72745098 0.44313725
0.68431373 0.74166667 0.43590686
0.7254902 0.75196078 0.42843137
0.76311275 0.76556373 0.42107843
0.80171569 0.77647059 0.41078431
0.84852941 0.78676471 0.39791667
0.89166667 0.8 0.38921569
0.92352941 0.80735294 0.39264706
0.96176471 0.81764706 0.39607843
0.98223039 0.82254902 0.39607843
0.98823529 0.82254902 0.4
0.41323529 0.70784314 0.46911765
0.41617647 0.70569853 0.47285539
0.42254902 0.70526961 0.47389706
0.43284314 0.70827206 0.47696078
0.44338235 0.71004902 0.47745098
0.45741422 0.71182598 0.48088235
0.475 0.71568627 0.48382353
0.49166667 0.71617647 0.48627451
0.51568627 0.71960784 0.49215686
0.53676471 0.71991422 0.49264706
0.55735294 0.72487745 0.5
0.58186275 0.73480392 0.49699755
0.60833333 0.74166667 0.49411765
0.63480392 0.75196078 0.48823529
0.65882353 0.7622549 0.48431373
0.69540441 0.77254902 0.47892157
0.72941176 0.78284314 0.47254902
0.76795343 0.79528186 0.46599265
0.80735294 0.80735294 0.45588235
0.84895833 0.81764706 0.44859069
0.88651961 0.8245098 0.44068627
0.92003676 0.83431373 0.4372549
0.95428922 0.84203431 0.4372549
0.98118873 0.85128676 0.4372549
0.99558824 0.85735294 0.4372549
0.45490196 0.74901961 0.50392157
0.46127451 0.74901961 0.50588235
0.46764706 0.74656863 0.50784314
0.47598039 0.74681373 0.51151961
0.48431373 0.74705882 0.51176471
0.49485294 0.74901961 0.51176471
0.51029412 0.75245098 0.51372549
0.52769608 0.75294118 0.51642157
0.54901961 0.75686275 0.52352941
0.57156863 0.75931373 0.52867647
0.59215686 0.76470588 0.53382353
0.61446078 0.77034314 0.5372549
0.64019608 0.78039216 0.53431373
0.66151961 0.78676471 0.52892157
0.68333333 0.79509804 0.52254902
0.71421569 0.80343137 0.51887255
0.74509804 0.81372549 0.51372549
0.77720588 0.82794118 0.50735294
0.81127451 0.8377451 0.50294118
0.84558824 0.84289216 0.49656863
0.88235294 0.85 0.49215686
0.91911765 0.85735294 0.4879902
0.95 0.86568627 0.48431373
0.97426471 0.87598039 0.48039216
0.99803922 0.88431373 0.48039216
0.50539216 0.79411765 0.53970588
0.50863971 0.79148284 0.54313725
0.51323529 0.78921569 0.54313725
0.52352941 0.78627451 0.54705882
0.53039216 0.78627451 0.54705882
0.54895833 0.78627451 0.55147059
0.5627451 0.78970588 0.55490196
0.5723652 0.79166667 0.55490196
0.58627451 0.79411765 0.55882353
0.60686275 0.8004902 0.56488971
0.62745098 0.80294118 0.57022059
0.64761029 0.80931373 0.57444853
0.67009804 0.81544118 0.57254902
0.68872549 0.82107843 0.56709559
0.70980392 0.825 0.56409314
0.73921569 0.83431373 0.56323529
0.77009804 0.84460784 0.55931373
0.80098039 0.85459559 0.55931373
0.82647059 0.86078431 0.5557598
0.85441176 0.86721814 0.54852941
0.88480392 0.87377451 0.54191176
0.91911765 0.88382353 0.53621324
0.94693627 0.88982843 0.53284314
0.97156863 0.89246324 0.53204657
0.99215686 0.89852941 0.53578431
0.57745098 0.83529412 0.59117647
0.57352941 0.83137255 0.58933824
0.57377451 0.82745098 0.5875
0.57830882 0.82745098 0.59080882
0.59362745 0.82745098 0.59509804
0.61078431 0.82745098 0.59914216
0.62083333 0.82745098 0.6
0.62585784 0.83137255 0.6
0.63039216 0.83529412 0.6
0.65098039 0.83982843 0.6057598
0.67156863 0.84411765 0.61176471
0.69117647 0.84791667 0.61813725
0.70882353 0.85 0.61862745
0.72941176 0.85196078 0.61470588
0.75098039 0.85588235 0.61470588
0.77303922 0.86127451 0.61470588
0.80490196 0.87156863 0.61470588
0.83002451 0.87892157 0.61470588
0.84926471 0.88504902 0.61372549
0.875 0.89080882 0.60723039
0.9004902 0.89803922 0.6
0.92561275 0.90404412 0.59375
0.94705882 0.90710784 0.59019608
0.97156863 0.90992647 0.59019608
0.98921569 0.9127451 0.59411765
0.6495098 0.87254902 0.64656863
0.64705882 0.87254902 0.64319853
0.64129902 0.86654412 0.63835784
0.64362745 0.86452206 0.63694853
0.65980392 0.86789216 0.64460784
0.67598039 0.86862745 0.65030637
0.68125 0.86862745 0.64901961
0.69074755 0.87254902 0.65104167
0.70588235 0.87647059 0.65588235
0.72015931 0.87892157 0.66133578
0.73737745 0.88039216 0.66654412
0.75471814 0.88284314 0.6713848
0.77156863 0.88357843 0.67156863
0.78578431 0.88676471 0.66979167
0.79852941 0.88676471 0.66617647
0.81666667 0.89068627 0.66617647
0.8372549 0.89705882 0.67009804
0.85729167 0.90398284 0.67009804
0.87487745 0.90919118 0.67009804
0.89577206 0.9127451 0.66764706
0.91789216 0.91862745 0.65980392
0.93578431 0.92089461 0.65539216
0.95526961 0.9245098 0.65306373
0.97696078 0.92843137 0.65588235
0.98823529 0.93088235 0.65588235
0.70588235 0.90588235 0.68627451
0.70735294 0.90343137 0.68382353
0.69313725 0.89705882 0.6745098
0.69362745 0.89411765 0.67058824
0.71176471 0.9 0.68039216
0.7254902 0.90196078 0.68970588
0.7254902 0.89509804 0.68235294
0.74166667 0.8995098 0.68921569
0.76470588 0.90588235 0.70196078
0.77745098 0.90588235 0.70588235
0.79411765 0.90980392 0.71078431
0.81470588 0.91372549 0.72107843
0.82745098 0.91372549 0.72352941
0.83186275 0.91372549 0.71372549
0.84215686 0.91372549 0.70980392
0.85245098 0.91519608 0.70980392
0.86666667 0.92156863 0.71372549
0.88088235 0.92401961 0.71372549
0.89607843 0.92941176 0.71470588
0.91666667 0.93676471 0.725
0.92941176 0.9372549 0.71372549
0.94607843 0.9372549 0.70980392
0.9627451 0.94117647 0.70980392
0.98333333 0.94656863 0.71911765
0.98823529 0.94509804 0.71372549
0.010294118 0.11127451 0.1004902
0.013296569 0.11372549 0.1004902
0.016666667 0.11127451 0.096568627
0.039215686 0.10980392 0.096752451
0.069362745 0.10784314 0.096568627
0.10343137 0.10588235 0.096568627
0.16666667 0.10588235 0.1004902
0.22843137 0.10588235 0.10441176
0.28627451 0.098039216 0.10441176
0.34319853 0.081372549 0.10196078
0.4004902 0.068627451 0.10330882
0.4622549 0.056678922 0.10686275
0.5247549 0.053676471 0.11078431
0.58529412 0.050796569 0.10735294
0.63823529 0.039705882 0.11654412
0.69215686 0.037193627 0.12254902
0.73333333 0.066176471 0.12647059
0.7745098 0.11127451 0.13284314
0.8189951 0.15931373 0.13982843
0.85704657 0.2004902 0.15196078
0.89215686 0.24681373 0.1629902
0.93137255 0.29509804 0.17175245
0.9692402 0.34411765 0.18517157
0.9848652 0.38535539 0.19754902
0.99215686 0.41715686 0.2127451
0.010294118 0.11372549 0.1004902
0.010638787 0.11372549 0.1004902
0.018504902 0.11372549 0.097809436
0.039215686 0.11011029 0.098039216
0.074693627 0.1122549 0.098805147
0.11704197 0.1122549 0.099571078
0.16973039 0.11041667 0.1004902
0.22696078 0.108678 0.10441176
0.28627451 0.10104167 0.10441176
0.34564951 0.090196078 0.1040671
0.4051011 0.082352941 0.10441176
0.46617647 0.069914216 0.10686275
0.52794118 0.055667892 0.10741422
0.58695619 0.050796569 0.10735294
0.63823529 0.052328431 0.11695772
0.68970588 0.065280331 0.1216299
0.7372549 0.087683824 0.12647059
0.77843137 0.12606464 0.13431373
0.81960784 0.16593137 0.13982843
0.85704657 0.20679381 0.15196078
0.89215686 0.25094975 0.16130515
0.93137255 0.29901961 0.17156863
0.96855086 0.34800858 0.1842065
0.98578431 0.39172794 0.19908088
0.99515931 0.42689951 0.21819853
0.010294118 0.11470588 0.10330882
0.010294118 0.11470588 0.10215993
0.016176471 0.11470588 0.10094975
0.04408701 0.11804534 0.10081189
0.086029412 0.11862745 0.10275735
0.12892157 0.11862745 0.10294118
0.17882966 0.11862745 0.10113358
0.22863051 0.11585478 0.1004902
0.28688725 0.11139706 0.1004902
0.34888174 0.10502451 0.10571385
0.41078431 0.099019608 0.11041667
0.47254902 0.08872549 0.11041667
0.53308824 0.072303922 0.10833333
