site/assets/luts/sha256-4f96ade67f99932878f6809fdaf9b4f02ec3e7e26c366e7d5e7fd545765d640e.cube
# LUTr-Schema-Version: 2
# LUTr-ID: sha256-4f96ade67f99932878f6809fdaf9b4f02ec3e7e26c366e7d5e7fd545765d640e
# LUTr-Title: polaroid px-100uv+ cold -
# LUTr-Collection: Natron HaldCLUT
# LUTr-Collection-ID: natron-haldclut-presets
# LUTr-Source: https://github.com/NatronGitHub/clut
# LUTr-Retrieved: 2026-07-27
# LUTr-Source-File: submissions/natron-haldclut-presets/instant_consumer/polaroid_px-100uv+_cold_-.png
# LUTr-Source-Format: HALD-PNG
# LUTr-Source-SHA256: 4f96ade67f99932878f6809fdaf9b4f02ec3e7e26c366e7d5e7fd545765d640e
# LUTr-License: CC-BY-SA-4.0
# LUTr-License-URL: https://github.com/NatronGitHub/clut#license
# LUTr-License-Basis: repo-license-file
# LUTr-Transform-Class: film-emulation
# LUTr-Tags: creative, film, film-emulation, hald-clut, natron, png, cool, cube
# LUTr-Input-Color-Space: srgb
# LUTr-Input-Gamut: rec709
# LUTr-Input-Transfer: srgb
# LUTr-Output-Color-Space: srgb
# LUTr-Output-Gamut: rec709
# LUTr-Output-Transfer: srgb
# LUTr-Color-Space-Confidence: assumed-display-referred
# LUTr-Domain-Normalized: true
# LUTr-Shaper: none
# LUTr-Original-Grid: 64x64x64
# LUTr-Conversion-Grid: 25x25x25
# LUTr-Conversion-Interpolation: trilinear
# LUTr-Conversion-Method: HALD-PNG LUT image decoded at 16-bit and sampled to 25x25x25 3D CUBE
# LUTr-Conversion-Tool: LUTr scripts/convert-all-to-cube.mjs 2.0.0
# LUTr-Conversion-Date: 2026-07-27
# LUTr-Note: Preserve this metadata and the upstream license notices when redistributing.
TITLE "polaroid px-100uv+ cold -"
LUT_3D_SIZE 25
DOMAIN_MIN 0 0 0
DOMAIN_MAX 1 1 1
0.11764706 0.13333333 0.1372549
0.11764706 0.13333333 0.13333333
0.11666667 0.13235294 0.13235294
0.11372549 0.12941176 0.12941176
0.11764706 0.13333333 0.13333333
0.11764706 0.13333333 0.13333333
0.13823529 0.15392157 0.15392157
0.16911765 0.18480392 0.18480392
0.19607843 0.21568627 0.21568627
0.2245098 0.24411765 0.24656863
0.25294118 0.27352941 0.27352941
0.27745098 0.3004902 0.3004902
0.30392157 0.3254902 0.3254902
0.33088235 0.3504902 0.3504902
0.35784314 0.37745098 0.3745098
0.38333333 0.40294118 0.39901961
0.40784314 0.42745098 0.42352941
0.43235294 0.45196078 0.44803922
0.45784314 0.47647059 0.47254902
0.48480392 0.50098039 0.49313725
0.50784314 0.52352941 0.51764706
0.53137255 0.54705882 0.53872549
0.56862745 0.58823529 0.57254902
0.59509804 0.61470588 0.59509804
0.61176471 0.63137255 0.61176471
0.12401961 0.14117647 0.14117647
0.12401961 0.13970588 0.13970588
0.12120098 0.13688725 0.13909314
0.12009804 0.13578431 0.13578431
0.12279412 0.13970588 0.13970588
0.125 0.14411765 0.14442402
0.14558824 0.16482843 0.16482843
0.17064951 0.19025735 0.19117647
0.19852941 0.21813725 0.21960784
0.2245098 0.24656863 0.24656863
0.25110294 0.27352941 0.27352941
0.27745098 0.3004902 0.3004902
0.30392157 0.3254902 0.3254902
0.33088235 0.3504902 0.3504902
0.35784314 0.37806373 0.37634804
0.38333333 0.40294118 0.4004902
0.41029412 0.42745098 0.42352941
0.43572304 0.45349265 0.44957108
0.46078431 0.47928922 0.47316176
0.48529412 0.503125 0.496875
0.50980392 0.5254902 0.51764706
0.53480392 0.5504902 0.54215686
0.56678922 0.58431373 0.56960784
0.59417892 0.61323529 0.59417892
0.60784314 0.62745098 0.60784314
0.13039216 0.14901961 0.14901961
0.12941176 0.14607843 0.14718137
0.1254902 0.14191176 0.14436275
0.12205882 0.14117647 0.14117647
0.1254902 0.14117647 0.14313725
0.13529412 0.15134804 0.15490196
0.15808824 0.1754902 0.17843137
0.17757353 0.19718137 0.2
0.2 0.21960784 0.22352941
0.22414216 0.24595588 0.24656863
0.2497549 0.27254902 0.27352941
0.27696078 0.29705882 0.3004902
0.30392157 0.3254902 0.3254902
0.33088235 0.35392157 0.35134804
0.35882353 0.37916667 0.37769608
0.38541667 0.40686275 0.40330882
0.41176471 0.43137255 0.42745098
0.43872549 0.4564951 0.45196078
0.4625 0.48137255 0.47647059
0.48872549 0.50490196 0.49791667
0.51029412 0.52941176 0.52156863
0.53566176 0.55441176 0.54264706
0.56568627 0.58455882 0.56960784
0.59117647 0.61078431 0.59117647
0.60784314 0.62745098 0.60784314
0.13676471 0.15294118 0.15294118
0.13333333 0.15245098 0.1526348
0.12928922 0.14767157 0.14889706
0.1254902 0.14117647 0.14466912
0.12377451 0.13946078 0.14313725
0.14172794 0.15827206 0.16133578
0.16531863 0.18235294 0.18615196
0.18314951 0.20294118 0.20637255
0.2 0.21960784 0.22352941
0.22058824 0.24283088 0.24442402
0.24644608 0.26960784 0.27254902
0.27696078 0.29705882 0.3004902
0.30563725 0.32745098 0.32745098
0.33474265 0.35441176 0.35435049
0.36176471 0.38223039 0.38137255
0.38854167 0.40833333 0.40686275
0.41519608 0.43480392 0.43137255
0.43872549 0.45833333 0.45410539
0.46470588 0.48394608 0.47647059
0.48872549 0.50490196 0.5004902
0.51176471 0.52941176 0.52156863
0.53823529 0.55741422 0.54607843
0.56568627 0.58235294 0.56666667
0.58903186 0.60863971 0.59117647
0.60784314 0.62745098 0.60784314
0.13921569 0.15882353 0.15882353
0.13921569 0.15686275 0.15759804
0.13529412 0.15392157 0.15490196
0.13137255 0.14754902 0.15122549
0.12843137 0.14411765 0.14803922
0.14632353 0.16397059 0.16789216
0.17205882 0.19166667 0.19558824
0.18897059 0.21053922 0.2125
0.19607843 0.21960784 0.22352941
0.21470588 0.2375 0.24142157
0.24607843 0.26960784 0.27156863
0.27892157 0.3004902 0.30245098
0.30980392 0.33137255 0.33137255
0.33848039 0.36004902 0.35833333
0.36617647 0.38578431 0.38578431
0.39191176 0.4122549 0.41078431
0.41568627 0.4372549 0.43333333
0.44019608 0.45980392 0.45588235
0.46470588 0.48431373 0.47647059
0.48872549 0.50833333 0.50098039
0.51176471 0.53039216 0.52156863
0.53823529 0.55784314 0.54607843
0.5627451 0.58235294 0.56666667
0.58872549 0.60833333 0.59117647
0.61176471 0.63137255 0.60784314
0.14166667 0.16127451 0.16127451
0.14558824 0.16372549 0.16519608
0.15012255 0.16703431 0.16973039
0.15349265 0.17009804 0.17395833
0.15637255 0.17598039 0.17990196
0.17101716 0.190625 0.19068627
0.18737745 0.20735294 0.21090686
0.19901961 0.22205882 0.22383578
0.20931373 0.23235294 0.23627451
0.22205882 0.24528186 0.24920343
0.25183824 0.27438725 0.27794118
0.28529412 0.30490196 0.30882353
0.31397059 0.33578431 0.33578431
0.34307598 0.36268382 0.3627451
0.36973039 0.39019608 0.39019608
0.39509804 0.41488971 0.41470588
0.41960784 0.43921569 0.43921569
0.44411765 0.46372549 0.45980392
0.46519608 0.48480392 0.48039216
0.48921569 0.50882353 0.50098039
0.51176471 0.53137255 0.52156863
0.53829657 0.55790441 0.54607843
0.56580882 0.58541667 0.56973039
0.59313725 0.6127451 0.59295343
0.61617647 0.63578431 0.6122549
0.15686275 0.17647059 0.17647059
0.16519608 0.18443627 0.18480392
0.1745098 0.19411765 0.19485294
0.1810049 0.20061275 0.20098039
0.1872549 0.20686275 0.20882353
0.19803922 0.21764706 0.22120098
0.21495098 0.23455882 0.23823529
0.22598039 0.2495098 0.2504902
0.2372549 0.25980392 0.26372549
0.2504902 0.27291667 0.27647059
0.27058824 0.29338235 0.29509804
0.29595588 0.3182598 0.31948529
0.32254902 0.34264706 0.34411765
0.34914216 0.36875 0.36875
0.37279412 0.39387255 0.39387255
0.39840686 0.41801471 0.41801471
0.42352941 0.44313725 0.43921569
0.44595588 0.46556373 0.46335784
0.46862745 0.48823529 0.48431373
0.49178922 0.51139706 0.50490196
0.51519608 0.53480392 0.5254902
0.54166667 0.56127451 0.54914216
0.57034314 0.58995098 0.57352941
0.6004902 0.62009804 0.59840686
0.62352941 0.64313725 0.61862745
0.19656863 0.21372549 0.21617647
0.19748775 0.21709559 0.21709559
0.20477941 0.225 0.22536765
0.20833333 0.23137255 0.23155637
0.21544118 0.23627451 0.2370098
0.22322304 0.24442402 0.24656863
0.23835784 0.26017157 0.26188725
0.25294118 0.275 0.27738971
0.26323529 0.28676471 0.28921569
0.27898284 0.30042892 0.30251225
0.29620098 0.31801471 0.31862745
0.31568627 0.33890931 0.33921569
0.33627451 0.35833333 0.35980392
0.35686275 0.37892157 0.37892157
0.37843137 0.3995098 0.3995098
0.39901961 0.41917892 0.42009804
0.42352941 0.44313725 0.44313725
0.44803922 0.46764706 0.46372549
0.47071078 0.49031863 0.48639706
0.49675245 0.51636029 0.50882353
0.52230392 0.54191176 0.53088235
0.54626225 0.5658701 0.55177696
0.57389706 0.5935049 0.57561275
0.60441176 0.62401961 0.60140931
0.62352941 0.64313725 0.61960784
0.23137255 0.25098039 0.25490196
0.23137255 0.25098039 0.25490196
0.23529412 0.25588235 0.25588235
0.24264706 0.2622549 0.2622549
0.23921569 0.2627451 0.2627451
0.24754902 0.26715686 0.26764706
0.26078431 0.28431373 0.28431373
0.27598039 0.29705882 0.2995098
0.29019608 0.31372549 0.31372549
0.30686275 0.32647059 0.32794118
0.32254902 0.34313725 0.34313725
0.34019608 0.35980392 0.36029412
0.35882353 0.37843137 0.37843137
0.37352941 0.39313725 0.39656863
0.39019608 0.41078431 0.41078431
0.40539216 0.425 0.425
0.42352941 0.44313725 0.44313725
0.44803922 0.46764706 0.46372549
0.47352941 0.49313725 0.48921569
0.50098039 0.52058824 0.5127451
0.52745098 0.54705882 0.5372549
0.55392157 0.57352941 0.55784314
0.57745098 0.59705882 0.57843137
0.60441176 0.62401961 0.60294118
0.62352941 0.64313725 0.61960784
0.27254902 0.28970588 0.29215686
0.26862745 0.28823529 0.28970588
0.26862745 0.28970588 0.28970588
0.26648284 0.28970588 0.28970588
0.26617647 0.28970588 0.28970588
0.26783088 0.28988971 0.29117647
0.28137255 0.30196078 0.30306373
0.29803922 0.32009804 0.32101716
0.31470588 0.33676471 0.33676471
0.33137255 0.35189951 0.35245098
0.34767157 0.36727941 0.36764706
0.36470588 0.38431373 0.3846201
0.38137255 0.39901961 0.40098039
0.39411765 0.41372549 0.41372549
0.40894608 0.42745098 0.42745098
0.42205882 0.44166667 0.44166667
0.43235294 0.45196078 0.4495098
0.45294118 0.47254902 0.47009804
0.4810049 0.50061275 0.49497549
0.50863971 0.52824755 0.51881127
0.53455882 0.55416667 0.54117647
0.55814951 0.57775735 0.56176471
0.58198529 0.60159314 0.58235294
0.60686275 0.62647059 0.60294118
0.62745098 0.64705882 0.61960784
0.30098039 0.32058824 0.32058824
0.30098039 0.32058824 0.32058824
0.30098039 0.32058824 0.32058824
0.30098039 0.32058824 0.32058824
0.29754902 0.32058824 0.32058824
0.29411765 0.31678922 0.31678922
0.30318627 0.32573529 0.32573529
0.32144608 0.34215686 0.34276961
0.33921569 0.35882353 0.35882353
0.35588235 0.37303922 0.3754902
0.37156863 0.38823529 0.39117647
0.38578431 0.40490196 0.40539216
0.4 0.41911765 0.41911765
0.41421569 0.43296569 0.43284314
0.42745098 0.44411765 0.44411765
0.43872549 0.45772059 0.45735294
0.44901961 0.46862745 0.46764706
0.46752451 0.48529412 0.48137255
0.49313725 0.51053922 0.50490196
0.51764706 0.53688725 0.5254902
0.54215686 0.56176471 0.54607843
0.56568627 0.58529412 0.56666667
0.5872549 0.60686275 0.58651961
0.61078431 0.63039216 0.60686275
0.62843137 0.64803922 0.62352941
0.33186275 0.34754902 0.35147059
0.33186275 0.34785539 0.35147059
0.33272059 0.35147059 0.35232843
0.33272059 0.35275735 0.35582108
0.32818627 0.35147059 0.35147059
0.3283701 0.35147059 0.35104167
0.33480392 0.35441176 0.35441176
0.34656863 0.36488971 0.36648284
0.36323529 0.37941176 0.38333333
0.37647059 0.39362745 0.39607843
0.38958333 0.40796569 0.40833333
0.4028799 0.4216299 0.42205882
0.41691176 0.43455882 0.43284314
0.43088235 0.44748775 0.4466299
0.4442402 0.46115196 0.45992647
0.45557598 0.475 0.47126225
0.46617647 0.48578431 0.48186275
0.48253676 0.50196078 0.49589461
0.50343137 0.52303922 0.51519608
0.52794118 0.54754902 0.53578431
0.55073529 0.57034314 0.55637255
0.57303922 0.59264706 0.57303922
0.59362745 0.61323529 0.59105392
0.61470588 0.63431373 0.61078431
0.63480392 0.65441176 0.62696078
0.36078431 0.37647059 0.38039216
0.3627451 0.37843137 0.38235294
0.3627451 0.38039216 0.38235294
0.3627451 0.38039216 0.38235294
0.3627451 0.38039216 0.37843137
0.3627451 0.38235294 0.38235294
0.36666667 0.38529412 0.38627451
0.3752451 0.39093137 0.39362745
0.38431373 0.4 0.40392157
0.39460784 0.41151961 0.41421569
0.40686275 0.42254902 0.4245098
0.41887255 0.43480392 0.43480392
0.43137255 0.44803922 0.44705882
0.44558824 0.46323529 0.46127451
0.45931373 0.4754902 0.47156863
0.47009804 0.48970588 0.48455882
0.48235294 0.5 0.49607843
0.49460784 0.51421569 0.50637255
0.51372549 0.53333333 0.52156863
0.53602941 0.55563725 0.54215686
0.55882353 0.57843137 0.56176471
0.57941176 0.59901961 0.57941176
0.6 0.61960784 0.59803922
0.62058824 0.64019608 0.61593137
0.63921569 0.65882353 0.63137255
0.38970588 0.40539216 0.40882353
0.39185049 0.40753676 0.40931373
0.39362745 0.40931373 0.40931373
0.39362745 0.40931373 0.40931373
0.39362745 0.40931373 0.40931373
0.39411765 0.41323529 0.41280637
0.39754902 0.41580882 0.41580882
0.40116422 0.41715686 0.41844363
0.40490196 0.42058824 0.42107843
0.41127451 0.42696078 0.42824755
0.42156863 0.4372549 0.4372549
0.43186275 0.45055147 0.44754902
0.44583333 0.46348039 0.46127451
0.4598652 0.47640931 0.47248775
0.47401961 0.49007353 0.48578431
0.48449755 0.50392157 0.49607843
0.49509804 0.51421569 0.50637255
0.50539216 0.52481618 0.51666667
0.52095588 0.54056373 0.53051471
0.54454657 0.56415441 0.54852941
0.56519608 0.58480392 0.56911765
0.58627451 0.60588235 0.58578431
0.61029412 0.62990196 0.60637255
0.63088235 0.6504902 0.62303922
0.64362745 0.66323529 0.63578431
0.42058824 0.43627451 0.43627451
0.42058824 0.43627451 0.43627451
0.42083333 0.4372549 0.4372549
0.42156863 0.44019608 0.4372549
0.4245098 0.44019608 0.4372549
0.4245098 0.44031863 0.44019608
0.4254902 0.44338235 0.44117647
0.42843137 0.44411765 0.44411765
0.42941176 0.44509804 0.44509804
0.43296569 0.44865196 0.44865196
0.43823529 0.45392157 0.45392157
0.44852941 0.46507353 0.46384804
0.4627451 0.47892157 0.475
0.47438725 0.49264706 0.48578431
0.4879902 0.50612745 0.49901961
0.50147059 0.51752451 0.51029412
0.51176471 0.52843137 0.51960784
0.52205882 0.54166667 0.52990196
0.53333333 0.55294118 0.54044118
0.55477941 0.57438725 0.55882353
0.5754902 0.59509804 0.57598039
0.6 0.61960784 0.59607843
0.62058824 0.64019608 0.61666667
0.64117647 0.66078431 0.63223039
0.65392157 0.67352941 0.64607843
0.44754902 0.46323529 0.46176471
0.45 0.46660539 0.46323529
0.45147059 0.46715686 0.46323529
0.45147059 0.46715686 0.4653799
0.45147059 0.46715686 0.46568627
0.45392157 0.46960784 0.4658701
0.45392157 0.46960784 0.46715686
0.45392157 0.46960784 0.46715686
0.45539216 0.47107843 0.46960784
0.45692402 0.47352941 0.47052696
0.46176471 0.47745098 0.47389706
0.46568627 0.48137255 0.48088235
0.47867647 0.49436275 0.48970588
0.49019608 0.50802696 0.50147059
0.5057598 0.52254902 0.51360294
0.51813725 0.53682598 0.52598039
0.52843137 0.54803922 0.53627451
0.54117647 0.55833333 0.54656863
0.55330882 0.57254902 0.55686275
0.56930147 0.58890931 0.57089461
0.58970588 0.60931373 0.58970588
0.61047794 0.63008578 0.60637255
0.63235294 0.65196078 0.62696078
0.65238971 0.67199755 0.64270833
0.66568627 0.68529412 0.65637255
0.47843137 0.49411765 0.48627451
0.47843137 0.49411765 0.49019608
0.47843137 0.49411765 0.49019608
0.48186275 0.49803922 0.49019608
0.48235294 0.49803922 0.49019608
0.48235294 0.49803922 0.49411765
0.48235294 0.49803922 0.49019608
0.48235294 0.49803922 0.49166667
0.48235294 0.49803922 0.49411765
0.48235294 0.49803922 0.49411765
0.48627451 0.50196078 0.49803922
0.49019608 0.50588235 0.50196078
0.49803922 0.51372549 0.50784314
0.51029412 0.52598039 0.51813725
0.5245098 0.54019608 0.52843137
0.53872549 0.55441176 0.54264706
0.54901961 0.56470588 0.55294118
0.56176471 0.57892157 0.56323529
0.5745098 0.59411765 0.57745098
0.5877451 0.60735294 0.5877451
0.60392157 0.62352941 0.6
0.6245098 0.64411765 0.62058824
0.64901961 0.66862745 0.6372549
0.66960784 0.68921569 0.65637255
0.68235294 0.70196078 0.67058824
0.50539216 0.52107843 0.51470588
0.50631127 0.52199755 0.51470588
0.50931373 0.525 0.51715686
0.50931373 0.525 0.51715686
0.50931373 0.525 0.51789216
0.50931373 0.525 0.51715686
0.50931373 0.525 0.51715686
0.50839461 0.525 0.51715686
0.50931373 0.525 0.51862745
0.50931373 0.52647059 0.51862745
0.51139706 0.52928922 0.52254902
0.51685049 0.53284314 0.52598039
0.52377451 0.54142157 0.53161765
0.53088235 0.54656863 0.53694853
0.54117647 0.55796569 0.54509804
0.55539216 0.57107843 0.55686275
0.56960784 0.58529412 0.56960784
0.58382353 0.5995098 0.58082108
0.59803922 0.61470588 0.59411765
0.60833333 0.62794118 0.60441176
0.62058824 0.64019608 0.61544118
0.63872549 0.65833333 0.63088235
0.66286765 0.68137255 0.65147059
0.68474265 0.70435049 0.67058824
0.70294118 0.72254902 0.68480392
0.53529412 0.55098039 0.54019608
0.53590686 0.55159314 0.54019608
0.53627451 0.55196078 0.54313725
0.53627451 0.55196078 0.5439951
0.53921569 0.55490196 0.54411765
0.53627451 0.55196078 0.54313725
0.53627451 0.55196078 0.54313725
0.53627451 0.55196078 0.54313725
0.53627451 0.55196078 0.54313725
0.53627451 0.55490196 0.54411765
0.5370098 0.55588235 0.54705882
0.54276961 0.55968137 0.55061275
0.55 0.56960784 0.55539216
0.55637255 0.5754902 0.56029412
0.56446078 0.58014706 0.56593137
0.57512255 0.59264706 0.57414216
0.59117647 0.60686275 0.5872549
0.60502451 0.62291667 0.6004902
0.61862745 0.63602941 0.61078431
0.62892157 0.64852941 0.62107843
0.63921569 0.65882353 0.63137255
0.65379902 0.67340686 0.64460784
0.67426471 0.69313725 0.66176471
0.69803922 0.71764706 0.68198529
0.71372549 0.73333333 0.69411765
0.56323529 0.57892157 0.56715686
0.5653799 0.58106618 0.56715686
0.56715686 0.58284314 0.5685049
0.56715686 0.58284314 0.57107843
0.57058824 0.58627451 0.57107843
0.57015931 0.58627451 0.57107843
0.56715686 0.58284314 0.57107843
0.56666667 0.58284314 0.57107843
0.56666667 0.58627451 0.57107843
0.56715686 0.58627451 0.57107843
0.57058824 0.58762255 0.575
0.57401961 0.59362745 0.57843137
0.58431373 0.6004902 0.58480392
0.59117647 0.61029412 0.5911152
0.60098039 0.61678922 0.59754902
0.61127451 0.62696078 0.60392157
0.62205882 0.6377451 0.61421569
0.63449755 0.65177696 0.6245098
0.64571078 0.6622549 0.63480392
0.65300245 0.66954657 0.64166667
0.65980392 0.67941176 0.64828431
0.67015931 0.68976716 0.65839461
0.6877451 0.70735294 0.67291667
0.70343137 0.72303922 0.6877451
0.71372549 0.73333333 0.69411765
0.6 0.61568627 0.59803922
0.60122549 0.61691176 0.59803922
0.60392157 0.61960784 0.6004902
0.60735294 0.62303922 0.60196078
0.60784314 0.62352941 0.60588235
0.60784314 0.62352941 0.60563725
0.60637255 0.62352941 0.60245098
0.60392157 0.62352941 0.60196078
0.60392157 0.62352941 0.60392157
0.60784314 0.6247549 0.60588235
0.60784314 0.62745098 0.60637255
0.61176471 0.63112745 0.60980392
0.62156863 0.63823529 0.61568627
0.63161765 0.64754902 0.62205882
0.63872549 0.65441176 0.62892157
0.64852941 0.66421569 0.63480392
0.66078431 0.6745098 0.64509804
0.66985294 0.68480392 0.65539216
0.67892157 0.69460784 0.66176471
0.68406863 0.7 0.66813725
0.69019608 0.70784314 0.67352941
0.69632353 0.71568627 0.67867647
0.70343137 0.72107843 0.68578431
0.70857843 0.72622549 0.69093137
0.71372549 0.73137255 0.69411765
0.64117647 0.65686275 0.63284314
0.64117647 0.65686275 0.63284314
0.64215686 0.65784314 0.63333333
0.64509804 0.66078431 0.63676471
0.64901961 0.66470588 0.64068627
0.64901961 0.66470588 0.64025735
0.64644608 0.66470588 0.6372549
0.64509804 0.66470588 0.6372549
0.64509804 0.66470588 0.6372549
0.64901961 0.66470588 0.64068627
0.64901961 0.66862745 0.64080882
0.65294118 0.67205882 0.64460784
0.66078431 0.67843137 0.6504902
0.66911765 0.68480392 0.65637255
0.67634804 0.69215686 0.66029412
0.68547794 0.70098039 0.66568627
0.6995098 0.71176471 0.67598039
0.70980392 0.72205882 0.68627451
0.71568627 0.7310049 0.69264706
0.71960784 0.73523284 0.69901961
0.7254902 0.74117647 0.70343137
0.73186275 0.75055147 0.71133578
0.73921569 0.75441176 0.71519608
0.73921569 0.75441176 0.71519608
0.74264706 0.75833333 0.71519608
0.68235294 0.69803922 0.66666667
0.68235294 0.69803922 0.66764706
0.68333333 0.69901961 0.66838235
0.68627451 0.70196078 0.67144608
0.69019608 0.70588235 0.675
0.69019608 0.70845588 0.67536765
0.69019608 0.70588235 0.6745098
0.68811275 0.70588235 0.67156863
0.68627451 0.70588235 0.67156863
0.69019608 0.70588235 0.6745098
0.69117647 0.70980392 0.67622549
0.69669118 0.71323529 0.67928922
0.70343137 0.71960784 0.68480392
0.70992647 0.72561275 0.69031863
0.71446078 0.73014706 0.69338235
0.72303922 0.73578431 0.69656863
0.73431373 0.74901961 0.70686275
0.74754902 0.76029412 0.71715686
0.75392157 0.76887255 0.72573529
0.76029412 0.77340686 0.73026961
0.76666667 0.78039216 0.73627451
0.77303922 0.78835784 0.74264706
0.78039216 0.79215686 0.74901961
0.78039216 0.79215686 0.74901961
0.78039216 0.79215686 0.74901961
0.72205882 0.7377451 0.69852941
0.72297794 0.73866422 0.70245098
0.72414216 0.73982843 0.70245098
0.72745098 0.74313725 0.70637255
0.73137255 0.74705882 0.70906863
0.73351716 0.74920343 0.71029412
0.73137255 0.74705882 0.70735294
0.72745098 0.74313725 0.70637255
0.72745098 0.74313725 0.70637255
0.73082108 0.74705882 0.70882353
0.73529412 0.75098039 0.71066176
0.73872549 0.75441176 0.71421569
0.74313725 0.76004902 0.71813725
0.7473652 0.76305147 0.72205882
0.75281863 0.76813725 0.725
0.75882353 0.77359069 0.72898284
0.76911765 0.78235294 0.7377451
0.78033088 0.79509804 0.7471201
0.79080882 0.80441176 0.75441176
0.8 0.81176471 0.76341912
0.80784314 0.81813725 0.77107843
0.81795343 0.82579657 0.77745098
0.82156863 0.82941176 0.78235294
0.82156863 0.82941176 0.78180147
0.82156863 0.82794118 0.78088235
0.75294118 0.76862745 0.7254902
0.75294118 0.76862745 0.7254902
0.75686275 0.77254902 0.72941176
0.76029412 0.77598039 0.73284314
0.76470588 0.78039216 0.73529412
0.76470588 0.78039216 0.7372549
0.76078431 0.77647059 0.73333333
0.75686275 0.77254902 0.72941176
0.75686275 0.77254902 0.72941176
0.76078431 0.77647059 0.73333333
0.76568627 0.78137255 0.7372549
0.77205882 0.7877451 0.74117647
0.77254902 0.78823529 0.74509804
0.77647059 0.79215686 0.74509804
0.77941176 0.79509804 0.74803922
0.78578431 0.8 0.7504902
0.79607843 0.80784314 0.76078431
0.80637255 0.81813725 0.76715686
0.81666667 0.82843137 0.77745098
0.82696078 0.83529412 0.78431373
0.8372549 0.84509804 0.79411765
0.84754902 0.85539216 0.80441176
0.85490196 0.85882353 0.80784314
0.85098039 0.85735294 0.80784314
0.85098039 0.85490196 0.80784314
0.11764706 0.1372549 0.1372549
0.11764706 0.13333333 0.13333333
0.11372549 0.12941176 0.13235294
0.11372549 0.12941176 0.12941176
0.11960784 0.13602941 0.13602941
0.13265931 0.1504902 0.1504902
0.15134804 0.16764706 0.16875
0.17702206 0.19509804 0.1966299
0.20637255 0.2245098 0.22598039
0.23333333 0.25294118 0.25294118
0.25968137 0.27990196 0.27990196
0.28511029 0.30686275 0.30735294
0.3122549 0.33259804 0.33186275
0.3372549 0.35814951 0.35686275
0.36421569 0.38480392 0.38198529
0.38970588 0.40931373 0.40539216
0.41421569 0.43382353 0.42990196
0.43964461 0.45833333 0.45349265
0.46421569 0.48284314 0.47647059
0.48903186 0.50704657 0.4995098
0.51421569 0.53063725 0.52279412
0.53872549 0.55686275 0.54509804
0.57316176 0.59105392 0.57352941
0.60055147 0.61862745 0.59901961
0.61176471 0.63137255 0.61176471
0.12493873 0.14270833 0.14362745
0.12401961 0.140625 0.14140625
0.12078738 0.13803615 0.13803615
0.11929381 0.13578431 0.13578431
0.12506127 0.14166667 0.14212623
0.13903186 0.15686275 0.15704657
0.15680147 0.17512255 0.1754902
0.18094363 0.19977022 0.20112592
0.20637255 0.22598039 0.22843137
0.23333333 0.25386029 0.25536918
0.25931373 0.27990196 0.28284314
0.28382353 0.30686275 0.30716146
0.31102941 0.33259804 0.33186275
0.3372549 0.35814951 0.35686275
0.36421569 0.38480392 0.38198529
0.39005055 0.40965839 0.40594363
0.4151348 0.43382353 0.42990196
0.44060202 0.45890778 0.45441176
0.46531863 0.48321078 0.47823223
0.49129136 0.50735294 0.50079657
0.51495098 0.53186275 0.52401961
0.54075521 0.55686275 0.54571078
0.5700674 0.58884804 0.57261029
0.59697457 0.61623775 0.59628523
0.60876225 0.6283701 0.60876225
0.13394608 0.15183824 0.15183824
0.1310815 0.14894301 0.14977022
0.12876838 0.14543505 0.14598652
0.12610294 0.14375 0.14571078
0.13180147 0.14859069 0.15104167
0.14719669 0.16643689 0.16680453
0.16617647 0.18578431 0.18624387
0.18745404 0.20706189 0.20885417
0.21029412 0.22990196 0.23235294
0.23272059 0.2542739 0.25594363
0.25857843 0.27981005 0.28072917
0.28370098 0.30686275 0.30686275
0.31029412 0.33259804 0.33204657
0.33757659 0.36034007 0.35718444
0.36501225 0.38590686 0.38419118
0.39071691 0.41170343 0.40816483
