site/assets/luts/sha256-6d4a1322cebe550fb076d64fe56686ae85d5932cb4bc92b09a69a2418ce8d036.cube
# LUTr-Schema-Version: 2
# LUTr-ID: sha256-6d4a1322cebe550fb076d64fe56686ae85d5932cb4bc92b09a69a2418ce8d036
# LUTr-Title: polaroid 669 cold +
# LUTr-Collection: Natron HaldCLUT
# LUTr-Collection-ID: natron-haldclut-presets
# LUTr-Source: https://github.com/NatronGitHub/clut
# LUTr-Retrieved: 2026-07-27
# LUTr-Source-File: submissions/natron-haldclut-presets/instant_pro/polaroid_669_cold_+.png
# LUTr-Source-Format: HALD-PNG
# LUTr-Source-SHA256: 6d4a1322cebe550fb076d64fe56686ae85d5932cb4bc92b09a69a2418ce8d036
# LUTr-License: CC-BY-SA-4.0
# LUTr-License-URL: https://github.com/NatronGitHub/clut#license
# LUTr-License-Basis: repo-license-file
# LUTr-Transform-Class: film-emulation
# LUTr-Tags: creative, film, film-emulation, hald-clut, natron, png, cool, cube
# LUTr-Input-Color-Space: srgb
# LUTr-Input-Gamut: rec709
# LUTr-Input-Transfer: srgb
# LUTr-Output-Color-Space: srgb
# LUTr-Output-Gamut: rec709
# LUTr-Output-Transfer: srgb
# LUTr-Color-Space-Confidence: assumed-display-referred
# LUTr-Domain-Normalized: true
# LUTr-Shaper: none
# LUTr-Original-Grid: 64x64x64
# LUTr-Conversion-Grid: 25x25x25
# LUTr-Conversion-Interpolation: trilinear
# LUTr-Conversion-Method: HALD-PNG LUT image decoded at 16-bit and sampled to 25x25x25 3D CUBE
# LUTr-Conversion-Tool: LUTr scripts/convert-all-to-cube.mjs 2.0.0
# LUTr-Conversion-Date: 2026-07-27
# LUTr-Note: Preserve this metadata and the upstream license notices when redistributing.
TITLE "polaroid 669 cold +"
LUT_3D_SIZE 9
DOMAIN_MIN 0 0 0
DOMAIN_MAX 1 1 1
0 0.24313725 0.31372549
0 0.23970588 0.30980392
0 0.23529412 0.29901961
0.089215686 0.23529412 0.30196078
0.24313725 0.23333333 0.30196078
0.41127451 0.22745098 0.32156863
0.57352941 0.21960784 0.3372549
0.72352941 0.21960784 0.3495098
0.8627451 0.22745098 0.37254902
0 0.25098039 0.30980392
0.0039215686 0.24748775 0.30980392
0 0.24264706 0.30196078
0.13137255 0.24528186 0.30802696
0.29117647 0.24313725 0.31715686
0.43823529 0.24264706 0.33302696
0.58884804 0.23872549 0.34460784
0.74264706 0.23872549 0.35735294
0.85490196 0.26617647 0.38382353
0 0.25882353 0.30588235
0.0039215686 0.26568627 0.30980392
0.025735294 0.26568627 0.30980392
0.19705882 0.27144608 0.31764706
0.34705882 0.27892157 0.32745098
0.49056373 0.28137255 0.34117647
0.63357843 0.28039216 0.35367647
0.76176471 0.28872549 0.37169118
0.87843137 0.32254902 0.4
0.0078431373 0.31470588 0.33186275
0 0.31470588 0.32794118
0.093627451 0.31862745 0.32794118
0.24215686 0.32647059 0.33333333
0.38431373 0.33431373 0.33970588
0.52352941 0.34307598 0.35386029
0.68088235 0.36813725 0.37990196
0.78970588 0.38676471 0.40294118
0.89264706 0.42156863 0.42990196
0.07254902 0.38235294 0.35490196
0.095098039 0.38039216 0.35122549
0.16323529 0.38431373 0.3495098
0.27058824 0.39019608 0.34705882
0.39411765 0.4 0.35098039
0.52745098 0.41519608 0.35955882
0.67352941 0.44901961 0.38970588
0.79558824 0.50465686 0.43970588
0.88039216 0.55490196 0.48235294
0.14411765 0.48823529 0.37647059
0.16323529 0.475 0.37273284
0.2127451 0.46580882 0.37009804
0.30238971 0.48284314 0.37401961
0.40784314 0.49730392 0.37401961
0.5283701 0.51176471 0.37401961
0.64705882 0.53186275 0.37806373
0.76911765 0.59626225 0.42745098
0.85882353 0.67352941 0.50441176
0.19411765 0.61568627 0.39705882
0.2122549 0.60490196 0.39656863
0.26176471 0.60196078 0.40098039
0.33137255 0.59705882 0.39852941
0.42009804 0.6122549 0.39460784
0.52990196 0.64068627 0.39705882
0.63897059 0.66372549 0.39803922
0.74252451 0.69607843 0.41862745
0.83039216 0.75980392 0.48627451
0.24803922 0.7754902 0.44411765
0.26372549 0.7754902 0.44411765
0.29754902 0.77156863 0.43627451
0.36421569 0.76372549 0.44166667
0.4502451 0.775 0.44656863
0.54068627 0.79246324 0.45245098
0.63443627 0.81813725 0.44509804
0.73523284 0.84552696 0.4622549
0.80784314 0.86029412 0.49264706
0.42745098 0.94117647 0.56862745
0.41911765 0.92892157 0.56029412
0.45098039 0.93529412 0.56176471
0.48578431 0.92401961 0.56323529
0.54117647 0.93529412 0.57058824
0.60686275 0.94117647 0.58431373
0.69607843 0.96372549 0.61862745
0.76176471 0.95343137 0.63186275
0.82745098 0.96078431 0.66666667
0 0.24313725 0.31764706
0 0.23921569 0.31372549
0 0.23921569 0.31066176
0.095098039 0.23743873 0.31354167
0.26813725 0.23529412 0.32328431
0.42303922 0.23137255 0.33694853
0.57745098 0.21960784 0.34852941
0.73180147 0.21960784 0.36819853
0.85490196 0.23137255 0.39166667
0 0.2466299 0.31372549
0.00049019608 0.24700521 0.31753217
0.003002451 0.24388787 0.31334252
0.13921569 0.24656863 0.32064951
0.29163603 0.24656863 0.32867647
0.44558824 0.24264706 0.3404182
0.59607843 0.23878676 0.35735294
0.74356618 0.23872549 0.37555147
0.86268382 0.25833333 0.39908088
0 0.26519608 0.32401961
0.0039215686 0.27351409 0.32536765
0.049938725 0.27153799 0.32729779
0.20637255 0.27905944 0.33970588
0.35661765 0.28523284 0.35
0.49420956 0.28417586 0.35968137
0.6372549 0.28112745 0.3752451
0.76960784 0.29882047 0.39473039
0.8745098 0.32254902 0.41813725
0 0.32205882 0.34313725
0.015379902 0.32254902 0.34313725
0.12598039 0.32254902 0.34705882
0.25509344 0.33313419 0.35178462
0.39430147 0.34200368 0.36029412
0.53872549 0.35343137 0.382644
0.67682292 0.37267157 0.40196078
0.79215686 0.39460784 0.42077206
0.87794118 0.42156863 0.45147059
0.059313725 0.39362745 0.36593137
0.1125 0.39362745 0.36617647
0.18504902 0.39534314 0.36642157
0.28406863 0.39837623 0.36617647
0.40563725 0.40955882 0.37009804
0.53658088 0.42671569 0.38137255
0.68265931 0.46397059 0.41464461
0.79905025 0.51400123 0.45710784
0.87671569 0.56078431 0.49558824
0.15196078 0.4995098 0.39313725
0.17714461 0.48831955 0.38905484
0.23057598 0.4877451 0.38921569
0.30686275 0.48957567 0.38921569
0.4153799 0.50303309 0.39185049
0.53529412 0.52234988 0.39032629
0.65712316 0.546875 0.4004902
0.78057598 0.60882353 0.44607843
0.85245098 0.67352941 0.51207108
0.19963235 0.62843137 0.4127451
0.21300551 0.61655944 0.40833333
0.26568627 0.61351103 0.41519608
0.33321078 0.61527267 0.41531863
0.42616422 0.62640931 0.41243873
0.53515625 0.64932598 0.41283701
0.64310662 0.67539828 0.41326593
0.75349265 0.71078431 0.44342831
0.81862745 0.75281863 0.48958333
0.25343137 0.78235294 0.45980392
0.26715686 0.77984069 0.45931373
0.31862745 0.77195159 0.46395527
0.3754519 0.76276808 0.45998775
0.44460784 0.77699142 0.44681373
0.53823529 0.8 0.455553
0.65147059 0.81518076 0.48872549
0.73920803 0.84160539 0.48039216
0.81617647 0.86035539 0.49613971
0.42647059 0.93676471 0.57598039
0.43933824 0.94522059 0.58394608
0.45392157 0.93345588 0.57610294
0.49019608 0.93216912 0.57530637
0.53480392 0.92083333 0.56789216
0.60784314 0.93480392 0.58529412
0.69264706 0.95343137 0.61715686
0.76960784 0.95477941 0.63762255
0.84264706 0.97598039 0.69313725
0 0.23921569 0.32843137
0 0.23921569 0.33235294
0.0039215686 0.23921569 0.34019608
0.11176471 0.24105392 0.35159314
0.28431373 0.23676471 0.35980392
0.44166667 0.23039216 0.37598039
0.59215686 0.22352941 0.39117647
0.73578431 0.21176471 0.40330882
0.85490196 0.22843137 0.42647059
0 0.24656863 0.33480392
0 0.24689032 0.33851103
0.015196078 0.24984681 0.34669118
0.1355239 0.25071998 0.35686275
0.31403186 0.25441176 0.37426471
0.46078431 0.24679841 0.38345588
0.60735294 0.23872549 0.39564951
0.74967831 0.23742341 0.41372549
0.85980392 0.25526961 0.43419118
0 0.27034314 0.3502451
0.0039215686 0.28134191 0.36197917
0.059375 0.28357843 0.37052696
0.22328431 0.28921569 0.38391544
0.37120098 0.28602941 0.39166667
0.50569853 0.28823529 0.40490196
0.63897059 0.28039216 0.41115196
0.76531863 0.29264706 0.42981005
0.8745098 0.32254902 0.45367647
0.0039215686 0.34754902 0.38480392
0.018765319 0.34901961 0.39234069
0.14411765 0.34117647 0.39803922
0.28578431 0.345481 0.40140931
0.41672794 0.35484069 0.40784314
0.56680453 0.36813725 0.43147978
0.67509191 0.37990196 0.43979779
0.79607843 0.39768689 0.45943627
0.86813725 0.42303922 0.47990196
0.095098039 0.43382353 0.41960784
0.11795343 0.4245098 0.41544118
0.21029412 0.41678922 0.41568627
0.30833333 0.41642157 0.41464461
0.43039216 0.42941176 0.41862745
0.56734069 0.45159314 0.43333333
0.68970588 0.47781863 0.45477941
0.80330882 0.52555147 0.49460784
0.87303922 0.56715686 0.53039216
0.1622549 0.53002451 0.43443627
0.19402574 0.52637868 0.43333333
0.24656863 0.51360294 0.43005515
0.32941176 0.51064645 0.43439032
0.42738971 0.51715686 0.42585784
0.55061275 0.54644608 0.42977941
0.67598039 0.57889093 0.45183824
0.78039216 0.62467831 0.49313725
0.86004902 0.69914216 0.56789216
0.20882353 0.65490196 0.45490196
0.22895221 0.6533701 0.45490196
0.27573529 0.64313725 0.45392157
0.3458027 0.63949142 0.45165441
0.43014706 0.64068627 0.44791667
0.54105392 0.66642157 0.44954044
0.64926471 0.69356618 0.45784314
0.74972426 0.70906863 0.45983456
0.82058824 0.76813725 0.52867647
0.26568627 0.80637255 0.49705882
0.27810968 0.80539216 0.4939951
0.31715686 0.78933824 0.49019608
0.37389706 0.78970588 0.48345588
0.45128676 0.7908701 0.48627451
0.53920037 0.80214461 0.48579963
0.64601716 0.82291667 0.50428922
0.7365962 0.84558824 0.50960478
0.81862745 0.86813725 0.5560049
0.40490196 0.91960784 0.58431373
0.43480392 0.93333333 0.59595588
0.46397059 0.93627451 0.59828431
0.49497549 0.93284314 0.59558824
0.53529412 0.92696078 0.59264706
0.5995098 0.92107843 0.58982843
0.69387255 0.95465686 0.63602941
0.76875 0.95686275 0.65710784
0.83431373 0.96862745 0.69313725
0 0.23529412 0.36323529
0 0.23921569 0.37303922
0.0024509804 0.24375 0.39276961
0.12303922 0.24705882 0.40827206
0.30955882 0.2495098 0.43602941
0.47647059 0.24558824 0.45980392
0.63088235 0.22561275 0.46580882
0.76127451 0.22175245 0.47794118
0.8754902 0.20147059 0.47941176
0 0.25863971 0.39656863
0 0.25498621 0.39656863
0.016544118 0.25646446 0.40606618
0.16508119 0.26244638 0.43131127
0.34583333 0.26648284 0.45303309
0.49734988 0.26482077 0.4689185
0.64759498 0.2511489 0.47647059
0.76911765 0.24248621 0.48578431
0.87518382 0.24656863 0.49460784
0.0039215686 0.29460784 0.42352941
0.0039215686 0.29661458 0.43137255
0.029810049 0.29525123 0.44050245
0.24283088 0.30268076 0.46127451
0.39852941 0.30974265 0.47818627
0.52869179 0.29480699 0.47654718
0.66482843 0.28630515 0.48213848
0.78039216 0.28872549 0.49154412
0.87267157 0.31678922 0.50980392
0.0039215686 0.38235294 0.465625
0.010546875 0.37217371 0.47243413
0.1622549 0.36421569 0.47647059
0.31070006 0.36779259 0.48731618
0.45003064 0.37843137 0.50346201
0.57248775 0.38719363 0.50518536
0.68457414 0.37921262 0.50562194
0.79067862 0.4055913 0.52156863
0.87107843 0.42395833 0.53431373
0.030392157 0.46960784 0.48970588
0.11764706 0.46666667 0.49558824
0.23547794 0.46372549 0.50128676
0.34905025 0.45857843 0.50811887
0.46911765 0.46715686 0.50894608
0.59341299 0.48403799 0.51688113
0.70294118 0.50931373 0.53480392
0.79362745 0.54117647 0.55563725
0.8627451 0.56593137 0.57303922
0.13504902 0.58143382 0.50006127
0.21372549 0.58333333 0.5098652
0.28431373 0.57725184 0.51378676
0.35859375 0.55714614 0.50539216
0.45857843 0.5622549 0.50539216
0.57361366 0.57822457 0.50051317
0.68835784 0.61568627 0.52843137
0.78566942 0.6608992 0.5672258
0.84068627 0.70784314 0.61329657
0.22904412 0.70441176 0.5310049
0.24362745 0.70298713 0.5234375
0.29852941 0.69191176 0.52107843
0.36813725 0.6801011 0.51729473
0.44436275 0.66734069 0.51053922
0.5464614 0.68543199 0.51360294
0.66029412 0.71688113 0.52196691
0.75716912 0.73913909 0.54166667
0.825 0.79620098 0.6
0.28363971 0.83204657 0.55471814
0.31094516 0.82467065 0.55539216
0.33872549 0.82009804 0.5504902
0.40350031 0.80882353 0.55140165
0.45465686 0.80082721 0.53489583
0.55458793 0.81292126 0.55256587
0.64114583 0.83823529 0.54679841
0.73302696 0.85588235 0.56247702
0.81292892 0.875 0.60508578
0.4627451 0.95294118 0.64558824
0.46666667 0.9495098 0.64215686
0.47843137 0.94546569 0.63480392
0.50140931 0.93633578 0.62990196
0.55171569 0.93921569 0.63382353
0.61470588 0.94901961 0.63866422
0.67647059 0.92610294 0.62659314
0.76176471 0.95245098 0.66519608
0.82990196 0.96323529 0.69705882
0 0.25098039 0.46078431
0 0.25294118 0.4745098
0 0.25294118 0.48529412
0.12794118 0.25612745 0.50759804
0.36372549 0.26078431 0.53627451
0.50882353 0.26470588 0.55122549
0.66960784 0.28186275 0.57941176
0.7995098 0.31029412 0.60220588
0.89215686 0.3254902 0.60784314
0 0.27769608 0.4877451
0 0.27447917 0.49362745
0.0090686275 0.27205882 0.50490196
0.16902574 0.2770527 0.52671569
0.39571078 0.28480392 0.55563725
0.53872549 0.2877451 0.57018995
0.69019608 0.32009804 0.59810049
0.7995098 0.34439338 0.60784314
0.87867647 0.36004902 0.60784314
0 0.32156863 0.50686275
0 0.32150735 0.5127451
0.019852941 0.31801471 0.53333333
0.259375 0.3213848 0.56029412
0.43333333 0.33578431 0.58039216
0.5754902 0.34754902 0.59436275
0.70723039 0.38394608 0.61531863
0.80349265 0.38235294 0.60955882
0.88088235 0.3872549 0.6004902
0.0078431373 0.40147059 0.54289216
0.0071997549 0.39770221 0.55073529
0.12193627 0.39362745 0.56029412
0.32818627 0.39923407 0.57996324
0.47757353 0.41678922 0.60318627
0.6 0.44411765 0.61222426
0.70686275 0.44981618 0.61145833
0.80147059 0.43268995 0.60392157
0.86862745 0.4254902 0.6004902
0.026470588 0.50392157 0.58529412
0.10661765 0.50196078 0.5879902
0.23872549 0.50416667 0.59313725
0.37647059 0.50845588 0.60355392
0.50294118 0.51960784 0.61372549
0.61421569 0.53137255 0.62156863
0.70759804 0.54313725 0.61960784
0.79534314 0.55134804 0.62205882
0.86666667 0.5745098 0.63235294
0.17818627 0.62941176 0.59803922
0.22297794 0.62754289 0.59803922
0.30827206 0.62426471 0.60073529
0.39754902 0.62503064 0.60196078
0.49767157 0.62536765 0.60906863
0.60098039 0.63333333 0.60784314
0.69632353 0.66127451 0.62107843
0.78651961 0.71004902 0.66038603
0.84166667 0.72156863 0.66813725
0.24509804 0.75294118 0.60833333
0.25814951 0.75098039 0.60226716
0.33382353 0.75245098 0.60833333
0.40416667 0.74227941 0.60404412
0.47965686 0.7245098 0.6002451
0.56917892 0.72916667 0.60122549
0.67254902 0.75294118 0.60196078
0.76109069 0.77518382 0.62009804
0.81862745 0.825 0.67058824
0.3254902 0.8627451 0.62818627
0.35202206 0.85857843 0.63406863
0.38431373 0.85833333 0.6283701
0.42696078 0.8495098 0.62190564
0.48051471 0.8372549 0.61127451
0.55833333 0.83137255 0.61136642
0.64656863 0.84932598 0.61403186
0.73523284 0.86645221 0.62107843
0.81764706 0.88578431 0.64215686
0.48823529 0.95686275 0.68627451
0.49264706 0.95514706 0.68676471
0.50784314 0.95686275 0.68431373
0.49558824 0.92058824 0.6622549
0.55686275 0.94215686 0.67254902
0.61470588 0.94044118 0.67254902
0.69068627 0.96127451 0.69117647
0.76568627 0.96078431 0.7
0.82352941 0.96078431 0.71176471
0 0.27990196 0.59166667
0 0.27598039 0.60196078
0 0.27205882 0.61164216
0.125 0.2745098 0.62794118
0.40661765 0.28897059 0.65416667
0.57745098 0.30006127 0.67254902
0.69558824 0.32720588 0.67990196
0.80931373 0.41403186 0.70275735
0.87598039 0.51862745 0.72205882
0 0.30667892 0.60931373
0 0.30275735 0.61715686
0.0033088235 0.29791667 0.62806373
0.16341912 0.29773284 0.63939951
0.43563113 0.30490196 0.66813725
0.59184283 0.33003217 0.6830193
0.71122855 0.36815257 0.69322917
0.8127451 0.43654259 0.70855545
0.87824755 0.52303922 0.72205882
0 0.35747549 0.62156863
0.0039215686 0.35382966 0.62922794
0.021109069 0.34696691 0.64246324
0.23255208 0.34405637 0.65977328
0.46568627 0.37340686 0.6778799
0.61121324 0.39829963 0.69362745
0.71666667 0.43023897 0.7026348
0.80502451 0.51043199 0.71626838
0.86041667 0.57316176 0.72745098
0.0078431373 0.44503676 0.63186275
0.0047257966 0.43493413 0.63970588
0.15654105 0.43382353 0.65372243
0.333678 0.43290441 0.67052696
0.49289216 0.46130515 0.68844975
0.6290671 0.50230545 0.70432751
0.72251838 0.53696385 0.71090686
0.79717371 0.59883578 0.72598039
0.83921569 0.61127451 0.72261029
0.012990196 0.54730392 0.66127451
0.063327206 0.53970588 0.65989583
0.22506127 0.53841912 0.66292892
0.37527574 0.54748775 0.6801777
0.51041667 0.56887255 0.69387255
0.63679534 0.60199142 0.70882353
0.71691176 0.63308824 0.71311275
0.79344363 0.63921569 0.71740196
0.84558824 0.64142157 0.70637255
0.20643382 0.66672794 0.67984069
0.2386106 0.66617647 0.67892157
0.32257966 0.67340686 0.68532475
0.42359069 0.68094363 0.69426317
0.53284314 0.68624387 0.70294118
0.63002451 0.70147059 0.7091682
0.71176471 0.71859681 0.717356
0.77745098 0.72856924 0.71733303
0.82561275 0.73676471 0.72205882
0.32794118 0.79264706 0.6935049
0.3457261 0.78970588 0.6897212
0.39509804 0.79739583 0.69068627
0.45588235 0.7955576 0.69460784
0.53553922 0.79289216 0.69852941
0.60379902 0.78129596 0.69751838
0.68431373 0.80085784 0.69852941
0.76078431 0.82366728 0.71372549
0.82291667 0.86544118 0.74840686
0.40343137 0.88903186 0.70275735
0.4067019 0.89295343 0.70275735
0.43734681 0.89143689 0.70098039
0.47879136 0.89136029 0.70227482
0.53676471 0.88382353 0.69852941
0.59031097 0.8710095 0.69087776
0.65098039 0.87438725 0.68958333
0.73985141 0.88572304 0.69491422
0.79019608 0.89803922 0.70814951
0.52696078 0.96078431 0.73480392
0.53872549 0.96862745 0.73872549
0.5432598 0.96470588 0.73578431
0.56862745 0.96470588 0.73480392
0.59436275 0.95441176 0.72696078
0.63284314 0.94454657 0.72003676
0.66519608 0.92058824 0.70686275
0.76078431 0.95980392 0.73743873
0.83676471 0.97647059 0.75833333
0.00098039216 0.31176471 0.7127451
0 0.31666667 0.7127451
0.0078431373 0.30857843 0.7252451
0.084681373 0.3057598 0.74080882
0.43970588 0.32794118 0.75931373
0.61764706 0.39068627 0.76703431
0.74019608 0.44583333 0.77745098
0.8127451 0.49865196 0.7745098
0.86764706 0.60294118 0.78235294
0 0.34129902 0.73333333
0.0039215686 0.34204963 0.73186275
0.014705882 0.33471201 0.73615196
0.14797794 0.32843137 0.74857537
0.45637255 0.35900735 0.76078431
0.63688725 0.41934743 0.7745098
0.74485294 0.48045343 0.77843137
0.81709559 0.51072304 0.77843137
0.86311275 0.62769608 0.78529412
0.0039215686 0.41102941 0.72843137
0.0039215686 0.40621936 0.73627451
0.006004902 0.38823529 0.74411765
0.23848039 0.38786765 0.75490196
0.47598039 0.42352941 0.7627451
0.6489277 0.49322917 0.77487745
0.74375 0.53792892 0.78216912
0.80882353 0.59338235 0.78262868
0.83995098 0.63357843 0.78602941
0.0042892157 0.49460784 0.73235294
0.064751838 0.49166667 0.73737745
0.21308211 0.49071691 0.74396446
0.34803922 0.48794424 0.75159314
0.5125 0.51421569 0.76574755
0.64921875 0.57807904 0.7745098
0.73995098 0.63186275 0.77843137
0.79675245 0.68713235 0.78258272
0.83431373 0.73026961 0.79166667
0.0058823529 0.59166667 0.73529412
0.020772059 0.5817402 0.73192402
0.23504902 0.5875 0.73480392
0.40220588 0.60422794 0.74932598
0.53039216 0.62156863 0.76078431
0.65147059 0.66930147 0.7745098
0.73235294 0.7245098 0.77843137
0.78498775 0.74816176 0.78235294
0.82745098 0.79803922 0.79313725
0.16960784 0.70882353 0.74313725
0.22267157 0.70625 0.74410233
0.31246936 0.70793505 0.74396446
0.40752145 0.70882353 0.74774816
0.53161765 0.72254902 0.759375
0.64713542 0.75611213 0.77127757
0.72068015 0.79019608 0.77769608
0.77745098 0.80779718 0.77806373
0.82254902 0.82156863 0.77843137
0.36470588 0.82352941 0.75416667
0.39117647 0.82352941 0.75563725
0.42328431 0.82702206 0.75490196
0.48008578 0.83091299 0.75416667
0.56764706 0.83419118 0.76458333
0.65052083 0.84914216 0.77405025
0.7127451 0.8502451 0.77371324
0.77025123 0.87193627 0.7814951
0.80857843 0.88627451 0.7870098
0.47745098 0.91176471 0.76580882
0.48992034 0.91078431 0.76311275
0.51216299 0.91023284 0.76188725
0.53056066 0.91482843 0.75923713
0.59479167 0.91715686 0.76666667
0.65882353 0.91956189 0.7745098
0.70196078 0.91541054 0.76666667
0.7582261 0.9238511 0.770144
0.80490196 0.93382353 0.78235294
0.57843137 0.96862745 0.7745098
0.59117647 0.97352941 0.77843137
0.59485294 0.97156863 0.77745098
0.60833333 0.97254902 0.77745098
0.64117647 0.97696078 0.77843137
0.67904412 0.96752451 0.77745098
0.70784314 0.95710784 0.76740196
0.75196078 0.95477941 0.76666667
0.83921569 0.98039216 0.78921569
0.011764706 0.39754902 0.79754902
0.0034313725 0.39313725 0.80147059
0.015073529 0.3745098 0.81323529
0.2377451 0.38039216 0.82794118
0.48210784 0.42230392 0.8245098
0.63952206 0.49571078 0.82665441
0.75625 0.58039216 0.82794118
0.82359069 0.63872549 0.82401961
0.84656863 0.68039216 0.82401961
0.0078431373 0.42052696 0.81317402
0.0077282475 0.41574755 0.81318168
0.01573223 0.39442402 0.81660539
0.27383578 0.40588235 0.8245098
0.49384191 0.45119485 0.82622549
0.6495098 0.53311121 0.82401961
0.75592831 0.62648591 0.82794118
0.81623009 0.68082874 0.82794118
0.84705882 0.71519608 0.82401961
0.021323529 0.48137255 0.81666667
0.030790441 0.47303922 0.82058824
0.16256127 0.46559436 0.81740196
0.34413297 0.48431373 0.81666667
0.52052696 0.52285539 0.82040441
0.66458333 0.58627451 0.82794118
0.75232843 0.67352941 0.82794118
0.80968137 0.72561275 0.82794118
0.8504902 0.74215686 0.82401961
0.20772059 0.57775735 0.80882353
0.23580729 0.57689951 0.80664063
0.31115196 0.56871936 0.81171875
0.42480086 0.57647059 0.81617647
0.54846814 0.59494485 0.8229473
0.66734069 0.66140472 0.821875
0.75098039 0.7377451 0.82401961
0.8004902 0.77894455 0.82401961
0.83265931 0.79068627 0.82401961
0.2370098 0.67230392 0.79877451
0.26155025 0.67401961 0.79705882
0.35716912 0.67034314 0.8002451
0.45612745 0.67665441 0.80768995
0.55968137 0.69276961 0.81446078
0.65980392 0.73446691 0.82009804
0.74534314 0.80196078 0.82371324
0.79264706 0.82279412 0.82009804
0.82352941 0.84411765 0.82009804
0.23627451 0.76372549 0.79283088
0.27745098 0.76370251 0.79426317
0.3346201 0.75988051 0.79656863
0.44564185 0.76390165 0.79920343
0.55358456 0.77809436 0.80465686
0.65177696 0.80127911 0.81236979
0.73167892 0.84666054 0.81678922
0.78484222 0.87827053 0.82009804
0.81568627 0.88952206 0.82009804
0.39754902 0.86262255 0.8004902
0.40833333 0.85837929 0.79823836
0.45021446 0.85487132 0.8004902
0.49894301 0.85833333 0.80061275
0.57303922 0.87034314 0.80441176
0.65396752 0.87786458 0.80833333
0.71973039 0.89359681 0.81289828
0.7848652 0.91911765 0.82009804
0.82352941 0.93480392 0.82659314
0.5088848 0.93480392 0.80833333
0.52439491 0.93823529 0.80833333
0.55496324 0.93313419 0.80445772
0.57522212 0.93866422 0.80833333
0.63213848 0.94022672 0.80860907
0.68974418 0.93866422 0.81243873
0.73615196 0.93802083 0.81306679
0.78572304 0.94693627 0.82009804
0.82794118 0.9495098 0.82009804
0.63578431 0.98039216 0.8122549
0.65882353 0.9838848 0.81917892
0.66617647 0.98039216 0.81617647
0.675 0.98039216 0.81617647
0.67892157 0.97867647 0.8122549
0.72107843 0.97696078 0.81764706
0.75882353 0.97830882 0.82009804
0.79362745 0.98088235 0.81666667
0.84264706 0.98382353 0.82009804
0.25490196 0.52156863 0.87058824
0.26176471 0.51372549 0.87009804
0.33627451 0.51372549 0.86764706
0.44803922 0.52941176 0.86666667
0.58431373 0.59607843 0.8627451
0.69215686 0.67107843 0.8627451
0.7627451 0.72352941 0.85098039
0.8122549 0.80098039 0.8504902
0.84313725 0.83137255 0.84705882
0.28578431 0.54852941 0.86666667
0.33848039 0.55496324 0.87058824
0.37487745 0.54546569 0.86764706
0.48137255 0.56666667 0.86685049
0.59436275 0.61715686 0.8627451
0.68676471 0.68088235 0.85882353
0.7627451 0.75539216 0.85490196
0.81574755 0.82316176 0.85098039
0.84705882 0.85392157 0.85098039
0.3754902 0.61764706 0.8627451
0.38223039 0.61115196 0.85980392
0.42941176 0.6120098 0.8627451
0.51139706 0.62757353 0.86335784
0.60343137 0.6627451 0.85882353
0.6942402 0.71862745 0.85490196
0.7627451 0.78431373 0.85098039
0.8122549 0.84178922 0.85098039
0.84019608 0.87156863 0.84705882
0.42352941 0.69509804 0.85098039
0.45692402 0.70625 0.85490196
0.45870098 0.67781863 0.84816176
0.5401348 0.70392157 0.85490196
0.61372549 0.7245098 0.85490196
0.69313725 0.76770833 0.85098039
0.75882353 0.82120098 0.84705882
0.80226716 0.8591299 0.84705882
0.82990196 0.87156863 0.84313725
0.45882353 0.78431373 0.84705882
0.4747549 0.78480392 0.84730392
0.49852941 0.7745098 0.84313725
0.54607843 0.77377451 0.84509804
0.6 0.76176471 0.84117647
0.68406863 0.80955882 0.84583333
0.75098039 0.85 0.84607843
0.79656863 0.87892157 0.84313725
0.8254902 0.90588235 0.84313725
0.43529412 0.84754902 0.8377451
0.44166667 0.84117647 0.83529412
0.45318627 0.82928922 0.83051471
0.53131127 0.83823529 0.83866422
0.60196078 0.84411765 0.83921569
0.6783701 0.85931373 0.84313725
0.74313725 0.88480392 0.84313725
0.79626225 0.9091299 0.83939951
0.80539216 0.91127451 0.83921569
0.48137255 0.91176471 0.83529412
0.47340686 0.89938725 0.82720588
0.50784314 0.90416667 0.83161765
0.54914216 0.9057598 0.83431373
0.60392157 0.91176471 0.83529412
0.66678922 0.91176471 0.83676471
0.72843137 0.90955882 0.82843137
0.80098039 0.94522059 0.84313725
0.84019608 0.95490196 0.84411765
0.58627451 0.96127451 0.83921569
0.5841299 0.95870098 0.83578431
0.59252451 0.95232843 0.83014706
0.62352941 0.95343137 0.83186275
0.65612745 0.96151961 0.8375
0.69656863 0.95765931 0.83707108
0.74803922 0.95870098 0.83933824
0.80098039 0.96519608 0.84313725
0.82696078 0.96519608 0.84313725
0.68627451 0.98823529 0.83921569
0.69068627 0.98823529 0.83921569
0.67745098 0.98823529 0.83921569
0.70686275 0.99068627 0.84313725
0.71764706 0.98627451 0.84313725
0.76470588 0.98823529 0.84558824
0.79411765 0.99215686 0.84803922
0.80833333 0.9877451 0.83186275
0.82352941 0.97254902 0.84313725
