site/assets/luts/sha256-e1261d5558918732aa28ed6cadfa723d140aa30c7c72d00696ec0bfec54f784e.cube
# LUTr-Schema-Version: 2
# LUTr-ID: sha256-e1261d5558918732aa28ed6cadfa723d140aa30c7c72d00696ec0bfec54f784e
# LUTr-Title: green mono
# LUTr-Collection: Natron HaldCLUT
# LUTr-Collection-ID: natron-haldclut-presets
# LUTr-Source: https://github.com/NatronGitHub/clut
# LUTr-Retrieved: 2026-07-27
# LUTr-Source-File: submissions/natron-haldclut-presets/various/green_mono.png
# LUTr-Source-Format: HALD-PNG
# LUTr-Source-SHA256: e1261d5558918732aa28ed6cadfa723d140aa30c7c72d00696ec0bfec54f784e
# LUTr-License: CC-BY-SA-4.0
# LUTr-License-URL: https://github.com/NatronGitHub/clut#license
# LUTr-License-Basis: repo-license-file
# LUTr-Transform-Class: film-emulation
# LUTr-Tags: creative, film, film-emulation, hald-clut, natron, png, black-and-white, cube
# LUTr-Input-Color-Space: srgb
# LUTr-Input-Gamut: rec709
# LUTr-Input-Transfer: srgb
# LUTr-Output-Color-Space: srgb
# LUTr-Output-Gamut: rec709
# LUTr-Output-Transfer: srgb
# LUTr-Color-Space-Confidence: assumed-display-referred
# LUTr-Domain-Normalized: true
# LUTr-Shaper: none
# LUTr-Original-Grid: 64x64x64
# LUTr-Conversion-Grid: 25x25x25
# LUTr-Conversion-Interpolation: trilinear
# LUTr-Conversion-Method: HALD-PNG LUT image decoded at 16-bit and sampled to 25x25x25 3D CUBE
# LUTr-Conversion-Tool: LUTr scripts/convert-all-to-cube.mjs 2.0.0
# LUTr-Conversion-Date: 2026-07-27
# LUTr-Note: Preserve this metadata and the upstream license notices when redistributing.
TITLE "green mono"
LUT_3D_SIZE 9
DOMAIN_MIN 0 0 0
DOMAIN_MAX 1 1 1
0.0078431373 0.011764706 0.0078431373
0.042156863 0.069607843 0.03872549
0.073529412 0.14607843 0.092156863
0.1004902 0.23872549 0.16568627
0.12156863 0.34509804 0.30588235
0.1877451 0.47401961 0.39705882
0.32647059 0.62058824 0.35196078
0.64068627 0.76715686 0.52107843
0.8745098 0.87058824 0.67058824
0.0044117647 0.0078431373 0.0044117647
0.046568627 0.07745098 0.046078431
0.080882353 0.16176471 0.099632353
0.11176471 0.2504902 0.17941176
0.12941176 0.35490196 0.31936275
0.20147059 0.48792892 0.39068627
0.33602941 0.6245098 0.36164216
0.67935049 0.77886029 0.52800245
0.88578431 0.87401961 0.70490196
0.015686275 0.019607843 0.015686275
0.053921569 0.085294118 0.050490196
0.088235294 0.16568627 0.10392157
0.12009804 0.26127451 0.19068627
0.13333333 0.37254902 0.33529412
0.21764706 0.51115196 0.37401961
0.39509804 0.65490196 0.39485294
0.71237745 0.79705882 0.56654412
0.90294118 0.88235294 0.74215686
0.019607843 0.02745098 0.015686275
0.05814951 0.095281863 0.054411765
0.089828431 0.1810049 0.11323529
0.11617647 0.28131127 0.20741422
0.12745098 0.38872549 0.35808824
0.22696078 0.52408088 0.38376225
0.42009804 0.6745098 0.38590686
0.73939951 0.80618873 0.57843137
0.90343137 0.89019608 0.74362745
0.025490196 0.033333333 0.019607843
0.062254902 0.11053922 0.061764706
0.093627451 0.19656863 0.11862745
0.11764706 0.29681373 0.22401961
0.13333333 0.40588235 0.39019608
0.2497549 0.54460784 0.37352941
0.45539216 0.68921569 0.40441176
0.78259804 0.82352941 0.60906863
0.91960784 0.89803922 0.77843137
0.031372549 0.044607843 0.02745098
0.066176471 0.11795343 0.066176471
0.097058824 0.2060049 0.12647059
0.12457108 0.31231618 0.2372549
0.14191176 0.42230392 0.39926471
0.27101716 0.56029412 0.37892157
0.5004902 0.70686275 0.43468137
0.81372549 0.83872549 0.62647059
0.93088235 0.91127451 0.79656863
0.047058824 0.062745098 0.035294118
0.070098039 0.12794118 0.070098039
0.097058824 0.21666667 0.14289216
0.12904412 0.32561275 0.26213235
0.14558824 0.43235294 0.40392157
0.28676471 0.5814951 0.37046569
0.52941176 0.71862745 0.45784314
0.82879902 0.84865196 0.64705882
0.94117647 0.92156863 0.82352941
0.043137255 0.051470588 0.031372549
0.077941176 0.13186275 0.073529412
0.10490196 0.22892157 0.15833333
0.12579657 0.33529412 0.27990196
0.15906863 0.45490196 0.40392157
0.30588235 0.60520833 0.35735294
0.59607843 0.74558824 0.48578431
0.84944853 0.85980392 0.67702206
0.94509804 0.92941176 0.83970588
0.047058824 0.058823529 0.035294118
0.077941176 0.13186275 0.07745098
0.1127451 0.24411765 0.16176471
0.12794118 0.33921569 0.28529412
0.16666667 0.45686275 0.39803922
0.32352941 0.61519608 0.35
0.62647059 0.75784314 0.50490196
0.84852941 0.86372549 0.69313725
0.94901961 0.92941176 0.85882353
0.0034313725 0.0068627451 0.0034313725
0.042647059 0.073529412 0.041727941
0.07745098 0.16127451 0.092156863
0.10588235 0.25814951 0.18235294
0.12941176 0.3627451 0.31764706
0.19019608 0.48400735 0.39724265
0.35588235 0.63578431 0.36617647
0.6745098 0.77800245 0.53278186
0.89313725 0.87401961 0.7127451
0.015686275 0.027389706 0.018688725
0.05 0.089208027 0.05
0.07745098 0.16568627 0.091176471
0.1122549 0.25833333 0.18756127
0.12941176 0.36838235 0.34411765
0.20931373 0.50124847 0.38921569
0.38443627 0.64776348 0.38296569
0.70447304 0.78621324 0.54792433
0.88180147 0.87052696 0.69258578
0.019607843 0.026960784 0.019607843
0.054411765 0.09296875 0.05424326
0.089215686 0.17276348 0.10759804
0.12196691 0.26573223 0.19500613
0.1346201 0.37904412 0.35073529
0.2225337 0.51973039 0.38137255
0.4245098 0.66936275 0.40612745
0.7571538 0.81570159 0.58584559
0.9127451 0.88921569 0.75980392
0.023529412 0.030882353 0.019607843
0.058333333 0.1004902 0.054411765
0.093137255 0.1847886 0.11171875
0.11753217 0.28339461 0.20294118
0.13397672 0.39206495 0.37254902
0.24490656 0.53890931 0.37537531
0.45170037 0.68543199 0.40392157
0.76719516 0.81979167 0.60259651
0.90686275 0.88988971 0.7495098
0.029166667 0.036764706 0.021323529
0.062254902 0.1125 0.062254902
0.093137255 0.19436275 0.11770833
0.11994485 0.30245098 0.23324142
0.13627451 0.41348039 0.39987745
0.25931373 0.55735294 0.36577819
0.48621324 0.69828431 0.42745098
0.81106005 0.8370098 0.62800245
0.9245098 0.90686275 0.79215686
0.032659314 0.044117647 0.02745098
0.066176471 0.12401961 0.070098039
0.097058824 0.2126685 0.13537071
0.12297028 0.31616881 0.2508655
0.14779412 0.43186275 0.3997549
0.28137255 0.57696078 0.36488205
0.5557598 0.72745098 0.45833333
0.83747702 0.85196078 0.64558824
0.93155637 0.91323529 0.80294118
0.043259804 0.05245098 0.031495098
0.069730392 0.13530944 0.07745098
0.10098039 0.22377451 0.14898897
0.12941176 0.32579657 0.26041667
0.16145833 0.44577206 0.40735294
0.30147059 0.60030637 0.35845588
0.58275123 0.74071691 0.47916667
0.86770833 0.86383272 0.6662837
0.93125 0.91519608 0.80857843
0.043627451 0.066666667 0.035294118
0.077941176 0.13658854 0.077075674
0.10882353 0.2365962 0.15784314
0.12404259 0.3466299 0.29487592
0.1747549 0.46645221 0.38823529
0.33192402 0.61476716 0.36933977
0.61040135 0.75021446 0.48748468
0.87517616 0.87107843 0.68835018
0.94601716 0.92990196 0.84754902
0.050490196 0.070098039 0.039215686
0.077941176 0.14362745 0.084375
0.1127451 0.24411765 0.16139706
0.12941176 0.3622549 0.32401961
0.1877451 0.47794118 0.39411765
0.35637255 0.62665441 0.37383578
0.67022059 0.77340686 0.52303922
0.87254902 0.87156863 0.71231618
0.94509804 0.925 0.84264706
0.026470588 0.043137255 0.02745098
0.049632353 0.070098039 0.042647059
0.084313725 0.17181373 0.10784314
0.1122549 0.26973039 0.19411765
0.12941176 0.37990196 0.34803922
0.20490196 0.50294118 0.38529412
0.39044118 0.64803922 0.38529412
0.69987745 0.7932598 0.55110294
0.91666667 0.88137255 0.75098039
0.027328431 0.045710784 0.02745098
0.05435049 0.096890319 0.054411765
0.085294118 0.18060662 0.10750613
0.11582414 0.27696078 0.19914216
0.13504902 0.38560049 0.36096814
0.23186275 0.52210478 0.38368566
0.40407475 0.66531863 0.37723652
0.73235294 0.80833333 0.57438725
0.91237745 0.88884804 0.75833333
0.035294118 0.050245098 0.030637255
0.062254902 0.10098039 0.054411765
0.092892157 0.18376225 0.11176471
0.12009804 0.28287377 0.21731005
0.13370098 0.40257353 0.38872549
0.2510723 0.54656863 0.3745098
0.4627451 0.68848039 0.40955882
0.76706495 0.82123162 0.5984375
0.90784314 0.89313725 0.75
0.024632353 0.032843137 0.019607843
0.062208946 0.10441176 0.043627451
0.099172794 0.20061275 0.12300858
0.12009804 0.29856005 0.23333333
0.13841912 0.41078431 0.4
0.26211703 0.55752145 0.36715686
0.49362745 0.70505515 0.42686887
0.80810355 0.83639706 0.6277114
0.92328431 0.90980392 0.79571078
0.037254902 0.054411765 0.031372549
0.066176471 0.11838235 0.06372549
0.10098039 0.20833333 0.1307598
0.12156863 0.31519608 0.25343137
0.14877451 0.42892157 0.40490196
0.27254902 0.57726716 0.36194853
0.5435049 0.72732843 0.44718137
0.8379902 0.85367647 0.65098039
0.93284314 0.91715686 0.81666667
0.043137255 0.057352941 0.035294118
0.070098039 0.13186275 0.077864583
0.10098039 0.21666667 0.13921569
0.1254902 0.32855392 0.27568934
0.16403186 0.4504902 0.39442402
0.29940257 0.59627757 0.36176471
0.57316176 0.7379902 0.47166054
0.85177696 0.86377145 0.66876532
0.93946078 0.92156863 0.82683824
0.047058824 0.068382353 0.039215686
0.074019608 0.14105392 0.081372549
0.10098039 0.22769608 0.14607843
0.12521446 0.34341299 0.29644608
0.17855392 0.46789216 0.39803922
0.31617647 0.6122549 0.36519608
0.61709559 0.75238971 0.49240196
0.86387868 0.86510417 0.6890625
0.94509804 0.93014706 0.85416667
0.057843137 0.09252451 0.046568627
0.078431373 0.14787071 0.078630515
0.11188725 0.25242034 0.17594975
0.12354473 0.36060049 0.31444547
0.19534314 0.48756127 0.39607843
0.34946385 0.63685662 0.35796569
0.65686275 0.77227328 0.53471201
0.89019608 0.88235294 0.71590074
0.94901961 0.94019608 0.87267157
0.058823529 0.07745098 0.047058824
0.081862745 0.15539216 0.084803922
0.10882353 0.25955882 0.18112745
0.13333333 0.36997549 0.3254902
0.20147059 0.49705882 0.38627451
0.375 0.64166667 0.37463235
0.70686275 0.79215686 0.55098039
0.89889706 0.8872549 0.73480392
0.95784314 0.94509804 0.89411765
0.031372549 0.050980392 0.031372549
0.054411765 0.09185049 0.050490196
0.089215686 0.17745098 0.10723039
0.11617647 0.27947304 0.20441176
0.12941176 0.39019608 0.37181373
0.23088235 0.52892157 0.37990196
0.43541667 0.68088235 0.39656863
0.73921569 0.80588235 0.58431373
0.9122549 0.88872549 0.76176471
0.031372549 0.050980392 0.031372549
0.058333333 0.10098039 0.054411765
0.089215686 0.18529412 0.10816483
0.11617647 0.28705576 0.2098652
0.13416054 0.39705882 0.38431373
0.25104933 0.54195772 0.37352941
0.45602022 0.68517157 0.40183824
0.75647978 0.8158701 0.5912837
0.91617647 0.89411765 0.77371324
0.038602941 0.054901961 0.035294118
0.06573223 0.11038603 0.061672794
0.097518382 0.19669118 0.12227328
0.11764706 0.30183824 0.24186581
0.14828431 0.42261029 0.38884804
0.26894914 0.55928309 0.36715686
0.49080882 0.70113358 0.43088235
0.80177696 0.83524816 0.62303922
0.9254902 0.90196078 0.78823529
0.043137255 0.056433824 0.035294118
0.066176471 0.11617647 0.062875306
0.10265012 0.2127451 0.13601409
0.12009804 0.31626072 0.26681219
0.14604779 0.43082108 0.40661765
0.27528339 0.56793045 0.3692019
0.54094669 0.72153799 0.46499694
0.83586091 0.85098039 0.65459559
0.9372549 0.91617647 0.81905637
0.041176471 0.062745098 0.037254902
0.070098039 0.12729779 0.067800245
0.10490196 0.22303922 0.14730392
0.12202819 0.32653186 0.26596201
0.15784314 0.44730392 0.40330882
0.29335172 0.5916973 0.35784314
0.58155637 0.7377451 0.48357843
0.85824142 0.85808824 0.67579657
0.94117647 0.92156863 0.83455882
0.047058824 0.070588235 0.039215686
0.074019608 0.14362745 0.086764706
0.1066636 0.23480392 0.15637255
0.12156863 0.33864124 0.28192402
0.1698223 0.46320466 0.39439338
0.31568627 0.61464461 0.34993873
0.62352941 0.75945159 0.5078125
0.86764706 0.86421569 0.68658088
0.94754902 0.92849265 0.84166667
0.050980392 0.074509804 0.043137255
0.077941176 0.15154718 0.088250613
0.10407475 0.24246324 0.16495098
0.12401961 0.35265012 0.31239277
0.19142157 0.48063725 0.39534314
0.33405331 0.62757353 0.35027574
0.65686275 0.77068015 0.52009804
0.87501532 0.8712163 0.70687806
0.95 0.93578431 0.8622549
0.056678922 0.084313725 0.048835784
0.081862745 0.16323529 0.093137255
0.1127451 0.26395527 0.18566176
0.13204657 0.37176777 0.32854626
0.20940564 0.5015625 0.38995098
0.37273284 0.6483992 0.36892616
0.698606 0.79117647 0.5560049
0.89542739 0.88752298 0.73861826
0.95294118 0.94117647 0.875
0.058823529 0.08627451 0.050980392
0.081862745 0.17089461 0.092647059
0.11519608 0.27340686 0.19460784
0.12941176 0.38627451 0.35349265
0.22083333 0.51691176 0.38235294
0.38872549 0.65833333 0.37297794
0.72696078 0.8057598 0.57303922
0.91323529 0.89509804 0.76568627
0.96715686 0.95539216 0.90833333
0.023529412 0.029411765 0.017647059
0.058333333 0.09877451 0.054166667
0.089215686 0.19117647 0.1245098
0.11617647 0.28897059 0.21519608
0.13333333 0.39901961 0.38823529
0.24313725 0.54264706 0.37352941
0.44117647 0.68235294 0.41519608
0.74803922 0.81176471 0.60098039
0.92156863 0.89803922 0.78235294
0.03504902 0.050735294 0.030882353
0.069852941 0.1122549 0.061550245
0.093995098 0.19491422 0.12144608
0.12009804 0.30245098 0.23440564
0.13651961 0.40931373 0.39669118
0.27377451 0.55916054 0.37754289
0.50098039 0.70416667 0.43265931
0.81106005 0.83851103 0.62990196
0.925 0.89607843 0.78014706
0.034803922 0.052941176 0.033333333
0.071813725 0.121875 0.070098039
0.10196078 0.21029412 0.13590686
0.12083333 0.31378676 0.25490196
0.15490196 0.43848039 0.39044118
0.28811275 0.57867647 0.36660539
0.53321078 0.72034314 0.45833333
0.81832108 0.84319853 0.65122549
0.92892157 0.90882353 0.80196078
0.043137255 0.056127451 0.034558824
0.071813725 0.12794118 0.073529412
0.10098039 0.22132353 0.14607843
0.1205576 0.32745098 0.28137255
0.15943627 0.44926471 0.40379902
0.29604779 0.59123775 0.36761642
0.57383578 0.73841912 0.48529412
0.86210172 0.86243873 0.67867647
0.94044118 0.92279412 0.83186275
0.043137255 0.062745098 0.039215686
0.07377451 0.13492647 0.069852941
0.10416667 0.23210784 0.15882353
0.12156863 0.34019608 0.29828431
0.1745098 0.46568627 0.3995098
0.30490196 0.60735294 0.36311275
0.61421569 0.75539216 0.5122549
0.87928922 0.87352941 0.70061275
0.94509804 0.92843137 0.84313725
0.047058824 0.074509804 0.043137255
0.0765625 0.14773284 0.080300245
0.1127451 0.25134804 0.17463235
0.13063725 0.35441176 0.29730392
0.19558824 0.4870098 0.39044118
0.33921569 0.63434436 0.34877451
0.68609069 0.78265931 0.54117647
0.88872549 0.8846201 0.71176471
0.95367647 0.93921569 0.86789216
0.055392157 0.093137255 0.051470588
0.081862745 0.16348039 0.090379902
0.10882353 0.26568627 0.19583333
0.13063725 0.37377451 0.3283701
0.20980392 0.50367647 0.38186275
0.37689951 0.64932598 0.37665441
0.71151961 0.79607843 0.55735294
0.9088848 0.88382353 0.74417892
0.95 0.9372549 0.86568627
0.062745098 0.10416667 0.059068627
0.081862745 0.17156863 0.10462623
0.10882353 0.27254902 0.20098039
0.13195466 0.3870098 0.35569853
0.2247549 0.51691176 0.38039216
0.41534926 0.66234681 0.39240196
0.74607843 0.80955882 0.57738971
0.90689338 0.89313725 0.75392157
0.96470588 0.94901961 0.89607843
0.060784314 0.1 0.058823529
0.085784314 0.18063725 0.10857843
0.12058824 0.28676471 0.21029412
0.13578431 0.39681373 0.36715686
0.23529412 0.5254902 0.37843137
0.41936275 0.66617647 0.39509804
0.75196078 0.81519608 0.59313725
0.92058824 0.89901961 0.78259804
0.97254902 0.95882353 0.91568627
0.036764706 0.05245098 0.028921569
0.062254902 0.11029412 0.058333333
0.093137255 0.20208333 0.13370098
0.12156863 0.30931373 0.24656863
0.14828431 0.42352941 0.39362745
0.25686275 0.55729167 0.36715686
0.51421569 0.70686275 0.45735294
0.80931373 0.83823529 0.63137255
0.9254902 0.90588235 0.79362745
0.035294118 0.047242647 0.031372549
0.074019608 0.12025888 0.06584712
0.097058824 0.21024816 0.14224877
0.12457108 0.31704197 0.24890472
0.14420956 0.43275123 0.39696691
0.28474265 0.57267923 0.36826746
0.55735294 0.72317708 0.46827512
0.82502298 0.84558824 0.64316023
0.93302696 0.91372549 0.81617647
0.042156863 0.058210784 0.035294118
0.077941176 0.13146446 0.074862132
0.10196078 0.2245098 0.1518076
0.12156863 0.32683824 0.27078738
0.1596201 0.45373775 0.39730392
0.29587929 0.59483762 0.35931373
0.5703125 0.73541667 0.47585784
0.86778493 0.86582414 0.67107843
0.9377451 0.92058824 0.82303922
0.044056373 0.059742647 0.035294118
0.076761642 0.13982077 0.081372549
0.10490196 0.23368566 0.15484069
0.1254902 0.34091605 0.28802849
0.1745098 0.46516544 0.39727328
0.31989124 0.60758272 0.36989124
0.61704963 0.75424326 0.49105392
0.87310815 0.8641008 0.69852941
0.94509804 0.92886029 0.84258578
0.050980392 0.077205882 0.045833333
0.077941176 0.14852941 0.081709559
0.10882353 0.24466912 0.16770833
0.12794118 0.35245098 0.30441176
0.1932598 0.48382353 0.39019608
0.34564951 0.63795956 0.35738358
0.65373775 0.77132353 0.5254902
0.89126838 0.88146446 0.71822917
0.95098039 0.93921569 0.86470588
0.054901961 0.090196078 0.050980392
0.082345282 0.15931373 0.089996936
0.1127451 0.2578125 0.18578431
0.13094363 0.37297794 0.32892157
0.21023284 0.50839461 0.37843137
0.38494945 0.6528799 0.38942249
0.70902267 0.795481 0.55951287
0.90060509 0.88872549 0.74025735
0.95686275 0.94509804 0.87990196
0.062745098 0.10686275 0.058823529
0.085784314 0.16902574 0.10085784
0.1127451 0.27503064 0.20364583
0.13578431 0.39056373 0.35643382
0.23578431 0.52279412 0.37843137
0.41128983 0.66715686 0.38504902
0.75759804 0.81479779 0.58872549
0.91870404 0.89509804 0.76960784
0.96470588 0.9504902 0.89889706
0.066666667 0.1213848 0.062745098
0.085784314 0.18053768 0.11619945
0.11318934 0.28762255 0.21573223
0.13658854 0.4022595 0.37617953
0.24901961 0.53832721 0.37637868
0.45735294 0.68333333 0.41078431
0.78051471 0.82490809 0.60870098
0.9187883 0.90079657 0.7841299
0.97401961 0.96011029 0.91911765
0.066666667 0.11372549 0.062745098
0.089705882 0.19430147 0.12922794
0.12058824 0.3004902 0.22781863
0.13186275 0.40827206 0.39810049
0.25955882 0.54852941 0.37181373
0.47401961 0.68970588 0.42598039
0.79767157 0.83345588 0.62512255
0.91470588 0.90655637 0.78253676
0.97254902 0.96470588 0.9254902
0.047058824 0.070588235 0.043137255
0.066176471 0.12144608 0.067156863
0.097058824 0.2127451 0.13823529
0.12156863 0.32107843 0.26568627
0.15147059 0.4372549 0.40784314
0.27745098 0.5754902 0.36678922
0.52622549 0.71544118 0.45686275
0.83921569 0.85281863 0.65392157
0.9372549 0.91470588 0.82352941
0.043137255 0.059681373 0.039215686
0.07310049 0.12838542 0.074019608
0.10098039 0.21740196 0.14865196
0.1254902 0.32745098 0.26323529
0.1651348 0.45189951 0.39528186
0.29080882 0.58475797 0.36354167
0.56614583 0.73094363 0.48014706
0.86819853 0.86818321 0.67401961
0.94080882 0.92120098 0.82696078
0.043137255 0.066421569 0.039215686
0.077941176 0.14690564 0.07745098
0.10171569 0.2370098 0.16807598
0.12438725 0.33903186 0.28624387
0.17990196 0.46654412 0.38333333
0.31871936 0.61519608 0.35343137
0.61574755 0.75594363 0.5
0.86528799 0.86507353 0.69705882
0.93946078 0.92083333 0.82745098
0.048039216 0.070955882 0.04129902
0.080759804 0.15442708 0.088250613
0.10882353 0.25030637 0.17564338
0.1254902 0.35634191 0.32087929
0.18841912 0.48014706 0.3877451
0.33590686 0.62780331 0.36130515
0.65343137 0.76933211 0.51920956
0.88302696 0.8727788 0.72009804
0.94901961 0.93443627 0.85637255
0.054901961 0.080392157 0.047058824
0.081862745 0.15931373 0.087009804
0.1127451 0.25796569 0.17058824
0.12794118 0.37181373 0.33676471
0.20514706 0.49852941 0.39044118
0.36832108 0.64742647 0.36219363
0.70171569 0.7872549 0.54669118
0.89442402 0.88596814 0.73988971
0.95490196 0.93872549 0.87009804
0.054901961 0.087254902 0.051348039
0.089705882 0.17107843 0.098835784
0.11528799 0.2713848 0.2004902
0.12849265 0.38835784 0.36493566
0.22303922 0.52389706 0.38039216
0.42352941 0.67084865 0.39561887
0.73207721 0.80655637 0.57650123
0.90686275 0.89901961 0.75160846
0.96470588 0.95196078 0.89607843
0.059803922 0.099754902 0.056617647
0.089705882 0.18063725 0.11053922
0.11666667 0.28406863 0.20245098
0.13394608 0.39592525 0.38030025
0.23737745 0.53811275 0.37794118
0.45919118 0.67910539 0.41519608
0.7723652 0.82150735 0.60128676
0.91568627 0.90294118 0.77598039
0.97181373 0.95784314 0.91715686
0.062745098 0.10968137 0.054901961
0.091375613 0.19505208 0.12101716
0.1166973 0.29613971 0.21715686
0.13445159 0.40980392 0.40735294
0.26525735 0.55625 0.37671569
0.48596814 0.70281863 0.42352941
0.80502451 0.83832721 0.63345588
0.93362439 0.91213235 0.81487439
0.97340686 0.96568627 0.93223039
0.066666667 0.11470588 0.058823529
0.093627451 0.2060049 0.13186275
0.12058824 0.31078431 0.24019608
0.13578431 0.41764706 0.39362745
0.27647059 0.57254902 0.36176471
0.53088235 0.72169118 0.45404412
0.80980392 0.84215686 0.64044118
0.92696078 0.91482843 0.81213235
0.98039216 0.98039216 0.95588235
0.043137255 0.051470588 0.035784314
0.074019608 0.13578431 0.084865196
0.10098039 0.22107843 0.1435049
0.12009804 0.32371324 0.26078431
0.15245098 0.44901961 0.40588235
0.30018382 0.60245098 0.35490196
0.56764706 0.73737745 0.47708333
0.86133578 0.86378676 0.67401961
0.94901961 0.92205882 0.83578431
0.047058824 0.062683824 0.039215686
0.077512255 0.13583793 0.080997243
0.10232843 0.22832414 0.15654105
0.12401961 0.33295037 0.28198529
0.17941176 0.46421569 0.39090074
0.31742494 0.61764706 0.34885876
0.60379902 0.75306373 0.50022978
0.87947304 0.87506127 0.69227175
0.95343137 0.92984069 0.85147059
0.050980392 0.077573529 0.04620098
0.081862745 0.15453431 0.086213235
0.10594363 0.24322917 0.16936275
0.12740502 0.35441176 0.31875
0.20189951 0.4875 0.39019608
0.35208333 0.63786765 0.36155025
0.65284926 0.77359069 0.53250613
0.89289216 0.88333333 0.71688113
0.95294118 0.94031863 0.87009804
0.053431373 0.082169118 0.049203431
0.085784314 0.16323529 0.093137255
0.11666667 0.2634038 0.18529412
0.13112745 0.37401195 0.34430913
0.20514706 0.49837623 0.37941176
0.37058824 0.65594363 0.35931373
0.70396752 0.7908701 0.55186887
0.89977788 0.89101562 0.74001225
0.96109069 0.94558824 0.88529412
0.058823529 0.094117647 0.050980392
0.087990196 0.17306985 0.10055147
0.11372549 0.27199755 0.19730392
0.12941176 0.38848039 0.3638174
0.21813725 0.51617647 0.37953431
0.40116422 0.66666667 0.38128064
0.74381127 0.80631127 0.57401961
0.90588235 0.89509804 0.75631127
0.96691176 0.95147059 0.90269608
0.062745098 0.10196078 0.054901961
0.093627451 0.18302696 0.11013327
0.11764706 0.28293505 0.20235907
0.13578431 0.4068704 0.37664675
0.23455882 0.53832721 0.37833946
0.44870558 0.68186275 0.40839461
0.77058824 0.81920956 0.59669118
0.915625 0.90106464 0.77303922
0.96648284 0.95471814 0.90392157
0.059313725 0.10245098 0.058823529
0.091007966 0.195481 0.12886029
0.11764706 0.29653799 0.22858456
0.13849571 0.41421569 0.39938725
0.25765931 0.55196078 0.37273284
0.49322917 0.69767157 0.42843137
0.79044118 0.82745098 0.62401961
0.93049939 0.90687806 0.79940257
0.98419118 0.97254902 0.94375
0.074571078 0.13474265 0.07064951
0.09754902 0.20686275 0.12843137
0.12058824 0.31378676 0.2551011
0.15245098 0.43393076 0.39626225
0.2830576 0.57478554 0.37230392
0.54313725 0.72028186 0.46439951
0.84269301 0.85409007 0.65392157
0.93823529 0.91868873 0.82647059
0.9838848 0.97689951 0.95729167
0.074509804 0.14166667 0.078431373
0.10147059 0.21862745 0.13584559
0.12071078 0.32291667 0.2622549
0.15294118 0.44019608 0.39607843
0.28651961 0.58455882 0.35661765
0.56323529 0.73284314 0.47334559
0.83529412 0.85686275 0.66372549
0.93431373 0.92254902 0.82947304
0.98480392 0.98431373 0.97303922
0.050980392 0.066666667 0.043137255
0.081862745 0.14362745 0.085294118
0.10490196 0.23235294 0.16078431
0.12009804 0.32745098 0.27107843
0.15490196 0.45686275 0.40588235
0.30931373 0.61372549 0.35147059
0.65392157 0.76960784 0.5245098
0.8754902 0.86764706 0.68039216
0.9372549 0.91372549 0.80784314
0.050980392 0.066176471 0.042647059
0.081372549 0.14754902 0.089644608
0.10882353 0.24007353 0.16862745
0.12156863 0.34264706 0.31323529
0.18382353 0.47205882 0.3997549
0.33529412 0.62677696 0.35833333
0.67659314 0.77696078 0.53492647
0.8872549 0.87156863 0.70784314
0.95245098 0.92941176 0.85
0.054901961 0.08627451 0.050980392
0.084803922 0.15931373 0.093504902
0.10882353 0.25171569 0.17352941
0.13333333 0.36568627 0.32892157
0.21862745 0.50294118 0.38627451
0.36066176 0.64166667 0.36458333
0.68946078 0.78504902 0.55098039
0.90735294 0.88235294 0.73884804
0.95686275 0.94215686 0.87843137
0.058823529 0.094117647 0.05245098
0.089705882 0.16960784 0.099509804
0.11666667 0.27156863 0.19166667
0.13578431 0.38327206 0.34803922
0.23333333 0.51887255 0.3870098
0.39068627 0.6598652 0.3754902
0.72757353 0.80183824 0.56911765
0.91470588 0.89117647 0.75539216
0.96470588 0.94901961 0.88627451
0.062745098 0.1 0.052941176
0.095343137 0.19019608 0.11642157
0.12156863 0.28921569 0.21372549
0.13259804 0.39485294 0.37941176
0.24215686 0.53529412 0.37843137
0.45490196 0.68578431 0.40833333
0.75147059 0.81078431 0.59607843
0.92034314 0.89901961 0.76862745
0.97254902 0.96078431 0.91764706
0.066666667 0.11372549 0.062745098
0.09754902 0.19068627 0.11636029
0.11948529 0.28835784 0.20882353
0.13186275 0.40980392 0.39754902
0.25955882 0.55637255 0.37303922
0.4848652 0.69901961 0.43682598
0.82132353 0.84080882 0.62696078
0.9377451 0.90441176 0.80588235
0.97401961 0.96617647 0.93088235
0.070588235 0.12254902 0.070588235
0.093627451 0.20330882 0.13578431
0.11838235 0.31372549 0.26078431
0.14375 0.43284314 0.41433824
0.2872549 0.58333333 0.3627451
0.53333333 0.71997549 0.46078431
0.84019608 0.85220588 0.65
0.93517157 0.91213235 0.81127451
0.97647059 0.97254902 0.94411765
0.078431373 0.14509804 0.074509804
0.09754902 0.21813725 0.1466299
0.1245098 0.32169118 0.25526961
0.16403186 0.45147059 0.38988971
0.2997549 0.59019608 0.36838235
0.58253676 0.73970588 0.47959559
0.86960784 0.86862745 0.67156863
0.94607843 0.92647059 0.83474265
0.98039216 0.97303922 0.9495098
0.070588235 0.1372549 0.074509804
0.10147059 0.22990196 0.14754902
0.1245098 0.33039216 0.27745098
0.16666667 0.45147059 0.39509804
0.30588235 0.59215686 0.36862745
0.59264706 0.74460784 0.4872549
0.85980392 0.86568627 0.67647059
0.93823529 0.92647059 0.83382353
0.98823529 0.98823529 0.98039216
