site/assets/luts/sha256-10fc17c11b7077a71e468d64f36fc8b813e3e5c7852b2a1efc9b346fc94683bd.cube
# LUTr-Schema-Version: 2
# LUTr-ID: sha256-10fc17c11b7077a71e468d64f36fc8b813e3e5c7852b2a1efc9b346fc94683bd
# LUTr-Title: kodak portra 160 vc
# LUTr-Collection: Natron HaldCLUT
# LUTr-Collection-ID: natron-haldclut-presets
# LUTr-Source: https://github.com/NatronGitHub/clut
# LUTr-Retrieved: 2026-07-27
# LUTr-Source-File: submissions/natron-haldclut-presets/negative_old/kodak_portra_160_vc.png
# LUTr-Source-Format: HALD-PNG
# LUTr-Source-SHA256: 10fc17c11b7077a71e468d64f36fc8b813e3e5c7852b2a1efc9b346fc94683bd
# LUTr-License: CC-BY-SA-4.0
# LUTr-License-URL: https://github.com/NatronGitHub/clut#license
# LUTr-License-Basis: repo-license-file
# LUTr-Transform-Class: film-emulation
# LUTr-Tags: creative, film, film-emulation, hald-clut, natron, png, cube
# LUTr-Input-Color-Space: srgb
# LUTr-Input-Gamut: rec709
# LUTr-Input-Transfer: srgb
# LUTr-Output-Color-Space: srgb
# LUTr-Output-Gamut: rec709
# LUTr-Output-Transfer: srgb
# LUTr-Color-Space-Confidence: assumed-display-referred
# LUTr-Domain-Normalized: true
# LUTr-Shaper: none
# LUTr-Original-Grid: 64x64x64
# LUTr-Conversion-Grid: 25x25x25
# LUTr-Conversion-Interpolation: trilinear
# LUTr-Conversion-Method: HALD-PNG LUT image decoded at 16-bit and sampled to 25x25x25 3D CUBE
# LUTr-Conversion-Tool: LUTr scripts/convert-all-to-cube.mjs 2.0.0
# LUTr-Conversion-Date: 2026-07-27
# LUTr-Note: Preserve this metadata and the upstream license notices when redistributing.
TITLE "kodak portra 160 vc"
LUT_3D_SIZE 5
DOMAIN_MIN 0 0 0
DOMAIN_MAX 1 1 1
0 0 0
0.25098039 0.0078431373 0.015686275
0.4745098 0.023529412 0.021568627
0.7372549 0.03627451 0.011764706
0.99607843 0.070588235 0.015686275
0.12941176 0.23529412 0.10588235
0.28946078 0.22843137 0.090931373
0.50735294 0.20784314 0.06127451
0.75269608 0.12745098 0.033578431
0.94705882 0.074509804 0.015686275
0.22745098 0.4627451 0.19411765
0.3372549 0.4627451 0.18480392
0.54313725 0.45294118 0.15588235
0.81372549 0.43676471 0.10490196
0.99803922 0.31568627 0.015686275
0.28333333 0.7254902 0.2754902
0.3754902 0.72156863 0.28431373
0.58921569 0.72254902 0.2504902
0.85980392 0.7254902 0.19215686
0.99705882 0.6872549 0.038235294
0.36470588 0.94901961 0.38823529
0.43529412 0.96666667 0.38823529
0.64313725 0.93333333 0.35490196
0.90196078 0.98235294 0.32941176
1 0.98823529 0.10980392
0.018627451 0.034313725 0.19607843
0.21568627 0.019607843 0.18210784
0.44558824 0.029901961 0.16372549
0.72647059 0.033088235 0.085294118
0.98921569 0.066666667 0.026470588
0.1127451 0.24779412 0.25490196
0.25569853 0.24411765 0.24332108
0.47487745 0.22156863 0.2254902
0.73278186 0.14926471 0.16176471
0.96348039 0.080392157 0.054656863
0.16568627 0.46666667 0.31372549
0.29203431 0.45882353 0.30882353
0.52058824 0.46348039 0.28946078
0.78419118 0.43664216 0.23664216
0.98872549 0.36666667 0.12892157
0.24117647 0.72156863 0.37647059
0.34803922 0.72420343 0.37677696
0.55845588 0.72647059 0.36335784
0.84044118 0.72647059 0.31844363
0.99607843 0.69583333 0.17058824
0.30294118 0.95392157 0.48039216
0.40514706 0.9627451 0.47254902
0.62352941 0.97843137 0.46029412
0.88259804 0.97181373 0.42769608
0.99607843 0.97156863 0.25392157
0.041176471 0.070588235 0.37647059
0.17794118 0.050490196 0.37745098
0.40392157 0.02254902 0.36666667
0.68137255 0.017156863 0.31862745
0.9627451 0.050980392 0.18627451
0.039705882 0.27156863 0.41862745
0.19485294 0.26568627 0.41666667
0.43235294 0.24730392 0.42230392
0.69558824 0.16862745 0.39019608
0.93431373 0.044117647 0.31078431
0.074509804 0.46862745 0.47058824
0.22916667 0.47058824 0.47377451
0.47058824 0.47941176 0.47107843
0.74754902 0.45416667 0.45073529
0.97745098 0.35588235 0.39215686
0.10588235 0.72794118 0.54803922
0.27365196 0.73186275 0.54411765
0.51446078 0.73186275 0.54117647
0.80294118 0.73688725 0.52205882
0.99313725 0.70931373 0.47156863
0.20196078 0.93137255 0.6372549
0.33186275 0.95294118 0.64117647
0.57254902 0.96176471 0.63431373
0.84117647 0.97843137 0.61666667
0.99607843 0.9745098 0.55686275
0.010784314 0.092156863 0.54313725
0.13235294 0.069852941 0.54828431
0.36764706 0.047058824 0.56029412
0.63137255 0.022794118 0.55588235
0.88529412 0.019607843 0.51764706
0.0078431373 0.30294118 0.59803922
0.10153186 0.2997549 0.61397059
0.38480392 0.29522059 0.62205882
0.6625 0.23057598 0.61078431
0.89656863 0.038480392 0.5754902
0.0039215686 0.49901961 0.67156863
0.08627451 0.49816176 0.67598039
0.4 0.49485294 0.67941176
0.69362745 0.47058824 0.66862745
0.94901961 0.39901961 0.64117647
0.011764706 0.7372549 0.7372549
0.090992647 0.73964461 0.74117647
0.4432598 0.74546569 0.74509804
0.74901961 0.7372549 0.74136029
0.96764706 0.71078431 0.71862745
0.023529412 0.94019608 0.81764706
0.15784314 0.93333333 0.81078431
0.50490196 0.96323529 0.8245098
0.79117647 0.96862745 0.81862745
0.99313725 0.98137255 0.79509804
0 0.17254902 0.73333333
0.087254902 0.1872549 0.74117647
0.32156863 0.12745098 0.76666667
0.59313725 0.082352941 0.76960784
0.80392157 0.035294118 0.7254902
0.00098039216 0.33823529 0.77647059
0.030392157 0.34607843 0.7997549
0.31764706 0.34264706 0.80784314
0.62352941 0.30196078 0.81764706
0.86960784 0.12156863 0.78137255
0.0039215686 0.53529412 0.83333333
0.0083333333 0.53921569 0.84607843
0.31666667 0.54117647 0.86470588
0.64411765 0.51764706 0.87058824
0.91176471 0.45686275 0.88627451
0 0.75980392 0.91372549
0.017892157 0.75980392 0.90906863
0.34411765 0.75637255 0.90196078
0.68823529 0.76151961 0.91936275
0.93529412 0.74117647 0.90490196
0 0.94117647 0.96470588
0.052941176 0.93235294 0.93627451
0.41568627 0.93921569 0.95490196
0.73431373 0.96960784 0.97745098
0.98431373 0.96862745 0.98431373
