site/assets/luts/sha256-9d21b495c81b70a12d236b070338f968083438e41cf45afeb7f990d2b3b086e4.cube
# LUTr-Schema-Version: 2
# LUTr-ID: sha256-9d21b495c81b70a12d236b070338f968083438e41cf45afeb7f990d2b3b086e4
# LUTr-Title: polaroid 690 cold ++
# LUTr-Collection: Natron HaldCLUT
# LUTr-Collection-ID: natron-haldclut-presets
# LUTr-Source: https://github.com/NatronGitHub/clut
# LUTr-Retrieved: 2026-07-27
# LUTr-Source-File: submissions/natron-haldclut-presets/instant_pro/polaroid_690_cold_++.png
# LUTr-Source-Format: HALD-PNG
# LUTr-Source-SHA256: 9d21b495c81b70a12d236b070338f968083438e41cf45afeb7f990d2b3b086e4
# LUTr-License: CC-BY-SA-4.0
# LUTr-License-URL: https://github.com/NatronGitHub/clut#license
# LUTr-License-Basis: repo-license-file
# LUTr-Transform-Class: film-emulation
# LUTr-Tags: creative, film, film-emulation, hald-clut, natron, png, cool, cube
# LUTr-Input-Color-Space: srgb
# LUTr-Input-Gamut: rec709
# LUTr-Input-Transfer: srgb
# LUTr-Output-Color-Space: srgb
# LUTr-Output-Gamut: rec709
# LUTr-Output-Transfer: srgb
# LUTr-Color-Space-Confidence: assumed-display-referred
# LUTr-Domain-Normalized: true
# LUTr-Shaper: none
# LUTr-Original-Grid: 64x64x64
# LUTr-Conversion-Grid: 25x25x25
# LUTr-Conversion-Interpolation: trilinear
# LUTr-Conversion-Method: HALD-PNG LUT image decoded at 16-bit and sampled to 25x25x25 3D CUBE
# LUTr-Conversion-Tool: LUTr scripts/convert-all-to-cube.mjs 2.0.0
# LUTr-Conversion-Date: 2026-07-27
# LUTr-Note: Preserve this metadata and the upstream license notices when redistributing.
TITLE "polaroid 690 cold ++"
LUT_3D_SIZE 9
DOMAIN_MIN 0 0 0
DOMAIN_MAX 1 1 1
0.20784314 0.30980392 0.36078431
0.20784314 0.30588235 0.35686275
0.26078431 0.30980392 0.36470588
0.30441176 0.30196078 0.35686275
0.41960784 0.29803922 0.35686275
0.54705882 0.28627451 0.35539216
0.68333333 0.26568627 0.35294118
0.81764706 0.24313725 0.35294118
0.94509804 0.22745098 0.35294118
0.20784314 0.31764706 0.36078431
0.21911765 0.31764706 0.36078431
0.25821078 0.32156863 0.36078431
0.34019608 0.31764706 0.36078431
0.43480392 0.30931373 0.36470588
0.575 0.30539216 0.35539216
0.70147059 0.28186275 0.35686275
0.84117647 0.27395833 0.3495098
0.95294118 0.24607843 0.3495098
0.20784314 0.34705882 0.36078431
0.22696078 0.35098039 0.36078431
0.27181373 0.35490196 0.36004902
0.37352941 0.35196078 0.36470588
0.50098039 0.35882353 0.36078431
0.62892157 0.35686275 0.35294118
0.75490196 0.34901961 0.35686275
0.87107843 0.34068627 0.34509804
0.97745098 0.33333333 0.34117647
0.20147059 0.40098039 0.36078431
0.23039216 0.41127451 0.36078431
0.27941176 0.40637255 0.35686275
0.37990196 0.43180147 0.35686275
0.50857843 0.44460784 0.35563725
0.68333333 0.47310049 0.35594363
0.8 0.47794118 0.35232843
0.90588235 0.4745098 0.34509804
0.98431373 0.45784314 0.34509804
0.19607843 0.49215686 0.35686275
0.22303922 0.49019608 0.35490196
0.28039216 0.4995098 0.35539216
0.37205882 0.51029412 0.34779412
0.50098039 0.54117647 0.34509804
0.65833333 0.56813725 0.33921569
0.80637255 0.59901961 0.33921569
0.93039216 0.61936275 0.3377451
0.99215686 0.61568627 0.33921569
0.16470588 0.60196078 0.34754902
0.20931373 0.60980392 0.34509804
0.27610294 0.59840686 0.34509804
0.37898284 0.61078431 0.34117647
0.50073529 0.6377451 0.33333333
0.64209559 0.66078431 0.32493873
0.78284314 0.68958333 0.32009804
0.91158088 0.70637255 0.328125
0.98578431 0.71029412 0.34509804
0.18431373 0.72843137 0.33039216
0.23737745 0.7245098 0.3372549
0.30882353 0.72230392 0.33333333
0.40183824 0.72058824 0.32879902
0.52254902 0.73578431 0.32156863
0.65502451 0.74914216 0.32156863
0.78039216 0.7629902 0.31470588
0.8995098 0.77977941 0.32169118
0.98137255 0.78627451 0.34117647
0.34362745 0.82156863 0.34607843
0.35839461 0.82506127 0.34607843
0.41188725 0.825 0.34215686
0.49117647 0.82156863 0.3377451
0.58382353 0.825 0.33382353
0.68529412 0.82910539 0.33253676
0.80355392 0.84473039 0.33431373
0.89944853 0.85637255 0.34264706
0.97156863 0.86421569 0.36176471
0.48627451 0.92156863 0.40784314
0.50147059 0.9254902 0.40784314
0.53529412 0.92058824 0.39705882
0.59313725 0.92303922 0.39215686
0.66862745 0.92745098 0.38431373
0.74166667 0.92696078 0.39215686
0.8254902 0.93333333 0.40784314
0.8995098 0.94166667 0.42009804
0.92941176 0.94509804 0.42352941
0.20392157 0.31372549 0.37990196
0.21519608 0.31023284 0.37990196
0.26078431 0.30980392 0.37340686
0.32254902 0.30588235 0.37205882
0.4120098 0.29632353 0.37230392
0.53137255 0.27873775 0.36813725
0.67107843 0.25441176 0.36470588
0.81072304 0.22745098 0.36078431
0.94166667 0.20882353 0.35686275
0.20392157 0.32107843 0.37598039
0.21911765 0.31764706 0.37598039
0.25692402 0.31717218 0.37254902
0.32886029 0.30980392 0.36862745
0.43676471 0.30566789 0.36816789
0.55849418 0.29366575 0.36817555
0.69497549 0.27395833 0.36421569
0.83295803 0.2504902 0.36078431
0.94957108 0.23088235 0.35686275
0.20012255 0.34791667 0.37205882
0.21943934 0.34705882 0.37205882
0.2674326 0.34439338 0.36862745
0.36524203 0.35098039 0.37205882
0.49607843 0.35882353 0.36813725
0.61907169 0.35392157 0.36813725
0.74754902 0.33872549 0.36099877
0.86689645 0.31744792 0.36378676
0.97205882 0.31813725 0.35294118
0.19264706 0.40863971 0.37224265
0.22277114 0.4127451 0.37254902
0.28007047 0.41127451 0.37205882
0.37971814 0.4294807 0.36912531
0.51348039 0.44411765 0.36421569
0.67568168 0.46243873 0.36861979
0.79816176 0.46335784 0.36421569
0.90196078 0.4504902 0.36378676
0.98216912 0.45539216 0.35490196
0.17892157 0.50171569 0.37205882
0.21302083 0.50196078 0.36862745
0.27555147 0.49730392 0.36617647
0.37313113 0.51568627 0.36421569
0.50098039 0.54117647 0.36029412
0.65514706 0.56813725 0.35309436
0.80637255 0.59852941 0.35294118
0.92153799 0.60784314 0.36029412
0.9629902 0.60612745 0.36421569
0.13823529 0.61746324 0.36421569
0.18513327 0.61323529 0.358678
0.26776961 0.60980392 0.35686275
0.3678462 0.61617647 0.35245098
0.49681373 0.64151348 0.35459559
0.64737286 0.66470588 0.34283088
0.79276961 0.6935049 0.33676471
0.91372549 0.70855545 0.34899663
0.97794118 0.71029412 0.37334559
0.17009804 0.72928922 0.34889706
0.22598039 0.72581189 0.35283395
0.30490196 0.72156863 0.34767157
0.41029412 0.72112439 0.34692096
0.52310049 0.73823529 0.34068627
0.65520833 0.75134804 0.33676471
0.78517157 0.76660539 0.32806373
0.89607843 0.77870711 0.34509804
0.97696078 0.79019608 0.35992647
0.32794118 0.82849265 0.36084559
0.3513557 0.82892157 0.36519608
0.40441176 0.82542892 0.36605392
0.48752298 0.825 0.34634651
0.58333333 0.825 0.35294118
0.68929994 0.83284314 0.34912684
0.79914216 0.8442402 0.35081189
0.89650735 0.85594363 0.3721201
0.97598039 0.86421569 0.37745098
0.47843137 0.925 0.42647059
0.49313725 0.92892157 0.42297794
0.51764706 0.91384804 0.41127451
0.58823529 0.9245098 0.40765931
0.65098039 0.91764706 0.40514706
0.72990196 0.90980392 0.4
0.82254902 0.93137255 0.41666667
0.89515931 0.93731618 0.43572304
0.94460784 0.93676471 0.44264706
0.19313725 0.31372549 0.40294118
0.21519608 0.31372549 0.41078431
0.26078431 0.31151961 0.40367647
0.32610294 0.30588235 0.40232843
0.41862745 0.29558824 0.40588235
0.53713235 0.27696078 0.40980392
0.66495098 0.24436275 0.40098039
0.79460784 0.17647059 0.38982843
0.9254902 0.08627451 0.37941176
0.19215686 0.31458333 0.39901961
0.21519608 0.32022059 0.40294118
0.25686275 0.31715686 0.40588235
0.34019608 0.3136489 0.40196078
0.44019608 0.30545343 0.40294118
0.5557598 0.28841912 0.40196078
0.67242647 0.25870098 0.39537377
0.8151348 0.22267157 0.39149816
0.93823529 0.1502451 0.37941176
0.19607843 0.35196078 0.40882353
0.21519608 0.34708946 0.40686275
0.27254902 0.35189951 0.40980392
0.3689951 0.35481005 0.40980392
0.49215686 0.34705882 0.40955882
0.60015319 0.33802083 0.40431985
0.72616422 0.30741422 0.39485294
0.85208333 0.28088235 0.3872549
0.96078431 0.25073529 0.38333333
0.18039216 0.41911765 0.41764706
0.20931373 0.42264093 0.41764706
0.27282475 0.42242647 0.42104779
0.38668811 0.42982537 0.41372549
0.53033088 0.44117647 0.41372549
0.67052696 0.44362745 0.41049326
0.79332108 0.43949142 0.40477941
0.89803922 0.42058824 0.39865196
0.98284314 0.41666667 0.3872549
0.14264706 0.51519608 0.41078431
0.18216912 0.5245098 0.41764706
0.26139706 0.52291667 0.40980392
0.37542892 0.52536765 0.41176471
0.51102941 0.54877451 0.40392157
0.66421569 0.57493873 0.40851716
0.81176471 0.58639706 0.40477941
0.92113971 0.59852941 0.40980392
0.97941176 0.58823529 0.40784314
0.057352941 0.63627451 0.40257353
0.12585784 0.64019608 0.40988051
0.24987745 0.62843137 0.3997549
0.36288297 0.6240962 0.39411765
0.49607843 0.64779412 0.39080882
0.64973958 0.67156863 0.3933364
0.80591299 0.69742647 0.39231005
0.91770833 0.71029412 0.41145833
0.97745098 0.71421569 0.43333333
0.12230392 0.74705882 0.39803922
0.16881127 0.74313725 0.40514706
0.28137255 0.73308824 0.39117647
0.3926777 0.7328125 0.38627451
0.50747549 0.74007353 0.37843137
0.65110294 0.75471814 0.38483456
0.79197304 0.77083333 0.38884804
0.9064951 0.77977941 0.3981924
0.97254902 0.78553922 0.41764706
0.30539216 0.83933824 0.41421569
0.33267463 0.8370864 0.41458333
0.38835784 0.83293505 0.40073529
0.46776961 0.82892157 0.39509804
0.56495098 0.82892157 0.39779412
0.67798713 0.83284314 0.39437806
0.79647672 0.84411765 0.39068627
0.89552696 0.85980392 0.4105239
0.96813725 0.86421569 0.44068627
0.45980392 0.9254902 0.47647059
0.4745098 0.92585784 0.47267157
0.50784314 0.92156863 0.46470588
0.56654412 0.92046569 0.45208333
0.63039216 0.90588235 0.43823529
0.72990196 0.9245098 0.44901961
0.81470588 0.92181373 0.45171569
0.89117647 0.93468137 0.47696078
0.95 0.95294118 0.50490196
0.18039216 0.31372549 0.46617647
0.20490196 0.30765931 0.46011029
0.26433824 0.30735294 0.47009804
0.35098039 0.30588235 0.48523284
0.44215686 0.29803922 0.46789216
0.56519608 0.27996324 0.47941176
0.66666667 0.25392157 0.46372549
0.78645833 0.19313725 0.45833333
0.89558824 0.096078431 0.44901961
0.18039216 0.32107843 0.46194853
0.20359222 0.32123928 0.46950061
0.26239277 0.32107843 0.47659314
0.36256127 0.31715686 0.48578431
0.46666667 0.30931373 0.48578431
0.56196385 0.2952742 0.46764706
0.68088235 0.26386336 0.46617647
0.80018382 0.20490196 0.45395987
0.91096814 0.10863971 0.43921569
0.17401961 0.3627451 0.47794118
0.2004902 0.35490196 0.48178615
0.26764706 0.35196078 0.48342525
0.36914828 0.35784314 0.49215686
0.4875 0.35098039 0.48878676
0.58912377 0.32395833 0.4716299
0.7060049 0.29102328 0.45833333
0.82696078 0.22745098 0.43681066
0.95134804 0.12561275 0.41544118
0.17156863 0.41911765 0.48578431
0.20006127 0.43381587 0.49351256
0.26764706 0.43517157 0.49362745
0.38535539 0.43480392 0.49928768
0.51375613 0.4372549 0.49852941
0.63578431 0.42116268 0.48373928
0.7618413 0.3932598 0.46911765
0.87107843 0.34607077 0.44614737
0.95294118 0.32947304 0.43627451
0.077205882 0.54044118 0.49754902
0.15946691 0.54632353 0.50646446
0.2591299 0.540625 0.49754902
0.37984069 0.54016544 0.50122549
0.52083333 0.55845588 0.51176471
0.68235294 0.58431373 0.51053922
0.81813725 0.59240196 0.50931373
0.91470588 0.57166054 0.49387255
0.97892157 0.54362745 0.46764706
0.011764706 0.66176471 0.50300245
0.012247243 0.66960784 0.49135263
0.21127451 0.66176471 0.49215686
0.35098039 0.65238971 0.47589614
0.49460784 0.66176471 0.48164828
0.65720741 0.68192402 0.48341759
0.80968137 0.70134804 0.48921569
0.91508119 0.70948989 0.51862745
0.98137255 0.71176471 0.5401348
0.0084558824 0.76164216 0.48002451
0.088679534 0.76171875 0.48823529
0.24460784 0.75833333 0.47117034
0.37254902 0.7509038 0.46409314
0.50067402 0.74411765 0.45410539
0.65441176 0.76049326 0.45980392
0.78823529 0.7745098 0.47401961
0.90343137 0.78324142 0.49299939
0.97463235 0.79019608 0.52352941
0.2495098 0.84675245 0.49393382
0.29328278 0.84487592 0.49610141
0.3622549 0.84122243 0.48106618
0.44607843 0.83364737 0.47205882
0.55269608 0.82892157 0.45882353
0.6701057 0.83676471 0.45930607
0.78961397 0.84816176 0.46957721
0.89509804 0.85680147 0.48498775
0.95606618 0.86421569 0.50116422
0.43823529 0.92941176 0.54607843
0.45833333 0.92941176 0.54852941
0.49644608 0.92696078 0.54068627
0.56029412 0.93186275 0.53431373
0.63676471 0.93014706 0.52034314
0.7151348 0.92156863 0.51470588
0.80796569 0.92365196 0.52463235
0.89136029 0.93002451 0.54393382
0.92794118 0.94362745 0.56666667
0.15490196 0.30588235 0.55490196
0.18970588 0.30980392 0.56862745
0.26372549 0.30588235 0.58333333
0.37769608 0.30196078 0.60906863
0.52156863 0.28627451 0.63529412
0.61029412 0.27965686 0.6004902
0.7127451 0.26176471 0.58284314
0.81176471 0.21666667 0.55661765
0.92941176 0.13333333 0.55294118
0.14166667 0.32107843 0.56862745
0.18229167 0.32107843 0.57227328
0.27101716 0.32107843 0.5908701
0.39264706 0.31323529 0.62466299
0.51960784 0.30931373 0.62855392
0.61593137 0.29785539 0.60088848
0.72009804 0.27794118 0.57689951
0.82717525 0.23186275 0.57009804
0.93137255 0.15416667 0.55294118
0.13284314 0.35539216 0.5745098
0.16917892 0.35625 0.58210784
0.26335784 0.35735294 0.59901961
0.39142157 0.36182598 0.6247549
0.53308824 0.35441176 0.62720588
0.63890931 0.34240196 0.60710784
0.73345588 0.31666667 0.57512255
0.83848039 0.26642157 0.55735294
0.92647059 0.2004902 0.54117647
0.12696078 0.42303922 0.57303922
0.16593137 0.42411152 0.58333333
0.25416667 0.42414216 0.58933824
0.40171569 0.44117647 0.62598039
0.54705882 0.44914216 0.64117647
0.66127451 0.42156863 0.60441176
0.75655637 0.38431373 0.57052696
0.85995711 0.32539828 0.54338235
0.96593137 0.22794118 0.50735294
0.080392157 0.54019608 0.59607843
0.14460784 0.54203431 0.60171569
0.24313725 0.54117647 0.59803922
0.38872549 0.55845588 0.62328431
0.52598039 0.5745098 0.63284314
0.66176471 0.55036765 0.61580882
0.78063725 0.51862745 0.59117647
0.89166667 0.45171569 0.55012255
0.97745098 0.4372549 0.53333333
0.06127451 0.68431373 0.63137255
0.094117647 0.68627451 0.62818627
0.24313725 0.67873775 0.61813725
0.37527574 0.68480392 0.61740196
0.51593137 0.68186275 0.62009804
0.66078431 0.69264706 0.61495098
0.80968137 0.70759804 0.63768382
0.90980392 0.69059436 0.63553922
0.97818627 0.67598039 0.61568627
0.036764706 0.77941176 0.61666667
0.10330882 0.77843137 0.61519608
0.24117647 0.7754902 0.61372549
0.38290441 0.77077206 0.59914216
0.51495098 0.76323529 0.59803922
0.64901961 0.76911765 0.58535539
0.79105392 0.78259804 0.59791667
0.90318627 0.78719363 0.62279412
0.96764706 0.79019608 0.65245098
0.25661765 0.85612745 0.62598039
0.26127451 0.85245098 0.62009804
0.34981618 0.85245098 0.60594363
0.44672181 0.84721201 0.59721201
0.54791667 0.84044118 0.58235294
0.66020221 0.84068627 0.57009804
0.78088235 0.85098039 0.57506127
0.88771446 0.86222426 0.60242034
0.94240196 0.86789216 0.61862745
0.45098039 0.93333333 0.66666667
0.45686275 0.93333333 0.66078431
0.46715686 0.91813725 0.64068627
0.54387255 0.92598039 0.64044118
0.61960784 0.9254902 0.63137255
0.70710784 0.93284314 0.61176471
0.79705882 0.93088235 0.62401961
0.88333333 0.94730392 0.65343137
0.94117647 0.95294118 0.68235294
0.13578431 0.30196078 0.71176471
0.16685049 0.30196078 0.70539216
0.27487745 0.30196078 0.71862745
0.40980392 0.29166667 0.74558824
0.56029412 0.28161765 0.77794118
0.69362745 0.27303922 0.78927696
0.77745098 0.24889706 0.73909314
0.85539216 0.24834559 0.70245098
0.94264706 0.21862745 0.69215686
0.096078431 0.32126225 0.70931373
0.16241575 0.3178079 0.71323529
0.26997549 0.31746324 0.72833946
0.40980392 0.31078431 0.75478707
0.56421569 0.30058211 0.78039216
0.69674479 0.29313725 0.7846201
0.7839614 0.27869179 0.7432598
0.86508885 0.26734069 0.71666667
0.94656863 0.22598039 0.68970588
0.051470588 0.35588235 0.70539216
0.099463848 0.35980392 0.71729473
0.25098039 0.35980392 0.73039216
0.40441176 0.35882353 0.75343137
0.57469363 0.36329657 0.79197304
0.69908088 0.36023284 0.78088235
0.7828125 0.34007353 0.74224877
0.86960784 0.313894 0.71083027
0.95686275 0.26911765 0.67855392
0.027879902 0.42150735 0.6966299
0.06685815 0.42047335 0.70147059
0.22185968 0.42696078 0.71640625
0.38122702 0.4372549 0.74916513
0.55321691 0.46348039 0.77254902
0.70516238 0.47401961 0.77990196
0.78198529 0.44705882 0.73186275
0.86991422 0.39656863 0.69772518
0.96770833 0.3278799 0.67156863
0.024754902 0.53333333 0.70196078
0.040318627 0.52990196 0.70441176
0.20245098 0.53633578 0.7088848
0.3458027 0.54316789 0.7198223
0.51568627 0.57254902 0.74889706
0.690625 0.61424632 0.7870098
0.77996324 0.55931373 0.73572304
0.86862745 0.49420956 0.68667279
0.96838235 0.40686275 0.6370098
0.0083946078 0.67947304 0.73529412
0.081977635 0.67647059 0.73137255
0.21055453 0.67892157 0.73529412
0.38570006 0.68768382 0.74074755
0.52622549 0.69365809 0.75640319
0.68188572 0.71233915 0.7745098
0.79869792 0.70409007 0.77205882
0.87990196 0.62990196 0.70539982
0.97745098 0.56476716 0.66127451
0.28161765 0.79019608 0.7685049
0.2977788 0.78671875 0.7627451
0.37545956 0.78820466 0.76510417
0.46372549 0.78641238 0.7595435
0.55588235 0.77843137 0.75300245
0.67365196 0.78235294 0.7428462
0.78835784 0.7877451 0.74754902
0.89693627 0.79469975 0.7740962
0.95441176 0.79607843 0.7872549
0.35863971 0.86158088 0.75931373
0.38872549 0.8598652 0.7627451
0.42777267 0.85980392 0.76083027
0.50803462 0.85980392 0.74883578
0.5739277 0.85235907 0.73897059
0.67040441 0.85245098 0.72922794
0.77780331 0.85373775 0.72152267
0.87579657 0.86018689 0.73970588
0.93314951 0.86960784 0.75667892
0.48529412 0.93333333 0.78088235
0.50245098 0.9377451 0.78284314
0.51838235 0.92781863 0.77303922
0.56752451 0.93431373 0.77604167
0.6254902 0.92598039 0.76004902
0.70153186 0.9372549 0.7495098
0.79019608 0.93480392 0.73713235
0.87009804 0.93235294 0.75
0.92941176 0.96078431 0.78872549
0.10686275 0.30196078 0.84705882
0.20833333 0.30588235 0.83970588
0.30490196 0.29901961 0.85318627
0.43958333 0.29056373 0.86813725
0.58529412 0.28235294 0.8872549
0.72745098 0.2754902 0.90392157
0.83627451 0.28039216 0.88823529
0.91973039 0.26115196 0.86617647
0.96862745 0.27156863 0.84019608
0.1 0.32414216 0.84705882
0.18443627 0.32193627 0.83992034
0.2995098 0.32107843 0.85680147
0.43008578 0.31323529 0.86960784
0.58333333 0.31102941 0.88731618
0.7310049 0.31764706 0.90392157
0.84699755 0.30992647 0.90474877
0.91311275 0.31121324 0.85908395
0.97156863 0.3 0.82843137
0.016176471 0.35906863 0.84313725
0.1075674 0.36666667 0.84215686
0.2651348 0.36219363 0.85300245
0.41804534 0.35490196 0.86501225
0.57512255 0.37647059 0.87904412
0.72435662 0.39068627 0.90009191
0.83118873 0.40275735 0.88848039
0.90441176 0.39175858 0.8622549
0.97671569 0.35857843 0.82843137
0.0039215686 0.43088235 0.82953431
0.015211397 0.42696078 0.83284314
0.21678922 0.43097426 0.84206495
0.38333333 0.4444087 0.85300245
0.55882353 0.46862745 0.8721201
0.71571691 0.50314032 0.88722426
0.82794118 0.5203125 0.88970588
0.90502451 0.48284314 0.86412377
0.96078431 0.4504902 0.83235294
0.0078431373 0.53970588 0.82352941
0.0077205882 0.52689951 0.81617647
0.08995098 0.51960784 0.81519608
0.33351716 0.54319853 0.82818627
0.51568627 0.56985294 0.85392157
0.69540441 0.63026961 0.87824755
0.81213235 0.64460784 0.87745098
0.88235294 0.60177696 0.8504902
0.95343137 0.55882353 0.81911765
0.0049019608 0.66862745 0.83039216
0.012178309 0.66211703 0.82486213
0.081004902 0.65588235 0.82377451
0.29906556 0.65919118 0.82757353
0.48094363 0.66893382 0.84313725
0.67310049 0.71245404 0.87107843
0.79926471 0.72487745 0.87683824
0.87973346 0.69154412 0.84609375
0.93639706 0.63431373 0.8004902
0.17745098 0.77867647 0.8497549
0.23566176 0.77843137 0.85
0.325 0.77604167 0.85
0.45814951 0.7745098 0.85453431
0.57340686 0.775 0.85870098
0.69093137 0.78789828 0.86384804
0.80294118 0.80202206 0.87199755
0.8872549 0.79620098 0.87561275
0.94730392 0.76323529 0.84093137
0.49656863 0.86764706 0.87267157
0.49932598 0.86383272 0.86875
0.54813113 0.86764706 0.87647059
0.59370404 0.86711091 0.87254902
0.65153186 0.86403186 0.86942402
0.71439951 0.86372549 0.85833333
0.78832721 0.86963848 0.8580576
0.8751685 0.87561275 0.86155025
0.93272059 0.88737745 0.87830882
0.59215686 0.94117647 0.88235294
0.5692402 0.91666667 0.87254902
0.60367647 0.93088235 0.87745098
0.63860294 0.93517157 0.87745098
0.67892157 0.93431373 0.87352941
0.72892157 0.93872549 0.86568627
0.79044118 0.93014706 0.85686275
0.86286765 0.92696078 0.85
0.92254902 0.96176471 0.87352941
0.26078431 0.31029412 0.9495098
0.2995098 0.31862745 0.94215686
0.375 0.31519608 0.94644608
0.48970588 0.31078431 0.94969363
0.61053922 0.31470588 0.95392157
0.73529412 0.32794118 0.95784314
0.85870098 0.35686275 0.96911765
0.93431373 0.375 0.95300245
0.98480392 0.37107843 0.94215686
0.24656863 0.33425245 0.94258578
0.28344822 0.3372549 0.93736979
0.37107843 0.33328738 0.94532782
0.48562347 0.33596814 0.95
0.60882353 0.33771446 0.95413603
0.73400735 0.35065104 0.96127451
0.84656863 0.40061275 0.96009498
0.93431373 0.40839461 0.95691636
0.98915441 0.39362745 0.94215686
0.20134804 0.3754902 0.94166667
0.26234681 0.3754902 0.94215686
0.35579044 0.37941176 0.94215686
0.47432598 0.38151042 0.94615502
0.60582108 0.40459559 0.95245098
0.7314951 0.43221507 0.9573989
0.84672181 0.47745098 0.96127451
0.9272212 0.49624694 0.95767463
0.97254902 0.47757353 0.93039216
0.11875 0.44460784 0.93480392
0.18860294 0.44460784 0.93480392
0.30784314 0.46041667 0.93431373
0.4451057 0.46635263 0.93823529
0.5877451 0.49280025 0.94460784
0.7158701 0.53658088 0.94969363
0.83186275 0.58970588 0.95735294
0.91601563 0.58921569 0.95112592
0.94656863 0.58186275 0.93480392
0.0053921569 0.54460784 0.92303922
0.0058517157 0.53207721 0.92325368
0.1911152 0.54185049 0.92365196
0.37509191 0.55122549 0.92981005
0.54754902 0.58627451 0.93627451
0.70229779 0.6364277 0.94059436
0.82426471 0.68118873 0.95
0.90297181 0.67693015 0.94607843
0.9372549 0.66764706 0.94558824
0.011764706 0.66470588 0.91341912
0.016176471 0.65735294 0.91470588
0.01294424 0.6432598 0.91127451
0.27640165 0.6482307 0.91120558
0.49221814 0.66942402 0.92313113
0.67726716 0.70814951 0.93313419
0.81262255 0.74064032 0.94485294
0.89338235 0.74803922 0.94166667
0.921875 0.73333333 0.93039216
0.11421569 0.76764706 0.91213235
0.15015319 0.76764706 0.91470588
0.2689951 0.76271446 0.91099877
0.40957414 0.76070772 0.91531863
0.5161152 0.75631127 0.91862745
0.64669118 0.76764706 0.91991422
0.80490196 0.80294118 0.93710172
0.8872549 0.8134038 0.93699449
0.9254902 0.79509804 0.92598039
0.45539216 0.85680147 0.92297794
0.47880668 0.85637255 0.92297794
0.52657782 0.85969669 0.92647059
0.5872549 0.86029412 0.92990196
0.65836397 0.86179534 0.92990196
0.72898284 0.86029412 0.92689951
0.81776961 0.87561275 0.93350184
0.88376225 0.88736979 0.9377451
0.92640931 0.87003676 0.92696078
0.67843137 0.94117647 0.9377451
0.67352941 0.93719363 0.9377451
0.6872549 0.93860294 0.93431373
0.70833333 0.93253676 0.9341299
0.72598039 0.92941176 0.93014706
0.78382353 0.94264706 0.93560049
0.82242647 0.93468137 0.92512255
0.86372549 0.94607843 0.92254902
0.90588235 0.94068627 0.92990196
0.36078431 0.34901961 0.97647059
0.43921569 0.36862745 0.99264706
0.4872549 0.36470588 0.99215686
0.56666667 0.36470588 0.99607843
0.63921569 0.34705882 0.98039216
0.75980392 0.40686275 0.99852941
0.84607843 0.46862745 0.99215686
0.92254902 0.51372549 0.99215686
0.99215686 0.53333333 0.99215686
0.41519608 0.38382353 0.99558824
0.43780637 0.38290441 0.99515931
0.49215686 0.38639706 0.99607843
0.56960784 0.39148284 0.99215686
0.65661765 0.40269608 0.99191176
0.75079657 0.4254902 0.99215686
0.84607843 0.46605392 0.98602941
0.92254902 0.54460784 0.99215686
0.97254902 0.56372549 0.98823529
0.40784314 0.4372549 0.99215686
0.43333333 0.4372549 0.99203431
0.47965686 0.44411765 0.99142157
0.56911765 0.44901961 0.99215686
0.66176471 0.46911765 0.99215686
0.75735294 0.5064951 0.99607843
0.84509804 0.54828431 0.99142157
0.91862745 0.60735294 0.99178922
0.97352941 0.62352941 0.98627451
0.39362745 0.51715686 0.99215686
0.42487745 0.52077206 0.99234069
0.46911765 0.525 0.98823529
0.55784314 0.534375 0.98970588
0.65245098 0.56372549 0.98970588
0.73921569 0.58921569 0.98431373
0.83431373 0.63039216 0.98284314
0.91096814 0.67254902 0.98609069
0.94264706 0.68333333 0.98431373
0.34117647 0.60784314 0.98431373
0.36715686 0.60833333 0.98455882
0.42794118 0.60980392 0.98431373
0.52156863 0.62083333 0.98431373
0.63823529 0.64705882 0.98431373
0.73455882 0.6622549 0.97647059
0.83039216 0.69901961 0.98039216
0.90686275 0.71960784 0.97990196
0.94705882 0.7254902 0.97647059
0.26421569 0.69215686 0.98039216
0.31685049 0.69313725 0.98039216
0.36544118 0.69068627 0.97745098
0.48970588 0.69852941 0.97794118
0.61372549 0.71078431 0.97769608
0.73382353 0.73327206 0.97892157
0.81862745 0.75294118 0.96862745
0.90557598 0.78511029 0.97647059
0.94362745 0.79117647 0.97647059
0.36666667 0.77941176 0.97156863
0.38529412 0.77941176 0.97254902
0.41495098 0.7754902 0.96764706
0.45085784 0.76372549 0.95502451
0.58823529 0.77156863 0.97254902
0.71286765 0.78382353 0.97254902
0.82034314 0.80686275 0.97254902
0.89411765 0.83676471 0.97254902
0.93823529 0.85 0.97254902
0.54852941 0.86813725 0.96862745
0.55931373 0.86421569 0.96862745
0.58235294 0.86115196 0.96568627
0.60410539 0.86372549 0.95814951
0.67401961 0.86421569 0.96078431
0.73204657 0.86029412 0.96470588
0.82242647 0.8754902 0.96556373
0.87941176 0.88376225 0.96862745
0.93284314 0.89901961 0.96029412
0.68627451 0.94509804 0.96470588
0.69068627 0.94558824 0.96519608
0.70980392 0.94607843 0.96470588
0.72401961 0.94117647 0.95931373
0.76470588 0.94901961 0.96862745
0.79754902 0.94117647 0.96715686
0.84411765 0.95294118 0.96470588
0.88627451 0.96421569 0.97205882
0.89411765 0.94509804 0.94901961
