site/assets/luts/sha256-702b143f57457fbdad48cf8ab780c99772c694290d54c9f39353d7fc2a66ea00.cube
# LUTr-Schema-Version: 2
# LUTr-ID: sha256-702b143f57457fbdad48cf8ab780c99772c694290d54c9f39353d7fc2a66ea00
# LUTr-Title: warm
# LUTr-Collection: Natron HaldCLUT
# LUTr-Collection-ID: natron-haldclut-presets
# LUTr-Source: https://github.com/NatronGitHub/clut
# LUTr-Retrieved: 2026-07-27
# LUTr-Source-File: submissions/natron-haldclut-presets/various/warm.png
# LUTr-Source-Format: HALD-PNG
# LUTr-Source-SHA256: 702b143f57457fbdad48cf8ab780c99772c694290d54c9f39353d7fc2a66ea00
# LUTr-License: CC-BY-SA-4.0
# LUTr-License-URL: https://github.com/NatronGitHub/clut#license
# LUTr-License-Basis: repo-license-file
# LUTr-Transform-Class: film-emulation
# LUTr-Tags: creative, film, film-emulation, hald-clut, natron, png, warm, cube
# LUTr-Input-Color-Space: srgb
# LUTr-Input-Gamut: rec709
# LUTr-Input-Transfer: srgb
# LUTr-Output-Color-Space: srgb
# LUTr-Output-Gamut: rec709
# LUTr-Output-Transfer: srgb
# LUTr-Color-Space-Confidence: assumed-display-referred
# LUTr-Domain-Normalized: true
# LUTr-Shaper: none
# LUTr-Original-Grid: 64x64x64
# LUTr-Conversion-Grid: 25x25x25
# LUTr-Conversion-Interpolation: trilinear
# LUTr-Conversion-Method: HALD-PNG LUT image decoded at 16-bit and sampled to 25x25x25 3D CUBE
# LUTr-Conversion-Tool: LUTr scripts/convert-all-to-cube.mjs 2.0.0
# LUTr-Conversion-Date: 2026-07-27
# LUTr-Note: Preserve this metadata and the upstream license notices when redistributing.
TITLE "warm"
LUT_3D_SIZE 9
DOMAIN_MIN 0 0 0
DOMAIN_MAX 1 1 1
0.011764706 0.0039215686 0.0078431373
0.15833333 0.069607843 0.07745098
0.30490196 0.10490196 0.13137255
0.44117647 0.15 0.19558824
0.57058824 0.2 0.23333333
0.68823529 0.26176471 0.29313725
0.79509804 0.37058824 0.31176471
0.89166667 0.42843137 0.36911765
0.96470588 0.46666667 0.40392157
0.10539216 0.1004902 0.074019608
0.1627451 0.093566176 0.093137255
0.3127451 0.15085784 0.14019608
0.44117647 0.20765931 0.18921569
0.56470588 0.26176471 0.22181373
0.68039216 0.32873775 0.26470588
0.79203431 0.39754902 0.31127451
0.88823529 0.48976716 0.38088235
0.95294118 0.54754902 0.43088235
0.16176471 0.19607843 0.10784314
0.24007353 0.19607843 0.10894608
0.34044118 0.2245098 0.14093137
0.44509804 0.26960784 0.1817402
0.57156863 0.33137255 0.21372549
0.68431373 0.40931373 0.26752451
0.79509804 0.49313725 0.32058824
0.89166667 0.575 0.38480392
0.98333333 0.65588235 0.43137255
0.26470588 0.32990196 0.16960784
0.30980392 0.3377451 0.16176471
0.37941176 0.33198529 0.16176471
0.45386029 0.33321078 0.15778186
0.57254902 0.40931373 0.22598039
0.69068627 0.49803922 0.27058824
0.79803922 0.57941176 0.31629902
0.89166667 0.65324755 0.38921569
0.97254902 0.71862745 0.44558824
0.31764706 0.49803922 0.20980392
0.3754902 0.48872549 0.21176471
0.44117647 0.48284314 0.21519608
0.51078431 0.48823529 0.22598039
0.58137255 0.50294118 0.22745098
0.69215686 0.58014706 0.28014706
0.79901961 0.65294118 0.33284314
0.89166667 0.72647059 0.39509804
0.97647059 0.79215686 0.45294118
0.38333333 0.64117647 0.26176471
0.44117647 0.64920343 0.26960784
0.50686275 0.64375 0.27536765
0.57647059 0.6504902 0.2783701
0.63284314 0.64509804 0.26495098
0.7 0.66617647 0.29607843
0.79607843 0.72855392 0.34607843
0.89166667 0.79754902 0.37334559
0.98039216 0.85392157 0.42598039
0.44901961 0.77745098 0.31078431
0.50686275 0.78823529 0.32340686
0.56862745 0.79534314 0.32745098
0.63039216 0.78039216 0.32254902
0.68431373 0.78039216 0.31715686
0.74509804 0.79362745 0.33688725
0.80196078 0.80367647 0.3372549
0.88762255 0.85245098 0.36973039
0.96862745 0.89509804 0.42843137
0.51127451 0.8995098 0.36617647
0.56813725 0.89558824 0.39258578
0.62647059 0.89166667 0.38235294
0.68823529 0.8995098 0.36697304
0.73995098 0.8995098 0.36593137
0.78823529 0.8995098 0.371875
0.84203431 0.89558824 0.37892157
0.89209559 0.8995098 0.390625
0.94166667 0.92254902 0.44019608
0.57254902 0.98823529 0.41960784
0.61862745 0.96911765 0.43137255
0.67941176 0.97647059 0.43235294
0.7254902 0.95980392 0.40931373
0.7745098 0.95490196 0.40588235
0.83676471 0.97745098 0.425
0.89117647 0.9872549 0.42058824
0.93039216 0.96862745 0.45147059
0.97647059 0.97647059 0.48627451
0.1004902 0.069607843 0.11176471
0.17794118 0.094056373 0.11660539
0.30625 0.10625 0.15526961
0.44754902 0.13829657 0.20833333
0.56862745 0.20343137 0.25612745
0.69215686 0.26176471 0.30833333
0.79166667 0.33284314 0.36568627
0.8877451 0.41023284 0.41960784
0.97598039 0.49754902 0.46960784
0.10582108 0.10140931 0.10925245
0.17756587 0.10098039 0.11568627
0.30586703 0.1424326 0.15833333
0.44117647 0.19785539 0.20980392
0.5651348 0.26155025 0.25416667
0.68807445 0.33106618 0.30814951
0.7912837 0.40453431 0.36223958
0.8877451 0.49019608 0.42745098
0.97205882 0.56280637 0.47745098
0.16323529 0.19607843 0.15404412
0.23884804 0.20012255 0.15526961
0.32395833 0.21185662 0.17083333
0.44117647 0.26176471 0.21194853
0.5653799 0.32745098 0.25741422
0.68823529 0.40984988 0.31176471
0.79509804 0.49093137 0.36960784
0.89166667 0.57585784 0.42745098
0.97867647 0.65122549 0.47340686
0.24785539 0.33529412 0.20392157
0.30572151 0.33382353 0.20566023
0.3754902 0.32990196 0.20784314
0.45127911 0.33756127 0.21568627
0.56862745 0.40628064 0.26004902
0.69215686 0.49411765 0.31568627
0.79888174 0.57513787 0.36960784
0.89166667 0.65324755 0.42745098
0.97254902 0.71862745 0.47352941
0.31593137 0.49215686 0.25416667
0.37156863 0.48431373 0.25762868
0.4372549 0.4841299 0.25808824
0.50686275 0.4875 0.26176471
0.58039216 0.50196078 0.26605392
0.69215686 0.58210784 0.32117034
0.79901961 0.65686275 0.37371324
0.89558824 0.73039216 0.42766544
0.98063725 0.79632353 0.47352941
0.3872549 0.64264706 0.30784314
0.44117647 0.64264706 0.30610447
0.5042739 0.64361213 0.30975797
0.57254902 0.64656863 0.31568627
0.63039216 0.6504902 0.31706495
0.70343903 0.67500766 0.33155637
0.79901961 0.73039216 0.37696078
0.89166667 0.79607843 0.42352941
0.97254902 0.84479167 0.47352941
0.46311275 0.78039216 0.36078431
0.50687806 0.78442096 0.35788909
0.56862745 0.79607843 0.35784314
0.62743566 0.78920037 0.36536458
0.68186275 0.78823529 0.36568627
0.73846507 0.79215686 0.36605392
0.79911152 0.80113358 0.37398897
0.88941483 0.85032169 0.42352941
0.96482843 0.89129902 0.46973039
0.54509804 0.89901961 0.41568627
0.56813725 0.89859069 0.41487439
0.62647059 0.89558824 0.41960784
0.68431373 0.89558824 0.41960784
0.73627451 0.89166667 0.42352941
0.78823529 0.89542739 0.42530637
0.84203431 0.89166667 0.42751225
0.8995098 0.90343137 0.43529412
0.97254902 0.9377451 0.47751225
0.57254902 0.95980392 0.46127451
0.60735294 0.95392157 0.45833333
0.68039216 0.9807598 0.47389706
0.72794118 0.96568627 0.46715686
0.78382353 0.96666667 0.47156863
0.83302696 0.96862745 0.48137255
0.88431373 0.97254902 0.47745098
0.93039216 0.97205882 0.47738971
0.98382353 0.98382353 0.49362745
0.16666667 0.1127451 0.20784314
0.23321078 0.10502451 0.20490196
0.31446078 0.094852941 0.20955882
0.44362745 0.16335784 0.25784314
0.57156863 0.19705882 0.30637255
0.675 0.26176471 0.35882353
0.77965686 0.33137255 0.41960784
0.8877451 0.41764706 0.48137255
0.97647059 0.5245098 0.53529412
0.17794118 0.14215686 0.20784314
0.23627451 0.13867953 0.20490196
0.3174326 0.15021446 0.2127451
0.44509804 0.20018382 0.25821078
0.57383578 0.25784314 0.30637255
0.68261336 0.32481618 0.35882353
0.78697917 0.4051777 0.41960784
0.8877451 0.48616728 0.48137255
0.97205882 0.55980392 0.53480392
0.18602941 0.20490196 0.21568627
0.25171569 0.2073223 0.21283701
0.33235294 0.21544118 0.22261029
0.44509804 0.25784314 0.25784314
0.57120098 0.32647059 0.30637255
0.68884804 0.40821078 0.3627451
0.79136029 0.48946078 0.42334559
0.89142157 0.57107843 0.48495711
0.97352941 0.63995098 0.53431373
0.24914216 0.33382353 0.25784314
0.30980392 0.33026961 0.25821078
0.3763174 0.32990196 0.25821078
0.45500919 0.34411765 0.26960784
0.57254902 0.40735294 0.31011029
0.68713235 0.49019608 0.36568627
0.79509804 0.57582721 0.42352941
0.89166667 0.65709252 0.48529412
0.96862745 0.7182598 0.53529412
0.31323529 0.49460784 0.30882353
0.37156863 0.48609069 0.31029412
0.4372549 0.4877451 0.31176471
0.50686275 0.49215686 0.31568627
0.58039216 0.50392157 0.32254902
0.68854167 0.57922794 0.37297794
0.79571078 0.65931373 0.42671569
0.89166667 0.72659314 0.48137255
0.97254902 0.78431373 0.53529412
0.37941176 0.64448529 0.36237745
0.4372549 0.64264706 0.36176471
0.50294118 0.64310662 0.36176471
0.56793811 0.64656863 0.36781556
0.63039216 0.6526348 0.37022059
0.7 0.67493873 0.3782935
0.79509804 0.73431373 0.42398897
0.8884038 0.78909314 0.48137255
0.97009804 0.83823529 0.53529412
0.43921569 0.79509804 0.41960784
0.50382966 0.78443627 0.41577819
0.56862745 0.79117647 0.41960784
0.62647059 0.79509804 0.41960784
0.68296569 0.79215686 0.42034314
0.74044118 0.79163603 0.41960784
0.79601716 0.8 0.42689951
0.89166667 0.84886642 0.48529412
0.9745098 0.89191176 0.53823529
0.52242647 0.89264706 0.47745098
0.56911765 0.89558824 0.47745098
0.62647059 0.88872549 0.47965686
0.68431373 0.89166667 0.48137255
0.73621324 0.89166667 0.48137255
0.78823529 0.89166667 0.48218444
0.84080882 0.89031863 0.48529412
0.90392157 0.90814951 0.50537684
0.97561275 0.9377451 0.54264706
0.5754902 0.98137255 0.53921569
0.6189951 0.97254902 0.53443627
0.67352941 0.96862745 0.53529412
0.73431373 0.975 0.53713235
0.78921569 0.97794118 0.54019608
0.83431373 0.97438725 0.54313725
0.88039216 0.96789216 0.53848039
0.92647059 0.96470588 0.53529412
0.98039216 0.97647059 0.54313725
0.27009804 0.15931373 0.30539216
0.30441176 0.15018382 0.30539216
0.3754902 0.15588235 0.31176471
0.45386029 0.16678922 0.31807598
0.56666667 0.2 0.36176471
0.67254902 0.27352941 0.41960784
0.78002451 0.32843137 0.48137255
0.88382353 0.43694853 0.54313725
0.97254902 0.53872549 0.60490196
0.25863971 0.19607843 0.30539216
0.31168045 0.19607843 0.30931373
0.38221507 0.20026042 0.31323529
0.45294118 0.20238971 0.31715686
0.56651348 0.25695466 0.36176471
0.67873009 0.32714461 0.41960784
0.78333333 0.4057598 0.48137255
0.88382353 0.49019608 0.54317555
0.97401961 0.56734069 0.60508578
0.2560049 0.25894608 0.30931373
0.31764706 0.26176471 0.31323529
0.38581495 0.26176471 0.31507353
0.45294118 0.26429228 0.31637561
0.57254902 0.33039216 0.36568627
0.68039216 0.40637255 0.41960784
0.79071691 0.49019608 0.48137255
0.8877451 0.57063419 0.54313725
0.96568627 0.63676471 0.59595588
0.24497549 0.33321078 0.31415441
0.31764706 0.33474265 0.31568627
0.39370404 0.342356 0.32140012
0.46248468 0.34587163 0.32312347
0.56862745 0.40539216 0.36372549
0.68039216 0.48927696 0.41960784
0.79117647 0.575 0.48137255
0.89086244 0.65405178 0.54491422
0.98584559 0.734375 0.61427696
0.31764706 0.48823529 0.36568627
0.3754902 0.4864277 0.36568627
0.44656863 0.49215686 0.36734069
0.50839461 0.48823529 0.36568627
0.5807598 0.50428922 0.37034314
0.6875 0.57892157 0.42352941
0.79509804 0.65931373 0.48229167
0.89166667 0.72647059 0.54705882
0.97132353 0.78039216 0.60098039
0.38633578 0.64656863 0.42052696
0.43865656 0.63884038 0.41960784
0.50625 0.64166667 0.41960784
0.56862745 0.64656863 0.42352941
0.62984069 0.64583333 0.42325368
0.7033701 0.67794118 0.44074755
0.79901961 0.73431373 0.48529412
0.89166667 0.78957567 0.54705882
0.96954657 0.83768382 0.60006127
0.44901961 0.78247549 0.48137255
0.5064951 0.7861826 0.48137255
0.57061887 0.79215686 0.48137255
0.62780331 0.78823529 0.48137255
0.68431373 0.79215686 0.47745098
0.74155944 0.79607843 0.47855392
0.80321691 0.8041973 0.49705882
0.89166667 0.8495098 0.54705882
0.97683824 0.89215686 0.60490196
0.51256127 0.8995098 0.54313725
0.56862745 0.89558824 0.54577206
0.63025429 0.89327512 0.54336703
0.68431373 0.89166667 0.54705882
0.7379902 0.89381127 0.54185049
0.7903799 0.89558824 0.54313725
0.83823529 0.89558824 0.54705882
0.89607843 0.90735294 0.556947
0.96746324 0.93676471 0.6
0.59362745 0.97254902 0.60098039
0.63302696 0.98645833 0.61488971
0.68039216 0.97438725 0.60281863
0.73480392 0.97297794 0.60294118
0.78431373 0.97254902 0.60098039
0.83915441 0.98131127 0.60882353
0.88039216 0.9692402 0.60098039
0.93020833 0.96470588 0.6036152
0.98431373 0.96862745 0.6127451
0.36078431 0.21176471 0.41568627
0.39166667 0.20416667 0.41740196
0.44117647 0.1995098 0.41813725
0.50686275 0.20588235 0.41568627
0.57647059 0.21372549 0.43039216
0.67647059 0.27401961 0.48333333
0.78823529 0.32696078 0.54705882
0.87990196 0.4252451 0.60882353
0.96078431 0.53137255 0.66862745
0.3375 0.26151961 0.41960784
0.38183211 0.2580576 0.41960784
0.44509804 0.25735294 0.41960784
0.50686275 0.25392157 0.42239583
0.57647059 0.26470588 0.42745098
0.67647059 0.32481618 0.48137255
0.78143382 0.40055147 0.54074755
0.87405025 0.4825674 0.60560662
0.95245098 0.55318627 0.66053922
0.33235294 0.32892157 0.42352941
0.38333333 0.33088235 0.42352941
0.44509804 0.32892157 0.42352941
0.51078431 0.32892157 0.42352941
0.57941176 0.33455882 0.42745098
0.67769608 0.40428922 0.47745098
0.78688725 0.48627451 0.53958333
0.88284314 0.56715686 0.60655637
0.97598039 0.65 0.67352941
0.32696078 0.41004902 0.42622549
0.38333333 0.40628064 0.42352941
0.44901961 0.40735294 0.42352941
0.51032475 0.40266544 0.42352941
0.57647059 0.41813725 0.42745098
0.68039216 0.4911152 0.47745098
0.7877451 0.57310049 0.53921569
0.8877451 0.6495098 0.60710784
0.97401961 0.71862745 0.66936275
0.3254902 0.50196078 0.42843137
0.38615196 0.49620098 0.42647059
0.45367647 0.49656863 0.42622549
0.51936275 0.50428922 0.43039216
0.58578431 0.50931373 0.43333333
0.68713235 0.57892157 0.48137255
0.79166667 0.65882353 0.54705882
0.89166667 0.72855392 0.6127451
0.9754902 0.78823529 0.67058824
0.39068627 0.63602941 0.48137255
0.44568015 0.63872549 0.48030025
0.50741422 0.64264706 0.4807598
0.57254902 0.64806985 0.48529412
0.63357843 0.64620098 0.48137255
0.70168505 0.67282475 0.49782475
0.7966299 0.73578431 0.54901961
0.89142157 0.79166667 0.61256127
0.97303922 0.84460784 0.66985294
0.46029412 0.78039216 0.54705882
0.51372549 0.78474265 0.54705882
0.57254902 0.78823529 0.54705882
0.63039216 0.78431373 0.54313725
0.69068627 0.78431373 0.54705882
0.74571078 0.7932598 0.54705882
0.7997549 0.80294118 0.55490196
0.88756127 0.84908088 0.60882353
0.96519608 0.88823529 0.6627451
0.51470588 0.89926471 0.61102941
0.57254902 0.89166667 0.6127451
0.63039216 0.89166667 0.60931373
0.68823529 0.89411765 0.60882353
0.74387255 0.8995098 0.6127451
0.79197304 0.89558824 0.61102941
0.84203431 0.89558824 0.6127451
0.9 0.90827206 0.62542892
0.98235294 0.94779412 0.67843137
0.58235294 0.98235294 0.6745098
0.62622549 0.97794118 0.67230392
0.68235294 0.98039216 0.67401961
0.73504902 0.97328431 0.66666667
0.79411765 0.98235294 0.67745098
0.83431373 0.96862745 0.67058824
0.88578431 0.97745098 0.6745098
0.92328431 0.95490196 0.66004902
0.96862745 0.97843137 0.68039216
0.40931373 0.25784314 0.53921569
0.44099265 0.27156863 0.53921569
0.50294118 0.28578431 0.53529412
0.56470588 0.29460784 0.54221814
0.62647059 0.28333333 0.55098039
0.69307598 0.29166667 0.55974265
0.7872549 0.33529412 0.6127451
0.88039216 0.4346201 0.68020833
0.97254902 0.5372549 0.74558824
0.39558824 0.32481618 0.53921569
0.44117647 0.32352941 0.53707108
0.50454963 0.32143076 0.53890931
0.56770833 0.31972273 0.54185049
0.62582721 0.32352941 0.54427083
0.68768382 0.32768076 0.54748009
0.77156863 0.39313725 0.60111826
0.86819853 0.475 0.67081036
0.97401961 0.56519608 0.7495098
0.38296569 0.4 0.54276961
0.44117647 0.40392157 0.54640012
0.50294118 0.40064338 0.54313725
0.56470588 0.39816176 0.53921569
0.62285539 0.40484069 0.54491422
0.68561581 0.41415441 0.54705882
0.78333333 0.48627451 0.60698529
0.88284314 0.57005208 0.6786152
0.97303922 0.64620098 0.74669118
0.39117647 0.48627451 0.54405637
0.44509804 0.48627451 0.54705882
0.50686275 0.48535539 0.54705882
0.56528033 0.48457414 0.54313725
0.62573529 0.49019608 0.54460784
0.68676471 0.5004902 0.54705882
0.7872549 0.57461703 0.60813419
0.88805147 0.65569087 0.68020833
0.98186275 0.72947304 0.7495098
0.39779412 0.57352941 0.54901961
0.44779412 0.57098652 0.54779412
0.51078431 0.57230392 0.54779412
0.57208946 0.57864583 0.55098039
0.63039216 0.57818627 0.54852941
0.69114583 0.58621324 0.55070466
0.79509804 0.66004902 0.61574755
0.89166667 0.73039216 0.68253676
0.97647059 0.79142157 0.74411765
0.44283088 0.66709559 0.5627451
0.47800245 0.66998315 0.56501991
0.52575061 0.66723346 0.5567402
0.57704504 0.66055453 0.55040594
0.64215686 0.66029412 0.5580576
0.71233915 0.68241422 0.57632506
0.79901961 0.73537071 0.6207261
0.89166667 0.79558824 0.68627451
0.96862745 0.84368873 0.74074755
0.45477941 0.78933824 0.61384804
0.51462929 0.79129902 0.61997549
0.57420343 0.78066789 0.61703431
0.63039216 0.78301164 0.61090686
0.69215686 0.78823529 0.61666667
0.74977022 0.79607843 0.62274816
0.80588235 0.80759804 0.62827819
0.89100797 0.85379902 0.68382353
0.96862745 0.89509804 0.7435049
0.51078431 0.8995098 0.67469363
0.5723652 0.89166667 0.68208487
0.63039216 0.88382353 0.68051471
0.68511795 0.8877451 0.67850031
0.74191176 0.89558824 0.67843137
0.79570312 0.89558824 0.68785999
0.84473039 0.8995098 0.68805147
0.90128676 0.90773591 0.7
0.96862745 0.94166667 0.74589461
0.575 0.97647059 0.7495098
0.62628676 0.97843137 0.74393382
0.67745098 0.97254902 0.74019608
0.73431373 0.97892157 0.7471201
0.78161765 0.96666667 0.73578431
0.83039216 0.96280637 0.73921569
0.8872549 0.97647059 0.75196078
0.93645833 0.97647059 0.74803922
0.96470588 0.98039216 0.75196078
0.47352941 0.33627451 0.67843137
0.49914216 0.33627451 0.67941176
0.5629902 0.35 0.6754902
0.62647059 0.34362745 0.67941176
0.68578431 0.34313725 0.68627451
0.74215686 0.34301471 0.68627451
0.8004902 0.35 0.69656863
0.8877451 0.41617647 0.75330882
0.98137255 0.49607843 0.82647059
0.46090686 0.40183824 0.6745098
0.50294118 0.40196078 0.67463235
0.56470588 0.39803922 0.6754902
0.62365196 0.4011489 0.67941176
0.68039216 0.40453431 0.68106618
0.73615196 0.40453431 0.68333333
0.79117647 0.41332721 0.6872549
0.87340686 0.47585784 0.74434743
0.96372549 0.55490196 0.80980392
0.45612745 0.48627451 0.68333333
0.50303309 0.4870098 0.68161765
0.56470588 0.48627451 0.68235294
0.62254902 0.48308824 0.67941176
0.68039216 0.49019608 0.67941176
0.73786765 0.49019608 0.68333333
0.79289216 0.50196078 0.6879902
0.8877451 0.575 0.75309436
0.97720588 0.65122549 0.8247549
0.4504902 0.57107843 0.67843137
0.50772059 0.57254902 0.6872549
0.56862745 0.57107843 0.68697917
0.62624081 0.57107843 0.68333333
0.68431373 0.575 0.68265931
0.73823529 0.57892157 0.68333333
0.79607843 0.584375 0.6872549
0.89166667 0.65989583 0.75294118
0.96960784 0.7192402 0.81470588
0.45637255 0.65735294 0.68235294
0.50882353 0.65214461 0.68327206
0.56862745 0.65147059 0.68627451
0.62647059 0.65680147 0.6872549
0.68823529 0.65686275 0.68627451
0.74215686 0.65502451 0.68535539
0.79436275 0.66029412 0.68026961
0.89166667 0.7276348 0.75686275
0.95539216 0.77254902 0.80441176
0.46323529 0.7314951 0.68664216
0.51567096 0.7323989 0.6915288
0.57840074 0.73639706 0.69558824
0.63000919 0.72748162 0.68627451
0.68743873 0.72254902 0.68265931
0.74215686 0.72310049 0.68627451
0.80110294 0.73639706 0.69200368
0.89287684 0.79313725 0.76090686
0.9807598 0.85147059 0.8254902
0.46691176 0.80759804 0.6995098
0.52913603 0.80686275 0.70487132
0.59136029 0.80465686 0.70551471
0.63823529 0.80027574 0.68848039
0.69607843 0.8 0.69289216
0.75229779 0.80027574 0.69803922
0.80030637 0.80710784 0.69019608
0.8888174 0.85266544 0.75407475
0.97745098 0.89901961 0.82328431
0.51519608 0.89816176 0.7560049
0.5698223 0.89526654 0.75294118
0.63039216 0.89166667 0.75217525
0.68560049 0.89166667 0.74938725
0.73823529 0.89209559 0.74816176
0.79189645 0.89558824 0.75592831
0.83811275 0.89166667 0.75309436
0.90392157 0.90902267 0.77610294
0.97598039 0.94166667 0.82634804
0.57745098 0.97941176 0.8254902
0.61360294 0.96017157 0.80526961
0.68137255 0.97745098 0.82181373
0.73431373 0.9754902 0.81764706
0.77009804 0.94803922 0.79362745
0.82941176 0.96164216 0.81066176
0.87941176 0.96666667 0.81666667
0.93431373 0.97303922 0.82169118
0.96470588 0.98039216 0.82647059
0.54607843 0.41666667 0.82598039
0.56862745 0.41666667 0.82984069
0.62254902 0.41715686 0.82977941
0.68431373 0.41323529 0.82990196
0.73995098 0.43504902 0.82990196
0.79215686 0.44883578 0.83382353
0.84203431 0.42009804 0.83382353
0.89650735 0.44601716 0.84258578
0.97647059 0.51421569 0.89901961
0.52647059 0.48627451 0.82205882
0.56862745 0.48627451 0.82592678
0.62254902 0.48584559 0.82555147
0.68196998 0.48627451 0.82843137
0.73823529 0.48976716 0.82990196
0.78823529 0.49019608 0.82990196
0.83812806 0.48901654 0.82630208
0.89209559 0.49852941 0.83474265
0.96470588 0.55931373 0.8877451
0.52512255 0.575 0.82990196
0.5689951 0.57467831 0.82990196
0.62352941 0.57107843 0.82987132
0.68039216 0.56969975 0.82971814
0.73823529 0.57463235 0.82990196
0.78984375 0.57463235 0.82990196
0.84080882 0.575 0.82990196
0.90424326 0.60208333 0.85032169
0.97696078 0.65245098 0.89595588
0.54381127 0.65716912 0.82990196
0.57303922 0.65735294 0.83382353
0.62647059 0.6532935 0.83382353
0.68039216 0.65294118 0.82990196
0.74166667 0.65539216 0.82981005
0.79197304 0.65697763 0.83333333
0.84376532 0.65775123 0.83382353
0.91127451 0.68768382 0.85996477
0.98167892 0.73039216 0.90079657
0.53088235 0.7247549 0.82598039
0.57303922 0.72846201 0.82990196
0.63039216 0.73039216 0.83357843
0.68431373 0.72671569 0.83357843
0.73995098 0.72254902 0.82990196
0.79197304 0.72254902 0.82598039
0.84258578 0.7276348 0.825
0.91470588 0.75827206 0.86078431
0.97647059 0.78823529 0.89558824
0.53167892 0.78970588 0.83382353
0.57881434 0.79215686 0.83382353
0.63002451 0.78984375 0.82855392
0.68431373 0.78823529 0.82990196
0.73823529 0.78431373 0.82598039
0.79215686 0.78438266 0.82891391
0.84203431 0.78860294 0.81813725
0.91734069 0.82565104 0.86893382
0.97647059 0.84607843 0.89920343
0.52291667 0.85 0.82990196
0.57647059 0.84989277 0.83258272
0.63039216 0.84607843 0.82941176
0.68792892 0.84865196 0.82598039
0.73823529 0.84607843 0.82205882
0.79033395 0.84603248 0.82316176
0.83878676 0.84598652 0.8140625
0.90784314 0.87222733 0.85870098
0.97205882 0.89901961 0.89901961
0.53572304 0.90386029 0.82990196
0.58829657 0.90784314 0.83823529
0.64215686 0.90735294 0.83866422
0.70032169 0.90735294 0.84446232
0.75021446 0.90735294 0.84166667
0.79656863 0.90517004 0.83981311
0.85654105 0.91127451 0.85010723
0.91487439 0.92266391 0.8661152
0.9598652 0.94166667 0.89901961
0.59558824 0.97990196 0.89460784
0.61568627 0.95882353 0.88480392
0.67745098 0.96862745 0.89166667
0.73578431 0.97254902 0.89509804
0.77279412 0.94754902 0.87230392
0.82665441 0.95882353 0.88529412
0.88431373 0.97254902 0.89558824
0.9307598 0.96942402 0.89203431
0.96029412 0.98039216 0.89460784
0.61176471 0.48627451 0.96470588
0.63235294 0.48627451 0.97941176
0.68137255 0.48627451 0.9745098
0.74019608 0.48627451 0.96960784
0.78627451 0.5254902 0.96078431
0.83823529 0.54362745 0.96862745
0.88823529 0.49313725 0.97352941
0.93382353 0.51470588 0.96813725
0.98039216 0.54901961 0.97254902
0.58480392 0.55931373 0.96470588
0.62254902 0.55588235 0.95386029
0.67647059 0.55931373 0.95686275
0.73431373 0.56194853 0.96470588
0.79215686 0.56936275 0.97254902
0.83854167 0.5713848 0.97303922
0.88431373 0.56323529 0.96421569
0.9377451 0.57457108 0.97254902
0.98578431 0.57745098 0.98039216
0.57254902 0.65490196 0.9754902
0.62254902 0.64803922 0.96372549
0.68039216 0.64803922 0.96666667
0.7310049 0.64436275 0.96348039
0.78529412 0.64068627 0.96176471
0.83431373 0.64019608 0.95686275
0.88823529 0.65294118 0.97279412
0.93382353 0.64411765 0.95772059
0.98333333 0.65686275 0.97647059
0.59068627 0.72647059 0.96862745
0.62647059 0.72647059 0.96991422
0.68186275 0.73039216 0.97512255
0.73339461 0.7216299 0.96715686
0.78553922 0.71715686 0.9620098
0.83431373 0.71715686 0.95833333
0.88823529 0.73026961 0.97120098
0.93939951 0.73449755 0.97671569
0.97647059 0.73676471 0.98039216
0.60980392 0.79215686 0.96862745
0.62867647 0.79632353 0.97279412
0.67598039 0.78333333 0.94754902
0.73431373 0.79142157 0.96519608
0.7872549 0.7872549 0.96568627
0.83431373 0.78039216 0.95367647
0.88823529 0.79509804 0.97156863
0.93431373 0.79191176 0.96029412
0.98627451 0.80196078 0.98235294
0.57892157 0.85 0.97794118
0.62518382 0.84215686 0.96078431
0.68039216 0.8439951 0.95931373
0.740625 0.85238971 0.97101716
0.78504902 0.84215686 0.96078431
0.83915441 0.84607843 0.97310049
0.88688725 0.84460784 0.96017157
0.9377451 0.85392157 0.96881127
0.97647059 0.85245098 0.97794118
0.58431373 0.89901961 0.9745098
0.62303922 0.89252451 0.96029412
0.68039216 0.89215686 0.96078431
0.73970588 0.89938725 0.97107843
0.78431373 0.89117647 0.95245098
0.83284314 0.89117647 0.95257353
0.87965686 0.88823529 0.94044118
0.93431373 0.89656863 0.9627451
0.95294118 0.9 0.96470588
0.57254902 0.93039216 0.92990196
0.62696078 0.93731618 0.95294118
0.68137255 0.94215686 0.96997549
0.73609069 0.94166667 0.95894608
0.78431373 0.9379902 0.95686275
0.83872549 0.94344363 0.97040441
0.88823529 0.94166667 0.96813725
0.93731618 0.94558824 0.96470588
0.94852941 0.94509804 0.96764706
0.57254902 0.98823529 0.98431373
0.63039216 0.96470588 0.96862745
0.68431373 0.96862745 0.97647059
0.74215686 0.97401961 0.97401961
0.78823529 0.96666667 0.9627451
0.84068627 0.97892157 0.97107843
0.88823529 0.96862745 0.94509804
0.93333333 0.98039216 0.94068627
0.94117647 0.97254902 0.92156863
