site/assets/luts/sha256-7b6fa20ef1e7c17cd02196fe5585cfb4813320f892d6e69f2204d1c1101974eb.cube
# LUTr-Schema-Version: 2
# LUTr-ID: sha256-7b6fa20ef1e7c17cd02196fe5585cfb4813320f892d6e69f2204d1c1101974eb
# LUTr-Title: kodak portra 400 uc
# LUTr-Collection: Natron HaldCLUT
# LUTr-Collection-ID: natron-haldclut-presets
# LUTr-Source: https://github.com/NatronGitHub/clut
# LUTr-Retrieved: 2026-07-27
# LUTr-Source-File: submissions/natron-haldclut-presets/negative_old/kodak_portra_400_uc.png
# LUTr-Source-Format: HALD-PNG
# LUTr-Source-SHA256: 7b6fa20ef1e7c17cd02196fe5585cfb4813320f892d6e69f2204d1c1101974eb
# LUTr-License: CC-BY-SA-4.0
# LUTr-License-URL: https://github.com/NatronGitHub/clut#license
# LUTr-License-Basis: repo-license-file
# LUTr-Transform-Class: film-emulation
# LUTr-Tags: creative, film, film-emulation, hald-clut, natron, png, cube
# LUTr-Input-Color-Space: srgb
# LUTr-Input-Gamut: rec709
# LUTr-Input-Transfer: srgb
# LUTr-Output-Color-Space: srgb
# LUTr-Output-Gamut: rec709
# LUTr-Output-Transfer: srgb
# LUTr-Color-Space-Confidence: assumed-display-referred
# LUTr-Domain-Normalized: true
# LUTr-Shaper: none
# LUTr-Original-Grid: 64x64x64
# LUTr-Conversion-Grid: 25x25x25
# LUTr-Conversion-Interpolation: trilinear
# LUTr-Conversion-Method: HALD-PNG LUT image decoded at 16-bit and sampled to 25x25x25 3D CUBE
# LUTr-Conversion-Tool: LUTr scripts/convert-all-to-cube.mjs 2.0.0
# LUTr-Conversion-Date: 2026-07-27
# LUTr-Note: Preserve this metadata and the upstream license notices when redistributing.
TITLE "kodak portra 400 uc"
LUT_3D_SIZE 5
DOMAIN_MIN 0 0 0
DOMAIN_MAX 1 1 1
0.031372549 0.054901961 0.050980392
0.19019608 0.050980392 0.039215686
0.54901961 0.049019608 0.0039215686
0.88529412 0.045098039 0
1 0.18823529 0
0.0039215686 0.20882353 0.079411765
0.13921569 0.23039216 0.032352941
0.61666667 0.26568627 0
0.89730392 0.25588235 0.0039215686
0.99705882 0.30196078 0
0 0.50784314 0.12156863
0 0.52892157 0.14607843
0.46862745 0.55980392 0.032352941
0.84901961 0.56372549 0
0.98823529 0.52941176 0
0.011764706 0.75294118 0.33333333
0.0049019608 0.75588235 0.33259804
0.37352941 0.76764706 0.31666667
0.7252451 0.79019608 0.28112745
0.98431373 0.81176471 0.18627451
0.5254902 0.9254902 0.64705882
0.56470588 0.92941176 0.6627451
0.64705882 0.92745098 0.68627451
0.76666667 0.9372549 0.68137255
0.90980392 0.95294118 0.6745098
0.02745098 0.050980392 0.21470588
0.20686275 0.041176471 0.21470588
0.5745098 0.0049019608 0.19705882
0.88529412 0.026470588 0.19583333
0.99607843 0.20980392 0.17352941
0 0.23112745 0.22647059
0.2125 0.26317402 0.25067402
0.62598039 0.25943627 0.21715686
0.89313725 0.26721814 0.18866422
1 0.33308824 0.16568627
0.0098039216 0.55196078 0.32941176
0.070343137 0.55196078 0.31176471
0.5379902 0.57720588 0.2872549
0.87365196 0.55588235 0.15637255
0.99803922 0.5372549 0.064215686
0.0066176471 0.76372549 0.41642157
0.15863971 0.76280637 0.41905637
0.4564951 0.76372549 0.42745098
0.75171569 0.79044118 0.40808824
0.98308824 0.80367647 0.33553922
0.55980392 0.9254902 0.68235294
0.59142157 0.93161765 0.69215686
0.66029412 0.92941176 0.70686275
0.7745098 0.9372549 0.70784314
0.90392157 0.95294118 0.70490196
0 0.078431373 0.51568627
0.18431373 0.088235294 0.53872549
0.61960784 0.047058824 0.56960784
0.85490196 0.018627451 0.49705882
0.99607843 0.12156863 0.44901961
0 0.27990196 0.53137255
0.16703431 0.27647059 0.55477941
0.63897059 0.30490196 0.57598039
0.85294118 0.3057598 0.51029412
0.99215686 0.35098039 0.48088235
0.01372549 0.56470588 0.54313725
0.27401961 0.57401961 0.55833333
0.62794118 0.60245098 0.59754902
0.84926471 0.59411765 0.5502451
0.99117647 0.59607843 0.52156863
0.4127451 0.77107843 0.62156863
0.50992647 0.77696078 0.63627451
0.59313725 0.77598039 0.62867647
0.79117647 0.79901961 0.62745098
0.97745098 0.79901961 0.56715686
0.65098039 0.92941176 0.76666667
0.65784314 0.92843137 0.76029412
0.69019608 0.9254902 0.75490196
0.78627451 0.93186275 0.76715686
0.89215686 0.95294118 0.76862745
0.0078431373 0.18627451 0.76372549
0.14044118 0.1752451 0.7872549
0.61029412 0.21862745 0.80245098
0.86568627 0.30122549 0.79779412
0.98039216 0.37156863 0.74901961
0.0078431373 0.31348039 0.76470588
0.16960784 0.31231618 0.7872549
0.60980392 0.36666667 0.80294118
0.86102941 0.43958333 0.80122549
0.98431373 0.48602941 0.76862745
0.01372549 0.54901961 0.75196078
0.083088235 0.52745098 0.75465686
0.57941176 0.56838235 0.78210784
0.83664216 0.64509804 0.80404412
0.96078431 0.64068627 0.77205882
0.24313725 0.76446078 0.76078431
0.38572304 0.77175245 0.76243873
0.60980392 0.77843137 0.77732843
0.81060049 0.80686275 0.80980392
0.94583333 0.81176471 0.79509804
0.65 0.9372549 0.83627451
0.67647059 0.9372549 0.8372549
0.74313725 0.9372549 0.84460784
0.82083333 0.94436275 0.85196078
0.92254902 0.93529412 0.84607843
0.43921569 0.42745098 0.95294118
0.51960784 0.44313725 0.94901961
0.69607843 0.48235294 0.94901961
0.87254902 0.57156863 0.94509804
0.98823529 0.63529412 0.9372549
0.45 0.49705882 0.95
0.52058824 0.5 0.94509804
0.69852941 0.54411765 0.94362745
0.86495098 0.62058824 0.93823529
0.98823529 0.68137255 0.93823529
0.44705882 0.64509804 0.94117647
0.51176471 0.64509804 0.94117647
0.67647059 0.65882353 0.94215686
0.85147059 0.71617647 0.9372549
0.94901961 0.7627451 0.93921569
0.32156863 0.80294118 0.93431373
0.38333333 0.79681373 0.93259804
0.55588235 0.77843137 0.91372549
0.80588235 0.80686275 0.93431373
0.96862745 0.85294118 0.94215686
0.59215686 0.96078431 0.94509804
0.61078431 0.94803922 0.93235294
0.69803922 0.93921569 0.90980392
0.81862745 0.95588235 0.92843137
0.98039216 0.97647059 0.96470588
