site/assets/luts/sha256-6d4a1322cebe550fb076d64fe56686ae85d5932cb4bc92b09a69a2418ce8d036.cube
# LUTr-Schema-Version: 2
# LUTr-ID: sha256-6d4a1322cebe550fb076d64fe56686ae85d5932cb4bc92b09a69a2418ce8d036
# LUTr-Title: polaroid 669 cold +
# LUTr-Collection: Natron HaldCLUT
# LUTr-Collection-ID: natron-haldclut-presets
# LUTr-Source: https://github.com/NatronGitHub/clut
# LUTr-Retrieved: 2026-07-27
# LUTr-Source-File: submissions/natron-haldclut-presets/instant_pro/polaroid_669_cold_+.png
# LUTr-Source-Format: HALD-PNG
# LUTr-Source-SHA256: 6d4a1322cebe550fb076d64fe56686ae85d5932cb4bc92b09a69a2418ce8d036
# LUTr-License: CC-BY-SA-4.0
# LUTr-License-URL: https://github.com/NatronGitHub/clut#license
# LUTr-License-Basis: repo-license-file
# LUTr-Transform-Class: film-emulation
# LUTr-Tags: creative, film, film-emulation, hald-clut, natron, png, cool, cube
# LUTr-Input-Color-Space: srgb
# LUTr-Input-Gamut: rec709
# LUTr-Input-Transfer: srgb
# LUTr-Output-Color-Space: srgb
# LUTr-Output-Gamut: rec709
# LUTr-Output-Transfer: srgb
# LUTr-Color-Space-Confidence: assumed-display-referred
# LUTr-Domain-Normalized: true
# LUTr-Shaper: none
# LUTr-Original-Grid: 64x64x64
# LUTr-Conversion-Grid: 25x25x25
# LUTr-Conversion-Interpolation: trilinear
# LUTr-Conversion-Method: HALD-PNG LUT image decoded at 16-bit and sampled to 25x25x25 3D CUBE
# LUTr-Conversion-Tool: LUTr scripts/convert-all-to-cube.mjs 2.0.0
# LUTr-Conversion-Date: 2026-07-27
# LUTr-Note: Preserve this metadata and the upstream license notices when redistributing.
TITLE "polaroid 669 cold +"
LUT_3D_SIZE 5
DOMAIN_MIN 0 0 0
DOMAIN_MAX 1 1 1
0 0.24313725 0.31372549
0 0.23529412 0.29901961
0.24313725 0.23333333 0.30196078
0.57352941 0.21960784 0.3372549
0.8627451 0.22745098 0.37254902
0 0.25882353 0.30588235
0.025735294 0.26568627 0.30980392
0.34705882 0.27892157 0.32745098
0.63357843 0.28039216 0.35367647
0.87843137 0.32254902 0.4
0.07254902 0.38235294 0.35490196
0.16323529 0.38431373 0.3495098
0.39411765 0.4 0.35098039
0.67352941 0.44901961 0.38970588
0.88039216 0.55490196 0.48235294
0.19411765 0.61568627 0.39705882
0.26176471 0.60196078 0.40098039
0.42009804 0.6122549 0.39460784
0.63897059 0.66372549 0.39803922
0.83039216 0.75980392 0.48627451
0.42745098 0.94117647 0.56862745
0.45098039 0.93529412 0.56176471
0.54117647 0.93529412 0.57058824
0.69607843 0.96372549 0.61862745
0.82745098 0.96078431 0.66666667
0 0.23921569 0.32843137
0.0039215686 0.23921569 0.34019608
0.28431373 0.23676471 0.35980392
0.59215686 0.22352941 0.39117647
0.85490196 0.22843137 0.42647059
0 0.27034314 0.3502451
0.059375 0.28357843 0.37052696
0.37120098 0.28602941 0.39166667
0.63897059 0.28039216 0.41115196
0.8745098 0.32254902 0.45367647
0.095098039 0.43382353 0.41960784
0.21029412 0.41678922 0.41568627
0.43039216 0.42941176 0.41862745
0.68970588 0.47781863 0.45477941
0.87303922 0.56715686 0.53039216
0.20882353 0.65490196 0.45490196
0.27573529 0.64313725 0.45392157
0.43014706 0.64068627 0.44791667
0.64926471 0.69356618 0.45784314
0.82058824 0.76813725 0.52867647
0.40490196 0.91960784 0.58431373
0.46397059 0.93627451 0.59828431
0.53529412 0.92696078 0.59264706
0.69387255 0.95465686 0.63602941
0.83431373 0.96862745 0.69313725
0 0.25098039 0.46078431
0 0.25294118 0.48529412
0.36372549 0.26078431 0.53627451
0.66960784 0.28186275 0.57941176
0.89215686 0.3254902 0.60784314
0 0.32156863 0.50686275
0.019852941 0.31801471 0.53333333
0.43333333 0.33578431 0.58039216
0.70723039 0.38394608 0.61531863
0.88088235 0.3872549 0.6004902
0.026470588 0.50392157 0.58529412
0.23872549 0.50416667 0.59313725
0.50294118 0.51960784 0.61372549
0.70759804 0.54313725 0.61960784
0.86666667 0.5745098 0.63235294
0.24509804 0.75294118 0.60833333
0.33382353 0.75245098 0.60833333
0.47965686 0.7245098 0.6002451
0.67254902 0.75294118 0.60196078
0.81862745 0.825 0.67058824
0.48823529 0.95686275 0.68627451
0.50784314 0.95686275 0.68431373
0.55686275 0.94215686 0.67254902
0.69068627 0.96127451 0.69117647
0.82352941 0.96078431 0.71176471
0.00098039216 0.31176471 0.7127451
0.0078431373 0.30857843 0.7252451
0.43970588 0.32794118 0.75931373
0.74019608 0.44583333 0.77745098
0.86764706 0.60294118 0.78235294
0.0039215686 0.41102941 0.72843137
0.006004902 0.38823529 0.74411765
0.47598039 0.42352941 0.7627451
0.74375 0.53792892 0.78216912
0.83995098 0.63357843 0.78602941
0.0058823529 0.59166667 0.73529412
0.23504902 0.5875 0.73480392
0.53039216 0.62156863 0.76078431
0.73235294 0.7245098 0.77843137
0.82745098 0.79803922 0.79313725
0.36470588 0.82352941 0.75416667
0.42328431 0.82702206 0.75490196
0.56764706 0.83419118 0.76458333
0.7127451 0.8502451 0.77371324
0.80857843 0.88627451 0.7870098
0.57843137 0.96862745 0.7745098
0.59485294 0.97156863 0.77745098
0.64117647 0.97696078 0.77843137
0.70784314 0.95710784 0.76740196
0.83921569 0.98039216 0.78921569
0.25490196 0.52156863 0.87058824
0.33627451 0.51372549 0.86764706
0.58431373 0.59607843 0.8627451
0.7627451 0.72352941 0.85098039
0.84313725 0.83137255 0.84705882
0.3754902 0.61764706 0.8627451
0.42941176 0.6120098 0.8627451
0.60343137 0.6627451 0.85882353
0.7627451 0.78431373 0.85098039
0.84019608 0.87156863 0.84705882
0.45882353 0.78431373 0.84705882
0.49852941 0.7745098 0.84313725
0.6 0.76176471 0.84117647
0.75098039 0.85 0.84607843
0.8254902 0.90588235 0.84313725
0.48137255 0.91176471 0.83529412
0.50784314 0.90416667 0.83161765
0.60392157 0.91176471 0.83529412
0.72843137 0.90955882 0.82843137
0.84019608 0.95490196 0.84411765
0.68627451 0.98823529 0.83921569
0.67745098 0.98823529 0.83921569
0.71764706 0.98627451 0.84313725
0.79411765 0.99215686 0.84803922
0.82352941 0.97254902 0.84313725
