site/assets/luts/upstream-urnaswfociotransformid10arriinputarri-logc4-to-aces2065-110--20e59c0fe.cube
# LUTr-Schema-Version: 2
# LUTr-ID: upstream-urnaswfociotransformid10arriinputarri-logc4-to-aces2065-110--20e59c0fe
# LUTr-Title: ARRI.Input.ARRI LogC4 to ACES2065-1
# LUTr-Collection: OCIO ACES
# LUTr-Collection-ID: aswf-opencolorio-config-aces
# LUTr-Source: https://github.com/AcademySoftwareFoundation/OpenColorIO-Config-ACES
# LUTr-Retrieved: 2026-07-27
# LUTr-Source-File: submissions/aswf-opencolorio-config-aces/opencolorio_config_aces/clf/transforms/arri/input/ARRI.Input.ARRI_LogC4_to_ACES2065-1.clf
# LUTr-Source-Format: CLF
# LUTr-Source-SHA256: 4384994747d4f914b2a5ebbe0793adc2c77793f89be3dd49cab5c0fa5a461df9
# LUTr-License: BSD-3-Clause
# LUTr-License-URL: https://github.com/AcademySoftwareFoundation/OpenColorIO-Config-ACES/blob/main/LICENSE
# LUTr-License-Basis: repo-license-file
# LUTr-Transform-Class: color-space-conversion
# LUTr-Tags: technical, aces, ocio, clf, color-management, cube
# LUTr-Input-Color-Space: 
# LUTr-Input-Gamut: unspecified
# LUTr-Input-Transfer: arri-logc4
# LUTr-Output-Color-Space: aces2065-1
# LUTr-Output-Gamut: aces-ap0
# LUTr-Output-Transfer: linear
# LUTr-Color-Space-Confidence: descriptor-only
# LUTr-Domain-Normalized: true
# LUTr-Shaper: none
# LUTr-Original-Grid: analytic
# LUTr-Conversion-Grid: 33x33x33
# LUTr-Conversion-Interpolation: linear
# LUTr-Conversion-Method: CLF operations evaluated as float and sampled to 33x33x33 3D CUBE
# LUTr-Conversion-Tool: LUTr scripts/convert-all-to-cube.mjs 2.0.0
# LUTr-Conversion-Date: 2026-07-27
# LUTr-Conversion-Warning: A sampled 3D CUBE is bounded to DOMAIN_MIN/MAX 0..1 and cannot preserve CLF values outside its input domain.
# LUTr-Upstream-ID: urn:aswf:ocio:transformId:1.0:ARRI:Input:ARRI_LogC4_to_ACES2065-1:1.0
# LUTr-Upstream-Name: ARRI LogC4 to ACES2065-1
# LUTr-Upstream-Input-Descriptor: ARRI LogC4
# LUTr-Upstream-Output-Descriptor: ACES2065-1
# LUTr-Upstream-Operations: Log -> Matrix
# LUTr-Upstream-Domain: unbounded
# LUTr-Note: Preserve this metadata and the upstream license notices when redistributing.
TITLE "ARRI.Input.ARRI LogC4 to ACES2065-1"
LUT_3D_SIZE 9
DOMAIN_MIN 0 0 0
DOMAIN_MAX 1 1 1
-0.018056996 -0.018056996 -0.018056996
0.0043377389 -0.018032488 -0.018071905
0.089623701 -0.017939152 -0.018128685
0.41441859 -0.017583701 -0.018344918
1.6513363 -0.016230036 -0.0191684
6.3618952 -0.011074867 -0.022304469
24.301136 0.0085575836 -0.034247573
92.619222 0.083323927 -0.079730546
352.79527 0.3680569 -0.25294354
-0.01375008 0.011985191 -0.018082469
0.0086446546 0.0120097 -0.018097378
0.093930617 0.012103036 -0.018154158
0.4187255 0.012458487 -0.018370391
1.6556432 0.013812152 -0.019193873
6.3662021 0.018967321 -0.022329942
24.305443 0.038599771 -0.034273046
92.623529 0.11336611 -0.079756019
352.79958 0.39809909 -0.25296901
0.0026519644 0.12639498 -0.018179478
0.025046699 0.12641949 -0.018194387
0.11033266 0.12651282 -0.018251166
0.43512755 0.12686827 -0.0184674
1.6720453 0.12822194 -0.019290881
6.3826041 0.13337711 -0.02242695
24.321845 0.15300956 -0.034370054
92.639931 0.2277759 -0.079853027
352.81598 0.51250888 -0.25306602
0.06511594 0.56210225 -0.018548916
0.087510675 0.56212676 -0.018563825
0.17279664 0.56222009 -0.018620605
0.49759152 0.56257555 -0.018836838
1.7345092 0.56392921 -0.01966032
6.4450681 0.56908438 -0.022796388
24.384309 0.58871683 -0.034739493
92.702395 0.66348317 -0.080222466
352.87845 0.94821615 -0.25343546
0.30299776 2.2214081 -0.019955849
0.32539249 2.2214326 -0.019970759
0.41067846 2.2215259 -0.020027538
0.73547334 2.2218814 -0.020243771
1.9723911 2.223235 -0.021067253
6.6829499 2.2283902 -0.024203322
24.622191 2.2480226 -0.036146426
92.940277 2.322789 -0.081629399
353.11633 2.607522 -0.25484239
1.2089241 8.5405493 -0.025313879
1.2313188 8.5405738 -0.025328789
1.3166048 8.5406671 -0.025385568
1.6413997 8.5410226 -0.025601801
2.8783174 8.5423762 -0.026425283
7.5888762 8.5475314 -0.029561352
25.528117 8.5671639 -0.041504456
93.846203 8.6419302 -0.086987429
354.02225 8.9266632 -0.26020042
4.658967 32.605761 -0.045718888
4.6813618 32.605786 -0.045733797
4.7666477 32.605879 -0.045790576
5.0914426 32.606234 -0.046006809
6.3283603 32.607588 -0.046830291
11.038919 32.612743 -0.04996636
28.97816 32.632376 -0.061909464
97.296246 32.707142 -0.10739244
357.4723 32.991875 -0.28060543
17.79778 124.25341 -0.12342737
17.820175 124.25343 -0.12344227
17.905461 124.25353 -0.12349905
18.230256 124.25388 -0.12371529
19.467173 124.25523 -0.12453877
24.177732 124.26039 -0.12767484
42.116973 124.28002 -0.13961794
110.43506 124.35479 -0.18510091
370.61111 124.63952 -0.35831391
67.834376 473.27552 -0.41936488
67.856771 473.27554 -0.41937979
67.942057 473.27564 -0.41943657
68.266852 473.27599 -0.41965281
69.503769 473.27735 -0.42047629
74.214328 473.2825 -0.42361236
92.153569 473.30213 -0.43555546
160.47165 473.3769 -0.48103843
420.64771 473.66163 -0.65425143
-0.014937067 -0.018302112 0.011804966
0.0074576681 -0.018277604 0.011790057
0.092743631 -0.018184268 0.011733277
0.41753852 -0.017828817 0.011517044
1.6544562 -0.016475152 0.010693562
6.3650151 -0.011319983 0.0075574936
24.304256 0.0083124675 -0.0043856105
92.622342 0.083078811 -0.049868583
352.79839 0.36781179 -0.22308158
-0.010630151 0.011740075 0.011779493
0.011764584 0.011764584 0.011764584
0.097050546 0.01185792 0.011707804
0.42184543 0.01221337 0.011491571
1.6587631 0.013567036 0.01066809
6.369322 0.018722204 0.0075320207
24.308563 0.038354655 -0.0044110834
92.626649 0.113121 -0.049894056
352.8027 0.39785398 -0.22310705
0.0057718937 0.12614986 0.011682485
0.028166629 0.12617437 0.011667575
0.11345259 0.12626771 0.011610796
0.43824748 0.12662316 0.011394563
1.6751652 0.12797682 0.010571081
6.3857241 0.13313199 0.0074350121
24.324965 0.15276444 -0.004508092
92.643051 0.22753079 -0.049991065
352.8191 0.51226376 -0.22320406
0.068235869 0.56185713 0.011313046
0.090630604 0.56188164 0.011298137
0.17591657 0.56197498 0.011241358
0.50071145 0.56233043 0.011025124
1.7376292 0.56368409 0.010201643
6.448188 0.56883926 0.0070655738
24.387429 0.58847171 -0.0048775303
92.705515 0.66323806 -0.050360503
352.88156 0.94797103 -0.2235735
0.30611769 2.2211629 0.009906113
0.32851242 2.2211875 0.0098912036
0.41379839 2.2212808 0.0098344242
0.73859327 2.2216362 0.009618191
1.975511 2.2229899 0.0087947093
6.6860699 2.2281451 0.0056586404
24.625311 2.2477775 -0.0062844637
92.943397 2.3225439 -0.051767437
353.11945 2.6072768 -0.22498043
1.212044 8.5403042 0.0045480829
1.2344387 8.5403287 0.0045331735
1.3197247 8.540422 0.0044763941
1.6445196 8.5407775 0.0042601609
2.8814373 8.5421311 0.0034366792
7.5919962 8.5472863 0.00030061036
25.531237 8.5669187 -0.011642494
93.849323 8.6416851 -0.057125467
354.02537 8.9264181 -0.23033846
4.662087 32.605516 -0.015856925
4.6844817 32.60554 -0.015871835
4.7697677 32.605634 -0.015928614
5.0945626 32.605989 -0.016144847
6.3314803 32.607343 -0.016968329
11.042039 32.612498 -0.020104398
28.98128 32.632131 -0.032047502
97.299366 32.706897 -0.077530475
357.47542 32.99163 -0.25074347
17.8009 124.25316 -0.093565403
17.823295 124.25319 -0.093580312
17.908581 124.25328 -0.093637092
18.233376 124.25364 -0.093853325
19.470293 124.25499 -0.094676807
24.180852 124.26014 -0.097812875
42.120093 124.27978 -0.10975598
110.43818 124.35454 -0.15523895
370.61423 124.63928 -0.32845195
67.837496 473.27527 -0.38950292
67.859891 473.2753 -0.38951783
67.945177 473.27539 -0.38957461
68.269972 473.27575 -0.38979084
69.506889 473.2771 -0.39061432
74.217448 473.28226 -0.39375039
92.156689 473.30189 -0.4056935
160.47477 473.37665 -0.45117647
420.65083 473.66139 -0.62438947
-0.0030554274 -0.019235589 0.1255284
0.019339308 -0.019211081 0.12551349
0.10462527 -0.019117745 0.12545671
0.42942016 -0.018762294 0.12524048
1.6663379 -0.017408629 0.124417
6.3768967 -0.01225346 0.12128093
24.316138 0.0073789906 0.10933782
92.634223 0.082145334 0.063854851
352.81027 0.36687831 -0.10935814
0.0012514883 0.010806598 0.12550293
0.023646223 0.010831107 0.12548802
0.10893219 0.010924443 0.12543124
0.43372707 0.011279894 0.12521501
1.6706448 0.012633559 0.12439152
6.3812037 0.017788728 0.12125546
24.320445 0.037421178 0.10931235
92.63853 0.11218752 0.063829378
352.81458 0.3969205 -0.10938362
0.017653533 0.12521639 0.12540592
0.040048268 0.12524089 0.12539101
0.12533423 0.12533423 0.12533423
0.45012912 0.12568968 0.125118
1.6870468 0.12704335 0.12429452
6.3976057 0.13219852 0.12115845
24.336847 0.15183097 0.10921534
92.654932 0.22659731 0.06373237
352.83098 0.51133029 -0.10948063
0.080117509 0.56092366 0.12503648
0.10251224 0.56094817 0.12502157
0.18779821 0.5610415 0.12496479
0.51259309 0.56139695 0.12474856
1.7495108 0.56275062 0.12392508
6.4600697 0.56790579 0.12078901
24.399311 0.58753824 0.1088459
92.717396 0.66230458 0.063362932
352.89345 0.94703756 -0.10985006
0.31799933 2.2202295 0.12362955
0.34039406 2.220254 0.12361464
0.42568002 2.2203473 0.12355786
0.75047491 2.2207028 0.12334163
1.9873926 2.2220564 0.12251814
6.6979515 2.2272116 0.11938208
24.637192 2.246844 0.10743897
92.955278 2.3216104 0.061955998
353.13133 2.6063434 -0.111257
1.2239256 8.5393707 0.11827152
1.2463204 8.5393952 0.11825661
1.3316063 8.5394885 0.11819983
1.6564012 8.539844 0.1179836
2.8933189 8.5411977 0.11716011
7.6038778 8.5463528 0.11402405
25.543119 8.5659853 0.10208094
93.861205 8.6407516 0.056597968
354.03725 8.9254846 -0.11661503
4.6739686 32.604582 0.09786651
4.6963633 32.604607 0.0978516
4.7816493 32.6047 0.097794821
5.1064442 32.605056 0.097578588
6.3433619 32.606409 0.096755106
11.053921 32.611565 0.093619037
28.993162 32.631197 0.081675933
97.311248 32.705963 0.03619296
357.4873 32.990696 -0.13702004
17.812782 124.25223 0.020158032
17.835176 124.25225 0.020143123
17.920462 124.25235 0.020086343
18.245257 124.2527 0.01987011
19.482175 124.25406 0.019046628
24.192734 124.25921 0.015910559
42.131975 124.27884 0.0039674553
110.45006 124.35361 -0.041515518
370.62611 124.63834 -0.21472851
67.849378 473.27434 -0.27577949
67.871772 473.27436 -0.2757944
67.957058 473.27446 -0.27585118
68.281853 473.27481 -0.27606741
69.518771 473.27617 -0.27689089
74.22933 473.28132 -0.28002696
92.168571 473.30095 -0.29197006
160.48666 473.37572 -0.33745304
420.66271 473.66045 -0.51066603
0.04219347 -0.022790553 0.55862183
0.064588205 -0.022766044 0.55860692
0.14987417 -0.022672709 0.55855014
0.47466905 -0.022317258 0.55833391
1.7115868 -0.020963593 0.55751043
6.4221456 -0.015808424 0.55437436
24.361387 0.0038240269 0.54243125
92.679472 0.07859037 0.49694828
352.85552 0.36332335 0.32373529
0.046500385 0.0072516347 0.55859636
0.06889512 0.0072761432 0.55858145
0.15418108 0.0073694789 0.55852467
0.47897597 0.0077249299 0.55830844
1.7158937 0.009078595 0.55748495
6.4264526 0.014233764 0.55434889
24.365693 0.033866214 0.54240578
92.683779 0.10863256 0.49692281
352.85983 0.39336553 0.32370981
0.06290243 0.12166142 0.55849935
0.085297165 0.12168593 0.55848444
0.17058313 0.12177927 0.55842766
0.49537801 0.12213472 0.55821143
1.7322957 0.12348838 0.55738795
6.4428546 0.12864355 0.55425188
24.382096 0.148276 0.54230877
92.700181 0.22304235 0.4968258
352.87623 0.50777532 0.3236128
0.12536641 0.55736869 0.55812991
0.14776114 0.5573932 0.558115
0.2330471 0.55748654 0.55805822
0.55784199 0.55784199 0.55784199
1.7947597 0.55919565 0.55701851
6.5053186 0.56435082 0.55388244
24.444559 0.58398327 0.54193933
92.762645 0.65874962 0.49645636
352.9387 0.94348259 0.32324337
0.36324822 2.2166745 0.55672298
0.38564296 2.216699 0.55670807
0.47092892 2.2167924 0.55665129
0.79572381 2.2171478 0.55643506
2.0326415 2.2185015 0.55561157
6.7432004 2.2236566 0.5524755
24.682441 2.2432891 0.5405324
93.000527 2.3180554 0.49504943
353.17658 2.6027884 0.32183643
1.2691745 8.5358157 0.55136495
1.2915693 8.5358402 0.55135004
1.3768552 8.5359336 0.55129326
1.7016501 8.536289 0.55107703
2.9385678 8.5376427 0.55025354
7.6491267 8.5427979 0.54711747
25.588368 8.5624303 0.53517437
93.906453 8.6371967 0.4896914
354.0825 8.9219296 0.3164784
4.7192175 32.601028 0.53095994
4.7416122 32.601052 0.53094503
4.8268982 32.601145 0.53088825
5.1516931 32.601501 0.53067202
6.3886108 32.602854 0.52984854
11.09917 32.60801 0.52671247
29.038411 32.627642 0.51476936
97.356496 32.702408 0.46928639
357.53255 32.987141 0.29607339
17.85803 124.24867 0.45325146
17.880425 124.2487 0.45323655
17.965711 124.24879 0.45317977
18.290506 124.24915 0.45296354
19.527424 124.2505 0.45214006
24.237983 124.25566 0.44900399
42.177224 124.27529 0.43706089
110.49531 124.35005 0.39157791
370.67136 124.63479 0.21836492
67.894627 473.27079 0.15731394
67.917021 473.27081 0.15729903
68.002307 473.2709 0.15724225
68.327102 473.27126 0.15702602
69.56402 473.27261 0.15620254
74.274579 473.27777 0.15306647
92.21382 473.2974 0.14112337
160.53191 473.37217 0.095640394
420.70796 473.6569 -0.077572601
0.21451503 -0.036328936 2.2079733
0.23690977 -0.036304428 2.2079584
0.32219573 -0.036211092 2.2079017
0.64699062 -0.035855641 2.2076854
1.8839083 -0.034501976 2.2068619
6.5944672 -0.029346807 2.2037259
24.533708 -0.0097143564 2.1917828
92.851794 0.065051987 2.1462998
353.02784 0.34978496 1.9730868
0.21882195 -0.0062867486 2.2079479
0.24121668 -0.0062622401 2.207933
0.32650265 -0.0061689044 2.2078762
0.65129753 -0.0058134534 2.2076599
1.8882152 -0.0044597883 2.2068365
6.5987741 0.00069538051 2.2037004
24.538015 0.020327831 2.1917573
92.856101 0.095094175 2.1462743
353.03215 0.37982715 1.9730613
0.23522399 0.10812304 2.2078509
0.25761873 0.10814755 2.2078359
0.34290469 0.10824088 2.2077792
0.66769958 0.10859633 2.2075629
1.9046173 0.10995 2.2067395
6.6151762 0.11510517 2.2036034
24.554417 0.13473762 2.1916603
92.872503 0.20950396 2.1461773
353.04855 0.49423694 1.9729643
0.29768797 0.54383031 2.2074814
0.3200827 0.54385482 2.2074665
0.40536867 0.54394815 2.2074097
0.73016355 0.54430361 2.2071935
1.9670813 0.54565727 2.20637
6.6776401 0.55081244 2.2032339
24.616881 0.57044489 2.1912908
92.934967 0.64521123 2.1458079
353.11102 0.92994421 1.9725949
0.53556979 2.2031361 2.2060745
0.55796452 2.2031606 2.2060596
0.64325048 2.203254 2.2060028
0.96804537 2.2036094 2.2057866
2.2049631 2.2049631 2.2049631
6.915522 2.2101183 2.201827
24.854763 2.2297507 2.1898839
93.172849 2.304517 2.1444009
353.3489 2.58925 1.9711879
1.4414961 8.5222773 2.2007165
1.4638908 8.5223019 2.2007015
1.5491768 8.5223952 2.2006448
1.8739717 8.5227506 2.2004285
3.1108894 8.5241043 2.1996051
7.8214483 8.5292595 2.196469
25.760689 8.5488919 2.1845259
94.078775 8.6236583 2.1390429
354.25483 8.9083912 1.9658299
4.8915391 32.587489 2.1803114
4.9139338 32.587514 2.1802965
4.9992198 32.587607 2.1802398
5.3240147 32.587962 2.1800235
6.5609324 32.589316 2.1792
11.271491 32.594471 2.176064
29.210732 32.614104 2.1641209
97.528818 32.68887 2.1186379
357.70487 32.973603 1.9454249
18.030352 124.23514 2.102603
18.052747 124.23516 2.1025881
18.138033 124.23525 2.1025313
18.462828 124.23561 2.102315
19.699745 124.23696 2.1014916
24.410304 124.24212 2.0983555
42.349545 124.26175 2.0864124
110.66763 124.33652 2.0409294
370.84368 124.62125 1.8677164
68.066948 473.25725 1.8066655
68.089343 473.25727 1.8066505
68.174629 473.25736 1.8065938
68.499424 473.25772 1.8063775
69.736341 473.25907 1.805554
74.4469 473.26423 1.802418
92.386141 473.28386 1.7904749
160.70423 473.35863 1.7449919
420.88028 473.64336 1.5717789
0.87076796 -0.087887218 8.4892055
0.89316269 -0.087862709 8.4891906
0.97844865 -0.087769373 8.4891339
1.3032435 -0.087413922 8.4889176
2.5401613 -0.086060257 8.4880941
7.2507201 -0.080905088 8.4849581
25.189961 -0.061272638 8.473015
93.508047 0.013493706 8.427532
353.6841 0.29822668 8.254319
0.87507487 -0.05784503 8.4891801
0.89746961 -0.057820522 8.4891652
0.98275557 -0.057727186 8.4891084
1.3075505 -0.057371735 8.4888922
2.5444682 -0.05601807 8.4880687
7.255027 -0.050862901 8.4849326
25.194268 -0.03123045 8.4729895
93.512354 0.043535893 8.4275065
353.6884 0.32826887 8.2542935
0.89147692 0.056564758 8.4890831
0.91387165 0.056589266 8.4890682
0.99915761 0.056682602 8.4890114
1.3239525 0.057038053 8.4887951
2.5608702 0.058391718 8.4879717
7.2714291 0.063546887 8.4848356
25.21067 0.083179338 8.4728925
93.528756 0.15794568 8.4274095
353.70481 0.44267866 8.2541965
0.95394089 0.49227203 8.4887136
0.97633563 0.49229654 8.4886987
1.0616216 0.49238987 8.4886419
1.3864165 0.49274532 8.4884257
2.6233342 0.49409899 8.4876022
7.3338931 0.49925416 8.4844662
25.273134 0.51888661 8.4725231
93.59122 0.59365295 8.4270401
353.76727 0.87838593 8.2538271
1.1918227 2.1515778 8.4873067
1.2142174 2.1516023 8.4872918
1.2995034 2.1516957 8.487235
1.6242983 2.1520511 8.4870188
2.861216 2.1534048 8.4861953
7.5717749 2.15856 8.4830592
25.511016 2.1781924 8.4711161
93.829102 2.2529588 8.4256331
354.00515 2.5376917 8.2524202
2.097749 8.4707191 8.4819487
2.1201438 8.4707436 8.4819338
2.2054297 8.4708369 8.481877
2.5302246 8.4711924 8.4816607
3.7671423 8.472546 8.4808373
8.4777012 8.4777012 8.4777012
26.416942 8.4973336 8.4657581
94.735028 8.5721 8.4202751
354.91108 8.856833 8.2470621
5.547792 32.535931 8.4615437
5.5701867 32.535955 8.4615287
5.6554727 32.536049 8.461472
5.9802676 32.536404 8.4612557
7.2171853 32.537758 8.4604323
11.927744 32.542913 8.4572962
29.866985 32.562545 8.4453531
98.185071 32.637312 8.3998701
358.36112 32.922045 8.2266571
18.686605 124.18358 8.3838352
18.709 124.1836 8.3838203
18.794286 124.18369 8.3837635
19.119081 124.18405 8.3835473
20.355998 124.1854 8.3827238
25.066557 124.19056 8.3795877
43.005798 124.21019 8.3676446
111.32388 124.28496 8.3221616
371.49993 124.56969 8.1489486
68.723201 473.20569 8.0878977
68.745596 473.20571 8.0878828
68.830882 473.20581 8.087826
69.155677 473.20616 8.0876097
70.392594 473.20752 8.0867863
75.103153 473.21267 8.0836502
93.042394 473.2323 8.0717071
161.36048 473.30707 8.0262241
421.53653 473.5918 7.8530111
3.3699787 -0.28423684 32.410048
3.3923734 -0.28421233 32.410033
3.4776594 -0.28411899 32.409977
3.8024543 -0.28376354 32.40976
5.039372 -0.28240987 32.408937
9.7499309 -0.27725471 32.405801
27.689172 -0.25762226 32.393858
96.007258 -0.18285591 32.348375
356.18331 0.10187706 32.175162
3.3742856 -0.25419465 32.410023
3.3966803 -0.25417014 32.410008
3.4819663 -0.2540768 32.409951
3.8067612 -0.25372135 32.409735
5.0436789 -0.25236769 32.408911
9.7542378 -0.24721252 32.405775
27.693479 -0.22758007 32.393832
96.011564 -0.15281372 32.348349
356.18761 0.13191925 32.175136
3.3906877 -0.13978486 32.409926
3.4130824 -0.13976035 32.409911
3.4983683 -0.13966702 32.409854
3.8231632 -0.13931156 32.409638
5.0600809 -0.1379579 32.408814
9.7706398 -0.13280273 32.405678
27.709881 -0.11317028 32.393735
96.027967 -0.038403936 32.348252
356.20402 0.24632904 32.175039
3.4531516 0.29592241 32.409556
3.4755464 0.29594692 32.409541
3.5608323 0.29604026 32.409485
3.8856272 0.29639571 32.409268
5.1225449 0.29774937 32.408445
9.8331038 0.30290454 32.405309
27.772345 0.32253699 32.393366
96.090431 0.39730333 32.347883
356.26648 0.68203631 32.17467
3.6910334 1.9552282 32.408149
3.7134282 1.9552527 32.408135
3.7987141 1.9553461 32.408078
4.123509 1.9557015 32.407862
5.3604267 1.9570552 32.407038
10.070986 1.9622104 32.403902
28.010227 1.9818428 32.391959
96.328312 2.0566091 32.346476
356.50436 2.3413421 32.173263
4.5969598 8.2743694 32.402791
4.6193545 8.274394 32.402776
4.7046405 8.2744873 32.40272
5.0294353 8.2748427 32.402503
6.2663531 8.2761964 32.40168
10.976912 8.2813516 32.398544
28.916153 8.300984 32.386601
97.234239 8.3757504 32.341118
357.41029 8.6604833 32.167905
8.0470027 32.339581 32.382386
8.0693975 32.339606 32.382371
8.1546834 32.339699 32.382315
8.4794783 32.340055 32.382098
9.716396 32.341408 32.381275
14.426955 32.346563 32.378139
32.366196 32.366196 32.366196
100.68428 32.440962 32.320713
360.86033 32.725695 32.1475
21.185816 123.98723 32.304678
21.20821 123.98725 32.304663
21.293496 123.98735 32.304606
21.618291 123.9877 32.30439
22.855209 123.98905 32.303567
27.565768 123.99421 32.30043
45.505009 124.01384 32.288487
113.82309 124.08861 32.243004
373.99914 124.37334 32.069791
71.222412 473.00934 32.00874
71.244806 473.00936 32.008725
71.330092 473.00946 32.008669
71.654887 473.00981 32.008452
72.891805 473.01117 32.007629
77.602364 473.01632 32.004493
95.541605 473.03595 31.99255
163.85969 473.11072 31.947067
424.03574 473.39545 31.773854
12.887733 -1.0319959 123.50789
12.910128 -1.0319714 123.50788
12.995414 -1.0318781 123.50782
13.320209 -1.0315226 123.50761
14.557127 -1.0301689 123.50678
19.267685 -1.0250138 123.50365
37.206926 -1.0053813 123.4917
105.52501 -0.93061498 123.44622
365.70106 -0.645882 123.27301
12.89204 -1.0019537 123.50787
12.914435 -1.0019292 123.50785
12.999721 -1.0018359 123.5078
13.324516 -1.0014804 123.50758
14.561434 -1.0001268 123.50676
19.271992 -0.99497158 123.50362
37.211233 -0.97533913 123.49168
105.52932 -0.90057279 123.44619
365.70537 -0.61583981 123.27298
12.908442 -0.88754392 123.50777
12.930837 -0.88751942 123.50776
13.016123 -0.88742608 123.5077
13.340918 -0.88707063 123.50748
14.577836 -0.88571696 123.50666
19.288394 -0.88056179 123.50352
37.227635 -0.86092934 123.49158
105.54572 -0.786163 123.4461
365.72177 -0.50143002 123.27288
12.970906 -0.45183665 123.5074
12.993301 -0.45181214 123.50739
13.078587 -0.45171881 123.50733
13.403382 -0.45136336 123.50711
14.6403 -0.45000969 123.50629
19.350858 -0.44485452 123.50315
37.290099 -0.42522207 123.49121
105.60819 -0.35045573 123.44573
365.78424 -0.065722753 123.27251
13.208788 1.2074692 123.50599
13.231183 1.2074937 123.50598
13.316469 1.207587 123.50592
13.641264 1.2079425 123.50571
14.878181 1.2092961 123.50488
19.58874 1.2144513 123.50175
37.527981 1.2340837 123.4898
105.84607 1.3088501 123.44432
366.02212 1.5935831 123.27111
14.114714 7.5266104 123.50064
14.137109 7.5266349 123.50062
14.222395 7.5267282 123.50056
14.54719 7.5270837 123.50035
15.784108 7.5284373 123.49952
20.494667 7.5335925 123.49639
38.433907 7.553225 123.48445
106.75199 7.6279913 123.43896
366.92804 7.9127243 123.26575
17.564757 31.591822 123.48023
17.587152 31.591847 123.48022
17.672438 31.59194 123.48016
17.997233 31.592295 123.47994
19.234151 31.593649 123.47912
23.94471 31.598804 123.47598
41.88395 31.618437 123.46404
110.20204 31.693203 123.41856
370.37809 31.977936 123.24534
30.70357 123.23947 123.40252
30.725965 123.23949 123.40251
30.811251 123.23959 123.40245
31.136046 123.23994 123.40223
32.372964 123.2413 123.40141
37.083522 123.24645 123.39828
55.022763 123.26608 123.38633
123.34085 123.34085 123.34085
383.5169 123.62558 123.16764
80.740166 472.26158 123.10659
80.762561 472.2616 123.10657
80.847847 472.2617 123.10651
81.172642 472.26205 123.1063
82.40956 472.26341 123.10547
87.120119 472.26856 123.10234
105.05936 472.28819 123.09039
173.37745 472.36296 123.04491
433.5535 472.64769 122.8717
49.134238 -3.8796899 470.43619
49.156633 -3.8796653 470.43618
49.241919 -3.879572 470.43612
49.566713 -3.8792166 470.43591
50.803631 -3.8778629 470.43508
55.51419 -3.8727077 470.43195
73.453431 -3.8530753 470.42
141.77152 -3.7783089 470.37452
401.94757 -3.493576 470.20131
49.138545 -3.8496477 470.43617
49.16094 -3.8496232 470.43615
49.246225 -3.8495298 470.4361
49.57102 -3.8491744 470.43588
50.807938 -3.8478207 470.43506
55.518497 -3.8426655 470.43192
73.457738 -3.8230331 470.41998
141.77582 -3.7482667 470.3745
401.95187 -3.4635338 470.20128
49.154947 -3.7352379 470.43607
49.177342 -3.7352134 470.43606
49.262628 -3.73512 470.436
49.587422 -3.7347646 470.43578
50.82434 -3.7334109 470.43496
55.534899 -3.7282557 470.43182
73.47414 -3.7086233 470.41988
141.79223 -3.633857 470.3744
401.96828 -3.349124 470.20119
49.217411 -3.2995306 470.4357
49.239806 -3.2995061 470.43569
49.325092 -3.2994128 470.43563
49.649886 -3.2990573 470.43541
50.886804 -3.2977036 470.43459
55.597363 -3.2925485 470.43146
73.536604 -3.272916 470.41951
141.85469 -3.1981497 470.37403
402.03074 -2.9134167 470.20082
49.455293 -1.6402248 470.4343
49.477687 -1.6402003 470.43428
49.562973 -1.640107 470.43422
49.887768 -1.6397515 470.43401
51.124686 -1.6383978 470.43318
55.835245 -1.6332427 470.43005
73.774486 -1.6136102 470.41811
142.09257 -1.5388439 470.37262
402.26862 -1.2541109 470.19941
50.361219 4.6789164 470.42894
50.383614 4.6789409 470.42892
50.4689 4.6790343 470.42887
50.793695 4.6793897 470.42865
52.030612 4.6807434 470.42783
56.741171 4.6858986 470.42469
74.680412 4.705531 470.41275
142.9985 4.7802974 470.36726
403.17455 5.0650303 470.19405
53.811262 28.744128 470.40853
53.833657 28.744153 470.40852
53.918943 28.744246 470.40846
54.243737 28.744602 470.40824
55.480655 28.745955 470.40742
60.191214 28.75111 470.40429
78.130455 28.770743 470.39234
146.44854 28.845509 470.34686
406.62459 29.130242 470.17365
66.950075 120.39177 470.33082
66.97247 120.3918 470.33081
67.057756 120.39189 470.33075
67.38255 120.39225 470.33054
68.619468 120.3936 470.32971
73.330027 120.39876 470.32658
91.269268 120.41839 470.31463
159.58735 120.49316 470.26915
419.7634 120.77789 470.09594
116.98667 469.41389 470.03489
117.00907 469.41391 470.03487
117.09435 469.414 470.03481
117.41915 469.41436 470.0346
118.65606 469.41571 470.03378
123.36662 469.42087 470.03064
141.30586 469.4405 470.0187
209.62395 469.51527 469.97321
469.8 469.8 469.8
