site/assets/luts/upstream-urnaswfociotransformid10ocioutilityap0-to-gamma22-encoded-ap110--c975a29b6.cube
# LUTr-Schema-Version: 2
# LUTr-ID: upstream-urnaswfociotransformid10ocioutilityap0-to-gamma22-encoded-ap110--c975a29b6
# LUTr-Title: OCIO.Utility.AP0 to Gamma2.2 Encoded AP1
# LUTr-Collection: OCIO ACES
# LUTr-Collection-ID: aswf-opencolorio-config-aces
# LUTr-Source: https://github.com/AcademySoftwareFoundation/OpenColorIO-Config-ACES
# LUTr-Retrieved: 2026-07-27
# LUTr-Source-File: submissions/aswf-opencolorio-config-aces/opencolorio_config_aces/clf/transforms/ocio/utility/OCIO.Utility.AP0_to_Gamma2.2_Encoded_AP1.clf
# LUTr-Source-Format: CLF
# LUTr-Source-SHA256: 3455b6b69ce7497abf8f75e3c50d871729aa12f2570954e76e36265975d81cc5
# LUTr-License: BSD-3-Clause
# LUTr-License-URL: https://github.com/AcademySoftwareFoundation/OpenColorIO-Config-ACES/blob/main/LICENSE
# LUTr-License-Basis: repo-license-file
# LUTr-Transform-Class: color-space-conversion
# LUTr-Tags: technical, aces, ocio, clf, color-management, cube
# LUTr-Input-Color-Space: aces2065-1
# LUTr-Input-Gamut: aces-ap0
# LUTr-Input-Transfer: linear
# LUTr-Output-Color-Space:
# LUTr-Output-Gamut: aces-ap1
# LUTr-Output-Transfer: gamma22
# LUTr-Color-Space-Confidence: descriptor-only
# LUTr-Domain-Normalized: true
# LUTr-Shaper: none
# LUTr-Original-Grid: analytic
# LUTr-Conversion-Grid: 33x33x33
# LUTr-Conversion-Interpolation: linear
# LUTr-Conversion-Method: CLF operations evaluated as float and sampled to 33x33x33 3D CUBE
# LUTr-Conversion-Tool: LUTr scripts/convert-all-to-cube.mjs 2.0.0
# LUTr-Conversion-Date: 2026-07-27
# LUTr-Conversion-Warning: A sampled 3D CUBE is bounded to DOMAIN_MIN/MAX 0..1 and cannot preserve CLF values outside its input domain.
# LUTr-Upstream-ID: urn:aswf:ocio:transformId:1.0:OCIO:Utility:AP0_to_Gamma2.2_Encoded_AP1:1.0
# LUTr-Upstream-Name: AP0 to Gamma 2.2 Encoded AP1
# LUTr-Upstream-Input-Descriptor: ACES2065-1
# LUTr-Upstream-Output-Descriptor: 2.2 gamma-corrected AP1 primaries, ACES ~=D60 white point
# LUTr-Upstream-Operations: Matrix -> Exponent
# LUTr-Upstream-Domain: unbounded
# LUTr-Note: Preserve this metadata and the upstream license notices when redistributing.
TITLE "OCIO.Utility.AP0 to Gamma2.2 Encoded AP1"
LUT_3D_SIZE 5
DOMAIN_MIN 0 0 0
DOMAIN_MAX 1 1 1
0 0 0
0.63078494 -0.019138443 0.060373517
0.86439676 -0.038276887 0.082732908
1.0393327 -0.05741533 0.099476334
1.184527 -0.076553773 0.11337312
-0.059127687 0.57329513 -0.0015081124
0.58179304 0.55602339 0.03355194
0.83164197 0.53808249 0.067413252
1.0132813 0.51939333 0.087715615
1.1623442 0.49986006 0.10351658
-0.11825537 0.78561554 -0.0030162249
0.52726538 0.77388995 -0.00093718779
0.79726067 0.76194719 0.045977934
0.98640009 0.74977547 0.073665061
1.1396414 0.73736187 0.092379816
-0.17738306 0.94460784 -0.0045243373
0.46494794 0.93523712 -0.0024453002
0.76100079 0.92575235 -0.00036626313
0.95860971 0.91614951 0.055282915
1.1163825 0.90642434 0.079336999
-0.23651075 1.076569 -0.0060324498
0.39050237 1.0685712 -0.0039534127
0.72253863 1.0605009 -0.0018743756
0.92981717 1.0523562 0.021047391
1.0925269 1.0441351 0.063005907
-0.053732142 -0.024918982 0.53196742
0.58646825 -0.044057425 0.53397833
0.83469502 -0.063195868 0.5359802
1.0156918 -0.082334312 0.53797313
1.1643895 -0.10147276 0.53995725
-0.11285983 0.55067843 0.530503
0.53252054 0.53252054 0.53252054
0.8004717 0.51358741 0.53452896
0.98888947 0.4937772 0.53652836
1.1417356 0.47296396 0.53851887
-0.17198752 0.7703062 0.52903371
0.47104779 0.75829557 0.53105795
0.76439539 0.7460522 0.53307298
0.96118569 0.73356284 0.53507891
1.118529 0.72081295 0.53707586
-0.2311152 0.93238456 0.5275595
0.3979959 0.92286456 0.52959051
0.72615006 0.91322524 0.53161221
0.93248886 0.90346224 0.53362473
1.0947297 0.89357097 0.53562818
-0.29024289 1.0661414 0.52608034
0.30359176 1.0580488 0.52811817
0.68531964 1.0498812 0.53014661
0.90269099 1.0416367 0.53216578
1.0702928 1.0333131 0.5341758
-0.10746428 -0.049837963 0.72898208
0.5377142 -0.068976407 0.73036147
0.80366734 -0.08811485 0.73173773
0.99137135 -0.10725329 0.7331109
1.1438251 -0.12639174 0.73448099
-0.16659197 0.526888 0.72797952
0.47705429 0.50770165 0.72936118
0.767772 0.48760306 0.73073971
0.96375341 0.46645745 0.73211513
1.1206706 0.44409372 0.73348745
-0.22571966 0.75462272 0.7269753
0.40532382 0.74230651 0.72835925
0.72974005 0.72974005 0.72974005
0.93515141 0.71690839 0.73111773
1.0969272 0.70379502 0.73249229
-0.28484734 0.91996589 0.72596942
0.3136449 0.91028968 0.72735566
0.68916627 0.90048844 0.72873875
0.905459 0.89055748 0.73011869
1.0725504 0.88049181 0.7314955
-0.34397503 1.0555899 0.72496186
0.16459426 1.0473993 0.72635041
0.6455008 1.0391311 0.72773579
0.87454946 1.0307832 0.729118
1.04749 1.0223534 0.73049708
-0.16119643 -0.074756945 0.87651294
0.48297139 -0.093895388 0.87761906
0.77113089 -0.11303383 0.8787235
0.96631295 -0.13217227 0.87982629
1.1228073 -0.15131072 0.88092741
-0.22032411 0.50173285 0.87570953
0.41249612 0.48133366 0.87681686
0.73330898 0.45984016 0.87792252
0.93780489 0.43706763 0.8790265
1.0991194 0.41277355 0.88012883
-0.2794518 0.73853799 0.87490523
0.32332548 0.72589308 0.87601378
0.6929873 0.71297815 0.87712065
0.90821689 0.69977618 0.87822585
1.0748024 0.68626835 0.87932938
-0.33857949 0.90734272 0.87410004
0.18451212 0.89750281 0.87520981
0.64963196 0.8875317 0.8763179
0.87742431 0.87742431 0.87742431
1.0498066 0.86717525 0.87852905
-0.39770717 1.0449102 0.87329396
-0.034847345 1.0366182 0.87440496
0.60249045 1.0282458 0.87551427
0.84527689 1.0197908 0.8766219
1.0240754 1.0112508 0.87772785
-0.21492857 -0.099675926 0.99896131
0.41952179 -0.11881437 0.99990697
0.73685719 -0.13795281 1.0008516
0.94044938 -0.15709126 1.0017951
1.1013063 -0.1762297 1.0027375
-0.27405626 0.4749647 0.99827466
0.33267015 0.45310658 0.9992211
0.69678322 0.42990331 1.0001665
0.91096477 0.40508998 1.0011108
1.0770487 0.37830299 1.002054
-0.33318394 0.72202148 0.99758745
0.20213338 0.70902173 0.99853467
0.65373182 0.69572946 0.99948082
0.88028791 0.68212523 1.0004259
1.0521171 0.66818734 1.0013699
-0.39231163 0.89450521 0.99689967
-0.0294518 0.88449349 0.99784768
0.60697518 0.8743439 0.9987946
0.84827116 0.86405092 0.99974045
1.0264555 0.85360865 1.0006852
-0.45143932 1.034098 0.99621132
-0.088579487 1.0257009 0.99716011
0.5554359 1.0172205 0.99810782
0.81473412 1.0086543 0.99905445
1 1 1
