site/assets/luts/upstream-urnaswfociotransformid10panasonicinputvlog-curve-to-linear10--97d535e18.cube
# LUTr-Schema-Version: 2
# LUTr-ID: upstream-urnaswfociotransformid10panasonicinputvlog-curve-to-linear10--97d535e18
# LUTr-Title: Panasonic.Input.VLog-Curve
# LUTr-Collection: OCIO ACES
# LUTr-Collection-ID: aswf-opencolorio-config-aces
# LUTr-Source: https://github.com/AcademySoftwareFoundation/OpenColorIO-Config-ACES
# LUTr-Retrieved: 2026-07-27
# LUTr-Source-File: submissions/aswf-opencolorio-config-aces/opencolorio_config_aces/clf/transforms/panasonic/input/Panasonic.Input.VLog-Curve.clf
# LUTr-Source-Format: CLF
# LUTr-Source-SHA256: 394949b8a20f3b1bf928d03a7911330df94c3f01619e67be612e48c718a56832
# LUTr-License: BSD-3-Clause
# LUTr-License-URL: https://github.com/AcademySoftwareFoundation/OpenColorIO-Config-ACES/blob/main/LICENSE
# LUTr-License-Basis: repo-license-file
# LUTr-Transform-Class: color-space-conversion
# LUTr-Tags: technical, aces, ocio, clf, color-management, cube
# LUTr-Input-Color-Space: 
# LUTr-Input-Gamut: unspecified
# LUTr-Input-Transfer: panasonic-v-log
# LUTr-Output-Color-Space: 
# LUTr-Output-Gamut: unspecified
# LUTr-Output-Transfer: linear
# LUTr-Color-Space-Confidence: descriptor-only
# LUTr-Domain-Normalized: true
# LUTr-Shaper: none
# LUTr-Original-Grid: analytic
# LUTr-Conversion-Grid: 33x33x33
# LUTr-Conversion-Interpolation: linear
# LUTr-Conversion-Method: CLF operations evaluated as float and sampled to 33x33x33 3D CUBE
# LUTr-Conversion-Tool: LUTr scripts/convert-all-to-cube.mjs 2.0.0
# LUTr-Conversion-Date: 2026-07-27
# LUTr-Conversion-Warning: A sampled 3D CUBE is bounded to DOMAIN_MIN/MAX 0..1 and cannot preserve CLF values outside its input domain.
# LUTr-Upstream-ID: urn:aswf:ocio:transformId:1.0:Panasonic:Input:VLog-Curve_to_Linear:1.0
# LUTr-Upstream-Name: Panasonic V-Log Log to Linear Curve
# LUTr-Upstream-Input-Descriptor: Panasonic V-Log Log (arbitrary primaries)
# LUTr-Upstream-Output-Descriptor: Panasonic V-Log Linear (arbitrary primaries)
# LUTr-Upstream-Operations: Log
# LUTr-Upstream-Domain: unbounded
# LUTr-Note: Preserve this metadata and the upstream license notices when redistributing.
TITLE "Panasonic.Input.VLog-Curve"
LUT_3D_SIZE 33
DOMAIN_MIN 0 0 0
DOMAIN_MAX 1 1 1
-0.022321312 -0.022321312 -0.022321312
-0.016740965 -0.022321312 -0.022321312
-0.011160619 -0.022321312 -0.022321312
-0.0055802722 -0.022321312 -0.022321312
7.4407374e-8 -0.022321312 -0.022321312
0.005580421 -0.022321312 -0.022321312
0.011197491 -0.022321312 -0.022321312
0.018113844 -0.022321312 -0.022321312
0.027430697 -0.022321312 -0.022321312
0.039981205 -0.022321312 -0.022321312
0.056887693 -0.022321312 -0.022321312
0.079662017 -0.022321312 -0.022321312
0.11034076 -0.022321312 -0.022321312
0.15166736 -0.022321312 -0.022321312
0.20733743 -0.022321312 -0.022321312
0.28232924 -0.022321312 -0.022321312
0.3833489 -0.022321312 -0.022321312
0.51943006 -0.022321312 -0.022321312
0.70274171 -0.022321312 -0.022321312
0.94967644 -0.022321312 -0.022321312
1.2823163 -0.022321312 -0.022321312
1.7304074 -0.022321312 -0.022321312
2.3340202 -0.022321312 -0.022321312
3.1471324 -0.022321312 -0.022321312
4.2424564 -0.022321312 -0.022321312
5.717941 -0.022321312 -0.022321312
7.7055308 -0.022321312 -0.022321312
10.382965 -0.022321312 -0.022321312
13.989673 -0.022321312 -0.022321312
18.848182 -0.022321312 -0.022321312
25.392963 -0.022321312 -0.022321312
34.20928 -0.022321312 -0.022321312
46.085528 -0.022321312 -0.022321312
-0.022321312 -0.016740965 -0.022321312
-0.016740965 -0.016740965 -0.022321312
-0.011160619 -0.016740965 -0.022321312
-0.0055802722 -0.016740965 -0.022321312
7.4407374e-8 -0.016740965 -0.022321312
0.005580421 -0.016740965 -0.022321312
0.011197491 -0.016740965 -0.022321312
0.018113844 -0.016740965 -0.022321312
0.027430697 -0.016740965 -0.022321312
0.039981205 -0.016740965 -0.022321312
0.056887693 -0.016740965 -0.022321312
0.079662017 -0.016740965 -0.022321312
0.11034076 -0.016740965 -0.022321312
0.15166736 -0.016740965 -0.022321312
0.20733743 -0.016740965 -0.022321312
0.28232924 -0.016740965 -0.022321312
0.3833489 -0.016740965 -0.022321312
0.51943006 -0.016740965 -0.022321312
0.70274171 -0.016740965 -0.022321312
0.94967644 -0.016740965 -0.022321312
1.2823163 -0.016740965 -0.022321312
1.7304074 -0.016740965 -0.022321312
2.3340202 -0.016740965 -0.022321312
3.1471324 -0.016740965 -0.022321312
4.2424564 -0.016740965 -0.022321312
5.717941 -0.016740965 -0.022321312
7.7055308 -0.016740965 -0.022321312
10.382965 -0.016740965 -0.022321312
13.989673 -0.016740965 -0.022321312
18.848182 -0.016740965 -0.022321312
25.392963 -0.016740965 -0.022321312
34.20928 -0.016740965 -0.022321312
46.085528 -0.016740965 -0.022321312
-0.022321312 -0.011160619 -0.022321312
-0.016740965 -0.011160619 -0.022321312
-0.011160619 -0.011160619 -0.022321312
-0.0055802722 -0.011160619 -0.022321312
7.4407374e-8 -0.011160619 -0.022321312
0.005580421 -0.011160619 -0.022321312
0.011197491 -0.011160619 -0.022321312
0.018113844 -0.011160619 -0.022321312
0.027430697 -0.011160619 -0.022321312
0.039981205 -0.011160619 -0.022321312
0.056887693 -0.011160619 -0.022321312
0.079662017 -0.011160619 -0.022321312
0.11034076 -0.011160619 -0.022321312
0.15166736 -0.011160619 -0.022321312
0.20733743 -0.011160619 -0.022321312
0.28232924 -0.011160619 -0.022321312
0.3833489 -0.011160619 -0.022321312
0.51943006 -0.011160619 -0.022321312
0.70274171 -0.011160619 -0.022321312
0.94967644 -0.011160619 -0.022321312
1.2823163 -0.011160619 -0.022321312
1.7304074 -0.011160619 -0.022321312
2.3340202 -0.011160619 -0.022321312
3.1471324 -0.011160619 -0.022321312
4.2424564 -0.011160619 -0.022321312
5.717941 -0.011160619 -0.022321312
7.7055308 -0.011160619 -0.022321312
10.382965 -0.011160619 -0.022321312
13.989673 -0.011160619 -0.022321312
18.848182 -0.011160619 -0.022321312
25.392963 -0.011160619 -0.022321312
34.20928 -0.011160619 -0.022321312
46.085528 -0.011160619 -0.022321312
-0.022321312 -0.0055802722 -0.022321312
-0.016740965 -0.0055802722 -0.022321312
-0.011160619 -0.0055802722 -0.022321312
-0.0055802722 -0.0055802722 -0.022321312
7.4407374e-8 -0.0055802722 -0.022321312
0.005580421 -0.0055802722 -0.022321312
0.011197491 -0.0055802722 -0.022321312
0.018113844 -0.0055802722 -0.022321312
0.027430697 -0.0055802722 -0.022321312
0.039981205 -0.0055802722 -0.022321312
0.056887693 -0.0055802722 -0.022321312
0.079662017 -0.0055802722 -0.022321312
0.11034076 -0.0055802722 -0.022321312
0.15166736 -0.0055802722 -0.022321312
0.20733743 -0.0055802722 -0.022321312
0.28232924 -0.0055802722 -0.022321312
0.3833489 -0.0055802722 -0.022321312
0.51943006 -0.0055802722 -0.022321312
0.70274171 -0.0055802722 -0.022321312
0.94967644 -0.0055802722 -0.022321312
1.2823163 -0.0055802722 -0.022321312
1.7304074 -0.0055802722 -0.022321312
2.3340202 -0.0055802722 -0.022321312
3.1471324 -0.0055802722 -0.022321312
4.2424564 -0.0055802722 -0.022321312
5.717941 -0.0055802722 -0.022321312
7.7055308 -0.0055802722 -0.022321312
10.382965 -0.0055802722 -0.022321312
13.989673 -0.0055802722 -0.022321312
18.848182 -0.0055802722 -0.022321312
25.392963 -0.0055802722 -0.022321312
34.20928 -0.0055802722 -0.022321312
46.085528 -0.0055802722 -0.022321312
-0.022321312 7.4407374e-8 -0.022321312
-0.016740965 7.4407374e-8 -0.022321312
-0.011160619 7.4407374e-8 -0.022321312
-0.0055802722 7.4407374e-8 -0.022321312
7.4407374e-8 7.4407374e-8 -0.022321312
0.005580421 7.4407374e-8 -0.022321312
0.011197491 7.4407374e-8 -0.022321312
0.018113844 7.4407374e-8 -0.022321312
0.027430697 7.4407374e-8 -0.022321312
0.039981205 7.4407374e-8 -0.022321312
0.056887693 7.4407374e-8 -0.022321312
0.079662017 7.4407374e-8 -0.022321312
0.11034076 7.4407374e-8 -0.022321312
0.15166736 7.4407374e-8 -0.022321312
0.20733743 7.4407374e-8 -0.022321312
0.28232924 7.4407374e-8 -0.022321312
0.3833489 7.4407374e-8 -0.022321312
0.51943006 7.4407374e-8 -0.022321312
0.70274171 7.4407374e-8 -0.022321312
0.94967644 7.4407374e-8 -0.022321312
1.2823163 7.4407374e-8 -0.022321312
1.7304074 7.4407374e-8 -0.022321312
2.3340202 7.4407374e-8 -0.022321312
3.1471324 7.4407374e-8 -0.022321312
4.2424564 7.4407374e-8 -0.022321312
5.717941 7.4407374e-8 -0.022321312
7.7055308 7.4407374e-8 -0.022321312
10.382965 7.4407374e-8 -0.022321312
13.989673 7.4407374e-8 -0.022321312
18.848182 7.4407374e-8 -0.022321312
25.392963 7.4407374e-8 -0.022321312
34.20928 7.4407374e-8 -0.022321312
46.085528 7.4407374e-8 -0.022321312
-0.022321312 0.005580421 -0.022321312
-0.016740965 0.005580421 -0.022321312
-0.011160619 0.005580421 -0.022321312
-0.0055802722 0.005580421 -0.022321312
7.4407374e-8 0.005580421 -0.022321312
0.005580421 0.005580421 -0.022321312
0.011197491 0.005580421 -0.022321312
0.018113844 0.005580421 -0.022321312
0.027430697 0.005580421 -0.022321312
0.039981205 0.005580421 -0.022321312
0.056887693 0.005580421 -0.022321312
0.079662017 0.005580421 -0.022321312
0.11034076 0.005580421 -0.022321312
0.15166736 0.005580421 -0.022321312
0.20733743 0.005580421 -0.022321312
0.28232924 0.005580421 -0.022321312
0.3833489 0.005580421 -0.022321312
0.51943006 0.005580421 -0.022321312
0.70274171 0.005580421 -0.022321312
0.94967644 0.005580421 -0.022321312
1.2823163 0.005580421 -0.022321312
1.7304074 0.005580421 -0.022321312
2.3340202 0.005580421 -0.022321312
3.1471324 0.005580421 -0.022321312
4.2424564 0.005580421 -0.022321312
5.717941 0.005580421 -0.022321312
7.7055308 0.005580421 -0.022321312
10.382965 0.005580421 -0.022321312
13.989673 0.005580421 -0.022321312
18.848182 0.005580421 -0.022321312
25.392963 0.005580421 -0.022321312
34.20928 0.005580421 -0.022321312
46.085528 0.005580421 -0.022321312
-0.022321312 0.011197491 -0.022321312
-0.016740965 0.011197491 -0.022321312
-0.011160619 0.011197491 -0.022321312
-0.0055802722 0.011197491 -0.022321312
7.4407374e-8 0.011197491 -0.022321312
0.005580421 0.011197491 -0.022321312
0.011197491 0.011197491 -0.022321312
0.018113844 0.011197491 -0.022321312
0.027430697 0.011197491 -0.022321312
0.039981205 0.011197491 -0.022321312
0.056887693 0.011197491 -0.022321312
0.079662017 0.011197491 -0.022321312
0.11034076 0.011197491 -0.022321312
0.15166736 0.011197491 -0.022321312
0.20733743 0.011197491 -0.022321312
0.28232924 0.011197491 -0.022321312
0.3833489 0.011197491 -0.022321312
0.51943006 0.011197491 -0.022321312
0.70274171 0.011197491 -0.022321312
0.94967644 0.011197491 -0.022321312
1.2823163 0.011197491 -0.022321312
1.7304074 0.011197491 -0.022321312
2.3340202 0.011197491 -0.022321312
3.1471324 0.011197491 -0.022321312
4.2424564 0.011197491 -0.022321312
5.717941 0.011197491 -0.022321312
7.7055308 0.011197491 -0.022321312
10.382965 0.011197491 -0.022321312
13.989673 0.011197491 -0.022321312
18.848182 0.011197491 -0.022321312
25.392963 0.011197491 -0.022321312
34.20928 0.011197491 -0.022321312
46.085528 0.011197491 -0.022321312
-0.022321312 0.018113844 -0.022321312
-0.016740965 0.018113844 -0.022321312
-0.011160619 0.018113844 -0.022321312
-0.0055802722 0.018113844 -0.022321312
7.4407374e-8 0.018113844 -0.022321312
0.005580421 0.018113844 -0.022321312
0.011197491 0.018113844 -0.022321312
0.018113844 0.018113844 -0.022321312
0.027430697 0.018113844 -0.022321312
0.039981205 0.018113844 -0.022321312
0.056887693 0.018113844 -0.022321312
0.079662017 0.018113844 -0.022321312
0.11034076 0.018113844 -0.022321312
0.15166736 0.018113844 -0.022321312
0.20733743 0.018113844 -0.022321312
0.28232924 0.018113844 -0.022321312
0.3833489 0.018113844 -0.022321312
0.51943006 0.018113844 -0.022321312
0.70274171 0.018113844 -0.022321312
0.94967644 0.018113844 -0.022321312
1.2823163 0.018113844 -0.022321312
1.7304074 0.018113844 -0.022321312
2.3340202 0.018113844 -0.022321312
3.1471324 0.018113844 -0.022321312
4.2424564 0.018113844 -0.022321312
5.717941 0.018113844 -0.022321312
7.7055308 0.018113844 -0.022321312
10.382965 0.018113844 -0.022321312
13.989673 0.018113844 -0.022321312
18.848182 0.018113844 -0.022321312
25.392963 0.018113844 -0.022321312
34.20928 0.018113844 -0.022321312
46.085528 0.018113844 -0.022321312
-0.022321312 0.027430697 -0.022321312
-0.016740965 0.027430697 -0.022321312
-0.011160619 0.027430697 -0.022321312
-0.0055802722 0.027430697 -0.022321312
7.4407374e-8 0.027430697 -0.022321312
0.005580421 0.027430697 -0.022321312
0.011197491 0.027430697 -0.022321312
0.018113844 0.027430697 -0.022321312
0.027430697 0.027430697 -0.022321312
0.039981205 0.027430697 -0.022321312
0.056887693 0.027430697 -0.022321312
0.079662017 0.027430697 -0.022321312
0.11034076 0.027430697 -0.022321312
0.15166736 0.027430697 -0.022321312
0.20733743 0.027430697 -0.022321312
0.28232924 0.027430697 -0.022321312
0.3833489 0.027430697 -0.022321312
0.51943006 0.027430697 -0.022321312
0.70274171 0.027430697 -0.022321312
0.94967644 0.027430697 -0.022321312
1.2823163 0.027430697 -0.022321312
1.7304074 0.027430697 -0.022321312
2.3340202 0.027430697 -0.022321312
3.1471324 0.027430697 -0.022321312
4.2424564 0.027430697 -0.022321312
5.717941 0.027430697 -0.022321312
7.7055308 0.027430697 -0.022321312
10.382965 0.027430697 -0.022321312
13.989673 0.027430697 -0.022321312
18.848182 0.027430697 -0.022321312
25.392963 0.027430697 -0.022321312
34.20928 0.027430697 -0.022321312
46.085528 0.027430697 -0.022321312
-0.022321312 0.039981205 -0.022321312
-0.016740965 0.039981205 -0.022321312
-0.011160619 0.039981205 -0.022321312
-0.0055802722 0.039981205 -0.022321312
7.4407374e-8 0.039981205 -0.022321312
0.005580421 0.039981205 -0.022321312
0.011197491 0.039981205 -0.022321312
0.018113844 0.039981205 -0.022321312
0.027430697 0.039981205 -0.022321312
0.039981205 0.039981205 -0.022321312
0.056887693 0.039981205 -0.022321312
0.079662017 0.039981205 -0.022321312
0.11034076 0.039981205 -0.022321312
0.15166736 0.039981205 -0.022321312
0.20733743 0.039981205 -0.022321312
0.28232924 0.039981205 -0.022321312
0.3833489 0.039981205 -0.022321312
0.51943006 0.039981205 -0.022321312
0.70274171 0.039981205 -0.022321312
0.94967644 0.039981205 -0.022321312
1.2823163 0.039981205 -0.022321312
1.7304074 0.039981205 -0.022321312
2.3340202 0.039981205 -0.022321312
3.1471324 0.039981205 -0.022321312
4.2424564 0.039981205 -0.022321312
5.717941 0.039981205 -0.022321312
7.7055308 0.039981205 -0.022321312
10.382965 0.039981205 -0.022321312
13.989673 0.039981205 -0.022321312
18.848182 0.039981205 -0.022321312
25.392963 0.039981205 -0.022321312
34.20928 0.039981205 -0.022321312
46.085528 0.039981205 -0.022321312
-0.022321312 0.056887693 -0.022321312
-0.016740965 0.056887693 -0.022321312
-0.011160619 0.056887693 -0.022321312
-0.0055802722 0.056887693 -0.022321312
7.4407374e-8 0.056887693 -0.022321312
0.005580421 0.056887693 -0.022321312
0.011197491 0.056887693 -0.022321312
0.018113844 0.056887693 -0.022321312
0.027430697 0.056887693 -0.022321312
0.039981205 0.056887693 -0.022321312
0.056887693 0.056887693 -0.022321312
0.079662017 0.056887693 -0.022321312
0.11034076 0.056887693 -0.022321312
0.15166736 0.056887693 -0.022321312
0.20733743 0.056887693 -0.022321312
0.28232924 0.056887693 -0.022321312
0.3833489 0.056887693 -0.022321312
0.51943006 0.056887693 -0.022321312
0.70274171 0.056887693 -0.022321312
0.94967644 0.056887693 -0.022321312
1.2823163 0.056887693 -0.022321312
1.7304074 0.056887693 -0.022321312
2.3340202 0.056887693 -0.022321312
3.1471324 0.056887693 -0.022321312
4.2424564 0.056887693 -0.022321312
5.717941 0.056887693 -0.022321312
7.7055308 0.056887693 -0.022321312
10.382965 0.056887693 -0.022321312
13.989673 0.056887693 -0.022321312
18.848182 0.056887693 -0.022321312
25.392963 0.056887693 -0.022321312
34.20928 0.056887693 -0.022321312
46.085528 0.056887693 -0.022321312
-0.022321312 0.079662017 -0.022321312
-0.016740965 0.079662017 -0.022321312
-0.011160619 0.079662017 -0.022321312
-0.0055802722 0.079662017 -0.022321312
7.4407374e-8 0.079662017 -0.022321312
0.005580421 0.079662017 -0.022321312
0.011197491 0.079662017 -0.022321312
0.018113844 0.079662017 -0.022321312
0.027430697 0.079662017 -0.022321312
0.039981205 0.079662017 -0.022321312
0.056887693 0.079662017 -0.022321312
0.079662017 0.079662017 -0.022321312
0.11034076 0.079662017 -0.022321312
0.15166736 0.079662017 -0.022321312
0.20733743 0.079662017 -0.022321312
0.28232924 0.079662017 -0.022321312
0.3833489 0.079662017 -0.022321312
0.51943006 0.079662017 -0.022321312
0.70274171 0.079662017 -0.022321312
0.94967644 0.079662017 -0.022321312
1.2823163 0.079662017 -0.022321312
1.7304074 0.079662017 -0.022321312
2.3340202 0.079662017 -0.022321312
3.1471324 0.079662017 -0.022321312
4.2424564 0.079662017 -0.022321312
5.717941 0.079662017 -0.022321312
7.7055308 0.079662017 -0.022321312
10.382965 0.079662017 -0.022321312
13.989673 0.079662017 -0.022321312
18.848182 0.079662017 -0.022321312
25.392963 0.079662017 -0.022321312
34.20928 0.079662017 -0.022321312
46.085528 0.079662017 -0.022321312
-0.022321312 0.11034076 -0.022321312
-0.016740965 0.11034076 -0.022321312
-0.011160619 0.11034076 -0.022321312
-0.0055802722 0.11034076 -0.022321312
7.4407374e-8 0.11034076 -0.022321312
0.005580421 0.11034076 -0.022321312
0.011197491 0.11034076 -0.022321312
0.018113844 0.11034076 -0.022321312
0.027430697 0.11034076 -0.022321312
0.039981205 0.11034076 -0.022321312
0.056887693 0.11034076 -0.022321312
0.079662017 0.11034076 -0.022321312
0.11034076 0.11034076 -0.022321312
0.15166736 0.11034076 -0.022321312
0.20733743 0.11034076 -0.022321312
0.28232924 0.11034076 -0.022321312
0.3833489 0.11034076 -0.022321312
0.51943006 0.11034076 -0.022321312
0.70274171 0.11034076 -0.022321312
0.94967644 0.11034076 -0.022321312
1.2823163 0.11034076 -0.022321312
1.7304074 0.11034076 -0.022321312
2.3340202 0.11034076 -0.022321312
3.1471324 0.11034076 -0.022321312
4.2424564 0.11034076 -0.022321312
5.717941 0.11034076 -0.022321312
7.7055308 0.11034076 -0.022321312
10.382965 0.11034076 -0.022321312
13.989673 0.11034076 -0.022321312
18.848182 0.11034076 -0.022321312
25.392963 0.11034076 -0.022321312
34.20928 0.11034076 -0.022321312
46.085528 0.11034076 -0.022321312
-0.022321312 0.15166736 -0.022321312
-0.016740965 0.15166736 -0.022321312
-0.011160619 0.15166736 -0.022321312
-0.0055802722 0.15166736 -0.022321312
7.4407374e-8 0.15166736 -0.022321312
0.005580421 0.15166736 -0.022321312
0.011197491 0.15166736 -0.022321312
0.018113844 0.15166736 -0.022321312
0.027430697 0.15166736 -0.022321312
0.039981205 0.15166736 -0.022321312
0.056887693 0.15166736 -0.022321312
0.079662017 0.15166736 -0.022321312
0.11034076 0.15166736 -0.022321312
0.15166736 0.15166736 -0.022321312
0.20733743 0.15166736 -0.022321312
0.28232924 0.15166736 -0.022321312
0.3833489 0.15166736 -0.022321312
0.51943006 0.15166736 -0.022321312
0.70274171 0.15166736 -0.022321312
0.94967644 0.15166736 -0.022321312
1.2823163 0.15166736 -0.022321312
1.7304074 0.15166736 -0.022321312
2.3340202 0.15166736 -0.022321312
3.1471324 0.15166736 -0.022321312
4.2424564 0.15166736 -0.022321312
5.717941 0.15166736 -0.022321312
7.7055308 0.15166736 -0.022321312
10.382965 0.15166736 -0.022321312
13.989673 0.15166736 -0.022321312
18.848182 0.15166736 -0.022321312
25.392963 0.15166736 -0.022321312
34.20928 0.15166736 -0.022321312
46.085528 0.15166736 -0.022321312
-0.022321312 0.20733743 -0.022321312
-0.016740965 0.20733743 -0.022321312
-0.011160619 0.20733743 -0.022321312
-0.0055802722 0.20733743 -0.022321312
7.4407374e-8 0.20733743 -0.022321312
0.005580421 0.20733743 -0.022321312
0.011197491 0.20733743 -0.022321312
0.018113844 0.20733743 -0.022321312
0.027430697 0.20733743 -0.022321312
0.039981205 0.20733743 -0.022321312
0.056887693 0.20733743 -0.022321312
0.079662017 0.20733743 -0.022321312
0.11034076 0.20733743 -0.022321312
0.15166736 0.20733743 -0.022321312
0.20733743 0.20733743 -0.022321312
0.28232924 0.20733743 -0.022321312
0.3833489 0.20733743 -0.022321312
0.51943006 0.20733743 -0.022321312
0.70274171 0.20733743 -0.022321312
0.94967644 0.20733743 -0.022321312
1.2823163 0.20733743 -0.022321312
1.7304074 0.20733743 -0.022321312
2.3340202 0.20733743 -0.022321312
3.1471324 0.20733743 -0.022321312
4.2424564 0.20733743 -0.022321312
5.717941 0.20733743 -0.022321312
7.7055308 0.20733743 -0.022321312
10.382965 0.20733743 -0.022321312
13.989673 0.20733743 -0.022321312
18.848182 0.20733743 -0.022321312
25.392963 0.20733743 -0.022321312
34.20928 0.20733743 -0.022321312
46.085528 0.20733743 -0.022321312
-0.022321312 0.28232924 -0.022321312
-0.016740965 0.28232924 -0.022321312
-0.011160619 0.28232924 -0.022321312
-0.0055802722 0.28232924 -0.022321312
7.4407374e-8 0.28232924 -0.022321312
0.005580421 0.28232924 -0.022321312
0.011197491 0.28232924 -0.022321312
0.018113844 0.28232924 -0.022321312
0.027430697 0.28232924 -0.022321312
0.039981205 0.28232924 -0.022321312
0.056887693 0.28232924 -0.022321312
0.079662017 0.28232924 -0.022321312
0.11034076 0.28232924 -0.022321312
0.15166736 0.28232924 -0.022321312
0.20733743 0.28232924 -0.022321312
0.28232924 0.28232924 -0.022321312
0.3833489 0.28232924 -0.022321312
0.51943006 0.28232924 -0.022321312
0.70274171 0.28232924 -0.022321312
0.94967644 0.28232924 -0.022321312
1.2823163 0.28232924 -0.022321312
1.7304074 0.28232924 -0.022321312
2.3340202 0.28232924 -0.022321312
3.1471324 0.28232924 -0.022321312
4.2424564 0.28232924 -0.022321312
5.717941 0.28232924 -0.022321312
7.7055308 0.28232924 -0.022321312
10.382965 0.28232924 -0.022321312
13.989673 0.28232924 -0.022321312
18.848182 0.28232924 -0.022321312
25.392963 0.28232924 -0.022321312
34.20928 0.28232924 -0.022321312
46.085528 0.28232924 -0.022321312
-0.022321312 0.3833489 -0.022321312
-0.016740965 0.3833489 -0.022321312
-0.011160619 0.3833489 -0.022321312
-0.0055802722 0.3833489 -0.022321312
7.4407374e-8 0.3833489 -0.022321312
0.005580421 0.3833489 -0.022321312
0.011197491 0.3833489 -0.022321312
0.018113844 0.3833489 -0.022321312
0.027430697 0.3833489 -0.022321312
0.039981205 0.3833489 -0.022321312
0.056887693 0.3833489 -0.022321312
0.079662017 0.3833489 -0.022321312
0.11034076 0.3833489 -0.022321312
0.15166736 0.3833489 -0.022321312
0.20733743 0.3833489 -0.022321312
0.28232924 0.3833489 -0.022321312
0.3833489 0.3833489 -0.022321312
0.51943006 0.3833489 -0.022321312
0.70274171 0.3833489 -0.022321312
0.94967644 0.3833489 -0.022321312
1.2823163 0.3833489 -0.022321312
1.7304074 0.3833489 -0.022321312
2.3340202 0.3833489 -0.022321312
3.1471324 0.3833489 -0.022321312
4.2424564 0.3833489 -0.022321312
5.717941 0.3833489 -0.022321312
7.7055308 0.3833489 -0.022321312
10.382965 0.3833489 -0.022321312
13.989673 0.3833489 -0.022321312
18.848182 0.3833489 -0.022321312
25.392963 0.3833489 -0.022321312
34.20928 0.3833489 -0.022321312
46.085528 0.3833489 -0.022321312
-0.022321312 0.51943006 -0.022321312
-0.016740965 0.51943006 -0.022321312
-0.011160619 0.51943006 -0.022321312
-0.0055802722 0.51943006 -0.022321312
7.4407374e-8 0.51943006 -0.022321312
0.005580421 0.51943006 -0.022321312
0.011197491 0.51943006 -0.022321312
0.018113844 0.51943006 -0.022321312
0.027430697 0.51943006 -0.022321312
0.039981205 0.51943006 -0.022321312
0.056887693 0.51943006 -0.022321312
0.079662017 0.51943006 -0.022321312
0.11034076 0.51943006 -0.022321312
0.15166736 0.51943006 -0.022321312
0.20733743 0.51943006 -0.022321312
0.28232924 0.51943006 -0.022321312
0.3833489 0.51943006 -0.022321312
0.51943006 0.51943006 -0.022321312
0.70274171 0.51943006 -0.022321312
0.94967644 0.51943006 -0.022321312
1.2823163 0.51943006 -0.022321312
1.7304074 0.51943006 -0.022321312
2.3340202 0.51943006 -0.022321312
3.1471324 0.51943006 -0.022321312
4.2424564 0.51943006 -0.022321312
5.717941 0.51943006 -0.022321312
7.7055308 0.51943006 -0.022321312
10.382965 0.51943006 -0.022321312
13.989673 0.51943006 -0.022321312
18.848182 0.51943006 -0.022321312
25.392963 0.51943006 -0.022321312
34.20928 0.51943006 -0.022321312
46.085528 0.51943006 -0.022321312
-0.022321312 0.70274171 -0.022321312
-0.016740965 0.70274171 -0.022321312
-0.011160619 0.70274171 -0.022321312
-0.0055802722 0.70274171 -0.022321312
7.4407374e-8 0.70274171 -0.022321312
0.005580421 0.70274171 -0.022321312
0.011197491 0.70274171 -0.022321312
0.018113844 0.70274171 -0.022321312
0.027430697 0.70274171 -0.022321312
0.039981205 0.70274171 -0.022321312
0.056887693 0.70274171 -0.022321312
0.079662017 0.70274171 -0.022321312
