site/assets/luts/upstream-urnaswfociotransformid10ituutilitylinear-to-rec709-curve10--2c2d6d136.cube
# LUTr-Schema-Version: 2
# LUTr-ID: upstream-urnaswfociotransformid10ituutilitylinear-to-rec709-curve10--2c2d6d136
# LUTr-Title: ITU.Utility.Rec709-Curve
# LUTr-Collection: OCIO ACES
# LUTr-Collection-ID: aswf-opencolorio-config-aces
# LUTr-Source: https://github.com/AcademySoftwareFoundation/OpenColorIO-Config-ACES
# LUTr-Retrieved: 2026-07-27
# LUTr-Source-File: submissions/aswf-opencolorio-config-aces/opencolorio_config_aces/clf/transforms/itu/utility/ITU.Utility.Rec709-Curve.clf
# LUTr-Source-Format: CLF
# LUTr-Source-SHA256: bda63d10db5fa39068bd9f7ef1fcf943b6a94f48d188256c7419e7bd1223f89c
# LUTr-License: BSD-3-Clause
# LUTr-License-URL: https://github.com/AcademySoftwareFoundation/OpenColorIO-Config-ACES/blob/main/LICENSE
# LUTr-License-Basis: repo-license-file
# LUTr-Transform-Class: color-space-conversion
# LUTr-Tags: technical, aces, ocio, clf, color-management, cube
# LUTr-Input-Color-Space: 
# LUTr-Input-Gamut: unspecified
# LUTr-Input-Transfer: linear
# LUTr-Output-Color-Space: 
# LUTr-Output-Gamut: unspecified
# LUTr-Output-Transfer: unspecified
# LUTr-Color-Space-Confidence: descriptor-only
# LUTr-Domain-Normalized: true
# LUTr-Shaper: none
# LUTr-Original-Grid: analytic
# LUTr-Conversion-Grid: 33x33x33
# LUTr-Conversion-Interpolation: linear
# LUTr-Conversion-Method: CLF operations evaluated as float and sampled to 33x33x33 3D CUBE
# LUTr-Conversion-Tool: LUTr scripts/convert-all-to-cube.mjs 2.0.0
# LUTr-Conversion-Date: 2026-07-27
# LUTr-Conversion-Warning: A sampled 3D CUBE is bounded to DOMAIN_MIN/MAX 0..1 and cannot preserve CLF values outside its input domain.
# LUTr-Upstream-ID: urn:aswf:ocio:transformId:1.0:ITU:Utility:Linear_to_Rec709-Curve:1.0
# LUTr-Upstream-Name: Linear to Rec.709
# LUTr-Upstream-Input-Descriptor: generic linear RGB
# LUTr-Upstream-Output-Descriptor: generic gamma-corrected RGB
# LUTr-Upstream-Operations: Exponent
# LUTr-Upstream-Domain: unbounded
# LUTr-Note: Preserve this metadata and the upstream license notices when redistributing.
TITLE "ITU.Utility.Rec709-Curve"
LUT_3D_SIZE 5
DOMAIN_MIN 0 0 0
DOMAIN_MAX 1 1 1
0 0 0
0.0024228876 0 0
0.0048457752 0 0
0.0072686628 0 0
0.0096915504 0 0
0 0.0024228876 0
0.0024228876 0.0024228876 0
0.0048457752 0.0024228876 0
0.0072686628 0.0024228876 0
0.0096915504 0.0024228876 0
0 0.0048457752 0
0.0024228876 0.0048457752 0
0.0048457752 0.0048457752 0
0.0072686628 0.0048457752 0
0.0096915504 0.0048457752 0
0 0.0072686628 0
0.0024228876 0.0072686628 0
0.0048457752 0.0072686628 0
0.0072686628 0.0072686628 0
0.0096915504 0.0072686628 0
0 0.0096915504 0
0.0024228876 0.0096915504 0
0.0048457752 0.0096915504 0
0.0072686628 0.0096915504 0
0.0096915504 0.0096915504 0
0 0 0.0024228876
0.0024228876 0 0.0024228876
0.0048457752 0 0.0024228876
0.0072686628 0 0.0024228876
0.0096915504 0 0.0024228876
0 0.0024228876 0.0024228876
0.0024228876 0.0024228876 0.0024228876
0.0048457752 0.0024228876 0.0024228876
0.0072686628 0.0024228876 0.0024228876
0.0096915504 0.0024228876 0.0024228876
0 0.0048457752 0.0024228876
0.0024228876 0.0048457752 0.0024228876
0.0048457752 0.0048457752 0.0024228876
0.0072686628 0.0048457752 0.0024228876
0.0096915504 0.0048457752 0.0024228876
0 0.0072686628 0.0024228876
0.0024228876 0.0072686628 0.0024228876
0.0048457752 0.0072686628 0.0024228876
0.0072686628 0.0072686628 0.0024228876
0.0096915504 0.0072686628 0.0024228876
0 0.0096915504 0.0024228876
0.0024228876 0.0096915504 0.0024228876
0.0048457752 0.0096915504 0.0024228876
0.0072686628 0.0096915504 0.0024228876
0.0096915504 0.0096915504 0.0024228876
0 0 0.0048457752
0.0024228876 0 0.0048457752
0.0048457752 0 0.0048457752
0.0072686628 0 0.0048457752
0.0096915504 0 0.0048457752
0 0.0024228876 0.0048457752
0.0024228876 0.0024228876 0.0048457752
0.0048457752 0.0024228876 0.0048457752
0.0072686628 0.0024228876 0.0048457752
0.0096915504 0.0024228876 0.0048457752
0 0.0048457752 0.0048457752
0.0024228876 0.0048457752 0.0048457752
0.0048457752 0.0048457752 0.0048457752
0.0072686628 0.0048457752 0.0048457752
0.0096915504 0.0048457752 0.0048457752
0 0.0072686628 0.0048457752
0.0024228876 0.0072686628 0.0048457752
0.0048457752 0.0072686628 0.0048457752
0.0072686628 0.0072686628 0.0048457752
0.0096915504 0.0072686628 0.0048457752
0 0.0096915504 0.0048457752
0.0024228876 0.0096915504 0.0048457752
0.0048457752 0.0096915504 0.0048457752
0.0072686628 0.0096915504 0.0048457752
0.0096915504 0.0096915504 0.0048457752
0 0 0.0072686628
0.0024228876 0 0.0072686628
0.0048457752 0 0.0072686628
0.0072686628 0 0.0072686628
0.0096915504 0 0.0072686628
0 0.0024228876 0.0072686628
0.0024228876 0.0024228876 0.0072686628
0.0048457752 0.0024228876 0.0072686628
0.0072686628 0.0024228876 0.0072686628
0.0096915504 0.0024228876 0.0072686628
0 0.0048457752 0.0072686628
0.0024228876 0.0048457752 0.0072686628
0.0048457752 0.0048457752 0.0072686628
0.0072686628 0.0048457752 0.0072686628
0.0096915504 0.0048457752 0.0072686628
0 0.0072686628 0.0072686628
0.0024228876 0.0072686628 0.0072686628
0.0048457752 0.0072686628 0.0072686628
0.0072686628 0.0072686628 0.0072686628
0.0096915504 0.0072686628 0.0072686628
0 0.0096915504 0.0072686628
0.0024228876 0.0096915504 0.0072686628
0.0048457752 0.0096915504 0.0072686628
0.0072686628 0.0096915504 0.0072686628
0.0096915504 0.0096915504 0.0072686628
0 0 0.0096915504
0.0024228876 0 0.0096915504
0.0048457752 0 0.0096915504
0.0072686628 0 0.0096915504
0.0096915504 0 0.0096915504
0 0.0024228876 0.0096915504
0.0024228876 0.0024228876 0.0096915504
0.0048457752 0.0024228876 0.0096915504
0.0072686628 0.0024228876 0.0096915504
0.0096915504 0.0024228876 0.0096915504
0 0.0048457752 0.0096915504
0.0024228876 0.0048457752 0.0096915504
0.0048457752 0.0048457752 0.0096915504
0.0072686628 0.0048457752 0.0096915504
0.0096915504 0.0048457752 0.0096915504
0 0.0072686628 0.0096915504
0.0024228876 0.0072686628 0.0096915504
0.0048457752 0.0072686628 0.0096915504
0.0072686628 0.0072686628 0.0096915504
0.0096915504 0.0072686628 0.0096915504
0 0.0096915504 0.0096915504
0.0024228876 0.0096915504 0.0096915504
0.0048457752 0.0096915504 0.0096915504
0.0072686628 0.0096915504 0.0096915504
0.0096915504 0.0096915504 0.0096915504
