site/assets/luts/upstream-urnaswfociotransformid10blackmagicdesigninputdavinci-intermediate-log-curve-to-linear10--d6829f01b.cube
# LUTr-Schema-Version: 2
# LUTr-ID: upstream-urnaswfociotransformid10blackmagicdesigninputdavinci-intermediate-log-curve-to-linear10--d6829f01b
# LUTr-Title: BlackmagicDesign.Input.DaVinci Intermediate Log-Curve
# LUTr-Collection: OCIO ACES
# LUTr-Collection-ID: aswf-opencolorio-config-aces
# LUTr-Source: https://github.com/AcademySoftwareFoundation/OpenColorIO-Config-ACES
# LUTr-Retrieved: 2026-07-27
# LUTr-Source-File: submissions/aswf-opencolorio-config-aces/opencolorio_config_aces/clf/transforms/blackmagic/input/BlackmagicDesign.Input.DaVinci_Intermediate_Log-Curve.clf
# LUTr-Source-Format: CLF
# LUTr-Source-SHA256: cdf0f8e10924ecf687faa693f8187aa2e889947ed1411fcac42ac8dc419b0597
# LUTr-License: BSD-3-Clause
# LUTr-License-URL: https://github.com/AcademySoftwareFoundation/OpenColorIO-Config-ACES/blob/main/LICENSE
# LUTr-License-Basis: repo-license-file
# LUTr-Transform-Class: color-space-conversion
# LUTr-Tags: technical, aces, ocio, clf, color-management, cube
# LUTr-Input-Color-Space:
# LUTr-Input-Gamut: unspecified
# LUTr-Input-Transfer: davinci-intermediate
# LUTr-Output-Color-Space:
# LUTr-Output-Gamut: unspecified
# LUTr-Output-Transfer: linear
# LUTr-Color-Space-Confidence: descriptor-only
# LUTr-Domain-Normalized: true
# LUTr-Shaper: none
# LUTr-Original-Grid: analytic
# LUTr-Conversion-Grid: 33x33x33
# LUTr-Conversion-Interpolation: linear
# LUTr-Conversion-Method: CLF operations evaluated as float and sampled to 33x33x33 3D CUBE
# LUTr-Conversion-Tool: LUTr scripts/convert-all-to-cube.mjs 2.0.0
# LUTr-Conversion-Date: 2026-07-27
# LUTr-Conversion-Warning: A sampled 3D CUBE is bounded to DOMAIN_MIN/MAX 0..1 and cannot preserve CLF values outside its input domain.
# LUTr-Upstream-ID: urn:aswf:ocio:transformId:1.0:BlackmagicDesign:Input:DaVinci_Intermediate_Log-Curve_to_Linear:1.0
# LUTr-Upstream-Name: DaVinci Intermediate Log to Linear Curve
# LUTr-Upstream-Input-Descriptor: DaVinci Intermediate Log
# LUTr-Upstream-Output-Descriptor: DaVinci Intermediate Linear
# LUTr-Upstream-Operations: Log
# LUTr-Upstream-Domain: unbounded
# LUTr-Note: Preserve this metadata and the upstream license notices when redistributing.
TITLE "BlackmagicDesign.Input.DaVinci Intermediate Log-Curve"
LUT_3D_SIZE 33
DOMAIN_MIN 0 0 0
DOMAIN_MAX 1 1 1
3.2894634e-11 3.2894634e-11 3.2894634e-11
0.0029988411 3.2894634e-11 3.2894634e-11
0.006608885 3.2894634e-11 3.2894634e-11
0.011460248 3.2894634e-11 3.2894634e-11
0.017979761 3.2894634e-11 3.2894634e-11
0.026741019 3.2894634e-11 3.2894634e-11
0.038514851 3.2894634e-11 3.2894634e-11
0.054337133 3.2894634e-11 3.2894634e-11
0.075599934 3.2894634e-11 3.2894634e-11
0.10417398 3.2894634e-11 3.2894634e-11
0.14257327 3.2894634e-11 3.2894634e-11
0.19417621 3.2894634e-11 3.2894634e-11
0.26352291 3.2894634e-11 3.2894634e-11
0.35671459 3.2894634e-11 3.2894634e-11
0.48195037 3.2894634e-11 3.2894634e-11
0.6502487 3.2894634e-11 3.2894634e-11
0.87641668 3.2894634e-11 3.2894634e-11
1.1803529 3.2894634e-11 3.2894634e-11
1.5887981 3.2894634e-11 3.2894634e-11
2.1376878 3.2894634e-11 3.2894634e-11
2.8753142 3.2894634e-11 3.2894634e-11
3.8665746 3.2894634e-11 3.2894634e-11
5.1986816 3.2894634e-11 3.2894634e-11
6.9888358 3.2894634e-11 3.2894634e-11
9.3945374 3.2894634e-11 3.2894634e-11
12.627444 3.2894634e-11 3.2894634e-11
16.97199 3.2894634e-11 3.2894634e-11
22.810416 3.2894634e-11 3.2894634e-11
30.656394 3.2894634e-11 3.2894634e-11
41.200224 3.2894634e-11 3.2894634e-11
55.369569 3.2894634e-11 3.2894634e-11
74.411065 3.2894634e-11 3.2894634e-11
100.00001 3.2894634e-11 3.2894634e-11
3.2894634e-11 0.0029988411 3.2894634e-11
0.0029988411 0.0029988411 3.2894634e-11
0.006608885 0.0029988411 3.2894634e-11
0.011460248 0.0029988411 3.2894634e-11
0.017979761 0.0029988411 3.2894634e-11
0.026741019 0.0029988411 3.2894634e-11
0.038514851 0.0029988411 3.2894634e-11
0.054337133 0.0029988411 3.2894634e-11
0.075599934 0.0029988411 3.2894634e-11
0.10417398 0.0029988411 3.2894634e-11
0.14257327 0.0029988411 3.2894634e-11
0.19417621 0.0029988411 3.2894634e-11
0.26352291 0.0029988411 3.2894634e-11
0.35671459 0.0029988411 3.2894634e-11
0.48195037 0.0029988411 3.2894634e-11
0.6502487 0.0029988411 3.2894634e-11
0.87641668 0.0029988411 3.2894634e-11
1.1803529 0.0029988411 3.2894634e-11
1.5887981 0.0029988411 3.2894634e-11
2.1376878 0.0029988411 3.2894634e-11
2.8753142 0.0029988411 3.2894634e-11
3.8665746 0.0029988411 3.2894634e-11
5.1986816 0.0029988411 3.2894634e-11
6.9888358 0.0029988411 3.2894634e-11
9.3945374 0.0029988411 3.2894634e-11
12.627444 0.0029988411 3.2894634e-11
16.97199 0.0029988411 3.2894634e-11
22.810416 0.0029988411 3.2894634e-11
30.656394 0.0029988411 3.2894634e-11
41.200224 0.0029988411 3.2894634e-11
55.369569 0.0029988411 3.2894634e-11
74.411065 0.0029988411 3.2894634e-11
100.00001 0.0029988411 3.2894634e-11
3.2894634e-11 0.006608885 3.2894634e-11
0.0029988411 0.006608885 3.2894634e-11
0.006608885 0.006608885 3.2894634e-11
0.011460248 0.006608885 3.2894634e-11
0.017979761 0.006608885 3.2894634e-11
0.026741019 0.006608885 3.2894634e-11
0.038514851 0.006608885 3.2894634e-11
0.054337133 0.006608885 3.2894634e-11
0.075599934 0.006608885 3.2894634e-11
0.10417398 0.006608885 3.2894634e-11
0.14257327 0.006608885 3.2894634e-11
0.19417621 0.006608885 3.2894634e-11
0.26352291 0.006608885 3.2894634e-11
0.35671459 0.006608885 3.2894634e-11
0.48195037 0.006608885 3.2894634e-11
0.6502487 0.006608885 3.2894634e-11
0.87641668 0.006608885 3.2894634e-11
1.1803529 0.006608885 3.2894634e-11
1.5887981 0.006608885 3.2894634e-11
2.1376878 0.006608885 3.2894634e-11
2.8753142 0.006608885 3.2894634e-11
3.8665746 0.006608885 3.2894634e-11
5.1986816 0.006608885 3.2894634e-11
6.9888358 0.006608885 3.2894634e-11
9.3945374 0.006608885 3.2894634e-11
12.627444 0.006608885 3.2894634e-11
16.97199 0.006608885 3.2894634e-11
22.810416 0.006608885 3.2894634e-11
30.656394 0.006608885 3.2894634e-11
41.200224 0.006608885 3.2894634e-11
55.369569 0.006608885 3.2894634e-11
74.411065 0.006608885 3.2894634e-11
100.00001 0.006608885 3.2894634e-11
3.2894634e-11 0.011460248 3.2894634e-11
0.0029988411 0.011460248 3.2894634e-11
0.006608885 0.011460248 3.2894634e-11
0.011460248 0.011460248 3.2894634e-11
0.017979761 0.011460248 3.2894634e-11
0.026741019 0.011460248 3.2894634e-11
0.038514851 0.011460248 3.2894634e-11
0.054337133 0.011460248 3.2894634e-11
0.075599934 0.011460248 3.2894634e-11
0.10417398 0.011460248 3.2894634e-11
0.14257327 0.011460248 3.2894634e-11
0.19417621 0.011460248 3.2894634e-11
0.26352291 0.011460248 3.2894634e-11
0.35671459 0.011460248 3.2894634e-11
0.48195037 0.011460248 3.2894634e-11
0.6502487 0.011460248 3.2894634e-11
0.87641668 0.011460248 3.2894634e-11
1.1803529 0.011460248 3.2894634e-11
1.5887981 0.011460248 3.2894634e-11
2.1376878 0.011460248 3.2894634e-11
2.8753142 0.011460248 3.2894634e-11
3.8665746 0.011460248 3.2894634e-11
5.1986816 0.011460248 3.2894634e-11
6.9888358 0.011460248 3.2894634e-11
9.3945374 0.011460248 3.2894634e-11
12.627444 0.011460248 3.2894634e-11
16.97199 0.011460248 3.2894634e-11
22.810416 0.011460248 3.2894634e-11
30.656394 0.011460248 3.2894634e-11
41.200224 0.011460248 3.2894634e-11
55.369569 0.011460248 3.2894634e-11
74.411065 0.011460248 3.2894634e-11
100.00001 0.011460248 3.2894634e-11
3.2894634e-11 0.017979761 3.2894634e-11
0.0029988411 0.017979761 3.2894634e-11
0.006608885 0.017979761 3.2894634e-11
0.011460248 0.017979761 3.2894634e-11
0.017979761 0.017979761 3.2894634e-11
0.026741019 0.017979761 3.2894634e-11
0.038514851 0.017979761 3.2894634e-11
0.054337133 0.017979761 3.2894634e-11
0.075599934 0.017979761 3.2894634e-11
0.10417398 0.017979761 3.2894634e-11
0.14257327 0.017979761 3.2894634e-11
0.19417621 0.017979761 3.2894634e-11
0.26352291 0.017979761 3.2894634e-11
0.35671459 0.017979761 3.2894634e-11
0.48195037 0.017979761 3.2894634e-11
0.6502487 0.017979761 3.2894634e-11
0.87641668 0.017979761 3.2894634e-11
1.1803529 0.017979761 3.2894634e-11
1.5887981 0.017979761 3.2894634e-11
2.1376878 0.017979761 3.2894634e-11
2.8753142 0.017979761 3.2894634e-11
3.8665746 0.017979761 3.2894634e-11
5.1986816 0.017979761 3.2894634e-11
6.9888358 0.017979761 3.2894634e-11
9.3945374 0.017979761 3.2894634e-11
12.627444 0.017979761 3.2894634e-11
16.97199 0.017979761 3.2894634e-11
22.810416 0.017979761 3.2894634e-11
30.656394 0.017979761 3.2894634e-11
41.200224 0.017979761 3.2894634e-11
55.369569 0.017979761 3.2894634e-11
74.411065 0.017979761 3.2894634e-11
100.00001 0.017979761 3.2894634e-11
3.2894634e-11 0.026741019 3.2894634e-11
0.0029988411 0.026741019 3.2894634e-11
0.006608885 0.026741019 3.2894634e-11
0.011460248 0.026741019 3.2894634e-11
0.017979761 0.026741019 3.2894634e-11
0.026741019 0.026741019 3.2894634e-11
0.038514851 0.026741019 3.2894634e-11
0.054337133 0.026741019 3.2894634e-11
0.075599934 0.026741019 3.2894634e-11
0.10417398 0.026741019 3.2894634e-11
0.14257327 0.026741019 3.2894634e-11
0.19417621 0.026741019 3.2894634e-11
0.26352291 0.026741019 3.2894634e-11
0.35671459 0.026741019 3.2894634e-11
0.48195037 0.026741019 3.2894634e-11
0.6502487 0.026741019 3.2894634e-11
0.87641668 0.026741019 3.2894634e-11
1.1803529 0.026741019 3.2894634e-11
1.5887981 0.026741019 3.2894634e-11
2.1376878 0.026741019 3.2894634e-11
2.8753142 0.026741019 3.2894634e-11
3.8665746 0.026741019 3.2894634e-11
5.1986816 0.026741019 3.2894634e-11
6.9888358 0.026741019 3.2894634e-11
9.3945374 0.026741019 3.2894634e-11
12.627444 0.026741019 3.2894634e-11
16.97199 0.026741019 3.2894634e-11
22.810416 0.026741019 3.2894634e-11
30.656394 0.026741019 3.2894634e-11
41.200224 0.026741019 3.2894634e-11
55.369569 0.026741019 3.2894634e-11
74.411065 0.026741019 3.2894634e-11
100.00001 0.026741019 3.2894634e-11
3.2894634e-11 0.038514851 3.2894634e-11
0.0029988411 0.038514851 3.2894634e-11
0.006608885 0.038514851 3.2894634e-11
0.011460248 0.038514851 3.2894634e-11
0.017979761 0.038514851 3.2894634e-11
0.026741019 0.038514851 3.2894634e-11
0.038514851 0.038514851 3.2894634e-11
0.054337133 0.038514851 3.2894634e-11
0.075599934 0.038514851 3.2894634e-11
0.10417398 0.038514851 3.2894634e-11
0.14257327 0.038514851 3.2894634e-11
0.19417621 0.038514851 3.2894634e-11
0.26352291 0.038514851 3.2894634e-11
0.35671459 0.038514851 3.2894634e-11
0.48195037 0.038514851 3.2894634e-11
0.6502487 0.038514851 3.2894634e-11
0.87641668 0.038514851 3.2894634e-11
1.1803529 0.038514851 3.2894634e-11
1.5887981 0.038514851 3.2894634e-11
2.1376878 0.038514851 3.2894634e-11
2.8753142 0.038514851 3.2894634e-11
3.8665746 0.038514851 3.2894634e-11
5.1986816 0.038514851 3.2894634e-11
6.9888358 0.038514851 3.2894634e-11
9.3945374 0.038514851 3.2894634e-11
12.627444 0.038514851 3.2894634e-11
16.97199 0.038514851 3.2894634e-11
22.810416 0.038514851 3.2894634e-11
30.656394 0.038514851 3.2894634e-11
41.200224 0.038514851 3.2894634e-11
55.369569 0.038514851 3.2894634e-11
74.411065 0.038514851 3.2894634e-11
100.00001 0.038514851 3.2894634e-11
3.2894634e-11 0.054337133 3.2894634e-11
0.0029988411 0.054337133 3.2894634e-11
0.006608885 0.054337133 3.2894634e-11
0.011460248 0.054337133 3.2894634e-11
0.017979761 0.054337133 3.2894634e-11
0.026741019 0.054337133 3.2894634e-11
0.038514851 0.054337133 3.2894634e-11
0.054337133 0.054337133 3.2894634e-11
0.075599934 0.054337133 3.2894634e-11
0.10417398 0.054337133 3.2894634e-11
0.14257327 0.054337133 3.2894634e-11
0.19417621 0.054337133 3.2894634e-11
0.26352291 0.054337133 3.2894634e-11
0.35671459 0.054337133 3.2894634e-11
0.48195037 0.054337133 3.2894634e-11
0.6502487 0.054337133 3.2894634e-11
0.87641668 0.054337133 3.2894634e-11
1.1803529 0.054337133 3.2894634e-11
1.5887981 0.054337133 3.2894634e-11
2.1376878 0.054337133 3.2894634e-11
2.8753142 0.054337133 3.2894634e-11
3.8665746 0.054337133 3.2894634e-11
5.1986816 0.054337133 3.2894634e-11
6.9888358 0.054337133 3.2894634e-11
9.3945374 0.054337133 3.2894634e-11
12.627444 0.054337133 3.2894634e-11
16.97199 0.054337133 3.2894634e-11
22.810416 0.054337133 3.2894634e-11
30.656394 0.054337133 3.2894634e-11
41.200224 0.054337133 3.2894634e-11
55.369569 0.054337133 3.2894634e-11
74.411065 0.054337133 3.2894634e-11
100.00001 0.054337133 3.2894634e-11
3.2894634e-11 0.075599934 3.2894634e-11
0.0029988411 0.075599934 3.2894634e-11
0.006608885 0.075599934 3.2894634e-11
0.011460248 0.075599934 3.2894634e-11
0.017979761 0.075599934 3.2894634e-11
0.026741019 0.075599934 3.2894634e-11
0.038514851 0.075599934 3.2894634e-11
0.054337133 0.075599934 3.2894634e-11
0.075599934 0.075599934 3.2894634e-11
0.10417398 0.075599934 3.2894634e-11
0.14257327 0.075599934 3.2894634e-11
0.19417621 0.075599934 3.2894634e-11
0.26352291 0.075599934 3.2894634e-11
0.35671459 0.075599934 3.2894634e-11
0.48195037 0.075599934 3.2894634e-11
0.6502487 0.075599934 3.2894634e-11
0.87641668 0.075599934 3.2894634e-11
1.1803529 0.075599934 3.2894634e-11
1.5887981 0.075599934 3.2894634e-11
2.1376878 0.075599934 3.2894634e-11
2.8753142 0.075599934 3.2894634e-11
3.8665746 0.075599934 3.2894634e-11
5.1986816 0.075599934 3.2894634e-11
6.9888358 0.075599934 3.2894634e-11
9.3945374 0.075599934 3.2894634e-11
12.627444 0.075599934 3.2894634e-11
16.97199 0.075599934 3.2894634e-11
22.810416 0.075599934 3.2894634e-11
30.656394 0.075599934 3.2894634e-11
41.200224 0.075599934 3.2894634e-11
55.369569 0.075599934 3.2894634e-11
74.411065 0.075599934 3.2894634e-11
100.00001 0.075599934 3.2894634e-11
3.2894634e-11 0.10417398 3.2894634e-11
0.0029988411 0.10417398 3.2894634e-11
0.006608885 0.10417398 3.2894634e-11
0.011460248 0.10417398 3.2894634e-11
0.017979761 0.10417398 3.2894634e-11
0.026741019 0.10417398 3.2894634e-11
0.038514851 0.10417398 3.2894634e-11
0.054337133 0.10417398 3.2894634e-11
0.075599934 0.10417398 3.2894634e-11
0.10417398 0.10417398 3.2894634e-11
0.14257327 0.10417398 3.2894634e-11
0.19417621 0.10417398 3.2894634e-11
0.26352291 0.10417398 3.2894634e-11
0.35671459 0.10417398 3.2894634e-11
0.48195037 0.10417398 3.2894634e-11
0.6502487 0.10417398 3.2894634e-11
0.87641668 0.10417398 3.2894634e-11
1.1803529 0.10417398 3.2894634e-11
1.5887981 0.10417398 3.2894634e-11
2.1376878 0.10417398 3.2894634e-11
2.8753142 0.10417398 3.2894634e-11
3.8665746 0.10417398 3.2894634e-11
5.1986816 0.10417398 3.2894634e-11
6.9888358 0.10417398 3.2894634e-11
9.3945374 0.10417398 3.2894634e-11
12.627444 0.10417398 3.2894634e-11
16.97199 0.10417398 3.2894634e-11
22.810416 0.10417398 3.2894634e-11
30.656394 0.10417398 3.2894634e-11
41.200224 0.10417398 3.2894634e-11
55.369569 0.10417398 3.2894634e-11
74.411065 0.10417398 3.2894634e-11
100.00001 0.10417398 3.2894634e-11
3.2894634e-11 0.14257327 3.2894634e-11
0.0029988411 0.14257327 3.2894634e-11
0.006608885 0.14257327 3.2894634e-11
0.011460248 0.14257327 3.2894634e-11
0.017979761 0.14257327 3.2894634e-11
0.026741019 0.14257327 3.2894634e-11
0.038514851 0.14257327 3.2894634e-11
0.054337133 0.14257327 3.2894634e-11
0.075599934 0.14257327 3.2894634e-11
0.10417398 0.14257327 3.2894634e-11
0.14257327 0.14257327 3.2894634e-11
0.19417621 0.14257327 3.2894634e-11
0.26352291 0.14257327 3.2894634e-11
0.35671459 0.14257327 3.2894634e-11
0.48195037 0.14257327 3.2894634e-11
0.6502487 0.14257327 3.2894634e-11
0.87641668 0.14257327 3.2894634e-11
1.1803529 0.14257327 3.2894634e-11
1.5887981 0.14257327 3.2894634e-11
2.1376878 0.14257327 3.2894634e-11
2.8753142 0.14257327 3.2894634e-11
3.8665746 0.14257327 3.2894634e-11
5.1986816 0.14257327 3.2894634e-11
6.9888358 0.14257327 3.2894634e-11
9.3945374 0.14257327 3.2894634e-11
12.627444 0.14257327 3.2894634e-11
16.97199 0.14257327 3.2894634e-11
22.810416 0.14257327 3.2894634e-11
30.656394 0.14257327 3.2894634e-11
41.200224 0.14257327 3.2894634e-11
55.369569 0.14257327 3.2894634e-11
74.411065 0.14257327 3.2894634e-11
100.00001 0.14257327 3.2894634e-11
3.2894634e-11 0.19417621 3.2894634e-11
0.0029988411 0.19417621 3.2894634e-11
0.006608885 0.19417621 3.2894634e-11
0.011460248 0.19417621 3.2894634e-11
0.017979761 0.19417621 3.2894634e-11
0.026741019 0.19417621 3.2894634e-11
0.038514851 0.19417621 3.2894634e-11
0.054337133 0.19417621 3.2894634e-11
0.075599934 0.19417621 3.2894634e-11
0.10417398 0.19417621 3.2894634e-11
0.14257327 0.19417621 3.2894634e-11
0.19417621 0.19417621 3.2894634e-11
0.26352291 0.19417621 3.2894634e-11
0.35671459 0.19417621 3.2894634e-11
0.48195037 0.19417621 3.2894634e-11
0.6502487 0.19417621 3.2894634e-11
0.87641668 0.19417621 3.2894634e-11
1.1803529 0.19417621 3.2894634e-11
1.5887981 0.19417621 3.2894634e-11
2.1376878 0.19417621 3.2894634e-11
2.8753142 0.19417621 3.2894634e-11
3.8665746 0.19417621 3.2894634e-11
5.1986816 0.19417621 3.2894634e-11
6.9888358 0.19417621 3.2894634e-11
9.3945374 0.19417621 3.2894634e-11
12.627444 0.19417621 3.2894634e-11
16.97199 0.19417621 3.2894634e-11
22.810416 0.19417621 3.2894634e-11
30.656394 0.19417621 3.2894634e-11
41.200224 0.19417621 3.2894634e-11
55.369569 0.19417621 3.2894634e-11
74.411065 0.19417621 3.2894634e-11
100.00001 0.19417621 3.2894634e-11
3.2894634e-11 0.26352291 3.2894634e-11
0.0029988411 0.26352291 3.2894634e-11
0.006608885 0.26352291 3.2894634e-11
0.011460248 0.26352291 3.2894634e-11
0.017979761 0.26352291 3.2894634e-11
0.026741019 0.26352291 3.2894634e-11
0.038514851 0.26352291 3.2894634e-11
0.054337133 0.26352291 3.2894634e-11
0.075599934 0.26352291 3.2894634e-11
0.10417398 0.26352291 3.2894634e-11
0.14257327 0.26352291 3.2894634e-11
0.19417621 0.26352291 3.2894634e-11
0.26352291 0.26352291 3.2894634e-11
0.35671459 0.26352291 3.2894634e-11
0.48195037 0.26352291 3.2894634e-11
0.6502487 0.26352291 3.2894634e-11
0.87641668 0.26352291 3.2894634e-11
1.1803529 0.26352291 3.2894634e-11
1.5887981 0.26352291 3.2894634e-11
2.1376878 0.26352291 3.2894634e-11
2.8753142 0.26352291 3.2894634e-11
3.8665746 0.26352291 3.2894634e-11
5.1986816 0.26352291 3.2894634e-11
6.9888358 0.26352291 3.2894634e-11
9.3945374 0.26352291 3.2894634e-11
12.627444 0.26352291 3.2894634e-11
16.97199 0.26352291 3.2894634e-11
22.810416 0.26352291 3.2894634e-11
30.656394 0.26352291 3.2894634e-11
41.200224 0.26352291 3.2894634e-11
55.369569 0.26352291 3.2894634e-11
74.411065 0.26352291 3.2894634e-11
100.00001 0.26352291 3.2894634e-11
3.2894634e-11 0.35671459 3.2894634e-11
0.0029988411 0.35671459 3.2894634e-11
0.006608885 0.35671459 3.2894634e-11
0.011460248 0.35671459 3.2894634e-11
0.017979761 0.35671459 3.2894634e-11
0.026741019 0.35671459 3.2894634e-11
0.038514851 0.35671459 3.2894634e-11
0.054337133 0.35671459 3.2894634e-11
0.075599934 0.35671459 3.2894634e-11
0.10417398 0.35671459 3.2894634e-11
0.14257327 0.35671459 3.2894634e-11
0.19417621 0.35671459 3.2894634e-11
0.26352291 0.35671459 3.2894634e-11
0.35671459 0.35671459 3.2894634e-11
0.48195037 0.35671459 3.2894634e-11
0.6502487 0.35671459 3.2894634e-11
0.87641668 0.35671459 3.2894634e-11
1.1803529 0.35671459 3.2894634e-11
1.5887981 0.35671459 3.2894634e-11
2.1376878 0.35671459 3.2894634e-11
2.8753142 0.35671459 3.2894634e-11
3.8665746 0.35671459 3.2894634e-11
5.1986816 0.35671459 3.2894634e-11
6.9888358 0.35671459 3.2894634e-11
9.3945374 0.35671459 3.2894634e-11
12.627444 0.35671459 3.2894634e-11
16.97199 0.35671459 3.2894634e-11
22.810416 0.35671459 3.2894634e-11
30.656394 0.35671459 3.2894634e-11
41.200224 0.35671459 3.2894634e-11
55.369569 0.35671459 3.2894634e-11
74.411065 0.35671459 3.2894634e-11
100.00001 0.35671459 3.2894634e-11
3.2894634e-11 0.48195037 3.2894634e-11
0.0029988411 0.48195037 3.2894634e-11
0.006608885 0.48195037 3.2894634e-11
0.011460248 0.48195037 3.2894634e-11
0.017979761 0.48195037 3.2894634e-11
0.026741019 0.48195037 3.2894634e-11
0.038514851 0.48195037 3.2894634e-11
0.054337133 0.48195037 3.2894634e-11
0.075599934 0.48195037 3.2894634e-11
0.10417398 0.48195037 3.2894634e-11
0.14257327 0.48195037 3.2894634e-11
0.19417621 0.48195037 3.2894634e-11
0.26352291 0.48195037 3.2894634e-11
0.35671459 0.48195037 3.2894634e-11
0.48195037 0.48195037 3.2894634e-11
0.6502487 0.48195037 3.2894634e-11
0.87641668 0.48195037 3.2894634e-11
1.1803529 0.48195037 3.2894634e-11
1.5887981 0.48195037 3.2894634e-11
2.1376878 0.48195037 3.2894634e-11
2.8753142 0.48195037 3.2894634e-11
3.8665746 0.48195037 3.2894634e-11
5.1986816 0.48195037 3.2894634e-11
6.9888358 0.48195037 3.2894634e-11
9.3945374 0.48195037 3.2894634e-11
12.627444 0.48195037 3.2894634e-11
16.97199 0.48195037 3.2894634e-11
22.810416 0.48195037 3.2894634e-11
30.656394 0.48195037 3.2894634e-11
41.200224 0.48195037 3.2894634e-11
55.369569 0.48195037 3.2894634e-11
74.411065 0.48195037 3.2894634e-11
100.00001 0.48195037 3.2894634e-11
3.2894634e-11 0.6502487 3.2894634e-11
0.0029988411 0.6502487 3.2894634e-11
0.006608885 0.6502487 3.2894634e-11
0.011460248 0.6502487 3.2894634e-11
0.017979761 0.6502487 3.2894634e-11
0.026741019 0.6502487 3.2894634e-11
0.038514851 0.6502487 3.2894634e-11
0.054337133 0.6502487 3.2894634e-11
0.075599934 0.6502487 3.2894634e-11
0.10417398 0.6502487 3.2894634e-11
0.14257327 0.6502487 3.2894634e-11
0.19417621 0.6502487 3.2894634e-11
0.26352291 0.6502487 3.2894634e-11
0.35671459 0.6502487 3.2894634e-11
0.48195037 0.6502487 3.2894634e-11
0.6502487 0.6502487 3.2894634e-11
0.87641668 0.6502487 3.2894634e-11
1.1803529 0.6502487 3.2894634e-11
1.5887981 0.6502487 3.2894634e-11
2.1376878 0.6502487 3.2894634e-11
2.8753142 0.6502487 3.2894634e-11
3.8665746 0.6502487 3.2894634e-11
5.1986816 0.6502487 3.2894634e-11
6.9888358 0.6502487 3.2894634e-11
9.3945374 0.6502487 3.2894634e-11
12.627444 0.6502487 3.2894634e-11
16.97199 0.6502487 3.2894634e-11
22.810416 0.6502487 3.2894634e-11
30.656394 0.6502487 3.2894634e-11
41.200224 0.6502487 3.2894634e-11
55.369569 0.6502487 3.2894634e-11
74.411065 0.6502487 3.2894634e-11
100.00001 0.6502487 3.2894634e-11
3.2894634e-11 0.87641668 3.2894634e-11
0.0029988411 0.87641668 3.2894634e-11
0.006608885 0.87641668 3.2894634e-11
0.011460248 0.87641668 3.2894634e-11
0.017979761 0.87641668 3.2894634e-11
0.026741019 0.87641668 3.2894634e-11
0.038514851 0.87641668 3.2894634e-11
0.054337133 0.87641668 3.2894634e-11
0.075599934 0.87641668 3.2894634e-11
0.10417398 0.87641668 3.2894634e-11
0.14257327 0.87641668 3.2894634e-11
0.19417621 0.87641668 3.2894634e-11
0.26352291 0.87641668 3.2894634e-11
0.35671459 0.87641668 3.2894634e-11
0.48195037 0.87641668 3.2894634e-11
0.6502487 0.87641668 3.2894634e-11
0.87641668 0.87641668 3.2894634e-11
1.1803529 0.87641668 3.2894634e-11
1.5887981 0.87641668 3.2894634e-11
2.1376878 0.87641668 3.2894634e-11
2.8753142 0.87641668 3.2894634e-11
3.8665746 0.87641668 3.2894634e-11
5.1986816 0.87641668 3.2894634e-11
6.9888358 0.87641668 3.2894634e-11
9.3945374 0.87641668 3.2894634e-11
12.627444 0.87641668 3.2894634e-11
16.97199 0.87641668 3.2894634e-11
22.810416 0.87641668 3.2894634e-11
30.656394 0.87641668 3.2894634e-11
41.200224 0.87641668 3.2894634e-11
55.369569 0.87641668 3.2894634e-11
74.411065 0.87641668 3.2894634e-11
100.00001 0.87641668 3.2894634e-11
3.2894634e-11 1.1803529 3.2894634e-11
0.0029988411 1.1803529 3.2894634e-11
0.006608885 1.1803529 3.2894634e-11
0.011460248 1.1803529 3.2894634e-11
0.017979761 1.1803529 3.2894634e-11
0.026741019 1.1803529 3.2894634e-11
0.038514851 1.1803529 3.2894634e-11
0.054337133 1.1803529 3.2894634e-11
0.075599934 1.1803529 3.2894634e-11
0.10417398 1.1803529 3.2894634e-11
0.14257327 1.1803529 3.2894634e-11
0.19417621 1.1803529 3.2894634e-11
0.26352291 1.1803529 3.2894634e-11
0.35671459 1.1803529 3.2894634e-11
0.48195037 1.1803529 3.2894634e-11
0.6502487 1.1803529 3.2894634e-11
0.87641668 1.1803529 3.2894634e-11
1.1803529 1.1803529 3.2894634e-11
1.5887981 1.1803529 3.2894634e-11
2.1376878 1.1803529 3.2894634e-11
2.8753142 1.1803529 3.2894634e-11
3.8665746 1.1803529 3.2894634e-11
5.1986816 1.1803529 3.2894634e-11
6.9888358 1.1803529 3.2894634e-11
9.3945374 1.1803529 3.2894634e-11
12.627444 1.1803529 3.2894634e-11
16.97199 1.1803529 3.2894634e-11
22.810416 1.1803529 3.2894634e-11
30.656394 1.1803529 3.2894634e-11
41.200224 1.1803529 3.2894634e-11
55.369569 1.1803529 3.2894634e-11
74.411065 1.1803529 3.2894634e-11
100.00001 1.1803529 3.2894634e-11
3.2894634e-11 1.5887981 3.2894634e-11
0.0029988411 1.5887981 3.2894634e-11
0.006608885 1.5887981 3.2894634e-11
