site/assets/luts/upstream-urnaswfociotransformid10arriinputarri-logc3-curve-ei800-to-linear10--2906506c7.cube
# LUTr-Schema-Version: 2
# LUTr-ID: upstream-urnaswfociotransformid10arriinputarri-logc3-curve-ei800-to-linear10--2906506c7
# LUTr-Title: ARRI.Input.ARRI LogC3 Curve EI800
# LUTr-Collection: OCIO ACES
# LUTr-Collection-ID: aswf-opencolorio-config-aces
# LUTr-Source: https://github.com/AcademySoftwareFoundation/OpenColorIO-Config-ACES
# LUTr-Retrieved: 2026-07-27
# LUTr-Source-File: submissions/aswf-opencolorio-config-aces/opencolorio_config_aces/clf/transforms/arri/input/ARRI.Input.ARRI_LogC3_Curve_EI800.clf
# LUTr-Source-Format: CLF
# LUTr-Source-SHA256: c291498ee54689ee0c585d26b82ed266c1f19976cbdc6272eb6cba6e05a9c04b
# LUTr-License: BSD-3-Clause
# LUTr-License-URL: https://github.com/AcademySoftwareFoundation/OpenColorIO-Config-ACES/blob/main/LICENSE
# LUTr-License-Basis: repo-license-file
# LUTr-Transform-Class: color-space-conversion
# LUTr-Tags: technical, aces, ocio, clf, color-management, cube
# LUTr-Input-Color-Space:
# LUTr-Input-Gamut: unspecified
# LUTr-Input-Transfer: arri-logc3-ei800
# LUTr-Output-Color-Space:
# LUTr-Output-Gamut: unspecified
# LUTr-Output-Transfer: linear
# LUTr-Color-Space-Confidence: descriptor-only
# LUTr-Domain-Normalized: true
# LUTr-Shaper: none
# LUTr-Original-Grid: analytic
# LUTr-Conversion-Grid: 33x33x33
# LUTr-Conversion-Interpolation: linear
# LUTr-Conversion-Method: CLF operations evaluated as float and sampled to 33x33x33 3D CUBE
# LUTr-Conversion-Tool: LUTr scripts/convert-all-to-cube.mjs 2.0.0
# LUTr-Conversion-Date: 2026-07-27
# LUTr-Conversion-Warning: A sampled 3D CUBE is bounded to DOMAIN_MIN/MAX 0..1 and cannot preserve CLF values outside its input domain.
# LUTr-Upstream-ID: urn:aswf:ocio:transformId:1.0:ARRI:Input:ARRI_LogC3_Curve_EI800_to_Linear:1.0
# LUTr-Upstream-Name: ARRI LogC3 Curve (EI800) to Relative Scene Linear
# LUTr-Upstream-Input-Descriptor: ARRI LogC3 Curve (EI800)
# LUTr-Upstream-Output-Descriptor: Relative Scene Linear
# LUTr-Upstream-Operations: Log
# LUTr-Upstream-Domain: unbounded
# LUTr-Note: Preserve this metadata and the upstream license notices when redistributing.
TITLE "ARRI.Input.ARRI LogC3 Curve EI800"
LUT_3D_SIZE 5
DOMAIN_MIN 0 0 0
DOMAIN_MAX 1 1 1
-0.017290485 -0.017290485 -0.017290485
0.041519468 -0.017290485 -0.017290485
0.51338421 -0.017290485 -0.017290485
5.3571907 -0.017290485 -0.017290485
55.080043 -0.017290485 -0.017290485
-0.017290485 0.041519468 -0.017290485
0.041519468 0.041519468 -0.017290485
0.51338421 0.041519468 -0.017290485
5.3571907 0.041519468 -0.017290485
55.080043 0.041519468 -0.017290485
-0.017290485 0.51338421 -0.017290485
0.041519468 0.51338421 -0.017290485
0.51338421 0.51338421 -0.017290485
5.3571907 0.51338421 -0.017290485
55.080043 0.51338421 -0.017290485
-0.017290485 5.3571907 -0.017290485
0.041519468 5.3571907 -0.017290485
0.51338421 5.3571907 -0.017290485
5.3571907 5.3571907 -0.017290485
55.080043 5.3571907 -0.017290485
-0.017290485 55.080043 -0.017290485
0.041519468 55.080043 -0.017290485
0.51338421 55.080043 -0.017290485
5.3571907 55.080043 -0.017290485
55.080043 55.080043 -0.017290485
-0.017290485 -0.017290485 0.041519468
0.041519468 -0.017290485 0.041519468
0.51338421 -0.017290485 0.041519468
5.3571907 -0.017290485 0.041519468
55.080043 -0.017290485 0.041519468
-0.017290485 0.041519468 0.041519468
0.041519468 0.041519468 0.041519468
0.51338421 0.041519468 0.041519468
5.3571907 0.041519468 0.041519468
55.080043 0.041519468 0.041519468
-0.017290485 0.51338421 0.041519468
0.041519468 0.51338421 0.041519468
0.51338421 0.51338421 0.041519468
5.3571907 0.51338421 0.041519468
55.080043 0.51338421 0.041519468
-0.017290485 5.3571907 0.041519468
0.041519468 5.3571907 0.041519468
0.51338421 5.3571907 0.041519468
5.3571907 5.3571907 0.041519468
55.080043 5.3571907 0.041519468
-0.017290485 55.080043 0.041519468
0.041519468 55.080043 0.041519468
0.51338421 55.080043 0.041519468
5.3571907 55.080043 0.041519468
55.080043 55.080043 0.041519468
-0.017290485 -0.017290485 0.51338421
0.041519468 -0.017290485 0.51338421
0.51338421 -0.017290485 0.51338421
5.3571907 -0.017290485 0.51338421
55.080043 -0.017290485 0.51338421
-0.017290485 0.041519468 0.51338421
0.041519468 0.041519468 0.51338421
0.51338421 0.041519468 0.51338421
5.3571907 0.041519468 0.51338421
55.080043 0.041519468 0.51338421
-0.017290485 0.51338421 0.51338421
0.041519468 0.51338421 0.51338421
0.51338421 0.51338421 0.51338421
5.3571907 0.51338421 0.51338421
55.080043 0.51338421 0.51338421
-0.017290485 5.3571907 0.51338421
0.041519468 5.3571907 0.51338421
0.51338421 5.3571907 0.51338421
5.3571907 5.3571907 0.51338421
55.080043 5.3571907 0.51338421
-0.017290485 55.080043 0.51338421
0.041519468 55.080043 0.51338421
0.51338421 55.080043 0.51338421
5.3571907 55.080043 0.51338421
55.080043 55.080043 0.51338421
-0.017290485 -0.017290485 5.3571907
0.041519468 -0.017290485 5.3571907
0.51338421 -0.017290485 5.3571907
5.3571907 -0.017290485 5.3571907
55.080043 -0.017290485 5.3571907
-0.017290485 0.041519468 5.3571907
0.041519468 0.041519468 5.3571907
0.51338421 0.041519468 5.3571907
5.3571907 0.041519468 5.3571907
55.080043 0.041519468 5.3571907
-0.017290485 0.51338421 5.3571907
0.041519468 0.51338421 5.3571907
0.51338421 0.51338421 5.3571907
5.3571907 0.51338421 5.3571907
55.080043 0.51338421 5.3571907
-0.017290485 5.3571907 5.3571907
0.041519468 5.3571907 5.3571907
0.51338421 5.3571907 5.3571907
5.3571907 5.3571907 5.3571907
55.080043 5.3571907 5.3571907
-0.017290485 55.080043 5.3571907
0.041519468 55.080043 5.3571907
0.51338421 55.080043 5.3571907
5.3571907 55.080043 5.3571907
55.080043 55.080043 5.3571907
-0.017290485 -0.017290485 55.080043
0.041519468 -0.017290485 55.080043
0.51338421 -0.017290485 55.080043
5.3571907 -0.017290485 55.080043
55.080043 -0.017290485 55.080043
-0.017290485 0.041519468 55.080043
0.041519468 0.041519468 55.080043
0.51338421 0.041519468 55.080043
5.3571907 0.041519468 55.080043
55.080043 0.041519468 55.080043
-0.017290485 0.51338421 55.080043
0.041519468 0.51338421 55.080043
0.51338421 0.51338421 55.080043
5.3571907 0.51338421 55.080043
55.080043 0.51338421 55.080043
-0.017290485 5.3571907 55.080043
0.041519468 5.3571907 55.080043
0.51338421 5.3571907 55.080043
5.3571907 5.3571907 55.080043
55.080043 5.3571907 55.080043
-0.017290485 55.080043 55.080043
0.041519468 55.080043 55.080043
0.51338421 55.080043 55.080043
5.3571907 55.080043 55.080043
55.080043 55.080043 55.080043
