site/assets/luts/upstream-urnaswfociotransformid10canoninputlinear-cinemagamut-d55-to-aces2065-110--e04d378ea.cube
# LUTr-Schema-Version: 2
# LUTr-ID: upstream-urnaswfociotransformid10canoninputlinear-cinemagamut-d55-to-aces2065-110--e04d378ea
# LUTr-Title: Canon.Input.Linear-CinemaGamut-D55 to ACES2065-1
# LUTr-Collection: OCIO ACES
# LUTr-Collection-ID: aswf-opencolorio-config-aces
# LUTr-Source: https://github.com/AcademySoftwareFoundation/OpenColorIO-Config-ACES
# LUTr-Retrieved: 2026-07-27
# LUTr-Source-File: submissions/aswf-opencolorio-config-aces/opencolorio_config_aces/clf/transforms/canon/input/Canon.Input.Linear-CinemaGamut-D55_to_ACES2065-1.clf
# LUTr-Source-Format: CLF
# LUTr-Source-SHA256: 6f52d17899c30f8b23f4956a1ddfea5f105f8d64f83bc00d963e7a08ac7adb65
# LUTr-License: BSD-3-Clause
# LUTr-License-URL: https://github.com/AcademySoftwareFoundation/OpenColorIO-Config-ACES/blob/main/LICENSE
# LUTr-License-Basis: repo-license-file
# LUTr-Transform-Class: color-space-conversion
# LUTr-Tags: technical, aces, ocio, clf, color-management, cube
# LUTr-Input-Color-Space: linear-canon-cinema-gamut
# LUTr-Input-Gamut: canon-cinema-gamut
# LUTr-Input-Transfer: linear
# LUTr-Output-Color-Space: aces2065-1
# LUTr-Output-Gamut: aces-ap0
# LUTr-Output-Transfer: linear
# LUTr-Color-Space-Confidence: declared-by-source
# LUTr-Domain-Normalized: true
# LUTr-Shaper: none
# LUTr-Original-Grid: analytic
# LUTr-Conversion-Grid: 33x33x33
# LUTr-Conversion-Interpolation: linear
# LUTr-Conversion-Method: CLF operations evaluated as float and sampled to 33x33x33 3D CUBE
# LUTr-Conversion-Tool: LUTr scripts/convert-all-to-cube.mjs 2.0.0
# LUTr-Conversion-Date: 2026-07-27
# LUTr-Conversion-Warning: A sampled 3D CUBE is bounded to DOMAIN_MIN/MAX 0..1 and cannot preserve CLF values outside its input domain.
# LUTr-Upstream-ID: urn:aswf:ocio:transformId:1.0:Canon:Input:Linear-CinemaGamut-D55_to_ACES2065-1:1.0
# LUTr-Upstream-Name: Linear Canon Cinema Gamut (Daylight) to ACES2065-1
# LUTr-Upstream-Input-Descriptor: Linear Canon Cinema Gamut (Daylight)
# LUTr-Upstream-Output-Descriptor: ACES2065-1
# LUTr-Upstream-Operations: Matrix
# LUTr-Upstream-Domain: unbounded
# LUTr-Note: Preserve this metadata and the upstream license notices when redistributing.
TITLE "Canon.Input.Linear-CinemaGamut-D55 to ACES2065-1"
LUT_3D_SIZE 33
DOMAIN_MIN 0 0 0
DOMAIN_MAX 1 1 1
0 0 0
0.023845764 0.00011429552 -0.00029399356
0.047691528 0.00022859104 -0.00058798713
0.071537293 0.00034288657 -0.00088198069
0.095383057 0.00045718209 -0.0011759743
0.11922882 0.00057147761 -0.0014699678
0.14307459 0.00068577313 -0.0017639614
0.16692035 0.00080006865 -0.0020579549
0.19076611 0.00091436418 -0.0023519485
0.21461188 0.0010286597 -0.0026459421
0.23845764 0.0011429552 -0.0029399356
0.26230341 0.0012572507 -0.0032339292
0.28614917 0.0013715463 -0.0035279228
0.30999493 0.0014858418 -0.0038219163
0.3338407 0.0016001373 -0.0041159099
0.35768646 0.0017144328 -0.0044099035
0.38153223 0.0018287284 -0.004703897
0.40537799 0.0019430239 -0.0049978906
0.42922376 0.0020573194 -0.0052918842
0.45306952 0.0021716149 -0.0055858777
0.47691528 0.0022859104 -0.0058798713
0.50076105 0.002400206 -0.0061738648
0.52460681 0.0025145015 -0.0064678584
0.54845258 0.002628797 -0.006761852
0.57229834 0.0027430925 -0.0070558455
0.59614411 0.0028573881 -0.0073498391
0.61998987 0.0029716836 -0.0076438327
0.64383563 0.0030859791 -0.0079378262
0.6676814 0.0032002746 -0.0082318198
0.69152716 0.0033145701 -0.0085258134
0.71537293 0.0034288657 -0.0088198069
0.73921869 0.0035431612 -0.0091138005
0.76306445 0.0036574567 -0.009407794
0.0046569113 0.034592512 -0.0068244783
0.028502675 0.034706807 -0.0071184718
0.05234844 0.034821103 -0.0074124654
0.076194204 0.034935398 -0.007706459
0.10003997 0.035049694 -0.0080004525
0.12388573 0.035163989 -0.0082944461
0.1477315 0.035278285 -0.0085884397
0.17157726 0.035392581 -0.0088824332
0.19542302 0.035506876 -0.0091764268
0.21926879 0.035621172 -0.0094704204
0.24311455 0.035735467 -0.0097644139
0.26696032 0.035849763 -0.010058407
0.29080608 0.035964058 -0.010352401
0.31465185 0.036078354 -0.010646395
0.33849761 0.036192649 -0.010940388
0.36234337 0.036306945 -0.011234382
0.38618914 0.03642124 -0.011528375
0.4100349 0.036535536 -0.011822369
0.43388067 0.036649831 -0.012116362
0.45772643 0.036764127 -0.012410356
0.4815722 0.036878422 -0.01270435
0.50541796 0.036992718 -0.012998343
0.52926372 0.037107013 -0.013292337
0.55310949 0.037221309 -0.01358633
0.57695525 0.037335604 -0.013880324
0.60080102 0.0374499 -0.014174317
0.62464678 0.037564195 -0.014468311
0.64849255 0.037678491 -0.014762305
0.67233831 0.037792787 -0.015056298
0.69618407 0.037907082 -0.015350292
0.72002984 0.038021378 -0.015644285
0.7438756 0.038135673 -0.015938279
0.76772137 0.038249969 -0.016232272
0.0093138226 0.069185024 -0.013648957
0.033159587 0.069299319 -0.01394295
0.057005351 0.069413615 -0.014236944
0.080851115 0.06952791 -0.014530937
0.10469688 0.069642206 -0.014824931
0.12854264 0.069756501 -0.015118924
0.15238841 0.069870797 -0.015412918
0.17623417 0.069985092 -0.015706912
0.20007994 0.070099388 -0.016000905
0.2239257 0.070213683 -0.016294899
0.24777146 0.070327979 -0.016588892
0.27161723 0.070442275 -0.016882886
0.29546299 0.07055657 -0.017176879
0.31930876 0.070670866 -0.017470873
0.34315452 0.070785161 -0.017764866
0.36700029 0.070899457 -0.01805886
0.39084605 0.071013752 -0.018352854
0.41469181 0.071128048 -0.018646847
0.43853758 0.071242343 -0.018940841
0.46238334 0.071356639 -0.019234834
0.48622911 0.071470934 -0.019528828
0.51007487 0.07158523 -0.019822821
0.53392064 0.071699525 -0.020116815
0.5577664 0.071813821 -0.020410809
0.58161216 0.071928116 -0.020704802
0.60545793 0.072042412 -0.020998796
0.62930369 0.072156707 -0.021292789
0.65314946 0.072271003 -0.021586783
0.67699522 0.072385298 -0.021880776
0.70084098 0.072499594 -0.02217477
0.72468675 0.072613889 -0.022468763
0.74853251 0.072728185 -0.022762757
0.77237828 0.07284248 -0.023056751
0.013970734 0.10377754 -0.020473435
0.037816498 0.10389183 -0.020767428
0.061662262 0.10400613 -0.021061422
0.085508026 0.10412042 -0.021355416
0.10935379 0.10423472 -0.021649409
0.13319955 0.10434901 -0.021943403
0.15704532 0.10446331 -0.022237396
0.18089108 0.1045776 -0.02253139
0.20473685 0.1046919 -0.022825383
0.22858261 0.1048062 -0.023119377
0.25242838 0.10492049 -0.02341337
0.27627414 0.10503479 -0.023707364
0.3001199 0.10514908 -0.024001358
0.32396567 0.10526338 -0.024295351
0.34781143 0.10537767 -0.024589345
0.3716572 0.10549197 -0.024883338
0.39550296 0.10560626 -0.025177332
0.41934873 0.10572056 -0.025471325
0.44319449 0.10583486 -0.025765319
0.46704025 0.10594915 -0.026059313
0.49088602 0.10606345 -0.026353306
0.51473178 0.10617774 -0.0266473
0.53857755 0.10629204 -0.026941293
0.56242331 0.10640633 -0.027235287
0.58626907 0.10652063 -0.02752928
0.61011484 0.10663492 -0.027823274
0.6339606 0.10674922 -0.028117268
0.65780637 0.10686351 -0.028411261
0.68165213 0.10697781 -0.028705255
0.7054979 0.10709211 -0.028999248
0.72934366 0.1072064 -0.029293242
0.75318942 0.1073207 -0.029587235
0.77703519 0.10743499 -0.029881229
0.018627645 0.13837005 -0.027297913
0.042473409 0.13848434 -0.027591907
0.066319174 0.13859864 -0.0278859
0.090164938 0.13871293 -0.028179894
0.1140107 0.13882723 -0.028473887
0.13785647 0.13894153 -0.028767881
0.16170223 0.13905582 -0.029061875
0.18554799 0.13917012 -0.029355868
0.20939376 0.13928441 -0.029649862
0.23323952 0.13939871 -0.029943855
0.25708529 0.139513 -0.030237849
0.28093105 0.1396273 -0.030531842
0.30477682 0.13974159 -0.030825836
0.32862258 0.13985589 -0.031119829
0.35246834 0.13997018 -0.031413823
0.37631411 0.14008448 -0.031707817
0.40015987 0.14019878 -0.03200181
0.42400564 0.14031307 -0.032295804
0.4478514 0.14042737 -0.032589797
0.47169717 0.14054166 -0.032883791
0.49554293 0.14065596 -0.033177784
0.51938869 0.14077025 -0.033471778
0.54323446 0.14088455 -0.033765772
0.56708022 0.14099884 -0.034059765
0.59092599 0.14111314 -0.034353759
0.61477175 0.14122744 -0.034647752
0.63861751 0.14134173 -0.034941746
0.66246328 0.14145603 -0.035235739
0.68630904 0.14157032 -0.035529733
0.71015481 0.14168462 -0.035823726
0.73400057 0.14179891 -0.03611772
0.75784634 0.14191321 -0.036411714
0.7816921 0.1420275 -0.036705707
0.023284556 0.17296256 -0.034122391
0.047130321 0.17307685 -0.034416385
0.070976085 0.17319115 -0.034710379
0.094821849 0.17330545 -0.035004372
0.11866761 0.17341974 -0.035298366
0.14251338 0.17353404 -0.035592359
0.16635914 0.17364833 -0.035886353
0.19020491 0.17376263 -0.036180346
0.21405067 0.17387692 -0.03647434
0.23789643 0.17399122 -0.036768333
0.2617422 0.17410551 -0.037062327
0.28558796 0.17421981 -0.037356321
0.30943373 0.17433411 -0.037650314
0.33327949 0.1744484 -0.037944308
0.35712526 0.1745627 -0.038238301
0.38097102 0.17467699 -0.038532295
0.40481678 0.17479129 -0.038826288
0.42866255 0.17490558 -0.039120282
0.45250831 0.17501988 -0.039414276
0.47635408 0.17513417 -0.039708269
0.50019984 0.17524847 -0.040002263
0.5240456 0.17536277 -0.040296256
0.54789137 0.17547706 -0.04059025
0.57173713 0.17559136 -0.040884243
0.5955829 0.17570565 -0.041178237
0.61942866 0.17581995 -0.041472231
0.64327443 0.17593424 -0.041766224
0.66712019 0.17604854 -0.042060218
0.69096595 0.17616283 -0.042354211
0.71481172 0.17627713 -0.042648205
0.73865748 0.17639143 -0.042942198
0.76250325 0.17650572 -0.043236192
0.78634901 0.17662002 -0.043530185
0.027941468 0.20755507 -0.04094687
0.051787232 0.20766937 -0.041240863
0.075632996 0.20778366 -0.041534857
0.09947876 0.20789796 -0.04182885
0.12332452 0.20801225 -0.042122844
0.14717029 0.20812655 -0.042416838
0.17101605 0.20824084 -0.042710831
0.19486182 0.20835514 -0.043004825
0.21870758 0.20846944 -0.043298818
0.24255335 0.20858373 -0.043592812
0.26639911 0.20869803 -0.043886805
0.29024487 0.20881232 -0.044180799
0.31409064 0.20892662 -0.044474792
0.3379364 0.20904091 -0.044768786
0.36178217 0.20915521 -0.04506278
0.38562793 0.2092695 -0.045356773
0.4094737 0.2093838 -0.045650767
0.43331946 0.2094981 -0.04594476
0.45716522 0.20961239 -0.046238754
0.48101099 0.20972669 -0.046532747
0.50485675 0.20984098 -0.046826741
0.52870252 0.20995528 -0.047120735
0.55254828 0.21006957 -0.047414728
0.57639404 0.21018387 -0.047708722
0.60023981 0.21029816 -0.048002715
0.62408557 0.21041246 -0.048296709
0.64793134 0.21052675 -0.048590702
0.6717771 0.21064105 -0.048884696
0.69562287 0.21075535 -0.049178689
0.71946863 0.21086964 -0.049472683
0.74331439 0.21098394 -0.049766677
0.76716016 0.21109823 -0.05006067
0.79100592 0.21121253 -0.050354664
0.032598379 0.24214758 -0.047771348
0.056444143 0.24226188 -0.048065342
0.080289907 0.24237617 -0.048359335
0.10413567 0.24249047 -0.048653329
0.12798144 0.24260477 -0.048947322
0.1518272 0.24271906 -0.049241316
0.17567296 0.24283336 -0.049535309
0.19951873 0.24294765 -0.049829303
0.22336449 0.24306195 -0.050123296
0.24721026 0.24317624 -0.05041729
0.27105602 0.24329054 -0.050711284
0.29490179 0.24340483 -0.051005277
0.31874755 0.24351913 -0.051299271
0.34259331 0.24363342 -0.051593264
0.36643908 0.24374772 -0.051887258
0.39028484 0.24386202 -0.052181251
0.41413061 0.24397631 -0.052475245
0.43797637 0.24409061 -0.052769239
0.46182213 0.2442049 -0.053063232
0.4856679 0.2443192 -0.053357226
0.50951366 0.24443349 -0.053651219
0.53335943 0.24454779 -0.053945213
0.55720519 0.24466208 -0.054239206
0.58105096 0.24477638 -0.0545332
0.60489672 0.24489068 -0.054827194
0.62874248 0.24500497 -0.055121187
0.65258825 0.24511927 -0.055415181
0.67643401 0.24523356 -0.055709174
0.70027978 0.24534786 -0.056003168
0.72412554 0.24546215 -0.056297161
0.74797131 0.24557645 -0.056591155
0.77181707 0.24569074 -0.056885148
0.79566283 0.24580504 -0.057179142
0.03725529 0.2767401 -0.054595826
0.061101054 0.27685439 -0.05488982
0.084946819 0.27696869 -0.055183813
0.10879258 0.27708298 -0.055477807
0.13263835 0.27719728 -0.055771801
0.15648411 0.27731157 -0.056065794
0.18032988 0.27742587 -0.056359788
0.20417564 0.27754016 -0.056653781
0.2280214 0.27765446 -0.056947775
0.25186717 0.27776875 -0.057241768
0.27571293 0.27788305 -0.057535762
0.2995587 0.27799735 -0.057829755
0.32340446 0.27811164 -0.058123749
0.34725023 0.27822594 -0.058417743
0.37109599 0.27834023 -0.058711736
0.39494175 0.27845453 -0.05900573
0.41878752 0.27856882 -0.059299723
0.44263328 0.27868312 -0.059593717
0.46647905 0.27879741 -0.05988771
0.49032481 0.27891171 -0.060181704
0.51417057 0.27902601 -0.060475698
0.53801634 0.2791403 -0.060769691
0.5618621 0.2792546 -0.061063685
0.58570787 0.27936889 -0.061357678
0.60955363 0.27948319 -0.061651672
0.6333994 0.27959748 -0.061945665
0.65724516 0.27971178 -0.062239659
0.68109092 0.27982607 -0.062533652
0.70493669 0.27994037 -0.062827646
0.72878245 0.28005467 -0.06312164
0.75262822 0.28016896 -0.063415633
0.77647398 0.28028326 -0.063709627
0.80031975 0.28039755 -0.06400362
0.041912202 0.31133261 -0.061420305
0.065757966 0.3114469 -0.061714298
0.08960373 0.3115612 -0.062008292
0.11344949 0.31167549 -0.062302285
0.13729526 0.31178979 -0.062596279
0.16114102 0.31190408 -0.062890272
0.18498679 0.31201838 -0.063184266
0.20883255 0.31213268 -0.063478259
0.23267832 0.31224697 -0.063772253
0.25652408 0.31236127 -0.064066247
0.28036984 0.31247556 -0.06436024
0.30421561 0.31258986 -0.064654234
0.32806137 0.31270415 -0.064948227
0.35190714 0.31281845 -0.065242221
0.3757529 0.31293274 -0.065536214
0.39959866 0.31304704 -0.065830208
0.42344443 0.31316134 -0.066124202
0.44729019 0.31327563 -0.066418195
0.47113596 0.31338993 -0.066712189
0.49498172 0.31350422 -0.067006182
0.51882749 0.31361852 -0.067300176
0.54267325 0.31373281 -0.067594169
0.56651901 0.31384711 -0.067888163
0.59036478 0.3139614 -0.068182156
0.61421054 0.3140757 -0.06847615
0.63805631 0.31419 -0.068770144
0.66190207 0.31430429 -0.069064137
0.68574784 0.31441859 -0.069358131
0.7095936 0.31453288 -0.069652124
0.73343936 0.31464718 -0.069946118
0.75728513 0.31476147 -0.070240111
0.78113089 0.31487577 -0.070534105
0.80497666 0.31499006 -0.070828099
0.046569113 0.34592512 -0.068244783
0.070414877 0.34603941 -0.068538776
0.094260641 0.34615371 -0.06883277
0.11810641 0.34626801 -0.069126764
0.14195217 0.3463823 -0.069420757
0.16579793 0.3464966 -0.069714751
0.1896437 0.34661089 -0.070008744
0.21348946 0.34672519 -0.070302738
0.23733523 0.34683948 -0.070596731
0.26118099 0.34695378 -0.070890725
0.28502675 0.34706807 -0.071184718
0.30887252 0.34718237 -0.071478712
0.33271828 0.34729667 -0.071772706
0.35656405 0.34741096 -0.072066699
0.38040981 0.34752526 -0.072360693
0.40425558 0.34763955 -0.072654686
0.42810134 0.34775385 -0.07294868
0.4519471 0.34786814 -0.073242673
0.47579287 0.34798244 -0.073536667
0.49963863 0.34809673 -0.073830661
0.5234844 0.34821103 -0.074124654
0.54733016 0.34832532 -0.074418648
0.57117593 0.34843962 -0.074712641
0.59502169 0.34855392 -0.075006635
0.61886745 0.34866821 -0.075300628
0.64271322 0.34878251 -0.075594622
0.66655898 0.3488968 -0.075888615
0.69040475 0.3490111 -0.076182609
0.71425051 0.34912539 -0.076476603
0.73809627 0.34923969 -0.076770596
0.76194204 0.34935398 -0.07706459
0.7857878 0.34946828 -0.077358583
0.80963357 0.34958258 -0.077652577
0.051226024 0.38051763 -0.075069261
0.075071788 0.38063193 -0.075363255
0.098917553 0.38074622 -0.075657248
0.12276332 0.38086052 -0.075951242
0.14660908 0.38097481 -0.076245235
0.17045485 0.38108911 -0.076539229
0.19430061 0.3812034 -0.076833222
0.21814637 0.3813177 -0.077127216
0.24199214 0.38143199 -0.07742121
0.2658379 0.38154629 -0.077715203
0.28968367 0.38166059 -0.078009197
0.31352943 0.38177488 -0.07830319
0.33737519 0.38188918 -0.078597184
0.36122096 0.38200347 -0.078891177
0.38506672 0.38211777 -0.079185171
0.40891249 0.38223206 -0.079479165
0.43275825 0.38234636 -0.079773158
0.45660402 0.38246065 -0.080067152
0.48044978 0.38257495 -0.080361145
0.50429554 0.38268925 -0.080655139
0.52814131 0.38280354 -0.080949132
0.55198707 0.38291784 -0.081243126
0.57583284 0.38303213 -0.081537119
0.5996786 0.38314643 -0.081831113
0.62352437 0.38326072 -0.082125107
0.64737013 0.38337502 -0.0824191
0.67121589 0.38348931 -0.082713094
0.69506166 0.38360361 -0.083007087
0.71890742 0.38371791 -0.083301081
0.74275319 0.3838322 -0.083595074
0.76659895 0.3839465 -0.083889068
0.79044471 0.38406079 -0.084183062
0.81429048 0.38417509 -0.084477055
0.055882935 0.41511014 -0.081893739
0.0797287 0.41522444 -0.082187733
0.10357446 0.41533873 -0.082481726
0.12742023 0.41545303 -0.08277572
0.15126599 0.41556732 -0.083069714
0.17511176 0.41568162 -0.083363707
0.19895752 0.41579592 -0.083657701
0.22280328 0.41591021 -0.083951694
0.24664905 0.41602451 -0.084245688
0.27049481 0.4161388 -0.084539681
0.29434058 0.4162531 -0.084833675
0.31818634 0.41636739 -0.085127669
0.34203211 0.41648169 -0.085421662
0.36587787 0.41659598 -0.085715656
0.38972363 0.41671028 -0.086009649
0.4135694 0.41682458 -0.086303643
0.43741516 0.41693887 -0.086597636
0.46126093 0.41705317 -0.08689163
0.48510669 0.41716746 -0.087185624
0.50895246 0.41728176 -0.087479617
0.53279822 0.41739605 -0.087773611
0.55664398 0.41751035 -0.088067604
0.58048975 0.41762464 -0.088361598
0.60433551 0.41773894 -0.088655591
0.62818128 0.41785324 -0.088949585
0.65202704 0.41796753 -0.089243578
0.6758728 0.41808183 -0.089537572
0.69971857 0.41819612 -0.089831566
0.72356433 0.41831042 -0.090125559
0.7474101 0.41842471 -0.090419553
0.77125586 0.41853901 -0.090713546
0.79510163 0.4186533 -0.09100754
0.81894739 0.4187676 -0.091301533
0.060539847 0.44970265 -0.088718218
0.084385611 0.44981695 -0.089012211
0.10823138 0.44993125 -0.089306205
0.13207714 0.45004554 -0.089600198
0.1559229 0.45015984 -0.089894192
0.17976867 0.45027413 -0.090188185
0.20361443 0.45038843 -0.090482179
0.2274602 0.45050272 -0.090776173
0.25130596 0.45061702 -0.091070166
0.27515172 0.45073131 -0.09136416
0.29899749 0.45084561 -0.091658153
0.32284325 0.45095991 -0.091952147
0.34668902 0.4510742 -0.09224614
0.37053478 0.4511885 -0.092540134
0.39438055 0.45130279 -0.092834128
0.41822631 0.45141709 -0.093128121
0.44207207 0.45153138 -0.093422115
0.46591784 0.45164568 -0.093716108
0.4897636 0.45175997 -0.094010102
0.51360937 0.45187427 -0.094304095
0.53745513 0.45198856 -0.094598089
0.5613009 0.45210286 -0.094892082
0.58514666 0.45221716 -0.095186076
0.60899242 0.45233145 -0.09548007
0.63283819 0.45244575 -0.095774063
0.65668395 0.45256004 -0.096068057
0.68052972 0.45267434 -0.09636205
0.70437548 0.45278863 -0.096656044
0.72822124 0.45290293 -0.096950037
0.75206701 0.45301722 -0.097244031
0.77591277 0.45313152 -0.097538025
0.79975854 0.45324582 -0.097832018
0.8236043 0.45336011 -0.098126012
0.065196758 0.48429517 -0.095542696
0.089042522 0.48440946 -0.095836689
0.11288829 0.48452376 -0.096130683
0.13673405 0.48463805 -0.096424677
0.16057981 0.48475235 -0.09671867
0.18442558 0.48486664 -0.097012664
0.20827134 0.48498094 -0.097306657
0.23211711 0.48509524 -0.097600651
0.25596287 0.48520953 -0.097894644
0.27980864 0.48532383 -0.098188638
0.3036544 0.48543812 -0.098482632
0.32750016 0.48555242 -0.098776625
0.35134593 0.48566671 -0.099070619
0.37519169 0.48578101 -0.099364612
0.39903746 0.4858953 -0.099658606
0.42288322 0.4860096 -0.099952599
0.44672899 0.48612389 -0.10024659
0.47057475 0.48623819 -0.10054059
0.49442051 0.48635249 -0.10083458
0.51826628 0.48646678 -0.10112857
0.54211204 0.48658108 -0.10142257
0.56595781 0.48669537 -0.10171656
0.58980357 0.48680967 -0.10201055
0.61364933 0.48692396 -0.10230455
0.6374951 0.48703826 -0.10259854
0.66134086 0.48715255 -0.10289254
0.68518663 0.48726685 -0.10318653
0.70903239 0.48738115 -0.10348052
0.73287816 0.48749544 -0.10377452
0.75672392 0.48760974 -0.10406851
0.78056968 0.48772403 -0.1043625
0.80441545 0.48783833 -0.1046565
0.82826121 0.48795262 -0.10495049
0.069853669 0.51888768 -0.10236717
0.093699433 0.51900197 -0.10266117
0.1175452 0.51911627 -0.10295516
0.14139096 0.51923056 -0.10324915
0.16523673 0.51934486 -0.10354315
0.18908249 0.51945916 -0.10383714
0.21292825 0.51957345 -0.10413114
0.23677402 0.51968775 -0.10442513
0.26061978 0.51980204 -0.10471912
0.28446555 0.51991634 -0.10501312
0.30831131 0.52003063 -0.10530711
0.33215708 0.52014493 -0.1056011
0.35600284 0.52025922 -0.1058951
0.3798486 0.52037352 -0.10618909
0.40369437 0.52048782 -0.10648308
0.42754013 0.52060211 -0.10677708
0.4513859 0.52071641 -0.10707107
0.47523166 0.5208307 -0.10736506
0.49907743 0.520945 -0.10765906
0.52292319 0.52105929 -0.10795305
0.54676895 0.52117359 -0.10824705
0.57061472 0.52128788 -0.10854104
0.59446048 0.52140218 -0.10883503
0.61830625 0.52151648 -0.10912903
0.64215201 0.52163077 -0.10942302
0.66599777 0.52174507 -0.10971701
0.68984354 0.52185936 -0.11001101
0.7136893 0.52197366 -0.110305
0.73753507 0.52208795 -0.11059899
0.76138083 0.52220225 -0.11089299
0.7852266 0.52231654 -0.11118698
0.80907236 0.52243084 -0.11148097
0.83291812 0.52254514 -0.11177497
0.074510581 0.55348019 -0.10919165
0.098356345 0.55359449 -0.10948565
0.12220211 0.55370878 -0.10977964
0.14604787 0.55382308 -0.11007363
0.16989364 0.55393737 -0.11036763
0.1937394 0.55405167 -0.11066162
0.21758517 0.55416596 -0.11095561
0.24143093 0.55428026 -0.11124961
0.26527669 0.55439455 -0.1115436
0.28912246 0.55450885 -0.11183759
0.31296822 0.55462315 -0.11213159
0.33681399 0.55473744 -0.11242558
0.36065975 0.55485174 -0.11271958
0.38450552 0.55496603 -0.11301357
0.40835128 0.55508033 -0.11330756
0.43219704 0.55519462 -0.11360156
0.45604281 0.55530892 -0.11389555
0.47988857 0.55542321 -0.11418954
0.50373434 0.55553751 -0.11448354
0.5275801 0.55565181 -0.11477753
0.55142586 0.5557661 -0.11507152
0.57527163 0.5558804 -0.11536552
0.59911739 0.55599469 -0.11565951
0.62296316 0.55610899 -0.1159535
0.64680892 0.55622328 -0.1162475
0.67065469 0.55633758 -0.11654149
0.69450045 0.55645187 -0.11683549
0.71834621 0.55656617 -0.11712948
0.74219198 0.55668046 -0.11742347
0.76603774 0.55679476 -0.11771747
0.78988351 0.55690906 -0.11801146
0.81372927 0.55702335 -0.11830545
0.83757504 0.55713765 -0.11859945
0.079167492 0.5880727 -0.11601613
0.10301326 0.588187 -0.11631012
0.12685902 0.58830129 -0.11660412
0.15070478 0.58841559 -0.11689811
0.17455055 0.58852988 -0.11719211
0.19839631 0.58864418 -0.1174861
0.22224208 0.58875848 -0.11778009
0.24608784 0.58887277 -0.11807409
0.26993361 0.58898707 -0.11836808
0.29377937 0.58910136 -0.11866207
0.31762513 0.58921566 -0.11895607
0.3414709 0.58932995 -0.11925006
0.36531666 0.58944425 -0.11954405
0.38916243 0.58955854 -0.11983805
0.41300819 0.58967284 -0.12013204
0.43685396 0.58978713 -0.12042603
0.46069972 0.58990143 -0.12072003
0.48454548 0.59001573 -0.12101402
0.50839125 0.59013002 -0.12130801
0.53223701 0.59024432 -0.12160201
0.55608278 0.59035861 -0.121896
0.57992854 0.59047291 -0.12219
0.6037743 0.5905872 -0.12248399
0.62762007 0.5907015 -0.12277798
0.65146583 0.59081579 -0.12307198
0.6753116 0.59093009 -0.12336597
0.69915736 0.59104439 -0.12365996
0.72300313 0.59115868 -0.12395396
0.74684889 0.59127298 -0.12424795
0.77069465 0.59138727 -0.12454194
0.79454042 0.59150157 -0.12483594
0.81838618 0.59161586 -0.12512993
0.84223195 0.59173016 -0.12542392
0.083824403 0.62266521 -0.12284061
0.10767017 0.62277951 -0.1231346
0.13151593 0.62289381 -0.1234286
0.1553617 0.6230081 -0.12372259
0.17920746 0.6231224 -0.12401658
0.20305322 0.62323669 -0.12431058
0.22689899 0.62335099 -0.12460457
0.25074475 0.62346528 -0.12489856
0.27459052 0.62357958 -0.12519256
0.29843628 0.62369387 -0.12548655
0.32228205 0.62380817 -0.12578054
0.34612781 0.62392246 -0.12607454
0.36997357 0.62403676 -0.12636853
0.39381934 0.62415106 -0.12666253
0.4176651 0.62426535 -0.12695652
0.44151087 0.62437965 -0.12725051
0.46535663 0.62449394 -0.12754451
0.48920239 0.62460824 -0.1278385
0.51304816 0.62472253 -0.12813249
0.53689392 0.62483683 -0.12842649
0.56073969 0.62495112 -0.12872048
0.58458545 0.62506542 -0.12901447
0.60843122 0.62517972 -0.12930847
0.63227698 0.62529401 -0.12960246
0.65612274 0.62540831 -0.12989645
0.67996851 0.6255226 -0.13019045
0.70381427 0.6256369 -0.13048444
0.72766004 0.62575119 -0.13077844
0.7515058 0.62586549 -0.13107243
0.77535157 0.62597978 -0.13136642
