site/assets/luts/upstream-urnaswfociotransformid10panasonicinputvlog-curve-to-linear10--97d535e18.cube
# LUTr-Schema-Version: 2
# LUTr-ID: upstream-urnaswfociotransformid10panasonicinputvlog-curve-to-linear10--97d535e18
# LUTr-Title: Panasonic.Input.VLog-Curve
# LUTr-Collection: OCIO ACES
# LUTr-Collection-ID: aswf-opencolorio-config-aces
# LUTr-Source: https://github.com/AcademySoftwareFoundation/OpenColorIO-Config-ACES
# LUTr-Retrieved: 2026-07-27
# LUTr-Source-File: submissions/aswf-opencolorio-config-aces/opencolorio_config_aces/clf/transforms/panasonic/input/Panasonic.Input.VLog-Curve.clf
# LUTr-Source-Format: CLF
# LUTr-Source-SHA256: 394949b8a20f3b1bf928d03a7911330df94c3f01619e67be612e48c718a56832
# LUTr-License: BSD-3-Clause
# LUTr-License-URL: https://github.com/AcademySoftwareFoundation/OpenColorIO-Config-ACES/blob/main/LICENSE
# LUTr-License-Basis: repo-license-file
# LUTr-Transform-Class: color-space-conversion
# LUTr-Tags: technical, aces, ocio, clf, color-management, cube
# LUTr-Input-Color-Space: 
# LUTr-Input-Gamut: unspecified
# LUTr-Input-Transfer: panasonic-v-log
# LUTr-Output-Color-Space: 
# LUTr-Output-Gamut: unspecified
# LUTr-Output-Transfer: linear
# LUTr-Color-Space-Confidence: descriptor-only
# LUTr-Domain-Normalized: true
# LUTr-Shaper: none
# LUTr-Original-Grid: analytic
# LUTr-Conversion-Grid: 33x33x33
# LUTr-Conversion-Interpolation: linear
# LUTr-Conversion-Method: CLF operations evaluated as float and sampled to 33x33x33 3D CUBE
# LUTr-Conversion-Tool: LUTr scripts/convert-all-to-cube.mjs 2.0.0
# LUTr-Conversion-Date: 2026-07-27
# LUTr-Conversion-Warning: A sampled 3D CUBE is bounded to DOMAIN_MIN/MAX 0..1 and cannot preserve CLF values outside its input domain.
# LUTr-Upstream-ID: urn:aswf:ocio:transformId:1.0:Panasonic:Input:VLog-Curve_to_Linear:1.0
# LUTr-Upstream-Name: Panasonic V-Log Log to Linear Curve
# LUTr-Upstream-Input-Descriptor: Panasonic V-Log Log (arbitrary primaries)
# LUTr-Upstream-Output-Descriptor: Panasonic V-Log Linear (arbitrary primaries)
# LUTr-Upstream-Operations: Log
# LUTr-Upstream-Domain: unbounded
# LUTr-Note: Preserve this metadata and the upstream license notices when redistributing.
TITLE "Panasonic.Input.VLog-Curve"
LUT_3D_SIZE 5
DOMAIN_MIN 0 0 0
DOMAIN_MAX 1 1 1
-0.022321312 -0.022321312 -0.022321312
0.027430697 -0.022321312 -0.022321312
0.3833489 -0.022321312 -0.022321312
4.2424564 -0.022321312 -0.022321312
46.085528 -0.022321312 -0.022321312
-0.022321312 0.027430697 -0.022321312
0.027430697 0.027430697 -0.022321312
0.3833489 0.027430697 -0.022321312
4.2424564 0.027430697 -0.022321312
46.085528 0.027430697 -0.022321312
-0.022321312 0.3833489 -0.022321312
0.027430697 0.3833489 -0.022321312
0.3833489 0.3833489 -0.022321312
4.2424564 0.3833489 -0.022321312
46.085528 0.3833489 -0.022321312
-0.022321312 4.2424564 -0.022321312
0.027430697 4.2424564 -0.022321312
0.3833489 4.2424564 -0.022321312
4.2424564 4.2424564 -0.022321312
46.085528 4.2424564 -0.022321312
-0.022321312 46.085528 -0.022321312
0.027430697 46.085528 -0.022321312
0.3833489 46.085528 -0.022321312
4.2424564 46.085528 -0.022321312
46.085528 46.085528 -0.022321312
-0.022321312 -0.022321312 0.027430697
0.027430697 -0.022321312 0.027430697
0.3833489 -0.022321312 0.027430697
4.2424564 -0.022321312 0.027430697
46.085528 -0.022321312 0.027430697
-0.022321312 0.027430697 0.027430697
0.027430697 0.027430697 0.027430697
0.3833489 0.027430697 0.027430697
4.2424564 0.027430697 0.027430697
46.085528 0.027430697 0.027430697
-0.022321312 0.3833489 0.027430697
0.027430697 0.3833489 0.027430697
0.3833489 0.3833489 0.027430697
4.2424564 0.3833489 0.027430697
46.085528 0.3833489 0.027430697
-0.022321312 4.2424564 0.027430697
0.027430697 4.2424564 0.027430697
0.3833489 4.2424564 0.027430697
4.2424564 4.2424564 0.027430697
46.085528 4.2424564 0.027430697
-0.022321312 46.085528 0.027430697
0.027430697 46.085528 0.027430697
0.3833489 46.085528 0.027430697
4.2424564 46.085528 0.027430697
46.085528 46.085528 0.027430697
-0.022321312 -0.022321312 0.3833489
0.027430697 -0.022321312 0.3833489
0.3833489 -0.022321312 0.3833489
4.2424564 -0.022321312 0.3833489
46.085528 -0.022321312 0.3833489
-0.022321312 0.027430697 0.3833489
0.027430697 0.027430697 0.3833489
0.3833489 0.027430697 0.3833489
4.2424564 0.027430697 0.3833489
46.085528 0.027430697 0.3833489
-0.022321312 0.3833489 0.3833489
0.027430697 0.3833489 0.3833489
0.3833489 0.3833489 0.3833489
4.2424564 0.3833489 0.3833489
46.085528 0.3833489 0.3833489
-0.022321312 4.2424564 0.3833489
0.027430697 4.2424564 0.3833489
0.3833489 4.2424564 0.3833489
4.2424564 4.2424564 0.3833489
46.085528 4.2424564 0.3833489
-0.022321312 46.085528 0.3833489
0.027430697 46.085528 0.3833489
0.3833489 46.085528 0.3833489
4.2424564 46.085528 0.3833489
46.085528 46.085528 0.3833489
-0.022321312 -0.022321312 4.2424564
0.027430697 -0.022321312 4.2424564
0.3833489 -0.022321312 4.2424564
4.2424564 -0.022321312 4.2424564
46.085528 -0.022321312 4.2424564
-0.022321312 0.027430697 4.2424564
0.027430697 0.027430697 4.2424564
0.3833489 0.027430697 4.2424564
4.2424564 0.027430697 4.2424564
46.085528 0.027430697 4.2424564
-0.022321312 0.3833489 4.2424564
0.027430697 0.3833489 4.2424564
0.3833489 0.3833489 4.2424564
4.2424564 0.3833489 4.2424564
46.085528 0.3833489 4.2424564
-0.022321312 4.2424564 4.2424564
0.027430697 4.2424564 4.2424564
0.3833489 4.2424564 4.2424564
4.2424564 4.2424564 4.2424564
46.085528 4.2424564 4.2424564
-0.022321312 46.085528 4.2424564
0.027430697 46.085528 4.2424564
0.3833489 46.085528 4.2424564
4.2424564 46.085528 4.2424564
46.085528 46.085528 4.2424564
-0.022321312 -0.022321312 46.085528
0.027430697 -0.022321312 46.085528
0.3833489 -0.022321312 46.085528
4.2424564 -0.022321312 46.085528
46.085528 -0.022321312 46.085528
-0.022321312 0.027430697 46.085528
0.027430697 0.027430697 46.085528
0.3833489 0.027430697 46.085528
4.2424564 0.027430697 46.085528
46.085528 0.027430697 46.085528
-0.022321312 0.3833489 46.085528
0.027430697 0.3833489 46.085528
0.3833489 0.3833489 46.085528
4.2424564 0.3833489 46.085528
46.085528 0.3833489 46.085528
-0.022321312 4.2424564 46.085528
0.027430697 4.2424564 46.085528
0.3833489 4.2424564 46.085528
4.2424564 4.2424564 46.085528
46.085528 4.2424564 46.085528
-0.022321312 46.085528 46.085528
0.027430697 46.085528 46.085528
0.3833489 46.085528 46.085528
4.2424564 46.085528 46.085528
46.085528 46.085528 46.085528
