site/assets/luts/upstream-urnaswfociotransformid10arriinputarri-logc4-to-aces2065-110--20e59c0fe.cube
# LUTr-Schema-Version: 2
# LUTr-ID: upstream-urnaswfociotransformid10arriinputarri-logc4-to-aces2065-110--20e59c0fe
# LUTr-Title: ARRI.Input.ARRI LogC4 to ACES2065-1
# LUTr-Collection: OCIO ACES
# LUTr-Collection-ID: aswf-opencolorio-config-aces
# LUTr-Source: https://github.com/AcademySoftwareFoundation/OpenColorIO-Config-ACES
# LUTr-Retrieved: 2026-07-27
# LUTr-Source-File: submissions/aswf-opencolorio-config-aces/opencolorio_config_aces/clf/transforms/arri/input/ARRI.Input.ARRI_LogC4_to_ACES2065-1.clf
# LUTr-Source-Format: CLF
# LUTr-Source-SHA256: 4384994747d4f914b2a5ebbe0793adc2c77793f89be3dd49cab5c0fa5a461df9
# LUTr-License: BSD-3-Clause
# LUTr-License-URL: https://github.com/AcademySoftwareFoundation/OpenColorIO-Config-ACES/blob/main/LICENSE
# LUTr-License-Basis: repo-license-file
# LUTr-Transform-Class: color-space-conversion
# LUTr-Tags: technical, aces, ocio, clf, color-management, cube
# LUTr-Input-Color-Space: 
# LUTr-Input-Gamut: unspecified
# LUTr-Input-Transfer: arri-logc4
# LUTr-Output-Color-Space: aces2065-1
# LUTr-Output-Gamut: aces-ap0
# LUTr-Output-Transfer: linear
# LUTr-Color-Space-Confidence: descriptor-only
# LUTr-Domain-Normalized: true
# LUTr-Shaper: none
# LUTr-Original-Grid: analytic
# LUTr-Conversion-Grid: 33x33x33
# LUTr-Conversion-Interpolation: linear
# LUTr-Conversion-Method: CLF operations evaluated as float and sampled to 33x33x33 3D CUBE
# LUTr-Conversion-Tool: LUTr scripts/convert-all-to-cube.mjs 2.0.0
# LUTr-Conversion-Date: 2026-07-27
# LUTr-Conversion-Warning: A sampled 3D CUBE is bounded to DOMAIN_MIN/MAX 0..1 and cannot preserve CLF values outside its input domain.
# LUTr-Upstream-ID: urn:aswf:ocio:transformId:1.0:ARRI:Input:ARRI_LogC4_to_ACES2065-1:1.0
# LUTr-Upstream-Name: ARRI LogC4 to ACES2065-1
# LUTr-Upstream-Input-Descriptor: ARRI LogC4
# LUTr-Upstream-Output-Descriptor: ACES2065-1
# LUTr-Upstream-Operations: Log -> Matrix
# LUTr-Upstream-Domain: unbounded
# LUTr-Note: Preserve this metadata and the upstream license notices when redistributing.
TITLE "ARRI.Input.ARRI LogC4 to ACES2065-1"
LUT_3D_SIZE 5
DOMAIN_MIN 0 0 0
DOMAIN_MAX 1 1 1
-0.018056996 -0.018056996 -0.018056996
0.089623701 -0.017939152 -0.018128685
1.6513363 -0.016230036 -0.0191684
24.301136 0.0085575836 -0.034247573
352.79527 0.3680569 -0.25294354
0.0026519644 0.12639498 -0.018179478
0.11033266 0.12651282 -0.018251166
1.6720453 0.12822194 -0.019290881
24.321845 0.15300956 -0.034370054
352.81598 0.51250888 -0.25306602
0.30299776 2.2214081 -0.019955849
0.41067846 2.2215259 -0.020027538
1.9723911 2.223235 -0.021067253
24.622191 2.2480226 -0.036146426
353.11633 2.607522 -0.25484239
4.658967 32.605761 -0.045718888
4.7666477 32.605879 -0.045790576
6.3283603 32.607588 -0.046830291
28.97816 32.632376 -0.061909464
357.4723 32.991875 -0.28060543
67.834376 473.27552 -0.41936488
67.942057 473.27564 -0.41943657
69.503769 473.27735 -0.42047629
92.153569 473.30213 -0.43555546
420.64771 473.66163 -0.65425143
-0.0030554274 -0.019235589 0.1255284
0.10462527 -0.019117745 0.12545671
1.6663379 -0.017408629 0.124417
24.316138 0.0073789906 0.10933782
352.81027 0.36687831 -0.10935814
0.017653533 0.12521639 0.12540592
0.12533423 0.12533423 0.12533423
1.6870468 0.12704335 0.12429452
24.336847 0.15183097 0.10921534
352.83098 0.51133029 -0.10948063
0.31799933 2.2202295 0.12362955
0.42568002 2.2203473 0.12355786
1.9873926 2.2220564 0.12251814
24.637192 2.246844 0.10743897
353.13133 2.6063434 -0.111257
4.6739686 32.604582 0.09786651
4.7816493 32.6047 0.097794821
6.3433619 32.606409 0.096755106
28.993162 32.631197 0.081675933
357.4873 32.990696 -0.13702004
67.849378 473.27434 -0.27577949
67.957058 473.27446 -0.27585118
69.518771 473.27617 -0.27689089
92.168571 473.30095 -0.29197006
420.66271 473.66045 -0.51066603
0.21451503 -0.036328936 2.2079733
0.32219573 -0.036211092 2.2079017
1.8839083 -0.034501976 2.2068619
24.533708 -0.0097143564 2.1917828
353.02784 0.34978496 1.9730868
0.23522399 0.10812304 2.2078509
0.34290469 0.10824088 2.2077792
1.9046173 0.10995 2.2067395
24.554417 0.13473762 2.1916603
353.04855 0.49423694 1.9729643
0.53556979 2.2031361 2.2060745
0.64325048 2.203254 2.2060028
2.2049631 2.2049631 2.2049631
24.854763 2.2297507 2.1898839
353.3489 2.58925 1.9711879
4.8915391 32.587489 2.1803114
4.9992198 32.587607 2.1802398
6.5609324 32.589316 2.1792
29.210732 32.614104 2.1641209
357.70487 32.973603 1.9454249
68.066948 473.25725 1.8066655
68.174629 473.25736 1.8065938
69.736341 473.25907 1.805554
92.386141 473.28386 1.7904749
420.88028 473.64336 1.5717789
3.3699787 -0.28423684 32.410048
3.4776594 -0.28411899 32.409977
5.039372 -0.28240987 32.408937
27.689172 -0.25762226 32.393858
356.18331 0.10187706 32.175162
3.3906877 -0.13978486 32.409926
3.4983683 -0.13966702 32.409854
5.0600809 -0.1379579 32.408814
27.709881 -0.11317028 32.393735
356.20402 0.24632904 32.175039
3.6910334 1.9552282 32.408149
3.7987141 1.9553461 32.408078
5.3604267 1.9570552 32.407038
28.010227 1.9818428 32.391959
356.50436 2.3413421 32.173263
8.0470027 32.339581 32.382386
8.1546834 32.339699 32.382315
9.716396 32.341408 32.381275
32.366196 32.366196 32.366196
360.86033 32.725695 32.1475
71.222412 473.00934 32.00874
71.330092 473.00946 32.008669
72.891805 473.01117 32.007629
95.541605 473.03595 31.99255
424.03574 473.39545 31.773854
49.134238 -3.8796899 470.43619
49.241919 -3.879572 470.43612
50.803631 -3.8778629 470.43508
73.453431 -3.8530753 470.42
401.94757 -3.493576 470.20131
49.154947 -3.7352379 470.43607
49.262628 -3.73512 470.436
50.82434 -3.7334109 470.43496
73.47414 -3.7086233 470.41988
401.96828 -3.349124 470.20119
49.455293 -1.6402248 470.4343
49.562973 -1.640107 470.43422
51.124686 -1.6383978 470.43318
73.774486 -1.6136102 470.41811
402.26862 -1.2541109 470.19941
53.811262 28.744128 470.40853
53.918943 28.744246 470.40846
55.480655 28.745955 470.40742
78.130455 28.770743 470.39234
406.62459 29.130242 470.17365
116.98667 469.41389 470.03489
117.09435 469.414 470.03481
118.65606 469.41571 470.03378
141.30586 469.4405 470.0187
469.8 469.8 469.8
