site/assets/luts/upstream-urnaswfociotransformid10djiinputdlog-curve-to-linear10--77e50c647.cube
# LUTr-Schema-Version: 2
# LUTr-ID: upstream-urnaswfociotransformid10djiinputdlog-curve-to-linear10--77e50c647
# LUTr-Title: DJI.Input.DLog-Curve
# LUTr-Collection: OCIO ACES
# LUTr-Collection-ID: aswf-opencolorio-config-aces
# LUTr-Source: https://github.com/AcademySoftwareFoundation/OpenColorIO-Config-ACES
# LUTr-Retrieved: 2026-07-27
# LUTr-Source-File: submissions/aswf-opencolorio-config-aces/opencolorio_config_aces/clf/transforms/dji/input/DJI.Input.DLog-Curve.clf
# LUTr-Source-Format: CLF
# LUTr-Source-SHA256: c77f0b5a89c159eaa14a1117fa43dd3e1421927dc9c98102a288e8d7b4e13a9e
# LUTr-License: BSD-3-Clause
# LUTr-License-URL: https://github.com/AcademySoftwareFoundation/OpenColorIO-Config-ACES/blob/main/LICENSE
# LUTr-License-Basis: repo-license-file
# LUTr-Transform-Class: color-space-conversion
# LUTr-Tags: technical, aces, ocio, clf, color-management, cube
# LUTr-Input-Color-Space: 
# LUTr-Input-Gamut: unspecified
# LUTr-Input-Transfer: dji-d-log
# LUTr-Output-Color-Space: 
# LUTr-Output-Gamut: unspecified
# LUTr-Output-Transfer: linear
# LUTr-Color-Space-Confidence: descriptor-only
# LUTr-Domain-Normalized: true
# LUTr-Shaper: none
# LUTr-Original-Grid: analytic
# LUTr-Conversion-Grid: 33x33x33
# LUTr-Conversion-Interpolation: linear
# LUTr-Conversion-Method: CLF operations evaluated as float and sampled to 33x33x33 3D CUBE
# LUTr-Conversion-Tool: LUTr scripts/convert-all-to-cube.mjs 2.0.0
# LUTr-Conversion-Date: 2026-07-27
# LUTr-Conversion-Warning: A sampled 3D CUBE is bounded to DOMAIN_MIN/MAX 0..1 and cannot preserve CLF values outside its input domain.
# LUTr-Upstream-ID: urn:aswf:ocio:transformId:1.0:DJI:Input:DLog-Curve_to_Linear:1.0
# LUTr-Upstream-Name: DJI D-Log Log to Linear Curve
# LUTr-Upstream-Input-Descriptor: DJI D-Log Log (arbitrary primaries)
# LUTr-Upstream-Output-Descriptor: DJI D-Log Linear (arbitrary primaries)
# LUTr-Upstream-Operations: Log
# LUTr-Upstream-Domain: unbounded
# LUTr-Note: Preserve this metadata and the upstream license notices when redistributing.
TITLE "DJI.Input.DLog-Curve"
LUT_3D_SIZE 9
DOMAIN_MIN 0 0 0
DOMAIN_MAX 1 1 1
-0.015418093 -0.015418093 -0.015418093
0.0053264416 -0.015418093 -0.015418093
0.039343638 -0.015418093 -0.015418093
0.143343 -0.015418093 -0.015418093
0.46253402 -0.015418093 -0.015418093
1.4421834 -0.015418093 -0.015418093
4.4488873 -0.015418093 -0.015418093
13.676953 -0.015418093 -0.015418093
41.999393 -0.015418093 -0.015418093
-0.015418093 0.0053264416 -0.015418093
0.0053264416 0.0053264416 -0.015418093
0.039343638 0.0053264416 -0.015418093
0.143343 0.0053264416 -0.015418093
0.46253402 0.0053264416 -0.015418093
1.4421834 0.0053264416 -0.015418093
4.4488873 0.0053264416 -0.015418093
13.676953 0.0053264416 -0.015418093
41.999393 0.0053264416 -0.015418093
-0.015418093 0.039343638 -0.015418093
0.0053264416 0.039343638 -0.015418093
0.039343638 0.039343638 -0.015418093
0.143343 0.039343638 -0.015418093
0.46253402 0.039343638 -0.015418093
1.4421834 0.039343638 -0.015418093
4.4488873 0.039343638 -0.015418093
13.676953 0.039343638 -0.015418093
41.999393 0.039343638 -0.015418093
-0.015418093 0.143343 -0.015418093
0.0053264416 0.143343 -0.015418093
0.039343638 0.143343 -0.015418093
0.143343 0.143343 -0.015418093
0.46253402 0.143343 -0.015418093
1.4421834 0.143343 -0.015418093
4.4488873 0.143343 -0.015418093
13.676953 0.143343 -0.015418093
41.999393 0.143343 -0.015418093
-0.015418093 0.46253402 -0.015418093
0.0053264416 0.46253402 -0.015418093
0.039343638 0.46253402 -0.015418093
0.143343 0.46253402 -0.015418093
0.46253402 0.46253402 -0.015418093
1.4421834 0.46253402 -0.015418093
4.4488873 0.46253402 -0.015418093
13.676953 0.46253402 -0.015418093
41.999393 0.46253402 -0.015418093
-0.015418093 1.4421834 -0.015418093
0.0053264416 1.4421834 -0.015418093
0.039343638 1.4421834 -0.015418093
0.143343 1.4421834 -0.015418093
0.46253402 1.4421834 -0.015418093
1.4421834 1.4421834 -0.015418093
4.4488873 1.4421834 -0.015418093
13.676953 1.4421834 -0.015418093
41.999393 1.4421834 -0.015418093
-0.015418093 4.4488873 -0.015418093
0.0053264416 4.4488873 -0.015418093
0.039343638 4.4488873 -0.015418093
0.143343 4.4488873 -0.015418093
0.46253402 4.4488873 -0.015418093
1.4421834 4.4488873 -0.015418093
4.4488873 4.4488873 -0.015418093
13.676953 4.4488873 -0.015418093
41.999393 4.4488873 -0.015418093
-0.015418093 13.676953 -0.015418093
0.0053264416 13.676953 -0.015418093
0.039343638 13.676953 -0.015418093
0.143343 13.676953 -0.015418093
0.46253402 13.676953 -0.015418093
1.4421834 13.676953 -0.015418093
4.4488873 13.676953 -0.015418093
13.676953 13.676953 -0.015418093
41.999393 13.676953 -0.015418093
-0.015418093 41.999393 -0.015418093
0.0053264416 41.999393 -0.015418093
0.039343638 41.999393 -0.015418093
0.143343 41.999393 -0.015418093
0.46253402 41.999393 -0.015418093
1.4421834 41.999393 -0.015418093
4.4488873 41.999393 -0.015418093
13.676953 41.999393 -0.015418093
41.999393 41.999393 -0.015418093
-0.015418093 -0.015418093 0.0053264416
0.0053264416 -0.015418093 0.0053264416
0.039343638 -0.015418093 0.0053264416
0.143343 -0.015418093 0.0053264416
0.46253402 -0.015418093 0.0053264416
1.4421834 -0.015418093 0.0053264416
4.4488873 -0.015418093 0.0053264416
13.676953 -0.015418093 0.0053264416
41.999393 -0.015418093 0.0053264416
-0.015418093 0.0053264416 0.0053264416
0.0053264416 0.0053264416 0.0053264416
0.039343638 0.0053264416 0.0053264416
0.143343 0.0053264416 0.0053264416
0.46253402 0.0053264416 0.0053264416
1.4421834 0.0053264416 0.0053264416
4.4488873 0.0053264416 0.0053264416
13.676953 0.0053264416 0.0053264416
41.999393 0.0053264416 0.0053264416
-0.015418093 0.039343638 0.0053264416
0.0053264416 0.039343638 0.0053264416
0.039343638 0.039343638 0.0053264416
0.143343 0.039343638 0.0053264416
0.46253402 0.039343638 0.0053264416
1.4421834 0.039343638 0.0053264416
4.4488873 0.039343638 0.0053264416
13.676953 0.039343638 0.0053264416
41.999393 0.039343638 0.0053264416
-0.015418093 0.143343 0.0053264416
0.0053264416 0.143343 0.0053264416
0.039343638 0.143343 0.0053264416
0.143343 0.143343 0.0053264416
0.46253402 0.143343 0.0053264416
1.4421834 0.143343 0.0053264416
4.4488873 0.143343 0.0053264416
13.676953 0.143343 0.0053264416
41.999393 0.143343 0.0053264416
-0.015418093 0.46253402 0.0053264416
0.0053264416 0.46253402 0.0053264416
0.039343638 0.46253402 0.0053264416
0.143343 0.46253402 0.0053264416
0.46253402 0.46253402 0.0053264416
1.4421834 0.46253402 0.0053264416
4.4488873 0.46253402 0.0053264416
13.676953 0.46253402 0.0053264416
41.999393 0.46253402 0.0053264416
-0.015418093 1.4421834 0.0053264416
0.0053264416 1.4421834 0.0053264416
0.039343638 1.4421834 0.0053264416
0.143343 1.4421834 0.0053264416
0.46253402 1.4421834 0.0053264416
1.4421834 1.4421834 0.0053264416
4.4488873 1.4421834 0.0053264416
13.676953 1.4421834 0.0053264416
41.999393 1.4421834 0.0053264416
-0.015418093 4.4488873 0.0053264416
0.0053264416 4.4488873 0.0053264416
0.039343638 4.4488873 0.0053264416
0.143343 4.4488873 0.0053264416
0.46253402 4.4488873 0.0053264416
1.4421834 4.4488873 0.0053264416
4.4488873 4.4488873 0.0053264416
13.676953 4.4488873 0.0053264416
41.999393 4.4488873 0.0053264416
-0.015418093 13.676953 0.0053264416
0.0053264416 13.676953 0.0053264416
0.039343638 13.676953 0.0053264416
0.143343 13.676953 0.0053264416
0.46253402 13.676953 0.0053264416
1.4421834 13.676953 0.0053264416
4.4488873 13.676953 0.0053264416
13.676953 13.676953 0.0053264416
41.999393 13.676953 0.0053264416
-0.015418093 41.999393 0.0053264416
0.0053264416 41.999393 0.0053264416
0.039343638 41.999393 0.0053264416
0.143343 41.999393 0.0053264416
0.46253402 41.999393 0.0053264416
1.4421834 41.999393 0.0053264416
4.4488873 41.999393 0.0053264416
13.676953 41.999393 0.0053264416
41.999393 41.999393 0.0053264416
-0.015418093 -0.015418093 0.039343638
0.0053264416 -0.015418093 0.039343638
0.039343638 -0.015418093 0.039343638
0.143343 -0.015418093 0.039343638
0.46253402 -0.015418093 0.039343638
1.4421834 -0.015418093 0.039343638
4.4488873 -0.015418093 0.039343638
13.676953 -0.015418093 0.039343638
41.999393 -0.015418093 0.039343638
-0.015418093 0.0053264416 0.039343638
0.0053264416 0.0053264416 0.039343638
0.039343638 0.0053264416 0.039343638
0.143343 0.0053264416 0.039343638
0.46253402 0.0053264416 0.039343638
1.4421834 0.0053264416 0.039343638
4.4488873 0.0053264416 0.039343638
13.676953 0.0053264416 0.039343638
41.999393 0.0053264416 0.039343638
-0.015418093 0.039343638 0.039343638
0.0053264416 0.039343638 0.039343638
0.039343638 0.039343638 0.039343638
0.143343 0.039343638 0.039343638
0.46253402 0.039343638 0.039343638
1.4421834 0.039343638 0.039343638
4.4488873 0.039343638 0.039343638
13.676953 0.039343638 0.039343638
41.999393 0.039343638 0.039343638
-0.015418093 0.143343 0.039343638
0.0053264416 0.143343 0.039343638
0.039343638 0.143343 0.039343638
0.143343 0.143343 0.039343638
0.46253402 0.143343 0.039343638
1.4421834 0.143343 0.039343638
4.4488873 0.143343 0.039343638
13.676953 0.143343 0.039343638
41.999393 0.143343 0.039343638
-0.015418093 0.46253402 0.039343638
0.0053264416 0.46253402 0.039343638
0.039343638 0.46253402 0.039343638
0.143343 0.46253402 0.039343638
0.46253402 0.46253402 0.039343638
1.4421834 0.46253402 0.039343638
4.4488873 0.46253402 0.039343638
13.676953 0.46253402 0.039343638
41.999393 0.46253402 0.039343638
-0.015418093 1.4421834 0.039343638
0.0053264416 1.4421834 0.039343638
0.039343638 1.4421834 0.039343638
0.143343 1.4421834 0.039343638
0.46253402 1.4421834 0.039343638
1.4421834 1.4421834 0.039343638
4.4488873 1.4421834 0.039343638
13.676953 1.4421834 0.039343638
41.999393 1.4421834 0.039343638
-0.015418093 4.4488873 0.039343638
0.0053264416 4.4488873 0.039343638
0.039343638 4.4488873 0.039343638
0.143343 4.4488873 0.039343638
0.46253402 4.4488873 0.039343638
1.4421834 4.4488873 0.039343638
4.4488873 4.4488873 0.039343638
13.676953 4.4488873 0.039343638
41.999393 4.4488873 0.039343638
-0.015418093 13.676953 0.039343638
0.0053264416 13.676953 0.039343638
0.039343638 13.676953 0.039343638
0.143343 13.676953 0.039343638
0.46253402 13.676953 0.039343638
1.4421834 13.676953 0.039343638
4.4488873 13.676953 0.039343638
13.676953 13.676953 0.039343638
41.999393 13.676953 0.039343638
-0.015418093 41.999393 0.039343638
0.0053264416 41.999393 0.039343638
0.039343638 41.999393 0.039343638
0.143343 41.999393 0.039343638
0.46253402 41.999393 0.039343638
1.4421834 41.999393 0.039343638
4.4488873 41.999393 0.039343638
13.676953 41.999393 0.039343638
41.999393 41.999393 0.039343638
-0.015418093 -0.015418093 0.143343
0.0053264416 -0.015418093 0.143343
0.039343638 -0.015418093 0.143343
0.143343 -0.015418093 0.143343
0.46253402 -0.015418093 0.143343
1.4421834 -0.015418093 0.143343
4.4488873 -0.015418093 0.143343
13.676953 -0.015418093 0.143343
41.999393 -0.015418093 0.143343
-0.015418093 0.0053264416 0.143343
0.0053264416 0.0053264416 0.143343
0.039343638 0.0053264416 0.143343
0.143343 0.0053264416 0.143343
0.46253402 0.0053264416 0.143343
1.4421834 0.0053264416 0.143343
4.4488873 0.0053264416 0.143343
13.676953 0.0053264416 0.143343
41.999393 0.0053264416 0.143343
-0.015418093 0.039343638 0.143343
0.0053264416 0.039343638 0.143343
0.039343638 0.039343638 0.143343
0.143343 0.039343638 0.143343
0.46253402 0.039343638 0.143343
1.4421834 0.039343638 0.143343
4.4488873 0.039343638 0.143343
13.676953 0.039343638 0.143343
41.999393 0.039343638 0.143343
-0.015418093 0.143343 0.143343
0.0053264416 0.143343 0.143343
0.039343638 0.143343 0.143343
0.143343 0.143343 0.143343
0.46253402 0.143343 0.143343
1.4421834 0.143343 0.143343
4.4488873 0.143343 0.143343
13.676953 0.143343 0.143343
41.999393 0.143343 0.143343
-0.015418093 0.46253402 0.143343
0.0053264416 0.46253402 0.143343
0.039343638 0.46253402 0.143343
0.143343 0.46253402 0.143343
0.46253402 0.46253402 0.143343
1.4421834 0.46253402 0.143343
4.4488873 0.46253402 0.143343
13.676953 0.46253402 0.143343
41.999393 0.46253402 0.143343
-0.015418093 1.4421834 0.143343
0.0053264416 1.4421834 0.143343
0.039343638 1.4421834 0.143343
0.143343 1.4421834 0.143343
0.46253402 1.4421834 0.143343
1.4421834 1.4421834 0.143343
4.4488873 1.4421834 0.143343
13.676953 1.4421834 0.143343
41.999393 1.4421834 0.143343
-0.015418093 4.4488873 0.143343
0.0053264416 4.4488873 0.143343
0.039343638 4.4488873 0.143343
0.143343 4.4488873 0.143343
0.46253402 4.4488873 0.143343
1.4421834 4.4488873 0.143343
4.4488873 4.4488873 0.143343
13.676953 4.4488873 0.143343
41.999393 4.4488873 0.143343
-0.015418093 13.676953 0.143343
0.0053264416 13.676953 0.143343
0.039343638 13.676953 0.143343
0.143343 13.676953 0.143343
0.46253402 13.676953 0.143343
1.4421834 13.676953 0.143343
4.4488873 13.676953 0.143343
13.676953 13.676953 0.143343
41.999393 13.676953 0.143343
-0.015418093 41.999393 0.143343
0.0053264416 41.999393 0.143343
0.039343638 41.999393 0.143343
0.143343 41.999393 0.143343
0.46253402 41.999393 0.143343
1.4421834 41.999393 0.143343
4.4488873 41.999393 0.143343
13.676953 41.999393 0.143343
41.999393 41.999393 0.143343
-0.015418093 -0.015418093 0.46253402
0.0053264416 -0.015418093 0.46253402
0.039343638 -0.015418093 0.46253402
0.143343 -0.015418093 0.46253402
0.46253402 -0.015418093 0.46253402
1.4421834 -0.015418093 0.46253402
4.4488873 -0.015418093 0.46253402
13.676953 -0.015418093 0.46253402
41.999393 -0.015418093 0.46253402
-0.015418093 0.0053264416 0.46253402
0.0053264416 0.0053264416 0.46253402
0.039343638 0.0053264416 0.46253402
0.143343 0.0053264416 0.46253402
0.46253402 0.0053264416 0.46253402
1.4421834 0.0053264416 0.46253402
4.4488873 0.0053264416 0.46253402
13.676953 0.0053264416 0.46253402
41.999393 0.0053264416 0.46253402
-0.015418093 0.039343638 0.46253402
0.0053264416 0.039343638 0.46253402
0.039343638 0.039343638 0.46253402
0.143343 0.039343638 0.46253402
0.46253402 0.039343638 0.46253402
1.4421834 0.039343638 0.46253402
4.4488873 0.039343638 0.46253402
13.676953 0.039343638 0.46253402
41.999393 0.039343638 0.46253402
-0.015418093 0.143343 0.46253402
0.0053264416 0.143343 0.46253402
0.039343638 0.143343 0.46253402
0.143343 0.143343 0.46253402
0.46253402 0.143343 0.46253402
1.4421834 0.143343 0.46253402
4.4488873 0.143343 0.46253402
13.676953 0.143343 0.46253402
41.999393 0.143343 0.46253402
-0.015418093 0.46253402 0.46253402
0.0053264416 0.46253402 0.46253402
0.039343638 0.46253402 0.46253402
0.143343 0.46253402 0.46253402
0.46253402 0.46253402 0.46253402
1.4421834 0.46253402 0.46253402
4.4488873 0.46253402 0.46253402
13.676953 0.46253402 0.46253402
41.999393 0.46253402 0.46253402
-0.015418093 1.4421834 0.46253402
0.0053264416 1.4421834 0.46253402
0.039343638 1.4421834 0.46253402
0.143343 1.4421834 0.46253402
0.46253402 1.4421834 0.46253402
1.4421834 1.4421834 0.46253402
4.4488873 1.4421834 0.46253402
13.676953 1.4421834 0.46253402
41.999393 1.4421834 0.46253402
-0.015418093 4.4488873 0.46253402
0.0053264416 4.4488873 0.46253402
0.039343638 4.4488873 0.46253402
0.143343 4.4488873 0.46253402
0.46253402 4.4488873 0.46253402
1.4421834 4.4488873 0.46253402
4.4488873 4.4488873 0.46253402
13.676953 4.4488873 0.46253402
41.999393 4.4488873 0.46253402
-0.015418093 13.676953 0.46253402
0.0053264416 13.676953 0.46253402
0.039343638 13.676953 0.46253402
0.143343 13.676953 0.46253402
0.46253402 13.676953 0.46253402
1.4421834 13.676953 0.46253402
4.4488873 13.676953 0.46253402
13.676953 13.676953 0.46253402
41.999393 13.676953 0.46253402
-0.015418093 41.999393 0.46253402
0.0053264416 41.999393 0.46253402
0.039343638 41.999393 0.46253402
0.143343 41.999393 0.46253402
0.46253402 41.999393 0.46253402
1.4421834 41.999393 0.46253402
4.4488873 41.999393 0.46253402
13.676953 41.999393 0.46253402
41.999393 41.999393 0.46253402
-0.015418093 -0.015418093 1.4421834
0.0053264416 -0.015418093 1.4421834
0.039343638 -0.015418093 1.4421834
0.143343 -0.015418093 1.4421834
0.46253402 -0.015418093 1.4421834
1.4421834 -0.015418093 1.4421834
4.4488873 -0.015418093 1.4421834
13.676953 -0.015418093 1.4421834
41.999393 -0.015418093 1.4421834
-0.015418093 0.0053264416 1.4421834
0.0053264416 0.0053264416 1.4421834
0.039343638 0.0053264416 1.4421834
0.143343 0.0053264416 1.4421834
0.46253402 0.0053264416 1.4421834
1.4421834 0.0053264416 1.4421834
4.4488873 0.0053264416 1.4421834
13.676953 0.0053264416 1.4421834
41.999393 0.0053264416 1.4421834
-0.015418093 0.039343638 1.4421834
0.0053264416 0.039343638 1.4421834
0.039343638 0.039343638 1.4421834
0.143343 0.039343638 1.4421834
0.46253402 0.039343638 1.4421834
1.4421834 0.039343638 1.4421834
4.4488873 0.039343638 1.4421834
13.676953 0.039343638 1.4421834
41.999393 0.039343638 1.4421834
-0.015418093 0.143343 1.4421834
0.0053264416 0.143343 1.4421834
0.039343638 0.143343 1.4421834
0.143343 0.143343 1.4421834
0.46253402 0.143343 1.4421834
1.4421834 0.143343 1.4421834
4.4488873 0.143343 1.4421834
13.676953 0.143343 1.4421834
41.999393 0.143343 1.4421834
-0.015418093 0.46253402 1.4421834
0.0053264416 0.46253402 1.4421834
0.039343638 0.46253402 1.4421834
0.143343 0.46253402 1.4421834
0.46253402 0.46253402 1.4421834
1.4421834 0.46253402 1.4421834
4.4488873 0.46253402 1.4421834
13.676953 0.46253402 1.4421834
41.999393 0.46253402 1.4421834
-0.015418093 1.4421834 1.4421834
0.0053264416 1.4421834 1.4421834
0.039343638 1.4421834 1.4421834
0.143343 1.4421834 1.4421834
0.46253402 1.4421834 1.4421834
1.4421834 1.4421834 1.4421834
4.4488873 1.4421834 1.4421834
13.676953 1.4421834 1.4421834
41.999393 1.4421834 1.4421834
-0.015418093 4.4488873 1.4421834
0.0053264416 4.4488873 1.4421834
0.039343638 4.4488873 1.4421834
0.143343 4.4488873 1.4421834
0.46253402 4.4488873 1.4421834
1.4421834 4.4488873 1.4421834
4.4488873 4.4488873 1.4421834
13.676953 4.4488873 1.4421834
41.999393 4.4488873 1.4421834
-0.015418093 13.676953 1.4421834
0.0053264416 13.676953 1.4421834
0.039343638 13.676953 1.4421834
0.143343 13.676953 1.4421834
0.46253402 13.676953 1.4421834
1.4421834 13.676953 1.4421834
4.4488873 13.676953 1.4421834
13.676953 13.676953 1.4421834
41.999393 13.676953 1.4421834
-0.015418093 41.999393 1.4421834
0.0053264416 41.999393 1.4421834
0.039343638 41.999393 1.4421834
0.143343 41.999393 1.4421834
0.46253402 41.999393 1.4421834
1.4421834 41.999393 1.4421834
4.4488873 41.999393 1.4421834
13.676953 41.999393 1.4421834
41.999393 41.999393 1.4421834
-0.015418093 -0.015418093 4.4488873
0.0053264416 -0.015418093 4.4488873
0.039343638 -0.015418093 4.4488873
0.143343 -0.015418093 4.4488873
0.46253402 -0.015418093 4.4488873
1.4421834 -0.015418093 4.4488873
4.4488873 -0.015418093 4.4488873
13.676953 -0.015418093 4.4488873
41.999393 -0.015418093 4.4488873
-0.015418093 0.0053264416 4.4488873
0.0053264416 0.0053264416 4.4488873
0.039343638 0.0053264416 4.4488873
0.143343 0.0053264416 4.4488873
0.46253402 0.0053264416 4.4488873
1.4421834 0.0053264416 4.4488873
4.4488873 0.0053264416 4.4488873
13.676953 0.0053264416 4.4488873
41.999393 0.0053264416 4.4488873
-0.015418093 0.039343638 4.4488873
0.0053264416 0.039343638 4.4488873
0.039343638 0.039343638 4.4488873
0.143343 0.039343638 4.4488873
0.46253402 0.039343638 4.4488873
1.4421834 0.039343638 4.4488873
4.4488873 0.039343638 4.4488873
13.676953 0.039343638 4.4488873
41.999393 0.039343638 4.4488873
-0.015418093 0.143343 4.4488873
0.0053264416 0.143343 4.4488873
0.039343638 0.143343 4.4488873
0.143343 0.143343 4.4488873
0.46253402 0.143343 4.4488873
1.4421834 0.143343 4.4488873
4.4488873 0.143343 4.4488873
13.676953 0.143343 4.4488873
41.999393 0.143343 4.4488873
-0.015418093 0.46253402 4.4488873
0.0053264416 0.46253402 4.4488873
0.039343638 0.46253402 4.4488873
0.143343 0.46253402 4.4488873
0.46253402 0.46253402 4.4488873
1.4421834 0.46253402 4.4488873
4.4488873 0.46253402 4.4488873
13.676953 0.46253402 4.4488873
41.999393 0.46253402 4.4488873
-0.015418093 1.4421834 4.4488873
0.0053264416 1.4421834 4.4488873
0.039343638 1.4421834 4.4488873
0.143343 1.4421834 4.4488873
0.46253402 1.4421834 4.4488873
1.4421834 1.4421834 4.4488873
4.4488873 1.4421834 4.4488873
13.676953 1.4421834 4.4488873
41.999393 1.4421834 4.4488873
-0.015418093 4.4488873 4.4488873
0.0053264416 4.4488873 4.4488873
0.039343638 4.4488873 4.4488873
0.143343 4.4488873 4.4488873
0.46253402 4.4488873 4.4488873
1.4421834 4.4488873 4.4488873
4.4488873 4.4488873 4.4488873
13.676953 4.4488873 4.4488873
41.999393 4.4488873 4.4488873
-0.015418093 13.676953 4.4488873
0.0053264416 13.676953 4.4488873
0.039343638 13.676953 4.4488873
0.143343 13.676953 4.4488873
0.46253402 13.676953 4.4488873
1.4421834 13.676953 4.4488873
4.4488873 13.676953 4.4488873
13.676953 13.676953 4.4488873
41.999393 13.676953 4.4488873
-0.015418093 41.999393 4.4488873
0.0053264416 41.999393 4.4488873
0.039343638 41.999393 4.4488873
0.143343 41.999393 4.4488873
0.46253402 41.999393 4.4488873
1.4421834 41.999393 4.4488873
4.4488873 41.999393 4.4488873
13.676953 41.999393 4.4488873
41.999393 41.999393 4.4488873
-0.015418093 -0.015418093 13.676953
0.0053264416 -0.015418093 13.676953
0.039343638 -0.015418093 13.676953
0.143343 -0.015418093 13.676953
0.46253402 -0.015418093 13.676953
1.4421834 -0.015418093 13.676953
4.4488873 -0.015418093 13.676953
13.676953 -0.015418093 13.676953
41.999393 -0.015418093 13.676953
-0.015418093 0.0053264416 13.676953
0.0053264416 0.0053264416 13.676953
0.039343638 0.0053264416 13.676953
0.143343 0.0053264416 13.676953
0.46253402 0.0053264416 13.676953
1.4421834 0.0053264416 13.676953
4.4488873 0.0053264416 13.676953
13.676953 0.0053264416 13.676953
41.999393 0.0053264416 13.676953
-0.015418093 0.039343638 13.676953
0.0053264416 0.039343638 13.676953
0.039343638 0.039343638 13.676953
0.143343 0.039343638 13.676953
0.46253402 0.039343638 13.676953
1.4421834 0.039343638 13.676953
4.4488873 0.039343638 13.676953
13.676953 0.039343638 13.676953
41.999393 0.039343638 13.676953
-0.015418093 0.143343 13.676953
0.0053264416 0.143343 13.676953
0.039343638 0.143343 13.676953
0.143343 0.143343 13.676953
0.46253402 0.143343 13.676953
1.4421834 0.143343 13.676953
4.4488873 0.143343 13.676953
13.676953 0.143343 13.676953
41.999393 0.143343 13.676953
-0.015418093 0.46253402 13.676953
0.0053264416 0.46253402 13.676953
0.039343638 0.46253402 13.676953
0.143343 0.46253402 13.676953
0.46253402 0.46253402 13.676953
1.4421834 0.46253402 13.676953
4.4488873 0.46253402 13.676953
13.676953 0.46253402 13.676953
41.999393 0.46253402 13.676953
-0.015418093 1.4421834 13.676953
0.0053264416 1.4421834 13.676953
0.039343638 1.4421834 13.676953
0.143343 1.4421834 13.676953
0.46253402 1.4421834 13.676953
1.4421834 1.4421834 13.676953
4.4488873 1.4421834 13.676953
13.676953 1.4421834 13.676953
41.999393 1.4421834 13.676953
-0.015418093 4.4488873 13.676953
0.0053264416 4.4488873 13.676953
0.039343638 4.4488873 13.676953
0.143343 4.4488873 13.676953
0.46253402 4.4488873 13.676953
1.4421834 4.4488873 13.676953
4.4488873 4.4488873 13.676953
13.676953 4.4488873 13.676953
41.999393 4.4488873 13.676953
-0.015418093 13.676953 13.676953
0.0053264416 13.676953 13.676953
0.039343638 13.676953 13.676953
0.143343 13.676953 13.676953
0.46253402 13.676953 13.676953
1.4421834 13.676953 13.676953
4.4488873 13.676953 13.676953
13.676953 13.676953 13.676953
41.999393 13.676953 13.676953
-0.015418093 41.999393 13.676953
0.0053264416 41.999393 13.676953
0.039343638 41.999393 13.676953
0.143343 41.999393 13.676953
0.46253402 41.999393 13.676953
1.4421834 41.999393 13.676953
4.4488873 41.999393 13.676953
13.676953 41.999393 13.676953
41.999393 41.999393 13.676953
-0.015418093 -0.015418093 41.999393
0.0053264416 -0.015418093 41.999393
0.039343638 -0.015418093 41.999393
0.143343 -0.015418093 41.999393
0.46253402 -0.015418093 41.999393
1.4421834 -0.015418093 41.999393
4.4488873 -0.015418093 41.999393
13.676953 -0.015418093 41.999393
41.999393 -0.015418093 41.999393
-0.015418093 0.0053264416 41.999393
0.0053264416 0.0053264416 41.999393
0.039343638 0.0053264416 41.999393
0.143343 0.0053264416 41.999393
0.46253402 0.0053264416 41.999393
1.4421834 0.0053264416 41.999393
4.4488873 0.0053264416 41.999393
13.676953 0.0053264416 41.999393
41.999393 0.0053264416 41.999393
-0.015418093 0.039343638 41.999393
0.0053264416 0.039343638 41.999393
0.039343638 0.039343638 41.999393
0.143343 0.039343638 41.999393
0.46253402 0.039343638 41.999393
1.4421834 0.039343638 41.999393
4.4488873 0.039343638 41.999393
13.676953 0.039343638 41.999393
41.999393 0.039343638 41.999393
-0.015418093 0.143343 41.999393
0.0053264416 0.143343 41.999393
0.039343638 0.143343 41.999393
0.143343 0.143343 41.999393
0.46253402 0.143343 41.999393
1.4421834 0.143343 41.999393
4.4488873 0.143343 41.999393
13.676953 0.143343 41.999393
41.999393 0.143343 41.999393
-0.015418093 0.46253402 41.999393
0.0053264416 0.46253402 41.999393
0.039343638 0.46253402 41.999393
0.143343 0.46253402 41.999393
0.46253402 0.46253402 41.999393
1.4421834 0.46253402 41.999393
4.4488873 0.46253402 41.999393
13.676953 0.46253402 41.999393
41.999393 0.46253402 41.999393
-0.015418093 1.4421834 41.999393
0.0053264416 1.4421834 41.999393
0.039343638 1.4421834 41.999393
0.143343 1.4421834 41.999393
0.46253402 1.4421834 41.999393
1.4421834 1.4421834 41.999393
4.4488873 1.4421834 41.999393
13.676953 1.4421834 41.999393
41.999393 1.4421834 41.999393
-0.015418093 4.4488873 41.999393
0.0053264416 4.4488873 41.999393
0.039343638 4.4488873 41.999393
0.143343 4.4488873 41.999393
0.46253402 4.4488873 41.999393
1.4421834 4.4488873 41.999393
4.4488873 4.4488873 41.999393
13.676953 4.4488873 41.999393
41.999393 4.4488873 41.999393
-0.015418093 13.676953 41.999393
0.0053264416 13.676953 41.999393
0.039343638 13.676953 41.999393
0.143343 13.676953 41.999393
0.46253402 13.676953 41.999393
1.4421834 13.676953 41.999393
4.4488873 13.676953 41.999393
13.676953 13.676953 41.999393
41.999393 13.676953 41.999393
-0.015418093 41.999393 41.999393
0.0053264416 41.999393 41.999393
0.039343638 41.999393 41.999393
0.143343 41.999393 41.999393
0.46253402 41.999393 41.999393
1.4421834 41.999393 41.999393
4.4488873 41.999393 41.999393
13.676953 41.999393 41.999393
41.999393 41.999393 41.999393
