site/assets/luts/upstream-urnaswfociotransformid10arriinputarri-logc3-curve-ei800-to-linear10--2906506c7.cube
# LUTr-Schema-Version: 2
# LUTr-ID: upstream-urnaswfociotransformid10arriinputarri-logc3-curve-ei800-to-linear10--2906506c7
# LUTr-Title: ARRI.Input.ARRI LogC3 Curve EI800
# LUTr-Collection: OCIO ACES
# LUTr-Collection-ID: aswf-opencolorio-config-aces
# LUTr-Source: https://github.com/AcademySoftwareFoundation/OpenColorIO-Config-ACES
# LUTr-Retrieved: 2026-07-27
# LUTr-Source-File: submissions/aswf-opencolorio-config-aces/opencolorio_config_aces/clf/transforms/arri/input/ARRI.Input.ARRI_LogC3_Curve_EI800.clf
# LUTr-Source-Format: CLF
# LUTr-Source-SHA256: c291498ee54689ee0c585d26b82ed266c1f19976cbdc6272eb6cba6e05a9c04b
# LUTr-License: BSD-3-Clause
# LUTr-License-URL: https://github.com/AcademySoftwareFoundation/OpenColorIO-Config-ACES/blob/main/LICENSE
# LUTr-License-Basis: repo-license-file
# LUTr-Transform-Class: color-space-conversion
# LUTr-Tags: technical, aces, ocio, clf, color-management, cube
# LUTr-Input-Color-Space:
# LUTr-Input-Gamut: unspecified
# LUTr-Input-Transfer: arri-logc3-ei800
# LUTr-Output-Color-Space:
# LUTr-Output-Gamut: unspecified
# LUTr-Output-Transfer: linear
# LUTr-Color-Space-Confidence: descriptor-only
# LUTr-Domain-Normalized: true
# LUTr-Shaper: none
# LUTr-Original-Grid: analytic
# LUTr-Conversion-Grid: 33x33x33
# LUTr-Conversion-Interpolation: linear
# LUTr-Conversion-Method: CLF operations evaluated as float and sampled to 33x33x33 3D CUBE
# LUTr-Conversion-Tool: LUTr scripts/convert-all-to-cube.mjs 2.0.0
# LUTr-Conversion-Date: 2026-07-27
# LUTr-Conversion-Warning: A sampled 3D CUBE is bounded to DOMAIN_MIN/MAX 0..1 and cannot preserve CLF values outside its input domain.
# LUTr-Upstream-ID: urn:aswf:ocio:transformId:1.0:ARRI:Input:ARRI_LogC3_Curve_EI800_to_Linear:1.0
# LUTr-Upstream-Name: ARRI LogC3 Curve (EI800) to Relative Scene Linear
# LUTr-Upstream-Input-Descriptor: ARRI LogC3 Curve (EI800)
# LUTr-Upstream-Output-Descriptor: Relative Scene Linear
# LUTr-Upstream-Operations: Log
# LUTr-Upstream-Domain: unbounded
# LUTr-Note: Preserve this metadata and the upstream license notices when redistributing.
TITLE "ARRI.Input.ARRI LogC3 Curve EI800"
LUT_3D_SIZE 33
DOMAIN_MIN 0 0 0
DOMAIN_MAX 1 1 1
-0.017290485 -0.017290485 -0.017290485
-0.011468576 -0.017290485 -0.017290485
-0.0056466666 -0.017290485 -0.017290485
0.00017524283 -0.017290485 -0.017290485
0.0059971522 -0.017290485 -0.017290485
0.011857549 -0.017290485 -0.017290485
0.019043356 -0.017290485 -0.017290485
0.028657191 -0.017290485 -0.017290485
0.041519468 -0.017290485 -0.017290485
0.058727809 -0.017290485 -0.017290485
0.081750715 -0.017290485 -0.017290485
0.11255289 -0.017290485 -0.017290485
0.15376287 -0.017290485 -0.017290485
0.20889739 -0.017290485 -0.017290485
0.28266145 -0.017290485 -0.017290485
0.38134981 -0.017290485 -0.017290485
0.51338421 -0.017290485 -0.017290485
0.69003202 -0.017290485 -0.017290485
0.92636776 -0.017290485 -0.017290485
1.2425595 -0.017290485 -0.017290485
1.6655901 -0.017290485 -0.017290485
2.2315594 -0.017290485 -0.017290485
2.9887654 -0.017290485 -0.017290485
4.0018254 -0.017290485 -0.017290485
5.3571907 -0.017290485 -0.017290485
7.1705234 -0.017290485 -0.017290485
9.5965673 -0.017290485 -0.017290485
12.842353 -0.017290485 -0.017290485
17.184864 -0.017290485 -0.017290485
22.994677 -0.017290485 -0.017290485
30.767581 -0.017290485 -0.017290485
41.166889 -0.017290485 -0.017290485
55.080043 -0.017290485 -0.017290485
-0.017290485 -0.011468576 -0.017290485
-0.011468576 -0.011468576 -0.017290485
-0.0056466666 -0.011468576 -0.017290485
0.00017524283 -0.011468576 -0.017290485
0.0059971522 -0.011468576 -0.017290485
0.011857549 -0.011468576 -0.017290485
0.019043356 -0.011468576 -0.017290485
0.028657191 -0.011468576 -0.017290485
0.041519468 -0.011468576 -0.017290485
0.058727809 -0.011468576 -0.017290485
0.081750715 -0.011468576 -0.017290485
0.11255289 -0.011468576 -0.017290485
0.15376287 -0.011468576 -0.017290485
0.20889739 -0.011468576 -0.017290485
0.28266145 -0.011468576 -0.017290485
0.38134981 -0.011468576 -0.017290485
0.51338421 -0.011468576 -0.017290485
0.69003202 -0.011468576 -0.017290485
0.92636776 -0.011468576 -0.017290485
1.2425595 -0.011468576 -0.017290485
1.6655901 -0.011468576 -0.017290485
2.2315594 -0.011468576 -0.017290485
2.9887654 -0.011468576 -0.017290485
4.0018254 -0.011468576 -0.017290485
5.3571907 -0.011468576 -0.017290485
7.1705234 -0.011468576 -0.017290485
9.5965673 -0.011468576 -0.017290485
12.842353 -0.011468576 -0.017290485
17.184864 -0.011468576 -0.017290485
22.994677 -0.011468576 -0.017290485
30.767581 -0.011468576 -0.017290485
41.166889 -0.011468576 -0.017290485
55.080043 -0.011468576 -0.017290485
-0.017290485 -0.0056466666 -0.017290485
-0.011468576 -0.0056466666 -0.017290485
-0.0056466666 -0.0056466666 -0.017290485
0.00017524283 -0.0056466666 -0.017290485
0.0059971522 -0.0056466666 -0.017290485
0.011857549 -0.0056466666 -0.017290485
0.019043356 -0.0056466666 -0.017290485
0.028657191 -0.0056466666 -0.017290485
0.041519468 -0.0056466666 -0.017290485
0.058727809 -0.0056466666 -0.017290485
0.081750715 -0.0056466666 -0.017290485
0.11255289 -0.0056466666 -0.017290485
0.15376287 -0.0056466666 -0.017290485
0.20889739 -0.0056466666 -0.017290485
0.28266145 -0.0056466666 -0.017290485
0.38134981 -0.0056466666 -0.017290485
0.51338421 -0.0056466666 -0.017290485
0.69003202 -0.0056466666 -0.017290485
0.92636776 -0.0056466666 -0.017290485
1.2425595 -0.0056466666 -0.017290485
1.6655901 -0.0056466666 -0.017290485
2.2315594 -0.0056466666 -0.017290485
2.9887654 -0.0056466666 -0.017290485
4.0018254 -0.0056466666 -0.017290485
5.3571907 -0.0056466666 -0.017290485
7.1705234 -0.0056466666 -0.017290485
9.5965673 -0.0056466666 -0.017290485
12.842353 -0.0056466666 -0.017290485
17.184864 -0.0056466666 -0.017290485
22.994677 -0.0056466666 -0.017290485
30.767581 -0.0056466666 -0.017290485
41.166889 -0.0056466666 -0.017290485
55.080043 -0.0056466666 -0.017290485
-0.017290485 0.00017524283 -0.017290485
-0.011468576 0.00017524283 -0.017290485
-0.0056466666 0.00017524283 -0.017290485
0.00017524283 0.00017524283 -0.017290485
0.0059971522 0.00017524283 -0.017290485
0.011857549 0.00017524283 -0.017290485
0.019043356 0.00017524283 -0.017290485
0.028657191 0.00017524283 -0.017290485
0.041519468 0.00017524283 -0.017290485
0.058727809 0.00017524283 -0.017290485
0.081750715 0.00017524283 -0.017290485
0.11255289 0.00017524283 -0.017290485
0.15376287 0.00017524283 -0.017290485
0.20889739 0.00017524283 -0.017290485
0.28266145 0.00017524283 -0.017290485
0.38134981 0.00017524283 -0.017290485
0.51338421 0.00017524283 -0.017290485
0.69003202 0.00017524283 -0.017290485
0.92636776 0.00017524283 -0.017290485
1.2425595 0.00017524283 -0.017290485
1.6655901 0.00017524283 -0.017290485
2.2315594 0.00017524283 -0.017290485
2.9887654 0.00017524283 -0.017290485
4.0018254 0.00017524283 -0.017290485
5.3571907 0.00017524283 -0.017290485
7.1705234 0.00017524283 -0.017290485
9.5965673 0.00017524283 -0.017290485
12.842353 0.00017524283 -0.017290485
17.184864 0.00017524283 -0.017290485
22.994677 0.00017524283 -0.017290485
30.767581 0.00017524283 -0.017290485
41.166889 0.00017524283 -0.017290485
55.080043 0.00017524283 -0.017290485
-0.017290485 0.0059971522 -0.017290485
-0.011468576 0.0059971522 -0.017290485
-0.0056466666 0.0059971522 -0.017290485
0.00017524283 0.0059971522 -0.017290485
0.0059971522 0.0059971522 -0.017290485
0.011857549 0.0059971522 -0.017290485
0.019043356 0.0059971522 -0.017290485
0.028657191 0.0059971522 -0.017290485
0.041519468 0.0059971522 -0.017290485
0.058727809 0.0059971522 -0.017290485
0.081750715 0.0059971522 -0.017290485
0.11255289 0.0059971522 -0.017290485
0.15376287 0.0059971522 -0.017290485
0.20889739 0.0059971522 -0.017290485
0.28266145 0.0059971522 -0.017290485
0.38134981 0.0059971522 -0.017290485
0.51338421 0.0059971522 -0.017290485
0.69003202 0.0059971522 -0.017290485
0.92636776 0.0059971522 -0.017290485
1.2425595 0.0059971522 -0.017290485
1.6655901 0.0059971522 -0.017290485
2.2315594 0.0059971522 -0.017290485
2.9887654 0.0059971522 -0.017290485
4.0018254 0.0059971522 -0.017290485
5.3571907 0.0059971522 -0.017290485
7.1705234 0.0059971522 -0.017290485
9.5965673 0.0059971522 -0.017290485
12.842353 0.0059971522 -0.017290485
17.184864 0.0059971522 -0.017290485
22.994677 0.0059971522 -0.017290485
30.767581 0.0059971522 -0.017290485
41.166889 0.0059971522 -0.017290485
55.080043 0.0059971522 -0.017290485
-0.017290485 0.011857549 -0.017290485
-0.011468576 0.011857549 -0.017290485
-0.0056466666 0.011857549 -0.017290485
0.00017524283 0.011857549 -0.017290485
0.0059971522 0.011857549 -0.017290485
0.011857549 0.011857549 -0.017290485
0.019043356 0.011857549 -0.017290485
0.028657191 0.011857549 -0.017290485
0.041519468 0.011857549 -0.017290485
0.058727809 0.011857549 -0.017290485
0.081750715 0.011857549 -0.017290485
0.11255289 0.011857549 -0.017290485
0.15376287 0.011857549 -0.017290485
0.20889739 0.011857549 -0.017290485
0.28266145 0.011857549 -0.017290485
0.38134981 0.011857549 -0.017290485
0.51338421 0.011857549 -0.017290485
0.69003202 0.011857549 -0.017290485
0.92636776 0.011857549 -0.017290485
1.2425595 0.011857549 -0.017290485
1.6655901 0.011857549 -0.017290485
2.2315594 0.011857549 -0.017290485
2.9887654 0.011857549 -0.017290485
4.0018254 0.011857549 -0.017290485
5.3571907 0.011857549 -0.017290485
7.1705234 0.011857549 -0.017290485
9.5965673 0.011857549 -0.017290485
12.842353 0.011857549 -0.017290485
17.184864 0.011857549 -0.017290485
22.994677 0.011857549 -0.017290485
30.767581 0.011857549 -0.017290485
41.166889 0.011857549 -0.017290485
55.080043 0.011857549 -0.017290485
-0.017290485 0.019043356 -0.017290485
-0.011468576 0.019043356 -0.017290485
-0.0056466666 0.019043356 -0.017290485
0.00017524283 0.019043356 -0.017290485
0.0059971522 0.019043356 -0.017290485
0.011857549 0.019043356 -0.017290485
0.019043356 0.019043356 -0.017290485
0.028657191 0.019043356 -0.017290485
0.041519468 0.019043356 -0.017290485
0.058727809 0.019043356 -0.017290485
0.081750715 0.019043356 -0.017290485
0.11255289 0.019043356 -0.017290485
0.15376287 0.019043356 -0.017290485
0.20889739 0.019043356 -0.017290485
0.28266145 0.019043356 -0.017290485
0.38134981 0.019043356 -0.017290485
0.51338421 0.019043356 -0.017290485
0.69003202 0.019043356 -0.017290485
0.92636776 0.019043356 -0.017290485
1.2425595 0.019043356 -0.017290485
1.6655901 0.019043356 -0.017290485
2.2315594 0.019043356 -0.017290485
2.9887654 0.019043356 -0.017290485
4.0018254 0.019043356 -0.017290485
5.3571907 0.019043356 -0.017290485
7.1705234 0.019043356 -0.017290485
9.5965673 0.019043356 -0.017290485
12.842353 0.019043356 -0.017290485
17.184864 0.019043356 -0.017290485
22.994677 0.019043356 -0.017290485
30.767581 0.019043356 -0.017290485
41.166889 0.019043356 -0.017290485
55.080043 0.019043356 -0.017290485
-0.017290485 0.028657191 -0.017290485
-0.011468576 0.028657191 -0.017290485
-0.0056466666 0.028657191 -0.017290485
0.00017524283 0.028657191 -0.017290485
0.0059971522 0.028657191 -0.017290485
0.011857549 0.028657191 -0.017290485
0.019043356 0.028657191 -0.017290485
0.028657191 0.028657191 -0.017290485
0.041519468 0.028657191 -0.017290485
0.058727809 0.028657191 -0.017290485
0.081750715 0.028657191 -0.017290485
0.11255289 0.028657191 -0.017290485
0.15376287 0.028657191 -0.017290485
0.20889739 0.028657191 -0.017290485
0.28266145 0.028657191 -0.017290485
0.38134981 0.028657191 -0.017290485
0.51338421 0.028657191 -0.017290485
0.69003202 0.028657191 -0.017290485
0.92636776 0.028657191 -0.017290485
1.2425595 0.028657191 -0.017290485
1.6655901 0.028657191 -0.017290485
2.2315594 0.028657191 -0.017290485
2.9887654 0.028657191 -0.017290485
4.0018254 0.028657191 -0.017290485
5.3571907 0.028657191 -0.017290485
7.1705234 0.028657191 -0.017290485
9.5965673 0.028657191 -0.017290485
12.842353 0.028657191 -0.017290485
17.184864 0.028657191 -0.017290485
22.994677 0.028657191 -0.017290485
30.767581 0.028657191 -0.017290485
41.166889 0.028657191 -0.017290485
55.080043 0.028657191 -0.017290485
-0.017290485 0.041519468 -0.017290485
-0.011468576 0.041519468 -0.017290485
-0.0056466666 0.041519468 -0.017290485
0.00017524283 0.041519468 -0.017290485
0.0059971522 0.041519468 -0.017290485
0.011857549 0.041519468 -0.017290485
0.019043356 0.041519468 -0.017290485
0.028657191 0.041519468 -0.017290485
0.041519468 0.041519468 -0.017290485
0.058727809 0.041519468 -0.017290485
0.081750715 0.041519468 -0.017290485
0.11255289 0.041519468 -0.017290485
0.15376287 0.041519468 -0.017290485
0.20889739 0.041519468 -0.017290485
0.28266145 0.041519468 -0.017290485
0.38134981 0.041519468 -0.017290485
0.51338421 0.041519468 -0.017290485
0.69003202 0.041519468 -0.017290485
0.92636776 0.041519468 -0.017290485
1.2425595 0.041519468 -0.017290485
1.6655901 0.041519468 -0.017290485
2.2315594 0.041519468 -0.017290485
2.9887654 0.041519468 -0.017290485
4.0018254 0.041519468 -0.017290485
5.3571907 0.041519468 -0.017290485
7.1705234 0.041519468 -0.017290485
9.5965673 0.041519468 -0.017290485
12.842353 0.041519468 -0.017290485
17.184864 0.041519468 -0.017290485
22.994677 0.041519468 -0.017290485
30.767581 0.041519468 -0.017290485
41.166889 0.041519468 -0.017290485
55.080043 0.041519468 -0.017290485
-0.017290485 0.058727809 -0.017290485
-0.011468576 0.058727809 -0.017290485
-0.0056466666 0.058727809 -0.017290485
0.00017524283 0.058727809 -0.017290485
0.0059971522 0.058727809 -0.017290485
0.011857549 0.058727809 -0.017290485
0.019043356 0.058727809 -0.017290485
0.028657191 0.058727809 -0.017290485
0.041519468 0.058727809 -0.017290485
0.058727809 0.058727809 -0.017290485
0.081750715 0.058727809 -0.017290485
0.11255289 0.058727809 -0.017290485
0.15376287 0.058727809 -0.017290485
0.20889739 0.058727809 -0.017290485
0.28266145 0.058727809 -0.017290485
0.38134981 0.058727809 -0.017290485
0.51338421 0.058727809 -0.017290485
0.69003202 0.058727809 -0.017290485
0.92636776 0.058727809 -0.017290485
1.2425595 0.058727809 -0.017290485
1.6655901 0.058727809 -0.017290485
2.2315594 0.058727809 -0.017290485
2.9887654 0.058727809 -0.017290485
4.0018254 0.058727809 -0.017290485
5.3571907 0.058727809 -0.017290485
7.1705234 0.058727809 -0.017290485
9.5965673 0.058727809 -0.017290485
12.842353 0.058727809 -0.017290485
17.184864 0.058727809 -0.017290485
22.994677 0.058727809 -0.017290485
30.767581 0.058727809 -0.017290485
41.166889 0.058727809 -0.017290485
55.080043 0.058727809 -0.017290485
-0.017290485 0.081750715 -0.017290485
-0.011468576 0.081750715 -0.017290485
-0.0056466666 0.081750715 -0.017290485
0.00017524283 0.081750715 -0.017290485
0.0059971522 0.081750715 -0.017290485
0.011857549 0.081750715 -0.017290485
0.019043356 0.081750715 -0.017290485
0.028657191 0.081750715 -0.017290485
0.041519468 0.081750715 -0.017290485
0.058727809 0.081750715 -0.017290485
0.081750715 0.081750715 -0.017290485
0.11255289 0.081750715 -0.017290485
0.15376287 0.081750715 -0.017290485
0.20889739 0.081750715 -0.017290485
0.28266145 0.081750715 -0.017290485
0.38134981 0.081750715 -0.017290485
0.51338421 0.081750715 -0.017290485
0.69003202 0.081750715 -0.017290485
0.92636776 0.081750715 -0.017290485
1.2425595 0.081750715 -0.017290485
1.6655901 0.081750715 -0.017290485
2.2315594 0.081750715 -0.017290485
2.9887654 0.081750715 -0.017290485
4.0018254 0.081750715 -0.017290485
5.3571907 0.081750715 -0.017290485
7.1705234 0.081750715 -0.017290485
9.5965673 0.081750715 -0.017290485
12.842353 0.081750715 -0.017290485
17.184864 0.081750715 -0.017290485
22.994677 0.081750715 -0.017290485
30.767581 0.081750715 -0.017290485
41.166889 0.081750715 -0.017290485
55.080043 0.081750715 -0.017290485
-0.017290485 0.11255289 -0.017290485
-0.011468576 0.11255289 -0.017290485
-0.0056466666 0.11255289 -0.017290485
0.00017524283 0.11255289 -0.017290485
0.0059971522 0.11255289 -0.017290485
0.011857549 0.11255289 -0.017290485
0.019043356 0.11255289 -0.017290485
0.028657191 0.11255289 -0.017290485
0.041519468 0.11255289 -0.017290485
0.058727809 0.11255289 -0.017290485
0.081750715 0.11255289 -0.017290485
0.11255289 0.11255289 -0.017290485
0.15376287 0.11255289 -0.017290485
0.20889739 0.11255289 -0.017290485
0.28266145 0.11255289 -0.017290485
0.38134981 0.11255289 -0.017290485
0.51338421 0.11255289 -0.017290485
0.69003202 0.11255289 -0.017290485
0.92636776 0.11255289 -0.017290485
1.2425595 0.11255289 -0.017290485
1.6655901 0.11255289 -0.017290485
2.2315594 0.11255289 -0.017290485
2.9887654 0.11255289 -0.017290485
4.0018254 0.11255289 -0.017290485
5.3571907 0.11255289 -0.017290485
7.1705234 0.11255289 -0.017290485
9.5965673 0.11255289 -0.017290485
12.842353 0.11255289 -0.017290485
17.184864 0.11255289 -0.017290485
22.994677 0.11255289 -0.017290485
30.767581 0.11255289 -0.017290485
41.166889 0.11255289 -0.017290485
55.080043 0.11255289 -0.017290485
-0.017290485 0.15376287 -0.017290485
-0.011468576 0.15376287 -0.017290485
-0.0056466666 0.15376287 -0.017290485
0.00017524283 0.15376287 -0.017290485
0.0059971522 0.15376287 -0.017290485
0.011857549 0.15376287 -0.017290485
0.019043356 0.15376287 -0.017290485
0.028657191 0.15376287 -0.017290485
0.041519468 0.15376287 -0.017290485
0.058727809 0.15376287 -0.017290485
0.081750715 0.15376287 -0.017290485
0.11255289 0.15376287 -0.017290485
0.15376287 0.15376287 -0.017290485
0.20889739 0.15376287 -0.017290485
0.28266145 0.15376287 -0.017290485
0.38134981 0.15376287 -0.017290485
0.51338421 0.15376287 -0.017290485
0.69003202 0.15376287 -0.017290485
0.92636776 0.15376287 -0.017290485
1.2425595 0.15376287 -0.017290485
1.6655901 0.15376287 -0.017290485
2.2315594 0.15376287 -0.017290485
2.9887654 0.15376287 -0.017290485
4.0018254 0.15376287 -0.017290485
5.3571907 0.15376287 -0.017290485
7.1705234 0.15376287 -0.017290485
9.5965673 0.15376287 -0.017290485
12.842353 0.15376287 -0.017290485
17.184864 0.15376287 -0.017290485
22.994677 0.15376287 -0.017290485
30.767581 0.15376287 -0.017290485
41.166889 0.15376287 -0.017290485
55.080043 0.15376287 -0.017290485
-0.017290485 0.20889739 -0.017290485
-0.011468576 0.20889739 -0.017290485
-0.0056466666 0.20889739 -0.017290485
0.00017524283 0.20889739 -0.017290485
0.0059971522 0.20889739 -0.017290485
0.011857549 0.20889739 -0.017290485
0.019043356 0.20889739 -0.017290485
0.028657191 0.20889739 -0.017290485
0.041519468 0.20889739 -0.017290485
0.058727809 0.20889739 -0.017290485
0.081750715 0.20889739 -0.017290485
0.11255289 0.20889739 -0.017290485
0.15376287 0.20889739 -0.017290485
0.20889739 0.20889739 -0.017290485
0.28266145 0.20889739 -0.017290485
0.38134981 0.20889739 -0.017290485
0.51338421 0.20889739 -0.017290485
0.69003202 0.20889739 -0.017290485
0.92636776 0.20889739 -0.017290485
1.2425595 0.20889739 -0.017290485
1.6655901 0.20889739 -0.017290485
2.2315594 0.20889739 -0.017290485
2.9887654 0.20889739 -0.017290485
4.0018254 0.20889739 -0.017290485
5.3571907 0.20889739 -0.017290485
7.1705234 0.20889739 -0.017290485
9.5965673 0.20889739 -0.017290485
12.842353 0.20889739 -0.017290485
17.184864 0.20889739 -0.017290485
22.994677 0.20889739 -0.017290485
30.767581 0.20889739 -0.017290485
41.166889 0.20889739 -0.017290485
55.080043 0.20889739 -0.017290485
-0.017290485 0.28266145 -0.017290485
-0.011468576 0.28266145 -0.017290485
-0.0056466666 0.28266145 -0.017290485
0.00017524283 0.28266145 -0.017290485
0.0059971522 0.28266145 -0.017290485
0.011857549 0.28266145 -0.017290485
0.019043356 0.28266145 -0.017290485
0.028657191 0.28266145 -0.017290485
0.041519468 0.28266145 -0.017290485
0.058727809 0.28266145 -0.017290485
0.081750715 0.28266145 -0.017290485
0.11255289 0.28266145 -0.017290485
0.15376287 0.28266145 -0.017290485
0.20889739 0.28266145 -0.017290485
0.28266145 0.28266145 -0.017290485
0.38134981 0.28266145 -0.017290485
0.51338421 0.28266145 -0.017290485
0.69003202 0.28266145 -0.017290485
0.92636776 0.28266145 -0.017290485
1.2425595 0.28266145 -0.017290485
1.6655901 0.28266145 -0.017290485
2.2315594 0.28266145 -0.017290485
2.9887654 0.28266145 -0.017290485
4.0018254 0.28266145 -0.017290485
5.3571907 0.28266145 -0.017290485
7.1705234 0.28266145 -0.017290485
9.5965673 0.28266145 -0.017290485
12.842353 0.28266145 -0.017290485
17.184864 0.28266145 -0.017290485
22.994677 0.28266145 -0.017290485
30.767581 0.28266145 -0.017290485
41.166889 0.28266145 -0.017290485
55.080043 0.28266145 -0.017290485
-0.017290485 0.38134981 -0.017290485
-0.011468576 0.38134981 -0.017290485
-0.0056466666 0.38134981 -0.017290485
0.00017524283 0.38134981 -0.017290485
0.0059971522 0.38134981 -0.017290485
0.011857549 0.38134981 -0.017290485
0.019043356 0.38134981 -0.017290485
0.028657191 0.38134981 -0.017290485
0.041519468 0.38134981 -0.017290485
0.058727809 0.38134981 -0.017290485
0.081750715 0.38134981 -0.017290485
0.11255289 0.38134981 -0.017290485
0.15376287 0.38134981 -0.017290485
0.20889739 0.38134981 -0.017290485
0.28266145 0.38134981 -0.017290485
0.38134981 0.38134981 -0.017290485
0.51338421 0.38134981 -0.017290485
0.69003202 0.38134981 -0.017290485
0.92636776 0.38134981 -0.017290485
1.2425595 0.38134981 -0.017290485
1.6655901 0.38134981 -0.017290485
2.2315594 0.38134981 -0.017290485
2.9887654 0.38134981 -0.017290485
4.0018254 0.38134981 -0.017290485
5.3571907 0.38134981 -0.017290485
7.1705234 0.38134981 -0.017290485
9.5965673 0.38134981 -0.017290485
12.842353 0.38134981 -0.017290485
17.184864 0.38134981 -0.017290485
22.994677 0.38134981 -0.017290485
30.767581 0.38134981 -0.017290485
41.166889 0.38134981 -0.017290485
55.080043 0.38134981 -0.017290485
-0.017290485 0.51338421 -0.017290485
-0.011468576 0.51338421 -0.017290485
-0.0056466666 0.51338421 -0.017290485
0.00017524283 0.51338421 -0.017290485
0.0059971522 0.51338421 -0.017290485
0.011857549 0.51338421 -0.017290485
0.019043356 0.51338421 -0.017290485
0.028657191 0.51338421 -0.017290485
0.041519468 0.51338421 -0.017290485
0.058727809 0.51338421 -0.017290485
0.081750715 0.51338421 -0.017290485
0.11255289 0.51338421 -0.017290485
0.15376287 0.51338421 -0.017290485
0.20889739 0.51338421 -0.017290485
0.28266145 0.51338421 -0.017290485
0.38134981 0.51338421 -0.017290485
0.51338421 0.51338421 -0.017290485
0.69003202 0.51338421 -0.017290485
0.92636776 0.51338421 -0.017290485
1.2425595 0.51338421 -0.017290485
1.6655901 0.51338421 -0.017290485
2.2315594 0.51338421 -0.017290485
2.9887654 0.51338421 -0.017290485
4.0018254 0.51338421 -0.017290485
5.3571907 0.51338421 -0.017290485
7.1705234 0.51338421 -0.017290485
9.5965673 0.51338421 -0.017290485
12.842353 0.51338421 -0.017290485
17.184864 0.51338421 -0.017290485
22.994677 0.51338421 -0.017290485
30.767581 0.51338421 -0.017290485
41.166889 0.51338421 -0.017290485
55.080043 0.51338421 -0.017290485
-0.017290485 0.69003202 -0.017290485
-0.011468576 0.69003202 -0.017290485
-0.0056466666 0.69003202 -0.017290485
0.00017524283 0.69003202 -0.017290485
0.0059971522 0.69003202 -0.017290485
0.011857549 0.69003202 -0.017290485
0.019043356 0.69003202 -0.017290485
0.028657191 0.69003202 -0.017290485
0.041519468 0.69003202 -0.017290485
0.058727809 0.69003202 -0.017290485
0.081750715 0.69003202 -0.017290485
0.11255289 0.69003202 -0.017290485
0.15376287 0.69003202 -0.017290485
0.20889739 0.69003202 -0.017290485
0.28266145 0.69003202 -0.017290485
0.38134981 0.69003202 -0.017290485
0.51338421 0.69003202 -0.017290485
0.69003202 0.69003202 -0.017290485
0.92636776 0.69003202 -0.017290485
1.2425595 0.69003202 -0.017290485
1.6655901 0.69003202 -0.017290485
2.2315594 0.69003202 -0.017290485
2.9887654 0.69003202 -0.017290485
4.0018254 0.69003202 -0.017290485
5.3571907 0.69003202 -0.017290485
7.1705234 0.69003202 -0.017290485
9.5965673 0.69003202 -0.017290485
12.842353 0.69003202 -0.017290485
17.184864 0.69003202 -0.017290485
22.994677 0.69003202 -0.017290485
30.767581 0.69003202 -0.017290485
41.166889 0.69003202 -0.017290485
55.080043 0.69003202 -0.017290485
-0.017290485 0.92636776 -0.017290485
-0.011468576 0.92636776 -0.017290485
-0.0056466666 0.92636776 -0.017290485
0.00017524283 0.92636776 -0.017290485
0.0059971522 0.92636776 -0.017290485
0.011857549 0.92636776 -0.017290485
0.019043356 0.92636776 -0.017290485
0.028657191 0.92636776 -0.017290485
0.041519468 0.92636776 -0.017290485
0.058727809 0.92636776 -0.017290485
