site/assets/luts/upstream-urnaswfociotransformid10blackmagicdesigninputdavinci-intermediate-log-curve-to-linear10--d6829f01b.cube
# LUTr-Schema-Version: 2
# LUTr-ID: upstream-urnaswfociotransformid10blackmagicdesigninputdavinci-intermediate-log-curve-to-linear10--d6829f01b
# LUTr-Title: BlackmagicDesign.Input.DaVinci Intermediate Log-Curve
# LUTr-Collection: OCIO ACES
# LUTr-Collection-ID: aswf-opencolorio-config-aces
# LUTr-Source: https://github.com/AcademySoftwareFoundation/OpenColorIO-Config-ACES
# LUTr-Retrieved: 2026-07-27
# LUTr-Source-File: submissions/aswf-opencolorio-config-aces/opencolorio_config_aces/clf/transforms/blackmagic/input/BlackmagicDesign.Input.DaVinci_Intermediate_Log-Curve.clf
# LUTr-Source-Format: CLF
# LUTr-Source-SHA256: cdf0f8e10924ecf687faa693f8187aa2e889947ed1411fcac42ac8dc419b0597
# LUTr-License: BSD-3-Clause
# LUTr-License-URL: https://github.com/AcademySoftwareFoundation/OpenColorIO-Config-ACES/blob/main/LICENSE
# LUTr-License-Basis: repo-license-file
# LUTr-Transform-Class: color-space-conversion
# LUTr-Tags: technical, aces, ocio, clf, color-management, cube
# LUTr-Input-Color-Space:
# LUTr-Input-Gamut: unspecified
# LUTr-Input-Transfer: davinci-intermediate
# LUTr-Output-Color-Space:
# LUTr-Output-Gamut: unspecified
# LUTr-Output-Transfer: linear
# LUTr-Color-Space-Confidence: descriptor-only
# LUTr-Domain-Normalized: true
# LUTr-Shaper: none
# LUTr-Original-Grid: analytic
# LUTr-Conversion-Grid: 33x33x33
# LUTr-Conversion-Interpolation: linear
# LUTr-Conversion-Method: CLF operations evaluated as float and sampled to 33x33x33 3D CUBE
# LUTr-Conversion-Tool: LUTr scripts/convert-all-to-cube.mjs 2.0.0
# LUTr-Conversion-Date: 2026-07-27
# LUTr-Conversion-Warning: A sampled 3D CUBE is bounded to DOMAIN_MIN/MAX 0..1 and cannot preserve CLF values outside its input domain.
# LUTr-Upstream-ID: urn:aswf:ocio:transformId:1.0:BlackmagicDesign:Input:DaVinci_Intermediate_Log-Curve_to_Linear:1.0
# LUTr-Upstream-Name: DaVinci Intermediate Log to Linear Curve
# LUTr-Upstream-Input-Descriptor: DaVinci Intermediate Log
# LUTr-Upstream-Output-Descriptor: DaVinci Intermediate Linear
# LUTr-Upstream-Operations: Log
# LUTr-Upstream-Domain: unbounded
# LUTr-Note: Preserve this metadata and the upstream license notices when redistributing.
TITLE "BlackmagicDesign.Input.DaVinci Intermediate Log-Curve"
LUT_3D_SIZE 5
DOMAIN_MIN 0 0 0
DOMAIN_MAX 1 1 1
3.2894634e-11 3.2894634e-11 3.2894634e-11
0.075599934 3.2894634e-11 3.2894634e-11
0.87641668 3.2894634e-11 3.2894634e-11
9.3945374 3.2894634e-11 3.2894634e-11
100.00001 3.2894634e-11 3.2894634e-11
3.2894634e-11 0.075599934 3.2894634e-11
0.075599934 0.075599934 3.2894634e-11
0.87641668 0.075599934 3.2894634e-11
9.3945374 0.075599934 3.2894634e-11
100.00001 0.075599934 3.2894634e-11
3.2894634e-11 0.87641668 3.2894634e-11
0.075599934 0.87641668 3.2894634e-11
0.87641668 0.87641668 3.2894634e-11
9.3945374 0.87641668 3.2894634e-11
100.00001 0.87641668 3.2894634e-11
3.2894634e-11 9.3945374 3.2894634e-11
0.075599934 9.3945374 3.2894634e-11
0.87641668 9.3945374 3.2894634e-11
9.3945374 9.3945374 3.2894634e-11
100.00001 9.3945374 3.2894634e-11
3.2894634e-11 100.00001 3.2894634e-11
0.075599934 100.00001 3.2894634e-11
0.87641668 100.00001 3.2894634e-11
9.3945374 100.00001 3.2894634e-11
100.00001 100.00001 3.2894634e-11
3.2894634e-11 3.2894634e-11 0.075599934
0.075599934 3.2894634e-11 0.075599934
0.87641668 3.2894634e-11 0.075599934
9.3945374 3.2894634e-11 0.075599934
100.00001 3.2894634e-11 0.075599934
3.2894634e-11 0.075599934 0.075599934
0.075599934 0.075599934 0.075599934
0.87641668 0.075599934 0.075599934
9.3945374 0.075599934 0.075599934
100.00001 0.075599934 0.075599934
3.2894634e-11 0.87641668 0.075599934
0.075599934 0.87641668 0.075599934
0.87641668 0.87641668 0.075599934
9.3945374 0.87641668 0.075599934
100.00001 0.87641668 0.075599934
3.2894634e-11 9.3945374 0.075599934
0.075599934 9.3945374 0.075599934
0.87641668 9.3945374 0.075599934
9.3945374 9.3945374 0.075599934
100.00001 9.3945374 0.075599934
3.2894634e-11 100.00001 0.075599934
0.075599934 100.00001 0.075599934
0.87641668 100.00001 0.075599934
9.3945374 100.00001 0.075599934
100.00001 100.00001 0.075599934
3.2894634e-11 3.2894634e-11 0.87641668
0.075599934 3.2894634e-11 0.87641668
0.87641668 3.2894634e-11 0.87641668
9.3945374 3.2894634e-11 0.87641668
100.00001 3.2894634e-11 0.87641668
3.2894634e-11 0.075599934 0.87641668
0.075599934 0.075599934 0.87641668
0.87641668 0.075599934 0.87641668
9.3945374 0.075599934 0.87641668
100.00001 0.075599934 0.87641668
3.2894634e-11 0.87641668 0.87641668
0.075599934 0.87641668 0.87641668
0.87641668 0.87641668 0.87641668
9.3945374 0.87641668 0.87641668
100.00001 0.87641668 0.87641668
3.2894634e-11 9.3945374 0.87641668
0.075599934 9.3945374 0.87641668
0.87641668 9.3945374 0.87641668
9.3945374 9.3945374 0.87641668
100.00001 9.3945374 0.87641668
3.2894634e-11 100.00001 0.87641668
0.075599934 100.00001 0.87641668
0.87641668 100.00001 0.87641668
9.3945374 100.00001 0.87641668
100.00001 100.00001 0.87641668
3.2894634e-11 3.2894634e-11 9.3945374
0.075599934 3.2894634e-11 9.3945374
0.87641668 3.2894634e-11 9.3945374
9.3945374 3.2894634e-11 9.3945374
100.00001 3.2894634e-11 9.3945374
3.2894634e-11 0.075599934 9.3945374
0.075599934 0.075599934 9.3945374
0.87641668 0.075599934 9.3945374
9.3945374 0.075599934 9.3945374
100.00001 0.075599934 9.3945374
3.2894634e-11 0.87641668 9.3945374
0.075599934 0.87641668 9.3945374
0.87641668 0.87641668 9.3945374
9.3945374 0.87641668 9.3945374
100.00001 0.87641668 9.3945374
3.2894634e-11 9.3945374 9.3945374
0.075599934 9.3945374 9.3945374
0.87641668 9.3945374 9.3945374
9.3945374 9.3945374 9.3945374
100.00001 9.3945374 9.3945374
3.2894634e-11 100.00001 9.3945374
0.075599934 100.00001 9.3945374
0.87641668 100.00001 9.3945374
9.3945374 100.00001 9.3945374
100.00001 100.00001 9.3945374
3.2894634e-11 3.2894634e-11 100.00001
0.075599934 3.2894634e-11 100.00001
0.87641668 3.2894634e-11 100.00001
9.3945374 3.2894634e-11 100.00001
100.00001 3.2894634e-11 100.00001
3.2894634e-11 0.075599934 100.00001
0.075599934 0.075599934 100.00001
0.87641668 0.075599934 100.00001
9.3945374 0.075599934 100.00001
100.00001 0.075599934 100.00001
3.2894634e-11 0.87641668 100.00001
0.075599934 0.87641668 100.00001
0.87641668 0.87641668 100.00001
9.3945374 0.87641668 100.00001
100.00001 0.87641668 100.00001
3.2894634e-11 9.3945374 100.00001
0.075599934 9.3945374 100.00001
0.87641668 9.3945374 100.00001
9.3945374 9.3945374 100.00001
100.00001 9.3945374 100.00001
3.2894634e-11 100.00001 100.00001
0.075599934 100.00001 100.00001
0.87641668 100.00001 100.00001
9.3945374 100.00001 100.00001
100.00001 100.00001 100.00001
