site/assets/luts/upstream-urnaswfociotransformid10djiinputdlog-curve-to-linear10--77e50c647.cube
# LUTr-Schema-Version: 2
# LUTr-ID: upstream-urnaswfociotransformid10djiinputdlog-curve-to-linear10--77e50c647
# LUTr-Title: DJI.Input.DLog-Curve
# LUTr-Collection: OCIO ACES
# LUTr-Collection-ID: aswf-opencolorio-config-aces
# LUTr-Source: https://github.com/AcademySoftwareFoundation/OpenColorIO-Config-ACES
# LUTr-Retrieved: 2026-07-27
# LUTr-Source-File: submissions/aswf-opencolorio-config-aces/opencolorio_config_aces/clf/transforms/dji/input/DJI.Input.DLog-Curve.clf
# LUTr-Source-Format: CLF
# LUTr-Source-SHA256: c77f0b5a89c159eaa14a1117fa43dd3e1421927dc9c98102a288e8d7b4e13a9e
# LUTr-License: BSD-3-Clause
# LUTr-License-URL: https://github.com/AcademySoftwareFoundation/OpenColorIO-Config-ACES/blob/main/LICENSE
# LUTr-License-Basis: repo-license-file
# LUTr-Transform-Class: color-space-conversion
# LUTr-Tags: technical, aces, ocio, clf, color-management, cube
# LUTr-Input-Color-Space: 
# LUTr-Input-Gamut: unspecified
# LUTr-Input-Transfer: dji-d-log
# LUTr-Output-Color-Space: 
# LUTr-Output-Gamut: unspecified
# LUTr-Output-Transfer: linear
# LUTr-Color-Space-Confidence: descriptor-only
# LUTr-Domain-Normalized: true
# LUTr-Shaper: none
# LUTr-Original-Grid: analytic
# LUTr-Conversion-Grid: 33x33x33
# LUTr-Conversion-Interpolation: linear
# LUTr-Conversion-Method: CLF operations evaluated as float and sampled to 33x33x33 3D CUBE
# LUTr-Conversion-Tool: LUTr scripts/convert-all-to-cube.mjs 2.0.0
# LUTr-Conversion-Date: 2026-07-27
# LUTr-Conversion-Warning: A sampled 3D CUBE is bounded to DOMAIN_MIN/MAX 0..1 and cannot preserve CLF values outside its input domain.
# LUTr-Upstream-ID: urn:aswf:ocio:transformId:1.0:DJI:Input:DLog-Curve_to_Linear:1.0
# LUTr-Upstream-Name: DJI D-Log Log to Linear Curve
# LUTr-Upstream-Input-Descriptor: DJI D-Log Log (arbitrary primaries)
# LUTr-Upstream-Output-Descriptor: DJI D-Log Linear (arbitrary primaries)
# LUTr-Upstream-Operations: Log
# LUTr-Upstream-Domain: unbounded
# LUTr-Note: Preserve this metadata and the upstream license notices when redistributing.
TITLE "DJI.Input.DLog-Curve"
LUT_3D_SIZE 33
DOMAIN_MIN 0 0 0
DOMAIN_MAX 1 1 1
-0.015418093 -0.015418093 -0.015418093
-0.010231959 -0.015418093 -0.015418093
-0.0050458258 -0.015418093 -0.015418093
0.00014030789 -0.015418093 -0.015418093
0.0053264416 -0.015418093 -0.015418093
0.010757675 -0.015418093 -0.015418093
0.017771779 -0.015418093 -0.015418093
0.02705561 -0.015418093 -0.015418093
0.039343638 -0.015418093 -0.015418093
0.055608007 -0.015418093 -0.015418093
0.077135438 -0.015418093 -0.015418093
0.10562903 -0.015418093 -0.015418093
0.143343 -0.015418093 -0.015418093
0.193261 -0.015418093 -0.015418093
0.2593322 -0.015418093 -0.015418093
0.34678369 -0.015418093 -0.015418093
0.46253402 -0.015418093 -0.015418093
0.61574053 -0.015418093 -0.015418093
0.81852384 -0.015418093 -0.015418093
1.0869267 -0.015418093 -0.015418093
1.4421834 -0.015418093 -0.015418093
1.9123992 -0.015418093 -0.015418093
2.5347743 -0.015418093 -0.015418093
3.3585466 -0.015418093 -0.015418093
4.4488873 -0.015418093 -0.015418093
5.8920564 -0.015418093 -0.015418093
7.8022272 -0.015418093 -0.015418093
10.330519 -0.015418093 -0.015418093
13.676953 -0.015418093 -0.015418093
18.106274 -0.015418093 -0.015418093
23.968901 -0.015418093 -0.015418093
31.728641 -0.015418093 -0.015418093
41.999393 -0.015418093 -0.015418093
-0.015418093 -0.010231959 -0.015418093
-0.010231959 -0.010231959 -0.015418093
-0.0050458258 -0.010231959 -0.015418093
0.00014030789 -0.010231959 -0.015418093
0.0053264416 -0.010231959 -0.015418093
0.010757675 -0.010231959 -0.015418093
0.017771779 -0.010231959 -0.015418093
0.02705561 -0.010231959 -0.015418093
0.039343638 -0.010231959 -0.015418093
0.055608007 -0.010231959 -0.015418093
0.077135438 -0.010231959 -0.015418093
0.10562903 -0.010231959 -0.015418093
0.143343 -0.010231959 -0.015418093
0.193261 -0.010231959 -0.015418093
0.2593322 -0.010231959 -0.015418093
0.34678369 -0.010231959 -0.015418093
0.46253402 -0.010231959 -0.015418093
0.61574053 -0.010231959 -0.015418093
0.81852384 -0.010231959 -0.015418093
1.0869267 -0.010231959 -0.015418093
1.4421834 -0.010231959 -0.015418093
1.9123992 -0.010231959 -0.015418093
2.5347743 -0.010231959 -0.015418093
3.3585466 -0.010231959 -0.015418093
4.4488873 -0.010231959 -0.015418093
5.8920564 -0.010231959 -0.015418093
7.8022272 -0.010231959 -0.015418093
10.330519 -0.010231959 -0.015418093
13.676953 -0.010231959 -0.015418093
18.106274 -0.010231959 -0.015418093
23.968901 -0.010231959 -0.015418093
31.728641 -0.010231959 -0.015418093
41.999393 -0.010231959 -0.015418093
-0.015418093 -0.0050458258 -0.015418093
-0.010231959 -0.0050458258 -0.015418093
-0.0050458258 -0.0050458258 -0.015418093
0.00014030789 -0.0050458258 -0.015418093
0.0053264416 -0.0050458258 -0.015418093
0.010757675 -0.0050458258 -0.015418093
0.017771779 -0.0050458258 -0.015418093
0.02705561 -0.0050458258 -0.015418093
0.039343638 -0.0050458258 -0.015418093
0.055608007 -0.0050458258 -0.015418093
0.077135438 -0.0050458258 -0.015418093
0.10562903 -0.0050458258 -0.015418093
0.143343 -0.0050458258 -0.015418093
0.193261 -0.0050458258 -0.015418093
0.2593322 -0.0050458258 -0.015418093
0.34678369 -0.0050458258 -0.015418093
0.46253402 -0.0050458258 -0.015418093
0.61574053 -0.0050458258 -0.015418093
0.81852384 -0.0050458258 -0.015418093
1.0869267 -0.0050458258 -0.015418093
1.4421834 -0.0050458258 -0.015418093
1.9123992 -0.0050458258 -0.015418093
2.5347743 -0.0050458258 -0.015418093
3.3585466 -0.0050458258 -0.015418093
4.4488873 -0.0050458258 -0.015418093
5.8920564 -0.0050458258 -0.015418093
7.8022272 -0.0050458258 -0.015418093
10.330519 -0.0050458258 -0.015418093
13.676953 -0.0050458258 -0.015418093
18.106274 -0.0050458258 -0.015418093
23.968901 -0.0050458258 -0.015418093
31.728641 -0.0050458258 -0.015418093
41.999393 -0.0050458258 -0.015418093
-0.015418093 0.00014030789 -0.015418093
-0.010231959 0.00014030789 -0.015418093
-0.0050458258 0.00014030789 -0.015418093
0.00014030789 0.00014030789 -0.015418093
0.0053264416 0.00014030789 -0.015418093
0.010757675 0.00014030789 -0.015418093
0.017771779 0.00014030789 -0.015418093
0.02705561 0.00014030789 -0.015418093
0.039343638 0.00014030789 -0.015418093
0.055608007 0.00014030789 -0.015418093
0.077135438 0.00014030789 -0.015418093
0.10562903 0.00014030789 -0.015418093
0.143343 0.00014030789 -0.015418093
0.193261 0.00014030789 -0.015418093
0.2593322 0.00014030789 -0.015418093
0.34678369 0.00014030789 -0.015418093
0.46253402 0.00014030789 -0.015418093
0.61574053 0.00014030789 -0.015418093
0.81852384 0.00014030789 -0.015418093
1.0869267 0.00014030789 -0.015418093
1.4421834 0.00014030789 -0.015418093
1.9123992 0.00014030789 -0.015418093
2.5347743 0.00014030789 -0.015418093
3.3585466 0.00014030789 -0.015418093
4.4488873 0.00014030789 -0.015418093
5.8920564 0.00014030789 -0.015418093
7.8022272 0.00014030789 -0.015418093
10.330519 0.00014030789 -0.015418093
13.676953 0.00014030789 -0.015418093
18.106274 0.00014030789 -0.015418093
23.968901 0.00014030789 -0.015418093
31.728641 0.00014030789 -0.015418093
41.999393 0.00014030789 -0.015418093
-0.015418093 0.0053264416 -0.015418093
-0.010231959 0.0053264416 -0.015418093
-0.0050458258 0.0053264416 -0.015418093
0.00014030789 0.0053264416 -0.015418093
0.0053264416 0.0053264416 -0.015418093
0.010757675 0.0053264416 -0.015418093
0.017771779 0.0053264416 -0.015418093
0.02705561 0.0053264416 -0.015418093
0.039343638 0.0053264416 -0.015418093
0.055608007 0.0053264416 -0.015418093
0.077135438 0.0053264416 -0.015418093
0.10562903 0.0053264416 -0.015418093
0.143343 0.0053264416 -0.015418093
0.193261 0.0053264416 -0.015418093
0.2593322 0.0053264416 -0.015418093
0.34678369 0.0053264416 -0.015418093
0.46253402 0.0053264416 -0.015418093
0.61574053 0.0053264416 -0.015418093
0.81852384 0.0053264416 -0.015418093
1.0869267 0.0053264416 -0.015418093
1.4421834 0.0053264416 -0.015418093
1.9123992 0.0053264416 -0.015418093
2.5347743 0.0053264416 -0.015418093
3.3585466 0.0053264416 -0.015418093
4.4488873 0.0053264416 -0.015418093
5.8920564 0.0053264416 -0.015418093
7.8022272 0.0053264416 -0.015418093
10.330519 0.0053264416 -0.015418093
13.676953 0.0053264416 -0.015418093
18.106274 0.0053264416 -0.015418093
23.968901 0.0053264416 -0.015418093
31.728641 0.0053264416 -0.015418093
41.999393 0.0053264416 -0.015418093
-0.015418093 0.010757675 -0.015418093
-0.010231959 0.010757675 -0.015418093
-0.0050458258 0.010757675 -0.015418093
0.00014030789 0.010757675 -0.015418093
0.0053264416 0.010757675 -0.015418093
0.010757675 0.010757675 -0.015418093
0.017771779 0.010757675 -0.015418093
0.02705561 0.010757675 -0.015418093
0.039343638 0.010757675 -0.015418093
0.055608007 0.010757675 -0.015418093
0.077135438 0.010757675 -0.015418093
0.10562903 0.010757675 -0.015418093
0.143343 0.010757675 -0.015418093
0.193261 0.010757675 -0.015418093
0.2593322 0.010757675 -0.015418093
0.34678369 0.010757675 -0.015418093
0.46253402 0.010757675 -0.015418093
0.61574053 0.010757675 -0.015418093
0.81852384 0.010757675 -0.015418093
1.0869267 0.010757675 -0.015418093
1.4421834 0.010757675 -0.015418093
1.9123992 0.010757675 -0.015418093
2.5347743 0.010757675 -0.015418093
3.3585466 0.010757675 -0.015418093
4.4488873 0.010757675 -0.015418093
5.8920564 0.010757675 -0.015418093
7.8022272 0.010757675 -0.015418093
10.330519 0.010757675 -0.015418093
13.676953 0.010757675 -0.015418093
18.106274 0.010757675 -0.015418093
23.968901 0.010757675 -0.015418093
31.728641 0.010757675 -0.015418093
41.999393 0.010757675 -0.015418093
-0.015418093 0.017771779 -0.015418093
-0.010231959 0.017771779 -0.015418093
-0.0050458258 0.017771779 -0.015418093
0.00014030789 0.017771779 -0.015418093
0.0053264416 0.017771779 -0.015418093
0.010757675 0.017771779 -0.015418093
0.017771779 0.017771779 -0.015418093
0.02705561 0.017771779 -0.015418093
0.039343638 0.017771779 -0.015418093
0.055608007 0.017771779 -0.015418093
0.077135438 0.017771779 -0.015418093
0.10562903 0.017771779 -0.015418093
0.143343 0.017771779 -0.015418093
0.193261 0.017771779 -0.015418093
0.2593322 0.017771779 -0.015418093
0.34678369 0.017771779 -0.015418093
0.46253402 0.017771779 -0.015418093
0.61574053 0.017771779 -0.015418093
0.81852384 0.017771779 -0.015418093
1.0869267 0.017771779 -0.015418093
1.4421834 0.017771779 -0.015418093
1.9123992 0.017771779 -0.015418093
2.5347743 0.017771779 -0.015418093
3.3585466 0.017771779 -0.015418093
4.4488873 0.017771779 -0.015418093
5.8920564 0.017771779 -0.015418093
7.8022272 0.017771779 -0.015418093
10.330519 0.017771779 -0.015418093
13.676953 0.017771779 -0.015418093
18.106274 0.017771779 -0.015418093
23.968901 0.017771779 -0.015418093
31.728641 0.017771779 -0.015418093
41.999393 0.017771779 -0.015418093
-0.015418093 0.02705561 -0.015418093
-0.010231959 0.02705561 -0.015418093
-0.0050458258 0.02705561 -0.015418093
0.00014030789 0.02705561 -0.015418093
0.0053264416 0.02705561 -0.015418093
0.010757675 0.02705561 -0.015418093
0.017771779 0.02705561 -0.015418093
0.02705561 0.02705561 -0.015418093
0.039343638 0.02705561 -0.015418093
0.055608007 0.02705561 -0.015418093
0.077135438 0.02705561 -0.015418093
0.10562903 0.02705561 -0.015418093
0.143343 0.02705561 -0.015418093
0.193261 0.02705561 -0.015418093
0.2593322 0.02705561 -0.015418093
0.34678369 0.02705561 -0.015418093
0.46253402 0.02705561 -0.015418093
0.61574053 0.02705561 -0.015418093
0.81852384 0.02705561 -0.015418093
1.0869267 0.02705561 -0.015418093
1.4421834 0.02705561 -0.015418093
1.9123992 0.02705561 -0.015418093
2.5347743 0.02705561 -0.015418093
3.3585466 0.02705561 -0.015418093
4.4488873 0.02705561 -0.015418093
5.8920564 0.02705561 -0.015418093
7.8022272 0.02705561 -0.015418093
10.330519 0.02705561 -0.015418093
13.676953 0.02705561 -0.015418093
18.106274 0.02705561 -0.015418093
23.968901 0.02705561 -0.015418093
31.728641 0.02705561 -0.015418093
41.999393 0.02705561 -0.015418093
-0.015418093 0.039343638 -0.015418093
-0.010231959 0.039343638 -0.015418093
-0.0050458258 0.039343638 -0.015418093
0.00014030789 0.039343638 -0.015418093
0.0053264416 0.039343638 -0.015418093
0.010757675 0.039343638 -0.015418093
0.017771779 0.039343638 -0.015418093
0.02705561 0.039343638 -0.015418093
0.039343638 0.039343638 -0.015418093
0.055608007 0.039343638 -0.015418093
0.077135438 0.039343638 -0.015418093
0.10562903 0.039343638 -0.015418093
0.143343 0.039343638 -0.015418093
0.193261 0.039343638 -0.015418093
0.2593322 0.039343638 -0.015418093
0.34678369 0.039343638 -0.015418093
0.46253402 0.039343638 -0.015418093
0.61574053 0.039343638 -0.015418093
0.81852384 0.039343638 -0.015418093
1.0869267 0.039343638 -0.015418093
1.4421834 0.039343638 -0.015418093
1.9123992 0.039343638 -0.015418093
2.5347743 0.039343638 -0.015418093
3.3585466 0.039343638 -0.015418093
4.4488873 0.039343638 -0.015418093
5.8920564 0.039343638 -0.015418093
7.8022272 0.039343638 -0.015418093
10.330519 0.039343638 -0.015418093
13.676953 0.039343638 -0.015418093
18.106274 0.039343638 -0.015418093
23.968901 0.039343638 -0.015418093
31.728641 0.039343638 -0.015418093
41.999393 0.039343638 -0.015418093
-0.015418093 0.055608007 -0.015418093
-0.010231959 0.055608007 -0.015418093
-0.0050458258 0.055608007 -0.015418093
0.00014030789 0.055608007 -0.015418093
0.0053264416 0.055608007 -0.015418093
0.010757675 0.055608007 -0.015418093
0.017771779 0.055608007 -0.015418093
0.02705561 0.055608007 -0.015418093
0.039343638 0.055608007 -0.015418093
0.055608007 0.055608007 -0.015418093
0.077135438 0.055608007 -0.015418093
0.10562903 0.055608007 -0.015418093
0.143343 0.055608007 -0.015418093
0.193261 0.055608007 -0.015418093
0.2593322 0.055608007 -0.015418093
0.34678369 0.055608007 -0.015418093
0.46253402 0.055608007 -0.015418093
0.61574053 0.055608007 -0.015418093
0.81852384 0.055608007 -0.015418093
1.0869267 0.055608007 -0.015418093
1.4421834 0.055608007 -0.015418093
1.9123992 0.055608007 -0.015418093
2.5347743 0.055608007 -0.015418093
3.3585466 0.055608007 -0.015418093
4.4488873 0.055608007 -0.015418093
5.8920564 0.055608007 -0.015418093
7.8022272 0.055608007 -0.015418093
10.330519 0.055608007 -0.015418093
13.676953 0.055608007 -0.015418093
18.106274 0.055608007 -0.015418093
23.968901 0.055608007 -0.015418093
31.728641 0.055608007 -0.015418093
41.999393 0.055608007 -0.015418093
-0.015418093 0.077135438 -0.015418093
-0.010231959 0.077135438 -0.015418093
-0.0050458258 0.077135438 -0.015418093
0.00014030789 0.077135438 -0.015418093
0.0053264416 0.077135438 -0.015418093
0.010757675 0.077135438 -0.015418093
0.017771779 0.077135438 -0.015418093
0.02705561 0.077135438 -0.015418093
0.039343638 0.077135438 -0.015418093
0.055608007 0.077135438 -0.015418093
0.077135438 0.077135438 -0.015418093
0.10562903 0.077135438 -0.015418093
0.143343 0.077135438 -0.015418093
0.193261 0.077135438 -0.015418093
0.2593322 0.077135438 -0.015418093
0.34678369 0.077135438 -0.015418093
0.46253402 0.077135438 -0.015418093
0.61574053 0.077135438 -0.015418093
0.81852384 0.077135438 -0.015418093
1.0869267 0.077135438 -0.015418093
1.4421834 0.077135438 -0.015418093
1.9123992 0.077135438 -0.015418093
2.5347743 0.077135438 -0.015418093
3.3585466 0.077135438 -0.015418093
4.4488873 0.077135438 -0.015418093
5.8920564 0.077135438 -0.015418093
7.8022272 0.077135438 -0.015418093
10.330519 0.077135438 -0.015418093
13.676953 0.077135438 -0.015418093
18.106274 0.077135438 -0.015418093
23.968901 0.077135438 -0.015418093
31.728641 0.077135438 -0.015418093
41.999393 0.077135438 -0.015418093
-0.015418093 0.10562903 -0.015418093
-0.010231959 0.10562903 -0.015418093
-0.0050458258 0.10562903 -0.015418093
0.00014030789 0.10562903 -0.015418093
0.0053264416 0.10562903 -0.015418093
0.010757675 0.10562903 -0.015418093
0.017771779 0.10562903 -0.015418093
0.02705561 0.10562903 -0.015418093
0.039343638 0.10562903 -0.015418093
0.055608007 0.10562903 -0.015418093
0.077135438 0.10562903 -0.015418093
0.10562903 0.10562903 -0.015418093
0.143343 0.10562903 -0.015418093
0.193261 0.10562903 -0.015418093
0.2593322 0.10562903 -0.015418093
0.34678369 0.10562903 -0.015418093
0.46253402 0.10562903 -0.015418093
0.61574053 0.10562903 -0.015418093
0.81852384 0.10562903 -0.015418093
1.0869267 0.10562903 -0.015418093
1.4421834 0.10562903 -0.015418093
1.9123992 0.10562903 -0.015418093
2.5347743 0.10562903 -0.015418093
3.3585466 0.10562903 -0.015418093
4.4488873 0.10562903 -0.015418093
5.8920564 0.10562903 -0.015418093
7.8022272 0.10562903 -0.015418093
10.330519 0.10562903 -0.015418093
13.676953 0.10562903 -0.015418093
18.106274 0.10562903 -0.015418093
23.968901 0.10562903 -0.015418093
31.728641 0.10562903 -0.015418093
41.999393 0.10562903 -0.015418093
-0.015418093 0.143343 -0.015418093
-0.010231959 0.143343 -0.015418093
-0.0050458258 0.143343 -0.015418093
0.00014030789 0.143343 -0.015418093
0.0053264416 0.143343 -0.015418093
0.010757675 0.143343 -0.015418093
0.017771779 0.143343 -0.015418093
0.02705561 0.143343 -0.015418093
0.039343638 0.143343 -0.015418093
0.055608007 0.143343 -0.015418093
0.077135438 0.143343 -0.015418093
0.10562903 0.143343 -0.015418093
0.143343 0.143343 -0.015418093
0.193261 0.143343 -0.015418093
0.2593322 0.143343 -0.015418093
0.34678369 0.143343 -0.015418093
0.46253402 0.143343 -0.015418093
0.61574053 0.143343 -0.015418093
0.81852384 0.143343 -0.015418093
1.0869267 0.143343 -0.015418093
1.4421834 0.143343 -0.015418093
1.9123992 0.143343 -0.015418093
2.5347743 0.143343 -0.015418093
3.3585466 0.143343 -0.015418093
4.4488873 0.143343 -0.015418093
5.8920564 0.143343 -0.015418093
7.8022272 0.143343 -0.015418093
10.330519 0.143343 -0.015418093
13.676953 0.143343 -0.015418093
18.106274 0.143343 -0.015418093
23.968901 0.143343 -0.015418093
31.728641 0.143343 -0.015418093
41.999393 0.143343 -0.015418093
-0.015418093 0.193261 -0.015418093
-0.010231959 0.193261 -0.015418093
-0.0050458258 0.193261 -0.015418093
0.00014030789 0.193261 -0.015418093
0.0053264416 0.193261 -0.015418093
0.010757675 0.193261 -0.015418093
0.017771779 0.193261 -0.015418093
0.02705561 0.193261 -0.015418093
0.039343638 0.193261 -0.015418093
0.055608007 0.193261 -0.015418093
0.077135438 0.193261 -0.015418093
0.10562903 0.193261 -0.015418093
0.143343 0.193261 -0.015418093
0.193261 0.193261 -0.015418093
0.2593322 0.193261 -0.015418093
0.34678369 0.193261 -0.015418093
0.46253402 0.193261 -0.015418093
0.61574053 0.193261 -0.015418093
0.81852384 0.193261 -0.015418093
1.0869267 0.193261 -0.015418093
1.4421834 0.193261 -0.015418093
1.9123992 0.193261 -0.015418093
2.5347743 0.193261 -0.015418093
3.3585466 0.193261 -0.015418093
4.4488873 0.193261 -0.015418093
5.8920564 0.193261 -0.015418093
7.8022272 0.193261 -0.015418093
10.330519 0.193261 -0.015418093
13.676953 0.193261 -0.015418093
18.106274 0.193261 -0.015418093
23.968901 0.193261 -0.015418093
31.728641 0.193261 -0.015418093
41.999393 0.193261 -0.015418093
-0.015418093 0.2593322 -0.015418093
-0.010231959 0.2593322 -0.015418093
-0.0050458258 0.2593322 -0.015418093
0.00014030789 0.2593322 -0.015418093
0.0053264416 0.2593322 -0.015418093
0.010757675 0.2593322 -0.015418093
0.017771779 0.2593322 -0.015418093
0.02705561 0.2593322 -0.015418093
0.039343638 0.2593322 -0.015418093
0.055608007 0.2593322 -0.015418093
0.077135438 0.2593322 -0.015418093
0.10562903 0.2593322 -0.015418093
0.143343 0.2593322 -0.015418093
0.193261 0.2593322 -0.015418093
0.2593322 0.2593322 -0.015418093
0.34678369 0.2593322 -0.015418093
0.46253402 0.2593322 -0.015418093
0.61574053 0.2593322 -0.015418093
0.81852384 0.2593322 -0.015418093
1.0869267 0.2593322 -0.015418093
1.4421834 0.2593322 -0.015418093
1.9123992 0.2593322 -0.015418093
2.5347743 0.2593322 -0.015418093
3.3585466 0.2593322 -0.015418093
4.4488873 0.2593322 -0.015418093
5.8920564 0.2593322 -0.015418093
7.8022272 0.2593322 -0.015418093
10.330519 0.2593322 -0.015418093
13.676953 0.2593322 -0.015418093
18.106274 0.2593322 -0.015418093
23.968901 0.2593322 -0.015418093
31.728641 0.2593322 -0.015418093
41.999393 0.2593322 -0.015418093
-0.015418093 0.34678369 -0.015418093
-0.010231959 0.34678369 -0.015418093
-0.0050458258 0.34678369 -0.015418093
0.00014030789 0.34678369 -0.015418093
0.0053264416 0.34678369 -0.015418093
0.010757675 0.34678369 -0.015418093
0.017771779 0.34678369 -0.015418093
0.02705561 0.34678369 -0.015418093
0.039343638 0.34678369 -0.015418093
0.055608007 0.34678369 -0.015418093
0.077135438 0.34678369 -0.015418093
0.10562903 0.34678369 -0.015418093
0.143343 0.34678369 -0.015418093
0.193261 0.34678369 -0.015418093
0.2593322 0.34678369 -0.015418093
0.34678369 0.34678369 -0.015418093
0.46253402 0.34678369 -0.015418093
0.61574053 0.34678369 -0.015418093
0.81852384 0.34678369 -0.015418093
1.0869267 0.34678369 -0.015418093
1.4421834 0.34678369 -0.015418093
1.9123992 0.34678369 -0.015418093
2.5347743 0.34678369 -0.015418093
3.3585466 0.34678369 -0.015418093
4.4488873 0.34678369 -0.015418093
5.8920564 0.34678369 -0.015418093
7.8022272 0.34678369 -0.015418093
10.330519 0.34678369 -0.015418093
13.676953 0.34678369 -0.015418093
18.106274 0.34678369 -0.015418093
23.968901 0.34678369 -0.015418093
31.728641 0.34678369 -0.015418093
41.999393 0.34678369 -0.015418093
-0.015418093 0.46253402 -0.015418093
-0.010231959 0.46253402 -0.015418093
-0.0050458258 0.46253402 -0.015418093
0.00014030789 0.46253402 -0.015418093
0.0053264416 0.46253402 -0.015418093
0.010757675 0.46253402 -0.015418093
0.017771779 0.46253402 -0.015418093
0.02705561 0.46253402 -0.015418093
0.039343638 0.46253402 -0.015418093
0.055608007 0.46253402 -0.015418093
0.077135438 0.46253402 -0.015418093
0.10562903 0.46253402 -0.015418093
0.143343 0.46253402 -0.015418093
0.193261 0.46253402 -0.015418093
0.2593322 0.46253402 -0.015418093
0.34678369 0.46253402 -0.015418093
0.46253402 0.46253402 -0.015418093
0.61574053 0.46253402 -0.015418093
0.81852384 0.46253402 -0.015418093
1.0869267 0.46253402 -0.015418093
1.4421834 0.46253402 -0.015418093
1.9123992 0.46253402 -0.015418093
2.5347743 0.46253402 -0.015418093
3.3585466 0.46253402 -0.015418093
4.4488873 0.46253402 -0.015418093
5.8920564 0.46253402 -0.015418093
7.8022272 0.46253402 -0.015418093
10.330519 0.46253402 -0.015418093
13.676953 0.46253402 -0.015418093
18.106274 0.46253402 -0.015418093
23.968901 0.46253402 -0.015418093
31.728641 0.46253402 -0.015418093
41.999393 0.46253402 -0.015418093
-0.015418093 0.61574053 -0.015418093
-0.010231959 0.61574053 -0.015418093
-0.0050458258 0.61574053 -0.015418093
0.00014030789 0.61574053 -0.015418093
0.0053264416 0.61574053 -0.015418093
0.010757675 0.61574053 -0.015418093
0.017771779 0.61574053 -0.015418093
0.02705561 0.61574053 -0.015418093
0.039343638 0.61574053 -0.015418093
0.055608007 0.61574053 -0.015418093
0.077135438 0.61574053 -0.015418093
0.10562903 0.61574053 -0.015418093
0.143343 0.61574053 -0.015418093
0.193261 0.61574053 -0.015418093
0.2593322 0.61574053 -0.015418093
0.34678369 0.61574053 -0.015418093
0.46253402 0.61574053 -0.015418093
0.61574053 0.61574053 -0.015418093
0.81852384 0.61574053 -0.015418093
1.0869267 0.61574053 -0.015418093
1.4421834 0.61574053 -0.015418093
1.9123992 0.61574053 -0.015418093
2.5347743 0.61574053 -0.015418093
3.3585466 0.61574053 -0.015418093
4.4488873 0.61574053 -0.015418093
5.8920564 0.61574053 -0.015418093
7.8022272 0.61574053 -0.015418093
10.330519 0.61574053 -0.015418093
13.676953 0.61574053 -0.015418093
18.106274 0.61574053 -0.015418093
23.968901 0.61574053 -0.015418093
31.728641 0.61574053 -0.015418093
41.999393 0.61574053 -0.015418093
-0.015418093 0.81852384 -0.015418093
-0.010231959 0.81852384 -0.015418093
-0.0050458258 0.81852384 -0.015418093
0.00014030789 0.81852384 -0.015418093
0.0053264416 0.81852384 -0.015418093
0.010757675 0.81852384 -0.015418093
0.017771779 0.81852384 -0.015418093
0.02705561 0.81852384 -0.015418093
0.039343638 0.81852384 -0.015418093
0.055608007 0.81852384 -0.015418093
0.077135438 0.81852384 -0.015418093
0.10562903 0.81852384 -0.015418093
0.143343 0.81852384 -0.015418093
0.193261 0.81852384 -0.015418093
0.2593322 0.81852384 -0.015418093
0.34678369 0.81852384 -0.015418093
0.46253402 0.81852384 -0.015418093
0.61574053 0.81852384 -0.015418093
0.81852384 0.81852384 -0.015418093
1.0869267 0.81852384 -0.015418093
1.4421834 0.81852384 -0.015418093
