site/assets/luts/upstream-urnaswfociotransformid10sonyinputlinear-venice-sgamut3cine-to-aces2065-110--37adeba28.cube
# LUTr-Schema-Version: 2
# LUTr-ID: upstream-urnaswfociotransformid10sonyinputlinear-venice-sgamut3cine-to-aces2065-110--37adeba28
# LUTr-Title: Sony.Input.Linear Venice SGamut3Cine to ACES2065-1
# LUTr-Collection: OCIO ACES
# LUTr-Collection-ID: aswf-opencolorio-config-aces
# LUTr-Source: https://github.com/AcademySoftwareFoundation/OpenColorIO-Config-ACES
# LUTr-Retrieved: 2026-07-27
# LUTr-Source-File: submissions/aswf-opencolorio-config-aces/opencolorio_config_aces/clf/transforms/sony/input/Sony.Input.Linear_Venice_SGamut3Cine_to_ACES2065-1.clf
# LUTr-Source-Format: CLF
# LUTr-Source-SHA256: d17765789a78169eb047ce44c1e4095d4f3b5e3fc4ffb51c2dd9d11e7559ef40
# LUTr-License: BSD-3-Clause
# LUTr-License-URL: https://github.com/AcademySoftwareFoundation/OpenColorIO-Config-ACES/blob/main/LICENSE
# LUTr-License-Basis: repo-license-file
# LUTr-Transform-Class: color-space-conversion
# LUTr-Tags: technical, aces, ocio, clf, color-management, cube
# LUTr-Input-Color-Space: linear-sony-venice-sgamut3cine
# LUTr-Input-Gamut: sony-venice-s-gamut3-cine
# LUTr-Input-Transfer: linear
# LUTr-Output-Color-Space: aces2065-1
# LUTr-Output-Gamut: aces-ap0
# LUTr-Output-Transfer: linear
# LUTr-Color-Space-Confidence: declared-by-source
# LUTr-Domain-Normalized: true
# LUTr-Shaper: none
# LUTr-Original-Grid: analytic
# LUTr-Conversion-Grid: 33x33x33
# LUTr-Conversion-Interpolation: linear
# LUTr-Conversion-Method: CLF operations evaluated as float and sampled to 33x33x33 3D CUBE
# LUTr-Conversion-Tool: LUTr scripts/convert-all-to-cube.mjs 2.0.0
# LUTr-Conversion-Date: 2026-07-27
# LUTr-Conversion-Warning: A sampled 3D CUBE is bounded to DOMAIN_MIN/MAX 0..1 and cannot preserve CLF values outside its input domain.
# LUTr-Upstream-ID: urn:aswf:ocio:transformId:1.0:Sony:Input:Linear_Venice_SGamut3Cine_to_ACES2065-1:1.0
# LUTr-Upstream-Name: Linear Venice S-Gamut3.Cine to ACES2065-1
# LUTr-Upstream-Input-Descriptor: Linear Venice S-Gamut3.Cine
# LUTr-Upstream-Output-Descriptor: ACES2065-1
# LUTr-Upstream-Operations: Matrix
# LUTr-Upstream-Domain: unbounded
# LUTr-Note: Preserve this metadata and the upstream license notices when redistributing.
TITLE "Sony.Input.Linear Venice SGamut3Cine to ACES2065-1"
LUT_3D_SIZE 33
DOMAIN_MIN 0 0 0
DOMAIN_MAX 1 1 1
0 0 0
0.021070534 -0.00029105019 -0.0011940334
0.042141068 -0.00058210038 -0.0023880667
0.063211602 -0.00087315057 -0.0035821001
0.084282137 -0.0011642008 -0.0047761334
0.10535267 -0.0014552509 -0.0059701668
0.1264232 -0.0017463011 -0.0071642001
0.14749374 -0.0020373513 -0.0083582335
0.16856427 -0.0023284015 -0.0095522668
0.18963481 -0.0026194517 -0.0107463
0.21070534 -0.0029105019 -0.011940334
0.23177588 -0.0032015521 -0.013134367
0.25284641 -0.0034926023 -0.0143284
0.27391694 -0.0037836525 -0.015522434
0.29498748 -0.0040747027 -0.016716467
0.31605801 -0.0043657528 -0.0179105
0.33712855 -0.004656803 -0.019104534
0.35819908 -0.0049478532 -0.020298567
0.37926961 -0.0052389034 -0.0214926
0.40034015 -0.0055299536 -0.022686634
0.42141068 -0.0058210038 -0.023880667
0.44248122 -0.006112054 -0.0250747
0.46355175 -0.0064031042 -0.026268734
0.48462228 -0.0066941544 -0.027462767
0.50569282 -0.0069852046 -0.0286568
0.52676335 -0.0072762547 -0.029850834
0.54783389 -0.0075673049 -0.031044867
0.56890442 -0.0078583551 -0.032238901
0.58997496 -0.0081494053 -0.033432934
0.61104549 -0.0084404555 -0.034626967
0.63211602 -0.0087315057 -0.035821001
0.65318656 -0.0090225559 -0.037015034
0.67425709 -0.0093136061 -0.038209067
0.0068928667 0.034561214 -0.00056057427
0.027963401 0.034270164 -0.0017546076
0.049033935 0.033979114 -0.002948641
0.070104469 0.033688064 -0.0041426743
0.091175003 0.033397014 -0.0053367077
0.11224554 0.033105963 -0.006530741
0.13331607 0.032814913 -0.0077247744
0.15438661 0.032523863 -0.0089188077
0.17545714 0.032232813 -0.010112841
0.19652767 0.031941763 -0.011306874
0.21759821 0.031650713 -0.012500908
0.23866874 0.031359662 -0.013694941
0.25973928 0.031068612 -0.014888975
0.28080981 0.030777562 -0.016083008
0.30188034 0.030486512 -0.017277041
0.32295088 0.030195462 -0.018471075
0.34402141 0.029904411 -0.019665108
0.36509195 0.029613361 -0.020859141
0.38616248 0.029322311 -0.022053175
0.40723302 0.029031261 -0.023247208
0.42830355 0.028740211 -0.024441241
0.44937408 0.02844916 -0.025635275
0.47044462 0.02815811 -0.026829308
0.49151515 0.02786706 -0.028023341
0.51258569 0.02757601 -0.029217375
0.53365622 0.02728496 -0.030411408
0.55472675 0.026993909 -0.031605441
0.57579729 0.026702859 -0.032799475
0.59686782 0.026411809 -0.033993508
0.61793836 0.026120759 -0.035187542
0.63900889 0.025829709 -0.036381575
0.66007942 0.025538659 -0.037575608
0.68114996 0.025247608 -0.038769642
0.013785733 0.069122429 -0.0011211485
0.034856268 0.068831379 -0.0023151819
0.055926802 0.068540328 -0.0035092152
0.076997336 0.068249278 -0.0047032486
0.09806787 0.067958228 -0.005897282
0.1191384 0.067667178 -0.0070913153
0.14020894 0.067376128 -0.0082853487
0.16127947 0.067085078 -0.009479382
0.18235001 0.066794027 -0.010673415
0.20342054 0.066502977 -0.011867449
0.22449107 0.066211927 -0.013061482
0.24556161 0.065920877 -0.014255515
0.26663214 0.065629827 -0.015449549
0.28770268 0.065338776 -0.016643582
0.30877321 0.065047726 -0.017837615
0.32984375 0.064756676 -0.019031649
0.35091428 0.064465626 -0.020225682
0.37198481 0.064174576 -0.021419716
0.39305535 0.063883525 -0.022613749
0.41412588 0.063592475 -0.023807782
0.43519642 0.063301425 -0.025001816
0.45626695 0.063010375 -0.026195849
0.47733748 0.062719325 -0.027389882
0.49840802 0.062428274 -0.028583916
0.51947855 0.062137224 -0.029777949
0.54054909 0.061846174 -0.030971982
0.56161962 0.061555124 -0.032166016
0.58269015 0.061264074 -0.033360049
0.60376069 0.060973024 -0.034554082
0.62483122 0.060681973 -0.035748116
0.64590176 0.060390923 -0.036942149
0.66697229 0.060099873 -0.038136182
0.68804283 0.059808823 -0.039330216
0.0206786 0.10368364 -0.0016817228
0.041749134 0.10339259 -0.0028757562
0.062819669 0.10310154 -0.0040697895
0.083890203 0.10281049 -0.0052638229
0.10496074 0.10251944 -0.0064578562
0.12603127 0.10222839 -0.0076518896
0.14710181 0.10193734 -0.0088459229
0.16817234 0.10164629 -0.010039956
0.18924287 0.10135524 -0.01123399
0.21031341 0.10106419 -0.012428023
0.23138394 0.10077314 -0.013622056
0.25245448 0.10048209 -0.01481609
0.27352501 0.10019104 -0.016010123
0.29459554 0.099899991 -0.017204156
0.31566608 0.099608941 -0.01839819
0.33673661 0.09931789 -0.019592223
0.35780715 0.09902684 -0.020786256
0.37887768 0.09873579 -0.02198029
0.39994821 0.09844474 -0.023174323
0.42101875 0.09815369 -0.024368357
0.44208928 0.097862639 -0.02556239
0.46315982 0.097571589 -0.026756423
0.48423035 0.097280539 -0.027950457
0.50530089 0.096989489 -0.02914449
0.52637142 0.096698439 -0.030338523
0.54744195 0.096407389 -0.031532557
0.56851249 0.096116338 -0.03272659
0.58958302 0.095825288 -0.033920623
0.61065356 0.095534238 -0.035114657
0.63172409 0.095243188 -0.03630869
0.65279462 0.094952138 -0.037502723
0.67386516 0.094661087 -0.038696757
0.69493569 0.094370037 -0.03989079
0.027571467 0.13824486 -0.0022422971
0.048642001 0.13795381 -0.0034363304
0.069712535 0.13766276 -0.0046303638
0.090783069 0.13737171 -0.0058243971
0.1118536 0.13708066 -0.0070184305
0.13292414 0.13678961 -0.0082124638
0.15399467 0.13649856 -0.0094064972
0.17506521 0.13620751 -0.010600531
0.19613574 0.13591646 -0.011794564
0.21720627 0.13562541 -0.012988597
0.23827681 0.13533436 -0.014182631
0.25934734 0.13504331 -0.015376664
0.28041788 0.13475226 -0.016570697
0.30148841 0.13446121 -0.017764731
0.32255894 0.13417016 -0.018958764
0.34362948 0.1338791 -0.020152797
0.36470001 0.13358805 -0.021346831
0.38577055 0.133297 -0.022540864
0.40684108 0.13300595 -0.023734897
0.42791162 0.1327149 -0.024928931
0.44898215 0.13242385 -0.026122964
0.47005268 0.1321328 -0.027316997
0.49112322 0.13184175 -0.028511031
0.51219375 0.1315507 -0.029705064
0.53326429 0.13125965 -0.030899098
0.55433482 0.1309686 -0.032093131
0.57540535 0.13067755 -0.033287164
0.59647589 0.1303865 -0.034481198
0.61754642 0.13009545 -0.035675231
0.63861696 0.1298044 -0.036869264
0.65968749 0.12951335 -0.038063298
0.68075802 0.1292223 -0.039257331
0.70182856 0.12893125 -0.040451364
0.034464334 0.17280607 -0.0028028713
0.055534868 0.17251502 -0.0039969047
0.076605402 0.17222397 -0.0051909381
0.097675936 0.17193292 -0.0063849714
0.11874647 0.17164187 -0.0075790048
0.139817 0.17135082 -0.0087730381
0.16088754 0.17105977 -0.0099670715
0.18195807 0.17076872 -0.011161105
0.20302861 0.17047767 -0.012355138
0.22409914 0.17018662 -0.013549172
0.24516968 0.16989557 -0.014743205
0.26624021 0.16960452 -0.015937238
0.28731074 0.16931347 -0.017131272
0.30838128 0.16902242 -0.018325305
0.32945181 0.16873137 -0.019519338
0.35052235 0.16844032 -0.020713372
0.37159288 0.16814927 -0.021907405
0.39266341 0.16785822 -0.023101438
0.41373395 0.16756717 -0.024295472
0.43480448 0.16727612 -0.025489505
0.45587502 0.16698507 -0.026683538
0.47694555 0.16669402 -0.027877572
0.49801608 0.16640297 -0.029071605
0.51908662 0.16611192 -0.030265638
0.54015715 0.16582087 -0.031459672
0.56122769 0.16552982 -0.032653705
0.58229822 0.16523877 -0.033847739
0.60336876 0.16494772 -0.035041772
0.62443929 0.16465667 -0.036235805
0.64550982 0.16436562 -0.037429839
0.66658036 0.16407457 -0.038623872
0.68765089 0.16378352 -0.039817905
0.70872143 0.16349247 -0.041011939
0.0413572 0.20736729 -0.0033634456
0.062427735 0.20707624 -0.004557479
0.083498269 0.20678519 -0.0057515123
0.1045688 0.20649414 -0.0069455457
0.12563934 0.20620309 -0.008139579
0.14670987 0.20591204 -0.0093336124
0.16778041 0.20562099 -0.010527646
0.18885094 0.20532994 -0.011721679
0.20992147 0.20503888 -0.012915712
0.23099201 0.20474783 -0.014109746
0.25206254 0.20445678 -0.015303779
0.27313308 0.20416573 -0.016497812
0.29420361 0.20387468 -0.017691846
0.31527414 0.20358363 -0.018885879
0.33634468 0.20329258 -0.020079913
0.35741521 0.20300153 -0.021273946
0.37848575 0.20271048 -0.022467979
0.39955628 0.20241943 -0.023662013
0.42062681 0.20212838 -0.024856046
0.44169735 0.20183733 -0.026050079
0.46276788 0.20154628 -0.027244113
0.48383842 0.20125523 -0.028438146
0.50490895 0.20096418 -0.029632179
0.52597949 0.20067313 -0.030826213
0.54705002 0.20038208 -0.032020246
0.56812055 0.20009103 -0.033214279
0.58919109 0.19979998 -0.034408313
0.61026162 0.19950893 -0.035602346
0.63133216 0.19921788 -0.03679638
0.65240269 0.19892683 -0.037990413
0.67347322 0.19863578 -0.039184446
0.69454376 0.19834473 -0.04037848
0.71561429 0.19805368 -0.041572513
0.048250067 0.2419285 -0.0039240199
0.069320601 0.24163745 -0.0051180532
0.090391135 0.2413464 -0.0063120866
0.11146167 0.24105535 -0.0075061199
0.1325322 0.2407643 -0.0087001533
0.15360274 0.24047325 -0.0098941866
0.17467327 0.2401822 -0.01108822
0.19574381 0.23989115 -0.012282253
0.21681434 0.2396001 -0.013476287
0.23788487 0.23930905 -0.01467032
0.25895541 0.239018 -0.015864353
0.28002594 0.23872695 -0.017058387
0.30109648 0.2384359 -0.01825242
0.32216701 0.23814485 -0.019446453
0.34323755 0.2378538 -0.020640487
0.36430808 0.23756275 -0.02183452
0.38537861 0.2372717 -0.023028554
0.40644915 0.23698065 -0.024222587
0.42751968 0.2366896 -0.02541662
0.44859022 0.23639855 -0.026610654
0.46966075 0.2361075 -0.027804687
0.49073128 0.23581645 -0.02899872
0.51180182 0.2355254 -0.030192754
0.53287235 0.23523435 -0.031386787
0.55394289 0.2349433 -0.03258082
0.57501342 0.23465225 -0.033774854
0.59608395 0.2343612 -0.034968887
0.61715449 0.23407015 -0.03616292
0.63822502 0.2337791 -0.037356954
0.65929556 0.23348805 -0.038550987
0.68036609 0.233197 -0.03974502
0.70143663 0.23290595 -0.040939054
0.72250716 0.23261489 -0.042133087
0.055142934 0.27648972 -0.0044845942
0.076213468 0.27619867 -0.0056786275
0.097284002 0.27590761 -0.0068726609
0.11835454 0.27561656 -0.0080666942
0.13942507 0.27532551 -0.0092607276
0.1604956 0.27503446 -0.010454761
0.18156614 0.27474341 -0.011648794
0.20263667 0.27445236 -0.012842828
0.22370721 0.27416131 -0.014036861
0.24477774 0.27387026 -0.015230894
0.26584828 0.27357921 -0.016424928
0.28691881 0.27328816 -0.017618961
0.30798934 0.27299711 -0.018812994
0.32905988 0.27270606 -0.020007028
0.35013041 0.27241501 -0.021201061
0.37120095 0.27212396 -0.022395094
0.39227148 0.27183291 -0.023589128
0.41334201 0.27154186 -0.024783161
0.43441255 0.27125081 -0.025977195
0.45548308 0.27095976 -0.027171228
0.47655362 0.27066871 -0.028365261
0.49762415 0.27037766 -0.029559295
0.51869468 0.27008661 -0.030753328
0.53976522 0.26979556 -0.031947361
0.56083575 0.26950451 -0.033141395
0.58190629 0.26921346 -0.034335428
0.60297682 0.26892241 -0.035529461
0.62404736 0.26863136 -0.036723495
0.64511789 0.26834031 -0.037917528
0.66618842 0.26804926 -0.039111561
0.68725896 0.26775821 -0.040305595
0.70832949 0.26746716 -0.041499628
0.72940003 0.26717611 -0.042693661
0.062035801 0.31105093 -0.0050451684
0.083106335 0.31075988 -0.0062392018
0.10417687 0.31046883 -0.0074332351
0.1252474 0.31017778 -0.0086272685
0.14631794 0.30988673 -0.0098213018
0.16738847 0.30959568 -0.011015335
0.18845901 0.30930463 -0.012209369
0.20952954 0.30901358 -0.013403402
0.23060007 0.30872253 -0.014597435
0.25167061 0.30843148 -0.015791469
0.27274114 0.30814043 -0.016985502
0.29381168 0.30784938 -0.018179535
0.31488221 0.30755833 -0.019373569
0.33595274 0.30726728 -0.020567602
0.35702328 0.30697623 -0.021761635
0.37809381 0.30668518 -0.022955669
0.39916435 0.30639413 -0.024149702
0.42023488 0.30610308 -0.025343735
0.44130542 0.30581203 -0.026537769
0.46237595 0.30552098 -0.027731802
0.48344648 0.30522993 -0.028925835
0.50451702 0.30493888 -0.030119869
0.52558755 0.30464783 -0.031313902
0.54665809 0.30435678 -0.032507936
0.56772862 0.30406573 -0.033701969
0.58879915 0.30377468 -0.034896002
0.60986969 0.30348362 -0.036090036
0.63094022 0.30319257 -0.037284069
0.65201076 0.30290152 -0.038478102
0.67308129 0.30261047 -0.039672136
0.69415182 0.30231942 -0.040866169
0.71522236 0.30202837 -0.042060202
0.73629289 0.30173732 -0.043254236
0.068928667 0.34561214 -0.0056057427
0.089999202 0.34532109 -0.006799776
0.11106974 0.34503004 -0.0079938094
0.13214027 0.34473899 -0.0091878427
0.1532108 0.34444794 -0.010381876
0.17428134 0.34415689 -0.011575909
0.19535187 0.34386584 -0.012769943
0.21642241 0.34357479 -0.013963976
0.23749294 0.34328374 -0.01515801
0.25856347 0.34299269 -0.016352043
0.27963401 0.34270164 -0.017546076
0.30070454 0.34241059 -0.01874011
0.32177508 0.34211954 -0.019934143
0.34284561 0.34182849 -0.021128176
0.36391615 0.34153744 -0.02232221
0.38498668 0.34124639 -0.023516243
0.40605721 0.34095534 -0.024710276
0.42712775 0.34066429 -0.02590431
0.44819828 0.34037324 -0.027098343
0.46926882 0.34008219 -0.028292376
0.49033935 0.33979114 -0.02948641
0.51140988 0.33950009 -0.030680443
0.53248042 0.33920904 -0.031874476
0.55355095 0.33891799 -0.03306851
0.57462149 0.33862694 -0.034262543
0.59569202 0.33833589 -0.035456577
0.61676255 0.33804484 -0.03665061
0.63783309 0.33775379 -0.037844643
0.65890362 0.33746274 -0.039038677
0.67997416 0.33717169 -0.04023271
0.70104469 0.33688064 -0.041426743
0.72211523 0.33658959 -0.042620777
0.74318576 0.33629854 -0.04381481
0.075821534 0.38017336 -0.006166317
0.096892068 0.37988231 -0.0073603503
0.1179626 0.37959126 -0.0085543837
0.13903314 0.37930021 -0.009748417
0.16010367 0.37900916 -0.01094245
0.1811742 0.37871811 -0.012136484
0.20224474 0.37842706 -0.013330517
0.22331527 0.37813601 -0.01452455
0.24438581 0.37784496 -0.015718584
0.26545634 0.37755391 -0.016912617
0.28652688 0.37726286 -0.01810665
0.30759741 0.37697181 -0.019300684
0.32866794 0.37668076 -0.020494717
0.34973848 0.37638971 -0.021688751
0.37080901 0.37609866 -0.022882784
0.39187955 0.37580761 -0.024076817
0.41295008 0.37551656 -0.025270851
0.43402061 0.37522551 -0.026464884
0.45509115 0.37493446 -0.027658917
0.47616168 0.37464341 -0.028852951
0.49723222 0.37435235 -0.030046984
0.51830275 0.3740613 -0.031241017
0.53937329 0.37377025 -0.032435051
0.56044382 0.3734792 -0.033629084
0.58151435 0.37318815 -0.034823117
0.60258489 0.3728971 -0.036017151
0.62365542 0.37260605 -0.037211184
0.64472596 0.372315 -0.038405217
0.66579649 0.37202395 -0.039599251
0.68686702 0.3717329 -0.040793284
0.70793756 0.37144185 -0.041987318
0.72900809 0.3711508 -0.043181351
0.75007863 0.37085975 -0.044375384
0.082714401 0.41473457 -0.0067268912
0.10378494 0.41444352 -0.0079209246
0.12485547 0.41415247 -0.0091149579
0.145926 0.41386142 -0.010308991
0.16699654 0.41357037 -0.011503025
0.18806707 0.41327932 -0.012697058
0.20913761 0.41298827 -0.013891091
0.23020814 0.41269722 -0.015085125
0.25127867 0.41240617 -0.016279158
0.27234921 0.41211512 -0.017473191
0.29341974 0.41182407 -0.018667225
0.31449028 0.41153302 -0.019861258
0.33556081 0.41124197 -0.021055291
0.35663134 0.41095092 -0.022249325
0.37770188 0.41065987 -0.023443358
0.39877241 0.41036882 -0.024637392
0.41984295 0.41007777 -0.025831425
0.44091348 0.40978672 -0.027025458
0.46198402 0.40949567 -0.028219492
0.48305455 0.40920462 -0.029413525
0.50412508 0.40891357 -0.030607558
0.52519562 0.40862252 -0.031801592
0.54626615 0.40833147 -0.032995625
0.56733669 0.40804042 -0.034189658
0.58840722 0.40774937 -0.035383692
0.60947775 0.40745832 -0.036577725
0.63054829 0.40716727 -0.037771758
0.65161882 0.40687622 -0.038965792
0.67268936 0.40658517 -0.040159825
0.69375989 0.40629412 -0.041353858
0.71483042 0.40600307 -0.042547892
0.73590096 0.40571202 -0.043741925
0.75697149 0.40542097 -0.044935959
0.089607268 0.44929579 -0.0072874655
0.1106778 0.44900474 -0.0084814988
0.13174834 0.44871369 -0.0096755322
0.15281887 0.44842264 -0.010869566
0.1738894 0.44813159 -0.012063599
0.19495994 0.44784054 -0.013257632
0.21603047 0.44754949 -0.014451666
0.23710101 0.44725844 -0.015645699
0.25817154 0.44696739 -0.016839732
0.27924207 0.44667634 -0.018033766
0.30031261 0.44638529 -0.019227799
0.32138314 0.44609424 -0.020421832
0.34245368 0.44580319 -0.021615866
0.36352421 0.44551213 -0.022809899
0.38459475 0.44522108 -0.024003932
0.40566528 0.44493003 -0.025197966
0.42673581 0.44463898 -0.026391999
0.44780635 0.44434793 -0.027586032
0.46887688 0.44405688 -0.028780066
0.48994742 0.44376583 -0.029974099
0.51101795 0.44347478 -0.031168133
0.53208848 0.44318373 -0.032362166
0.55315902 0.44289268 -0.033556199
0.57422955 0.44260163 -0.034750233
0.59530009 0.44231058 -0.035944266
0.61637062 0.44201953 -0.037138299
0.63744116 0.44172848 -0.038332333
0.65851169 0.44143743 -0.039526366
0.67958222 0.44114638 -0.040720399
0.70065276 0.44085533 -0.041914433
0.72172329 0.44056428 -0.043108466
0.74279383 0.44027323 -0.044302499
0.76386436 0.43998218 -0.045496533
0.096500134 0.483857 -0.0078480398
0.11757067 0.48356595 -0.0090420731
0.1386412 0.4832749 -0.010236106
0.15971174 0.48298385 -0.01143014
0.18078227 0.4826928 -0.012624173
0.20185281 0.48240175 -0.013818207
0.22292334 0.4821107 -0.01501224
0.24399387 0.48181965 -0.016206273
0.26506441 0.4815286 -0.017400307
0.28613494 0.48123755 -0.01859434
0.30720548 0.4809465 -0.019788373
0.32827601 0.48065545 -0.020982407
0.34934654 0.4803644 -0.02217644
0.37041708 0.48007335 -0.023370473
0.39148761 0.4797823 -0.024564507
0.41255815 0.47949125 -0.02575854
0.43362868 0.4792002 -0.026952573
0.45469921 0.47890915 -0.028146607
0.47576975 0.4786181 -0.02934064
0.49684028 0.47832705 -0.030534673
0.51791082 0.478036 -0.031728707
0.53898135 0.47774495 -0.03292274
0.56005189 0.4774539 -0.034116774
0.58112242 0.47716285 -0.035310807
0.60219295 0.4768718 -0.03650484
0.62326349 0.47658075 -0.037698874
0.64433402 0.4762897 -0.038892907
0.66540456 0.47599865 -0.04008694
0.68647509 0.4757076 -0.041280974
0.70754562 0.47541655 -0.042475007
0.72861616 0.4751255 -0.04366904
0.74968669 0.47483445 -0.044863074
0.77075723 0.4745434 -0.046057107
0.103393 0.51841822 -0.008408614
0.12446354 0.51812717 -0.0096026474
0.14553407 0.51783612 -0.010796681
0.1666046 0.51754507 -0.011990714
0.18767514 0.51725402 -0.013184747
0.20874567 0.51696297 -0.014378781
0.22981621 0.51667192 -0.015572814
0.25088674 0.51638086 -0.016766848
0.27195727 0.51608981 -0.017960881
0.29302781 0.51579876 -0.019154914
0.31409834 0.51550771 -0.020348948
0.33516888 0.51521666 -0.021542981
0.35623941 0.51492561 -0.022737014
0.37730994 0.51463456 -0.023931048
0.39838048 0.51434351 -0.025125081
0.41945101 0.51405246 -0.026319114
0.44052155 0.51376141 -0.027513148
0.46159208 0.51347036 -0.028707181
0.48266262 0.51317931 -0.029901214
0.50373315 0.51288826 -0.031095248
0.52480368 0.51259721 -0.032289281
0.54587422 0.51230616 -0.033483314
0.56694475 0.51201511 -0.034677348
0.58801529 0.51172406 -0.035871381
0.60908582 0.51143301 -0.037065415
0.63015635 0.51114196 -0.038259448
0.65122689 0.51085091 -0.039453481
0.67229742 0.51055986 -0.040647515
0.69336796 0.51026881 -0.041841548
0.71443849 0.50997776 -0.043035581
0.73550903 0.50968671 -0.044229615
0.75657956 0.50939566 -0.045423648
0.77765009 0.50910461 -0.046617681
0.11028587 0.55297943 -0.0089691883
0.1313564 0.55268838 -0.010163222
0.15242694 0.55239733 -0.011357255
0.17349747 0.55210628 -0.012551288
0.194568 0.55181523 -0.013745322
0.21563854 0.55152418 -0.014939355
0.23670907 0.55123313 -0.016133388
0.25777961 0.55094208 -0.017327422
0.27885014 0.55065103 -0.018521455
0.29992068 0.55035998 -0.019715488
0.32099121 0.55006893 -0.020909522
0.34206174 0.54977788 -0.022103555
0.36313228 0.54948683 -0.023297589
0.38420281 0.54919578 -0.024491622
0.40527335 0.54890473 -0.025685655
0.42634388 0.54861368 -0.026879689
0.44741441 0.54832263 -0.028073722
0.46848495 0.54803158 -0.029267755
0.48955548 0.54774053 -0.030461789
0.51062602 0.54744948 -0.031655822
0.53169655 0.54715843 -0.032849855
0.55276708 0.54686738 -0.034043889
0.57383762 0.54657633 -0.035237922
0.59490815 0.54628528 -0.036431955
0.61597869 0.54599423 -0.037625989
0.63704922 0.54570318 -0.038820022
0.65811976 0.54541213 -0.040014055
0.67919029 0.54512108 -0.041208089
0.70026082 0.54483003 -0.042402122
0.72133136 0.54453898 -0.043596156
0.74240189 0.54424793 -0.044790189
0.76347243 0.54395687 -0.045984222
0.78454296 0.54366582 -0.047178256
0.11717873 0.58754065 -0.0095297626
0.13824927 0.58724959 -0.010723796
0.1593198 0.58695854 -0.011917829
0.18039034 0.58666749 -0.013111863
0.20146087 0.58637644 -0.014305896
0.22253141 0.58608539 -0.015499929
0.24360194 0.58579434 -0.016693963
0.26467247 0.58550329 -0.017887996
0.28574301 0.58521224 -0.019082029
0.30681354 0.58492119 -0.020276063
0.32788408 0.58463014 -0.021470096
0.34895461 0.58433909 -0.022664129
0.37002514 0.58404804 -0.023858163
0.39109568 0.58375699 -0.025052196
0.41216621 0.58346594 -0.02624623
0.43323675 0.58317489 -0.027440263
0.45430728 0.58288384 -0.028634296
0.47537781 0.58259279 -0.02982833
0.49644835 0.58230174 -0.031022363
0.51751888 0.58201069 -0.032216396
0.53858942 0.58171964 -0.03341043
0.55965995 0.58142859 -0.034604463
0.58073049 0.58113754 -0.035798496
0.60180102 0.58084649 -0.03699253
0.62287155 0.58055544 -0.038186563
0.64394209 0.58026439 -0.039380596
0.66501262 0.57997334 -0.04057463
0.68608316 0.57968229 -0.041768663
0.70715369 0.57939124 -0.042962696
0.72822422 0.57910019 -0.04415673
0.74929476 0.57880914 -0.045350763
0.77036529 0.57851809 -0.046544797
0.79143583 0.57822704 -0.04773883
0.1240716 0.62210186 -0.010090337
0.14514214 0.62181081 -0.01128437
0.16621267 0.62151976 -0.012478404
0.1872832 0.62122871 -0.013672437
0.20835374 0.62093766 -0.01486647
0.22942427 0.62064661 -0.016060504
0.25049481 0.62035556 -0.017254537
0.27156534 0.62006451 -0.01844857
0.29263587 0.61977346 -0.019642604
0.31370641 0.61948241 -0.020836637
0.33477694 0.61919136 -0.02203067
0.35584748 0.61890031 -0.023224704
0.37691801 0.61860926 -0.024418737
0.39798855 0.61831821 -0.02561277
0.41905908 0.61802716 -0.026806804
0.44012961 0.61773611 -0.028000837
0.46120015 0.61744506 -0.02919487
0.48227068 0.61715401 -0.030388904
0.50334122 0.61686296 -0.031582937
0.52441175 0.61657191 -0.032776971
0.54548228 0.61628086 -0.033971004
0.56655282 0.61598981 -0.035165037
0.58762335 0.61569876 -0.036359071
