site/assets/luts/upstream-urnaswfociotransformid10sonyinputlinear-venice-sgamut3cine-to-aces2065-110--37adeba28.cube
# LUTr-Schema-Version: 2
# LUTr-ID: upstream-urnaswfociotransformid10sonyinputlinear-venice-sgamut3cine-to-aces2065-110--37adeba28
# LUTr-Title: Sony.Input.Linear Venice SGamut3Cine to ACES2065-1
# LUTr-Collection: OCIO ACES
# LUTr-Collection-ID: aswf-opencolorio-config-aces
# LUTr-Source: https://github.com/AcademySoftwareFoundation/OpenColorIO-Config-ACES
# LUTr-Retrieved: 2026-07-27
# LUTr-Source-File: submissions/aswf-opencolorio-config-aces/opencolorio_config_aces/clf/transforms/sony/input/Sony.Input.Linear_Venice_SGamut3Cine_to_ACES2065-1.clf
# LUTr-Source-Format: CLF
# LUTr-Source-SHA256: d17765789a78169eb047ce44c1e4095d4f3b5e3fc4ffb51c2dd9d11e7559ef40
# LUTr-License: BSD-3-Clause
# LUTr-License-URL: https://github.com/AcademySoftwareFoundation/OpenColorIO-Config-ACES/blob/main/LICENSE
# LUTr-License-Basis: repo-license-file
# LUTr-Transform-Class: color-space-conversion
# LUTr-Tags: technical, aces, ocio, clf, color-management, cube
# LUTr-Input-Color-Space: linear-sony-venice-sgamut3cine
# LUTr-Input-Gamut: sony-venice-s-gamut3-cine
# LUTr-Input-Transfer: linear
# LUTr-Output-Color-Space: aces2065-1
# LUTr-Output-Gamut: aces-ap0
# LUTr-Output-Transfer: linear
# LUTr-Color-Space-Confidence: declared-by-source
# LUTr-Domain-Normalized: true
# LUTr-Shaper: none
# LUTr-Original-Grid: analytic
# LUTr-Conversion-Grid: 33x33x33
# LUTr-Conversion-Interpolation: linear
# LUTr-Conversion-Method: CLF operations evaluated as float and sampled to 33x33x33 3D CUBE
# LUTr-Conversion-Tool: LUTr scripts/convert-all-to-cube.mjs 2.0.0
# LUTr-Conversion-Date: 2026-07-27
# LUTr-Conversion-Warning: A sampled 3D CUBE is bounded to DOMAIN_MIN/MAX 0..1 and cannot preserve CLF values outside its input domain.
# LUTr-Upstream-ID: urn:aswf:ocio:transformId:1.0:Sony:Input:Linear_Venice_SGamut3Cine_to_ACES2065-1:1.0
# LUTr-Upstream-Name: Linear Venice S-Gamut3.Cine to ACES2065-1
# LUTr-Upstream-Input-Descriptor: Linear Venice S-Gamut3.Cine
# LUTr-Upstream-Output-Descriptor: ACES2065-1
# LUTr-Upstream-Operations: Matrix
# LUTr-Upstream-Domain: unbounded
# LUTr-Note: Preserve this metadata and the upstream license notices when redistributing.
TITLE "Sony.Input.Linear Venice SGamut3Cine to ACES2065-1"
LUT_3D_SIZE 5
DOMAIN_MIN 0 0 0
DOMAIN_MAX 1 1 1
0 0 0
0.16856427 -0.0023284015 -0.0095522668
0.33712855 -0.004656803 -0.019104534
0.50569282 -0.0069852046 -0.0286568
0.67425709 -0.0093136061 -0.038209067
0.055142934 0.27648972 -0.0044845942
0.22370721 0.27416131 -0.014036861
0.39227148 0.27183291 -0.023589128
0.56083575 0.26950451 -0.033141395
0.72940003 0.26717611 -0.042693661
0.11028587 0.55297943 -0.0089691883
0.27885014 0.55065103 -0.018521455
0.44741441 0.54832263 -0.028073722
0.61597869 0.54599423 -0.037625989
0.78454296 0.54366582 -0.047178256
0.1654288 0.82946915 -0.013453782
0.33399307 0.82714074 -0.023006049
0.50255735 0.82481234 -0.032558316
0.67112162 0.82248394 -0.042110583
0.83968589 0.82015554 -0.05166285
0.22057174 1.1059589 -0.017938377
0.38913601 1.1036305 -0.027490643
0.55770028 1.1013021 -0.03704291
0.72626456 1.0989737 -0.046595177
0.89482883 1.0966453 -0.056147444
0.026292793 -0.024161314 0.26403686
0.19485707 -0.026489715 0.25448459
0.36342134 -0.028818117 0.24493233
0.53198561 -0.031146518 0.23538006
0.70054989 -0.03347492 0.22582779
0.081435727 0.2523284 0.25955227
0.25 0.25 0.25
0.41856427 0.2476716 0.24044773
0.58712855 0.2453432 0.23089547
0.75569282 0.2430148 0.2213432
0.13657866 0.52881812 0.25506767
0.30514293 0.52648972 0.24551541
0.47370721 0.52416131 0.23596314
0.64227148 0.52183291 0.22641087
0.81083575 0.51950451 0.21685861
0.19172159 0.80530783 0.25058308
0.36028587 0.80297943 0.24103081
0.52885014 0.80065103 0.23147854
0.69741441 0.79832263 0.22192628
0.86597869 0.79599423 0.21237401
0.24686453 1.0817975 0.24609848
0.4154288 1.0794691 0.23654622
0.58399307 1.0771407 0.22699395
0.75255735 1.0748123 0.21744168
0.92112162 1.0724839 0.20788942
0.052585586 -0.048322628 0.52807372
0.22114986 -0.050651029 0.51852146
0.38971413 -0.052979431 0.50896919
0.55827841 -0.055307832 0.49941692
0.72684268 -0.057636234 0.48986465
0.10772852 0.22816709 0.52358913
0.27629279 0.22583869 0.51403686
0.44485707 0.22351028 0.50448459
0.61342134 0.22118188 0.49493233
0.78198561 0.21885348 0.48538006
0.16287145 0.5046568 0.51910453
0.33143573 0.5023284 0.50955227
0.5 0.5 0.5
0.66856427 0.4976716 0.49044773
0.83712855 0.4953432 0.48089547
0.21801439 0.78114652 0.51461994
0.38657866 0.77881812 0.50506767
0.55514293 0.77648972 0.49551541
0.72370721 0.77416131 0.48596314
0.89227148 0.77183291 0.47641087
0.27315732 1.0576362 0.51013535
0.44172159 1.0553078 0.50058308
0.61028587 1.0529794 0.49103081
0.77885014 1.050651 0.48147854
0.94741441 1.0483226 0.47192628
0.078878379 -0.072483942 0.79211058
0.24744265 -0.074812343 0.78255832
0.41600693 -0.077140745 0.77300605
0.5845712 -0.079469146 0.76345378
0.75313547 -0.081797548 0.75390152
0.13402131 0.20400577 0.78762599
0.30258559 0.20167737 0.77807372
0.47114986 0.19934897 0.76852146
0.63971413 0.19702057 0.75896919
0.80827841 0.19469217 0.74941692
0.18916425 0.48049549 0.78314139
0.35772852 0.47816709 0.77358913
0.52629279 0.47583869 0.76403686
0.69485707 0.47351028 0.75448459
0.86342134 0.47118188 0.74493233
0.24430718 0.7569852 0.7786568
0.41287145 0.7546568 0.76910453
0.58143573 0.7523284 0.75955227
0.75 0.75 0.75
0.91856427 0.7476716 0.74044773
0.29945011 1.0334749 0.77417221
0.46801439 1.0311465 0.76461994
0.63657866 1.0288181 0.75506767
0.80514293 1.0264897 0.74551541
0.97370721 1.0241613 0.73596314
0.10517117 -0.096645255 1.0561474
0.27373544 -0.098973657 1.0465952
0.44229972 -0.10130206 1.0370429
0.61086399 -0.10363046 1.0274906
0.77942826 -0.10595886 1.0179384
0.16031411 0.17984446 1.0516628
0.32887838 0.17751606 1.0421106
0.49744265 0.17518766 1.0325583
0.66600693 0.17285926 1.023006
0.8345712 0.17053085 1.0134538
0.21545704 0.45633418 1.0471783
0.38402131 0.45400577 1.037626
0.55258559 0.45167737 1.0280737
0.72114986 0.44934897 1.0185215
0.88971413 0.44702057 1.0089692
0.27059997 0.73282389 1.0426937
0.43916425 0.73049549 1.0331414
0.60772852 0.72816709 1.0235891
0.77629279 0.72583869 1.0140369
0.94485707 0.72351028 1.0044846
0.32574291 1.0093136 1.0382091
0.49430718 1.0069852 1.0286568
0.66287145 1.0046568 1.0191045
0.83143573 1.0023284 1.0095523
1 1 1
