site/assets/luts/upstream-urnaswfociotransformid10blackmagicdesigninputbmdfilm-gen5-log-curve-to-linear10--edcdce6f8.cube
# LUTr-Schema-Version: 2
# LUTr-ID: upstream-urnaswfociotransformid10blackmagicdesigninputbmdfilm-gen5-log-curve-to-linear10--edcdce6f8
# LUTr-Title: BlackmagicDesign.Input.BMDFilm Gen5 Log-Curve
# LUTr-Collection: OCIO ACES
# LUTr-Collection-ID: aswf-opencolorio-config-aces
# LUTr-Source: https://github.com/AcademySoftwareFoundation/OpenColorIO-Config-ACES
# LUTr-Retrieved: 2026-07-27
# LUTr-Source-File: submissions/aswf-opencolorio-config-aces/opencolorio_config_aces/clf/transforms/blackmagic/input/BlackmagicDesign.Input.BMDFilm_Gen5_Log-Curve.clf
# LUTr-Source-Format: CLF
# LUTr-Source-SHA256: d5d638d82e13707333467d8d262676eac92487727d14a4b75db24493f7cc7271
# LUTr-License: BSD-3-Clause
# LUTr-License-URL: https://github.com/AcademySoftwareFoundation/OpenColorIO-Config-ACES/blob/main/LICENSE
# LUTr-License-Basis: repo-license-file
# LUTr-Transform-Class: color-space-conversion
# LUTr-Tags: technical, aces, ocio, clf, color-management, cube
# LUTr-Input-Color-Space: 
# LUTr-Input-Gamut: unspecified
# LUTr-Input-Transfer: blackmagic-film-gen5
# LUTr-Output-Color-Space: 
# LUTr-Output-Gamut: unspecified
# LUTr-Output-Transfer: linear
# LUTr-Color-Space-Confidence: descriptor-only
# LUTr-Domain-Normalized: true
# LUTr-Shaper: none
# LUTr-Original-Grid: analytic
# LUTr-Conversion-Grid: 33x33x33
# LUTr-Conversion-Interpolation: linear
# LUTr-Conversion-Method: CLF operations evaluated as float and sampled to 33x33x33 3D CUBE
# LUTr-Conversion-Tool: LUTr scripts/convert-all-to-cube.mjs 2.0.0
# LUTr-Conversion-Date: 2026-07-27
# LUTr-Conversion-Warning: A sampled 3D CUBE is bounded to DOMAIN_MIN/MAX 0..1 and cannot preserve CLF values outside its input domain.
# LUTr-Upstream-ID: urn:aswf:ocio:transformId:1.0:BlackmagicDesign:Input:BMDFilm_Gen5_Log-Curve_to_Linear:1.0
# LUTr-Upstream-Name: Blackmagic Film (Gen 5) Log to Linear Curve
# LUTr-Upstream-Input-Descriptor: Blackmagic Film (Gen 5) Log
# LUTr-Upstream-Output-Descriptor: Blackmagic Film (Gen 5) Linear
# LUTr-Upstream-Operations: Log
# LUTr-Upstream-Domain: unbounded
# LUTr-Note: Preserve this metadata and the upstream license notices when redistributing.
TITLE "BlackmagicDesign.Input.BMDFilm Gen5 Log-Curve"
LUT_3D_SIZE 5
DOMAIN_MIN 0 0 0
DOMAIN_MAX 1 1 1
-0.0111625 -0.0111625 -0.0111625
0.034413796 -0.0111625 -0.0111625
0.7025396 -0.0111625 -0.0111625
12.556231 -0.0111625 -0.0111625
222.86094 -0.0111625 -0.0111625
-0.0111625 0.034413796 -0.0111625
0.034413796 0.034413796 -0.0111625
0.7025396 0.034413796 -0.0111625
12.556231 0.034413796 -0.0111625
222.86094 0.034413796 -0.0111625
-0.0111625 0.7025396 -0.0111625
0.034413796 0.7025396 -0.0111625
0.7025396 0.7025396 -0.0111625
12.556231 0.7025396 -0.0111625
222.86094 0.7025396 -0.0111625
-0.0111625 12.556231 -0.0111625
0.034413796 12.556231 -0.0111625
0.7025396 12.556231 -0.0111625
12.556231 12.556231 -0.0111625
222.86094 12.556231 -0.0111625
-0.0111625 222.86094 -0.0111625
0.034413796 222.86094 -0.0111625
0.7025396 222.86094 -0.0111625
12.556231 222.86094 -0.0111625
222.86094 222.86094 -0.0111625
-0.0111625 -0.0111625 0.034413796
0.034413796 -0.0111625 0.034413796
0.7025396 -0.0111625 0.034413796
12.556231 -0.0111625 0.034413796
222.86094 -0.0111625 0.034413796
-0.0111625 0.034413796 0.034413796
0.034413796 0.034413796 0.034413796
0.7025396 0.034413796 0.034413796
12.556231 0.034413796 0.034413796
222.86094 0.034413796 0.034413796
-0.0111625 0.7025396 0.034413796
0.034413796 0.7025396 0.034413796
0.7025396 0.7025396 0.034413796
12.556231 0.7025396 0.034413796
222.86094 0.7025396 0.034413796
-0.0111625 12.556231 0.034413796
0.034413796 12.556231 0.034413796
0.7025396 12.556231 0.034413796
12.556231 12.556231 0.034413796
222.86094 12.556231 0.034413796
-0.0111625 222.86094 0.034413796
0.034413796 222.86094 0.034413796
0.7025396 222.86094 0.034413796
12.556231 222.86094 0.034413796
222.86094 222.86094 0.034413796
-0.0111625 -0.0111625 0.7025396
0.034413796 -0.0111625 0.7025396
0.7025396 -0.0111625 0.7025396
12.556231 -0.0111625 0.7025396
222.86094 -0.0111625 0.7025396
-0.0111625 0.034413796 0.7025396
0.034413796 0.034413796 0.7025396
0.7025396 0.034413796 0.7025396
12.556231 0.034413796 0.7025396
222.86094 0.034413796 0.7025396
-0.0111625 0.7025396 0.7025396
0.034413796 0.7025396 0.7025396
0.7025396 0.7025396 0.7025396
12.556231 0.7025396 0.7025396
222.86094 0.7025396 0.7025396
-0.0111625 12.556231 0.7025396
0.034413796 12.556231 0.7025396
0.7025396 12.556231 0.7025396
12.556231 12.556231 0.7025396
222.86094 12.556231 0.7025396
-0.0111625 222.86094 0.7025396
0.034413796 222.86094 0.7025396
0.7025396 222.86094 0.7025396
12.556231 222.86094 0.7025396
222.86094 222.86094 0.7025396
-0.0111625 -0.0111625 12.556231
0.034413796 -0.0111625 12.556231
0.7025396 -0.0111625 12.556231
12.556231 -0.0111625 12.556231
222.86094 -0.0111625 12.556231
-0.0111625 0.034413796 12.556231
0.034413796 0.034413796 12.556231
0.7025396 0.034413796 12.556231
12.556231 0.034413796 12.556231
222.86094 0.034413796 12.556231
-0.0111625 0.7025396 12.556231
0.034413796 0.7025396 12.556231
0.7025396 0.7025396 12.556231
12.556231 0.7025396 12.556231
222.86094 0.7025396 12.556231
-0.0111625 12.556231 12.556231
0.034413796 12.556231 12.556231
0.7025396 12.556231 12.556231
12.556231 12.556231 12.556231
222.86094 12.556231 12.556231
-0.0111625 222.86094 12.556231
0.034413796 222.86094 12.556231
0.7025396 222.86094 12.556231
12.556231 222.86094 12.556231
222.86094 222.86094 12.556231
-0.0111625 -0.0111625 222.86094
0.034413796 -0.0111625 222.86094
0.7025396 -0.0111625 222.86094
12.556231 -0.0111625 222.86094
222.86094 -0.0111625 222.86094
-0.0111625 0.034413796 222.86094
0.034413796 0.034413796 222.86094
0.7025396 0.034413796 222.86094
12.556231 0.034413796 222.86094
222.86094 0.034413796 222.86094
-0.0111625 0.7025396 222.86094
0.034413796 0.7025396 222.86094
0.7025396 0.7025396 222.86094
12.556231 0.7025396 222.86094
222.86094 0.7025396 222.86094
-0.0111625 12.556231 222.86094
0.034413796 12.556231 222.86094
0.7025396 12.556231 222.86094
12.556231 12.556231 222.86094
222.86094 12.556231 222.86094
-0.0111625 222.86094 222.86094
0.034413796 222.86094 222.86094
0.7025396 222.86094 222.86094
12.556231 222.86094 222.86094
222.86094 222.86094 222.86094
