site/assets/luts/upstream-urnaswfociotransformid10ocioutilityap0-to-gamma22-encoded-ap110--c975a29b6.cube
# LUTr-Schema-Version: 2
# LUTr-ID: upstream-urnaswfociotransformid10ocioutilityap0-to-gamma22-encoded-ap110--c975a29b6
# LUTr-Title: OCIO.Utility.AP0 to Gamma2.2 Encoded AP1
# LUTr-Collection: OCIO ACES
# LUTr-Collection-ID: aswf-opencolorio-config-aces
# LUTr-Source: https://github.com/AcademySoftwareFoundation/OpenColorIO-Config-ACES
# LUTr-Retrieved: 2026-07-27
# LUTr-Source-File: submissions/aswf-opencolorio-config-aces/opencolorio_config_aces/clf/transforms/ocio/utility/OCIO.Utility.AP0_to_Gamma2.2_Encoded_AP1.clf
# LUTr-Source-Format: CLF
# LUTr-Source-SHA256: 3455b6b69ce7497abf8f75e3c50d871729aa12f2570954e76e36265975d81cc5
# LUTr-License: BSD-3-Clause
# LUTr-License-URL: https://github.com/AcademySoftwareFoundation/OpenColorIO-Config-ACES/blob/main/LICENSE
# LUTr-License-Basis: repo-license-file
# LUTr-Transform-Class: color-space-conversion
# LUTr-Tags: technical, aces, ocio, clf, color-management, cube
# LUTr-Input-Color-Space: aces2065-1
# LUTr-Input-Gamut: aces-ap0
# LUTr-Input-Transfer: linear
# LUTr-Output-Color-Space:
# LUTr-Output-Gamut: aces-ap1
# LUTr-Output-Transfer: gamma22
# LUTr-Color-Space-Confidence: descriptor-only
# LUTr-Domain-Normalized: true
# LUTr-Shaper: none
# LUTr-Original-Grid: analytic
# LUTr-Conversion-Grid: 33x33x33
# LUTr-Conversion-Interpolation: linear
# LUTr-Conversion-Method: CLF operations evaluated as float and sampled to 33x33x33 3D CUBE
# LUTr-Conversion-Tool: LUTr scripts/convert-all-to-cube.mjs 2.0.0
# LUTr-Conversion-Date: 2026-07-27
# LUTr-Conversion-Warning: A sampled 3D CUBE is bounded to DOMAIN_MIN/MAX 0..1 and cannot preserve CLF values outside its input domain.
# LUTr-Upstream-ID: urn:aswf:ocio:transformId:1.0:OCIO:Utility:AP0_to_Gamma2.2_Encoded_AP1:1.0
# LUTr-Upstream-Name: AP0 to Gamma 2.2 Encoded AP1
# LUTr-Upstream-Input-Descriptor: ACES2065-1
# LUTr-Upstream-Output-Descriptor: 2.2 gamma-corrected AP1 primaries, ACES ~=D60 white point
# LUTr-Upstream-Operations: Matrix -> Exponent
# LUTr-Upstream-Domain: unbounded
# LUTr-Note: Preserve this metadata and the upstream license notices when redistributing.
TITLE "OCIO.Utility.AP0 to Gamma2.2 Encoded AP1"
LUT_3D_SIZE 33
DOMAIN_MIN 0 0 0
DOMAIN_MAX 1 1 1
0 0 0
0.24512402 -0.0023923054 0.023461243
0.33590594 -0.0047846108 0.032150138
0.40388634 -0.0071769163 0.03865666
0.46030903 -0.0095692217 0.044056973
0.50944758 -0.011961527 0.048760108
0.55346604 -0.014353833 0.052973191
0.59363752 -0.016746138 0.056818073
0.63078494 -0.019138443 0.060373517
0.6654761 -0.021530749 0.063693867
0.69812199 -0.023923054 0.066818463
0.7290313 -0.02631536 0.069776846
0.75844274 -0.028707665 0.072591865
0.78654532 -0.03109997 0.075281612
0.81349175 -0.033492276 0.077860702
0.83940742 -0.035884581 0.080341135
0.86439676 -0.038276887 0.082732908
0.88854787 -0.040669192 0.085044452
0.91193583 -0.043061498 0.087282954
0.93462523 -0.045453803 0.089454597
0.95667216 -0.047846108 0.091564746
0.97812562 -0.050238414 0.093618094
0.99902877 -0.052630719 0.09561877
1.0194198 -0.055023025 0.097570431
1.0393327 -0.05741533 0.099476334
1.0587981 -0.059807635 0.10133939
1.0778432 -0.062199941 0.10316223
1.0964927 -0.064592246 0.10494721
1.1147692 -0.066984552 0.10669649
1.132693 -0.069376857 0.10841201
1.1502828 -0.071769163 0.11009555
1.1675555 -0.074161468 0.11174876
1.184527 -0.076553773 0.11337312
-0.0073909608 0.22278339 -0.00018851406
0.22608569 0.21607156 0.013038337
0.32317738 0.2090997 0.026196895
0.39376269 0.20183706 0.034086426
0.45168878 0.1942464 0.040226707
0.50183262 0.18628191 0.045406933
0.54658238 0.17788618 0.049959648
0.58731581 0.16898566 0.054061794
0.62491205 0.15948351 0.057820616
0.65997209 0.14924789 0.061306849
0.69292798 0.13809135 0.064570013
0.72410243 0.12573139 0.06764635
0.75374393 0.11170615 0.070563318
0.78204855 0.095160236 0.0733423
0.80917419 0.074120953 0.076000328
0.8352502 0.040687475 0.078551224
0.86038409 -0.0015197086 0.081006388
0.88466636 -0.003912014 0.083375348
0.90817401 -0.0063043194 0.085666164
0.93097322 -0.0086966248 0.087885727
0.95312133 -0.01108893 0.09003998
0.97466841 -0.013481236 0.092134089
0.9956585 -0.015873541 0.094172583
1.0161306 -0.018265847 0.096159453
1.0361192 -0.020658152 0.098098239
1.0556556 -0.023050457 0.0999921
1.0747674 -0.025442763 0.10184386
1.0934798 -0.027835068 0.10365608
1.1118157 -0.030227374 0.10543105
1.1297956 -0.032619679 0.10717087
1.1474386 -0.035011984 0.10887744
1.1647619 -0.03740429 0.1105525
1.1817814 -0.039796595 0.11219764
-0.014781922 0.30529143 -0.00037702811
0.20489615 0.30073485 -0.00011714847
0.30981675 0.29609388 0.017867097
0.38331662 0.29136392 0.028626358
0.44286644 0.28653998 0.035898942
0.49407641 0.28161656 0.041726452
0.53959309 0.27658762 0.046710367
0.58091137 0.27144648 0.051125584
0.61897216 0.26618575 0.055124707
0.65441245 0.26079719 0.058802722
0.68768683 0.2552716 0.062223435
0.71913297 0.24959861 0.065432119
0.74900971 0.24376651 0.068462253
0.77752052 0.23776195 0.071339409
0.80482879 0.23156966 0.074083633
0.831068 0.22517199 0.076710979
0.85634884 0.21854838 0.079234539
0.88076431 0.21167464 0.081665149
0.90439341 0.204522 0.084011901
0.92730394 0.19705579 0.086282509
0.94955455 0.18923361 0.08848358
0.97119641 0.18100273 0.090620831
0.99227448 0.17229613 0.092699242
1.0128285 0.16302652 0.094723182
1.0328937 0.15307664 0.096696512
1.0525018 0.14228254 0.098622662
1.071681 0.13040292 0.10050469
1.0904569 0.11705618 0.10234536
1.1088526 0.10157172 0.10414712
1.1268893 0.082546574 0.10591224
1.1445859 0.055756122 0.10764275
1.1619602 -0.00064711174 0.1093405
1.1790282 -0.0030394172 0.11100718
-0.022172883 0.36707609 -0.00056554217
0.1806795 0.36343461 -0.00030566253
0.2957261 0.35974882 -0.000045782891
0.37251724 0.35601714 0.021483028
0.43382797 0.35223792 0.030830482
0.48617126 0.34840941 0.037607777
0.53249342 0.34452974 0.043164143
0.57442106 0.34059691 0.047971552
0.61296308 0.33660883 0.052260453
0.64879554 0.33256322 0.056163577
0.6823973 0.32845767 0.059765528
0.71412196 0.3242896 0.063124098
0.7442393 0.32005623 0.066280805
0.77296063 0.31575457 0.069266652
0.80045507 0.31138142 0.072105499
0.82686039 0.30693328 0.074816169
0.85229064 0.30240642 0.077413816
0.8768414 0.29779674 0.079910853
0.90059375 0.2930998 0.082317594
0.92361714 0.28831075 0.084642719
0.94597162 0.28342428 0.086893614
0.96770946 0.27843456 0.089076625
0.98887657 0.27333516 0.091197249
1.0095134 0.26811896 0.09326029
1.0296561 0.26277805 0.095269967
1.0493366 0.25730357 0.097230016
1.0685839 0.25168563 0.099143759
1.0874239 0.24591301 0.10101417
1.1058801 0.23997302 0.10284391
1.1239739 0.23385112 0.1046354
1.1417247 0.22753058 0.10639082
1.1591504 0.22099197 0.10811215
1.1762672 0.21421253 0.10980121
-0.029563843 0.41835642 -0.00075405622
0.15174984 0.41524844 -0.00049417659
0.28077965 0.4121123 -0.00023429695
0.36132841 0.40894725 0.0081790494
0.42455769 0.40575253 0.024484194
0.47810877 0.40252734 0.03286001
0.52527831 0.39927084 0.039228158
0.56784154 0.39598215 0.044546547
0.60688246 0.39266035 0.04919415
0.64311966 0.38930448 0.053366492
0.6770581 0.38591353 0.057179884
0.70906838 0.38248645 0.060710072
0.73943192 0.37902211 0.064009598
0.76836823 0.37551936 0.067116648
0.79605247 0.37197695 0.070059994
0.82262693 0.36839359 0.072861943
0.84820911 0.3647679 0.075540197
0.87289731 0.36109845 0.078109078
0.89677475 0.35738369 0.080580368
0.91991261 0.35362201 0.082963892
0.94237233 0.34981169 0.085267945
0.96420737 0.3459509 0.087499605
0.98546458 0.3420377 0.089664968
1.0061853 0.33807003 0.091769328
1.0264062 0.33404567 0.093817316
1.04616 0.32996228 0.095813012
1.065476 0.32581732 0.09776003
1.0843807 0.3216081 0.099661591
1.1028979 0.31733172 0.10152058
1.1210494 0.31298503 0.10333959
1.1388549 0.30856466 0.10512097
1.1563324 0.30406697 0.10686683
1.1734985 0.29948799 0.10857913
-0.036954804 0.46301647 -0.00094257028
0.11390779 0.46026714 -0.00068269064
0.26481135 0.45749795 -0.000422811
0.34970751 0.4547085 -0.00016293136
0.41503789 0.45189837 0.014986494
0.46987973 0.44906711 0.027097912
0.51794227 0.44621426 0.034749225
0.56116923 0.44333936 0.040771944
0.60072783 0.44044191 0.045879292
0.63738303 0.4375214 0.05038133
0.67166789 0.43457731 0.054445685
0.70397122 0.43160909 0.058174964
0.73458673 0.42861617 0.061637303
0.76374266 0.42559796 0.064880636
0.79162046 0.42255385 0.067940182
0.81836717 0.41948318 0.0708427
0.84410388 0.41638531 0.073609079
0.86893172 0.41325952 0.076255992
0.89293613 0.4101051 0.078796992
0.91619008 0.4069213 0.081243274
0.93875646 0.40370732 0.083604204
0.96068994 0.40046234 0.085887718
0.98203835 0.39718549 0.088100602
1.0028439 0.39387587 0.090248716
1.0231439 0.39053255 0.092337159
1.0429717 0.38715451 0.094370402
1.0623572 0.38374074 0.096352388
1.0813272 0.38029012 0.098286617
1.0999061 0.37680152 0.10017621
1.1181157 0.37327372 0.10202398
1.1359763 0.36970545 0.10383243
1.1535061 0.36609537 0.10560385
1.1707219 0.36244205 0.10734031
-0.044345765 0.50302308 -0.0011310843
0.04351736 0.50053549 -0.0008712047
0.24759433 0.49803298 -0.00061132506
0.33760363 0.49551529 -0.00035144542
0.40524855 0.49298215 -0.000091565783
0.46147401 0.49043329 0.019257502
0.51047936 0.48786844 0.029439288
0.55440034 0.4852873 0.036522558
0.59449659 0.48268958 0.042248582
0.63158375 0.48007498 0.047167124
0.66622527 0.47744318 0.051535855
0.69882937 0.47479385 0.055499799
0.72970289 0.47212666 0.059150026
0.75908322 0.46944127 0.062548089
0.78715847 0.46673732 0.065737863
0.81408063 0.46401443 0.068751908
0.83997456 0.46127224 0.071615163
0.8649443 0.45851034 0.074347224
0.88907761 0.45572833 0.076963814
0.91244931 0.45292579 0.079477774
0.93512381 0.45010229 0.081899751
0.95715699 0.44725737 0.084238685
0.97859773 0.44439057 0.08650217
0.99948904 0.4415014 0.088696718
1.0198691 0.43858937 0.090827967
1.0397717 0.43565394 0.09290083
1.0592274 0.43269459 0.094919625
1.0782634 0.42971074 0.096888165
1.0969044 0.42670183 0.098809841
1.1151728 0.42366723 0.10068768
1.133089 0.42060633 0.10252441
1.1506714 0.41751846 0.10432248
1.1679373 0.41440293 0.1060841
-0.051736726 0.53953332 -0.0013195984
-0.0063792473 0.53724732 -0.0010597188
0.22880452 0.53494958 -0.00079983912
0.32495514 0.53263994 -0.00053995948
0.39516687 0.53031822 -0.00028007984
0.45288041 0.52798423 -0.0000202002
0.50288318 0.5256378 0.022614012
0.54753079 0.52327873 0.03157604
0.58818597 0.52090683 0.038198134
0.62571987 0.51852189 0.043665741
0.66072876 0.51612373 0.048414083
0.69364173 0.51371211 0.052660146
0.7247795 0.51128683 0.056530419
0.7543892 0.50884767 0.060106171
0.78266592 0.50639439 0.063443232
0.80976683 0.50392677 0.066581881
0.83582073 0.50144456 0.069552293
0.86093469 0.49894752 0.072377755
0.88519889 0.49643539 0.075076677
0.90869005 0.49390792 0.077663909
0.93147414 0.49136483 0.080151629
0.95360832 0.48880584 0.082549973
0.97514252 0.48623068 0.084867482
0.99612065 0.48363905 0.087111428
1.0165816 0.48103064 0.089288066
1.0365598 0.47840515 0.091402819
1.0560864 0.47576225 0.093460427
1.075189 0.47310161 0.09546506
1.0938928 0.4704229 0.09742041
1.1122205 0.46772576 0.099329761
1.1301928 0.46500982 0.10119605
1.1478284 0.46227472 0.10302193
1.1651448 0.45952005 0.10480978
-0.059127687 0.57329513 -0.0015081124
-0.013770208 0.57117038 -0.0012482328
0.20795054 0.56903611 -0.00098835317
0.31168631 0.56689219 -0.00072847353
0.38476667 0.56473849 -0.00046859389
0.44408652 0.5625749 -0.00020871426
0.49514674 0.56040127 0.011208168
0.54055623 0.55821748 0.025458262
0.58179304 0.55602339 0.03355194
0.61978928 0.55381885 0.039789836
0.65517683 0.55160374 0.045029747
0.6884071 0.5493779 0.049623644
0.71981565 0.54714119 0.053756345
0.74965987 0.54489345 0.05753897
0.77814221 0.54263452 0.061044404
0.80542528 0.54036426 0.06432347
0.83164197 0.53808249 0.067413252
0.85690255 0.53578905 0.070341776
0.88129966 0.53348378 0.073130825
0.90491204 0.53116648 0.075797723
0.92780724 0.52883699 0.078356511
0.95004374 0.52649512 0.080818753
0.97167256 0.52414068 0.083194107
0.99273852 0.52177348 0.085490738
1.0132813 0.51939333 0.087715615
1.033336 0.51700001 0.08987475
1.0529342 0.51459332 0.091973364
1.0721041 0.51217305 0.094016032
1.0908713 0.50973898 0.096006782
1.1092588 0.50729088 0.097949188
1.1272876 0.50482851 0.099846436
1.1449769 0.50235166 0.10170138
1.1623442 0.49986006 0.10351658
-0.066518648 0.60482453 -0.0016966265
-0.021161169 0.60283249 -0.0014367469
0.18422159 0.60083252 -0.0011768672
0.29770229 0.59882453 -0.00091698759
0.37401765 0.59680843 -0.00065710795
0.43507853 0.59478413 -0.00039722831
0.48726246 0.59275152 -0.00013734867
0.53347196 0.59071051 0.016669782
0.57531468 0.588661 0.027964336
0.61378981 0.5866029 0.03539719
0.64956786 0.58453609 0.041308569
0.68312426 0.58246048 0.046345887
0.71481038 0.58037595 0.050798819
0.74489446 0.5782824 0.054826355
0.77358672 0.57617972 0.058526741
0.80105546 0.57406778 0.061965643
0.82743787 0.57194648 0.065189485
0.85284751 0.5698157 0.068232497
0.87737963 0.56767531 0.071120766
0.901115 0.5655252 0.073874702
0.92412285 0.56336523 0.076510631
0.94646303 0.56119527 0.079041844
0.96818766 0.55901521 0.081479333
0.98934252 0.55682489 0.083832312
1.009968 0.55462418 0.086108588
1.0301 0.55241294 0.088314849
1.0497706 0.55019103 0.090456874
1.0690085 0.5479583 0.092539694
1.0878397 0.5457146 0.094567724
1.1062876 0.54345978 0.09654486
1.1243735 0.54119367 0.098474563
1.1421169 0.53891611 0.10035992
1.1595355 0.53662695 0.10220371
-0.073909608 0.63449508 -0.0018851406
-0.02855213 0.63261466 -0.0016252609
0.15609365 0.63072752 -0.0013653813
0.28288172 0.62883358 -0.0011055016
0.36288449 0.62693277 -0.00084562201
0.42584097 0.62502501 -0.00058574237
0.47922203 0.62311025 -0.00032586273
0.52627297 0.62118839 -0.000065983092
0.56874758 0.61925938 0.020536756
0.60771912 0.61732312 0.030226133
0.64390016 0.61537955 0.03713365
0.67779194 0.61342859 0.042763081
0.7097627 0.61147015 0.047618634
0.74009219 0.60950416 0.051942243
0.76899881 0.60753053 0.055871873
0.79665684 0.60554917 0.0594949
0.82320798 0.60356 0.062870733
0.8487692 0.60156294 0.06604191
0.87343846 0.59955789 0.069040106
0.89729866 0.59754475 0.071889649
0.92042076 0.59552345 0.074609698
0.94286599 0.59349388 0.077215655
0.96468765 0.59145595 0.079720119
0.98593247 0.58940955 0.082133549
1.0066416 0.5873546 0.084464738
1.0268518 0.58529098 0.086721163
1.0465955 0.58321859 0.088909244
1.0659021 0.58113733 0.091034537
1.0847979 0.57904708 0.093101895
1.1033067 0.57694774 0.095115581
1.1214503 0.57483919 0.097079363
1.1392482 0.57272132 0.098996595
1.1567186 0.57059401 0.10087027
-0.081300569 0.66258731 -0.0020736546
-0.035943091 0.66080245 -0.001813775
0.11994894 0.65901178 -0.0015538953
0.26706505 0.65721526 -0.0012940157
0.35132554 0.65541282 -0.0010341361
0.41635645 0.65360442 -0.00077425642
0.47101637 0.65178999 -0.00051437679
0.51895382 0.64996948 -0.00025449715
0.56208819 0.64814283 0.0040270999
0.60157477 0.64630998 0.02368088
0.63817195 0.64447087 0.032301048
0.6724088 0.64262545 0.03877774
0.70467156 0.64077364 0.044160519
0.73525223 0.63891539 0.048851813
0.76437782 0.63705063 0.053056231
0.79222889 0.6351793 0.056894426
0.81895184 0.63330132 0.060444513
0.84466724 0.63141664 0.063760452
0.86947584 0.62952519 0.066881332
0.89346275 0.62762689 0.069836534
0.91670071 0.62572168 0.072648788
0.93925241 0.62380948 0.075336106
0.96117233 0.62189022 0.077913038
0.9825082 0.61996382 0.080391539
1.0033021 0.61803022 0.08278157
1.0235912 0.61608933 0.085091533
1.0434088 0.61414107 0.08732859
1.0627848 0.61218537 0.089498907
1.0817458 0.61022214 0.091607835
1.1003162 0.6082513 0.093660052
1.1185178 0.60627277 0.095659677
1.1363708 0.60428647 0.097610358
1.1538934 0.60229229 0.099515345
-0.08869153 0.68931818 -0.0022621687
-0.043334051 0.68761628 -0.002002289
0.059634057 0.68590931 -0.0017424094
0.25003542 0.68419723 -0.0014825298
0.33929113 0.68247999 -0.0012226501
0.4066053 0.68075755 -0.00096277048
0.46263546 0.67902986 -0.00070289084
0.51150865 0.67729688 -0.0004430112
0.55533275 0.67555857 -0.00018313157
0.59535418 0.67381487 0.013476469
0.63238136 0.67206574 0.026389536
0.66697344 0.67031113 0.034227156
0.6995359 0.66855099 0.040342157
0.73037373 0.66678528 0.045506804
0.75972305 0.66501393 0.050048723
0.78777104 0.6632369 0.054142835
0.81466899 0.66145415 0.057895386
0.84054124 0.6596656 0.061376553
0.86549142 0.65787122 0.064635515
0.88960697 0.65607095 0.067708298
0.91296246 0.65426473 0.070622209
0.93562207 0.65245251 0.073398526
0.95764152 0.65063422 0.076054204
0.97906955 0.64880982 0.07860301
0.99994907 0.64697924 0.081056297
1.0203181 0.64514242 0.083423561
1.0402104 0.64329931 0.085712835
1.0596565 0.64144983 0.087930988
1.0786834 0.63959394 0.090083945
1.0973159 0.63773156 0.092176859
1.1155762 0.63586263 0.094214245
1.1334847 0.63398709 0.096200084
1.15106 0.63210486 0.098137909
-0.096082491 0.71485949 -0.0024506827
-0.050725012 0.71323048 -0.0021908031
-0.0053675337 0.711597 -0.0019309235
0.23148513 0.709959 -0.0016710438
0.32672131 0.70831646 -0.0014111642
0.3965651 0.70666933 -0.0011512845
0.45406828 0.70501758 -0.0008914049
0.50393111 0.70336118 -0.00063152526
0.54847724 0.70170008 -0.00037164562
0.5890546 0.70003425 -0.00011176598
0.62652644 0.69836364 0.018170271
0.66148439 0.69668823 0.028799685
0.69435459 0.69500797 0.036031224
0.72545581 0.69332282 0.041836956
0.75503381 0.69163274 0.046806911
0.78328271 0.68993769 0.051212231
0.81035895 0.68823763 0.055203879
0.83639079 0.68653252 0.058875998
0.86148487 0.68482231 0.062291909
0.88573103 0.68310695 0.065496588
0.90920574 0.68138641 0.068523317
0.93197474 0.67966065 0.071397533
0.95409502 0.67792961 0.074139185
0.97561635 0.67619324 0.076764257
0.99658254 0.67445152 0.079285789
1.0170323 0.67270437 0.081714575
1.0370002 0.67095177 0.084059677
1.056517 0.66919365 0.08632878
1.0756105 0.66742997 0.088528475
1.0943057 0.66566069 0.090664459
1.1126252 0.66388574 0.092741699
1.1305897 0.66210508 0.094764553
1.1482181 0.66031865 0.096736873
-0.10347345 0.73935002 -0.0026391968
-0.058115973 0.7377857 -0.0023793171
-0.012758495 0.73621739 -0.0021194375
0.21095201 0.73464506 -0.0018595579
0.3135425 0.73306869 -0.0015996782
0.38621018 0.73148823 -0.0013397986
0.4453026 0.72990367 -0.001079919
0.49621431 0.72831496 -0.00082003932
0.54151731 0.72672209 -0.00056015968
0.58267312 0.72512502 -0.00030028004
0.62060511 0.72352371 -0.000040400401
0.65594014 0.72191814 0.021726863
0.68912646 0.72030828 0.030989134
0.72049755 0.71869408 0.037732907
0.75030936 0.71707552 0.043270257
0.7787633 0.71545257 0.048065065
0.80602123 0.71382518 0.052344851
0.83221547 0.71219334 0.056240998
0.85745584 0.71055699 0.059837392
0.88183463 0.70891611 0.063191403
0.90543031 0.70727066 0.066344287
0.92831021 0.7056206 0.069326867
0.95053262 0.70396589 0.072162883
0.97214842 0.70230651 0.074871069
0.9932023 0.70064241 0.077466515
1.0137338 0.69897355 0.079961584
1.033778 0.6972999 0.082366551
1.0533663 0.69562141 0.084690068
1.072527 0.69393805 0.086939496
1.0912855 0.69224978 0.089121161
1.1096648 0.69055654 0.091240546
1.1276858 0.68885832 0.093302441
1.1453678 0.68715505 0.095311054
-0.11086441 0.76290373 -0.0028277108
-0.065506934 0.76139731 -0.0025678312
-0.020149455 0.75988731 -0.0023079516
0.18768377 0.7583737 -0.0020480719
0.29966286 0.75685646 -0.0017881923
0.37551087 0.75533555 -0.0015283126
0.43632479 0.75381096 -0.001268433
0.48835073 0.75228267 -0.0010085534
0.53444836 0.75075064 -0.00074867373
0.57620664 0.74921485 -0.00048879409
0.6146152 0.74767527 -0.00022891446
0.65033907 0.74613187 0.0089206625
0.6838503 0.74458464 0.02469297
0.71549801 0.74303354 0.033007036
0.74554894 0.74147854 0.039347133
0.7742122 0.73991962 0.044648731
0.80165531 0.73835675 0.049284887
0.82801486 0.7367899 0.053448799
0.85340395 0.73521904 0.057255659
0.87791746 0.73364414 0.060780598
0.90163589 0.73206518 0.064075788
0.92462823 0.73048212 0.067179183
0.94695413 0.72889493 0.070119393
0.96866558 0.72730358 0.072918614
0.98980821 0.72570804 0.075594467
1.0104223 0.72410828 0.078161215
1.0305437 0.72250427 0.080630594
1.0502043 0.72089598 0.083012392
1.0694329 0.71928336 0.085314878
1.0882552 0.7176664 0.087545106
1.1066948 0.71604505 0.089709155
1.1247729 0.71441929 0.091812302
1.1425089 0.71278907 0.093859167
-0.11825537 0.78561554 -0.0030162249
-0.072897895 0.78416134 -0.0027563453
-0.027540416 0.7827039 -0.0024964656
0.16029704 0.78124319 -0.002236586
0.28496522 0.77977919 -0.0019767063
0.3644326 0.7783119 -0.0017168267
0.42711964 0.77684127 -0.0014569471
0.4803322 0.7753673 -0.0011970674
0.52726538 0.77388995 -0.00093718779
0.56965189 0.77240922 -0.00067730815
0.6085544 0.77092507 -0.00041742851
0.64467951 0.76943748 -0.00015754887
0.67852483 0.76794643 0.015359125
0.71045619 0.7664519 0.02728295
0.74075176 0.76495387 0.034886754
0.76962877 0.76345231 0.04088555
0.79726067 0.76194719 0.045977934
0.82378853 0.7604385 0.050469513
0.84932885 0.75892621 0.054526041
0.87397921 0.75741029 0.058249188
0.89782221 0.75589073 0.061706558
0.92092858 0.75436749 0.064945763
0.94335934 0.75284055 0.068001809
0.96516765 0.75130988 0.070901312
0.98640009 0.74977547 0.073665061
1.0070978 0.74823727 0.076309652
1.0272971 0.74669527 0.078848584
1.0470308 0.74514944 0.081293008
1.0663279 0.74359975 0.083652259
1.0852149 0.74204618 0.085934245
1.1037153 0.7404887 0.088145731
1.1218509 0.73892727 0.090292559
1.1396414 0.73736187 0.092379816
-0.12564633 0.80756552 -0.003204739
-0.080288856 0.80615871 -0.0029448593
-0.034931377 0.80474895 -0.0026849797
0.12564533 0.80333622 -0.0024251
0.26929617 0.8019205 -0.0021652204
0.35293466 0.80050178 -0.0019053408
0.41767003 0.79908003 -0.0016454611
0.47214972 0.79765524 -0.0013855815
0.51996301 0.79622739 -0.0011257018
0.56300535 0.79479647 -0.00086582221
0.60242029 0.79336244 -0.00060594257
0.6389597 0.7919253 -0.00034606293
0.67314872 0.79048502 -0.000086183292
0.70537107 0.78904158 0.019535024
0.735917 0.78759497 0.029606923
0.76501234 0.78614516 0.036652145
0.79283677 0.78469214 0.042357454
0.81953601 0.78323588 0.04726255
0.84523015 0.78177636 0.051621676
0.87001954 0.78031357 0.05557833
0.893989 0.77884748 0.059222786
0.917211 0.77737807 0.062616138
0.93974804 0.77590532 0.065801973
0.96165444 0.77442921 0.068812664
0.98297778 0.77294971 0.071673019
1.00376 0.77146681 0.07440254
1.0240382 0.76998048 0.077016882
1.0438457 0.7684907 0.079528836
1.0632121 0.76699744 0.081949007
1.0821642 0.76550069 0.084286306
1.1007261 0.76400042 0.0865483
1.1189198 0.7624966 0.088741484
1.1367652 0.76098922 0.090871475
-0.1330373 0.82882189 -0.003393253
-0.087679816 0.82745835 -0.0031333734
-0.042322338 0.8260921 -0.0028734937
0.071702754 0.82472314 -0.0026136141
0.25244823 0.82335144 -0.0023537345
0.34096863 0.821977 -0.0020938548
0.40795663 0.82059979 -0.0018339752
0.46379343 0.8192198 -0.0015740955
0.51253545 0.81783702 -0.0013142159
0.55626329 0.81645143 -0.0010543363
0.59621029 0.81506301 -0.00079445662
0.63317776 0.81367175 -0.00053457699
0.66772059 0.81227762 -0.00027469735
0.70024156 0.81088062 -0.00001481771
0.73104383 0.80948073 0.022843453
0.76036224 0.80807792 0.031730231
0.78838304 0.80667218 0.038320955
0.81525684 0.8052635 0.043770398
0.84110746 0.80385186 0.048506574
0.86603813 0.80243723 0.052743777
0.89013595 0.80101961 0.056607238
0.91347525 0.79959897 0.060177547
0.93612 0.79817529 0.063510132
0.95812576 0.79674856 0.066645019
0.97954111 0.79531876 0.069612212
1.0004088 0.79388586 0.072434881
1.0207669 0.79244986 0.075131349
1.0406489 0.79101072 0.077716404
1.0600853 0.78956844 0.080202176
1.0791032 0.78812299 0.082598765
1.0977271 0.78667435 0.08491468
1.1159794 0.7852225 0.087157172
1.1338803 0.78376743 0.089332475
-0.14042826 0.84944338 -0.0035817671
-0.095070777 0.84811953 -0.0033218874
-0.049713299 0.8467932 -0.0030620078
-0.0043558201 0.84546437 -0.0028021281
0.23412899 0.84413302 -0.0025422485
0.3284761 0.84279916 -0.0022823689
0.39795743 0.84146275 -0.0020224892
0.45525244 0.84012379 -0.0017626096
0.50497643 0.83878227 -0.00150273
0.54942172 0.83743817 -0.0012428503
0.58992169 0.83609147 -0.00098297068
