site/assets/luts/upstream-urnaswfociotransformid10arriinputarri-logc4-to-aces2065-110--20e59c0fe.cube
# LUTr-Schema-Version: 2
# LUTr-ID: upstream-urnaswfociotransformid10arriinputarri-logc4-to-aces2065-110--20e59c0fe
# LUTr-Title: ARRI.Input.ARRI LogC4 to ACES2065-1
# LUTr-Collection: OCIO ACES
# LUTr-Collection-ID: aswf-opencolorio-config-aces
# LUTr-Source: https://github.com/AcademySoftwareFoundation/OpenColorIO-Config-ACES
# LUTr-Retrieved: 2026-07-27
# LUTr-Source-File: submissions/aswf-opencolorio-config-aces/opencolorio_config_aces/clf/transforms/arri/input/ARRI.Input.ARRI_LogC4_to_ACES2065-1.clf
# LUTr-Source-Format: CLF
# LUTr-Source-SHA256: 4384994747d4f914b2a5ebbe0793adc2c77793f89be3dd49cab5c0fa5a461df9
# LUTr-License: BSD-3-Clause
# LUTr-License-URL: https://github.com/AcademySoftwareFoundation/OpenColorIO-Config-ACES/blob/main/LICENSE
# LUTr-License-Basis: repo-license-file
# LUTr-Transform-Class: color-space-conversion
# LUTr-Tags: technical, aces, ocio, clf, color-management, cube
# LUTr-Input-Color-Space: 
# LUTr-Input-Gamut: unspecified
# LUTr-Input-Transfer: arri-logc4
# LUTr-Output-Color-Space: aces2065-1
# LUTr-Output-Gamut: aces-ap0
# LUTr-Output-Transfer: linear
# LUTr-Color-Space-Confidence: descriptor-only
# LUTr-Domain-Normalized: true
# LUTr-Shaper: none
# LUTr-Original-Grid: analytic
# LUTr-Conversion-Grid: 33x33x33
# LUTr-Conversion-Interpolation: linear
# LUTr-Conversion-Method: CLF operations evaluated as float and sampled to 33x33x33 3D CUBE
# LUTr-Conversion-Tool: LUTr scripts/convert-all-to-cube.mjs 2.0.0
# LUTr-Conversion-Date: 2026-07-27
# LUTr-Conversion-Warning: A sampled 3D CUBE is bounded to DOMAIN_MIN/MAX 0..1 and cannot preserve CLF values outside its input domain.
# LUTr-Upstream-ID: urn:aswf:ocio:transformId:1.0:ARRI:Input:ARRI_LogC4_to_ACES2065-1:1.0
# LUTr-Upstream-Name: ARRI LogC4 to ACES2065-1
# LUTr-Upstream-Input-Descriptor: ARRI LogC4
# LUTr-Upstream-Output-Descriptor: ACES2065-1
# LUTr-Upstream-Operations: Log -> Matrix
# LUTr-Upstream-Domain: unbounded
# LUTr-Note: Preserve this metadata and the upstream license notices when redistributing.
TITLE "ARRI.Input.ARRI LogC4 to ACES2065-1"
LUT_3D_SIZE 33
DOMAIN_MIN 0 0 0
DOMAIN_MAX 1 1 1
-0.018056996 -0.018056996 -0.018056996
-0.014891478 -0.018053532 -0.018059104
-0.010469387 -0.018048692 -0.018062048
-0.0042919176 -0.018041932 -0.01806616
0.0043377389 -0.018032488 -0.018071905
0.016392994 -0.018019295 -0.018079931
0.033233663 -0.018000864 -0.018091143
0.056759345 -0.017975118 -0.018106805
0.089623701 -0.017939152 -0.018128685
0.13553378 -0.017888909 -0.01815925
0.19966817 -0.017818721 -0.018201947
0.28926112 -0.017720672 -0.018261594
0.41441859 -0.017583701 -0.018344918
0.58925813 -0.017392359 -0.018461318
0.83350138 -0.017125063 -0.018623924
1.1746986 -0.016751661 -0.018851077
1.6513363 -0.016230036 -0.0191684
2.3171785 -0.015501348 -0.019611686
3.2473311 -0.014483402 -0.020230938
4.5467138 -0.013061376 -0.021096006
6.3618952 -0.011074867 -0.022304469
8.8976247 -0.0082998007 -0.023992638
12.439929 -0.0044231534 -0.026350938
17.388374 0.00099235437 -0.02964538
24.301136 0.0085575836 -0.034247573
33.957965 0.01912588 -0.040676636
47.448136 0.033889332 -0.049657758
66.293319 0.054513233 -0.062203996
92.619222 0.083323927 -0.079730546
129.39536 0.12357122 -0.10421437
180.77004 0.17979493 -0.13841722
252.53823 0.25833702 -0.18619711
352.79527 0.3680569 -0.25294354
-0.017448209 -0.013810503 -0.018060597
-0.014282691 -0.013807039 -0.018062704
-0.0098606001 -0.013802199 -0.018065648
-0.0036831308 -0.013795439 -0.018069761
0.0049465257 -0.013785995 -0.018075506
0.017001781 -0.013772802 -0.018083532
0.033842449 -0.013754371 -0.018094744
0.057368132 -0.013728625 -0.018110406
0.090232488 -0.013692659 -0.018132285
0.13614257 -0.013642416 -0.01816285
0.20027695 -0.013572228 -0.018205548
0.28986991 -0.013474179 -0.018265195
0.41502737 -0.013337208 -0.018348519
0.58986692 -0.013145866 -0.018464919
0.83411017 -0.01287857 -0.018627524
1.1753074 -0.012505168 -0.018854677
1.6519451 -0.011983543 -0.019172
2.3177873 -0.011254855 -0.019615287
3.2479398 -0.010236909 -0.020234539
4.5473226 -0.0088148827 -0.021099607
6.362504 -0.006828374 -0.022308069
8.8982334 -0.0040533077 -0.023996239
12.440537 -0.00017666044 -0.026354538
17.388982 0.0052388474 -0.029648981
24.301745 0.012804077 -0.034251173
33.958574 0.023372373 -0.040680237
47.448745 0.038135825 -0.049661359
66.293928 0.058759726 -0.062207597
92.619831 0.08757042 -0.079734146
129.39597 0.12781771 -0.10421797
180.77065 0.18404142 -0.13842082
252.53884 0.26258351 -0.18620071
352.79588 0.3723034 -0.25294714
-0.016597761 -0.0078783368 -0.018065627
-0.013432243 -0.0078748725 -0.018067734
-0.0090101514 -0.007870033 -0.018070678
-0.002832682 -0.0078632725 -0.018074791
0.0057969744 -0.0078538283 -0.018080536
0.01785223 -0.0078406352 -0.018088562
0.034692898 -0.007822205 -0.018099774
0.05821858 -0.0077964588 -0.018115436
0.091082937 -0.0077604926 -0.018137315
0.13699302 -0.0077102492 -0.01816788
0.2011274 -0.0076400615 -0.018210578
0.29072036 -0.0075420122 -0.018270225
0.41587782 -0.0074050416 -0.018353549
0.59071737 -0.0072136997 -0.018469949
0.83496062 -0.0069464034 -0.018632554
1.1761578 -0.006573002 -0.018859707
1.6527955 -0.0060513765 -0.01917703
2.3186377 -0.0053226882 -0.019620317
3.2487903 -0.0043047424 -0.020239569
4.5481731 -0.0028827164 -0.021104637
6.3633544 -0.00089620769 -0.022313099
8.8990839 0.0018788587 -0.024001269
12.441388 0.0057555059 -0.026359568
17.389833 0.011171014 -0.029654011
24.302595 0.018736243 -0.034256203
33.959424 0.02930454 -0.040685267
47.449596 0.044067991 -0.049666389
66.294779 0.064691892 -0.062212627
92.620681 0.093502586 -0.079739176
129.39682 0.13374987 -0.104223
180.7715 0.18997359 -0.13842585
252.53969 0.26851568 -0.18620574
352.79673 0.37823556 -0.25295217
-0.015409721 0.00040864198 -0.018072653
-0.012244203 0.00041210628 -0.018074761
-0.0078221115 0.00041694576 -0.018077705
-0.0016446421 0.00042370629 -0.018081817
0.0069850144 0.00043315046 -0.018087563
0.01904027 0.00044634356 -0.018095588
0.035880938 0.00046477375 -0.0181068
0.05940662 0.00049051993 -0.018122462
0.092270977 0.00052648621 -0.018144342
0.13818106 0.00057672955 -0.018174907
0.20231544 0.00064691731 -0.018217604
0.2919084 0.00074496657 -0.018277251
0.41706586 0.00088193712 -0.018360575
0.59190541 0.001073279 -0.018476975
0.83614866 0.0013405754 -0.018639581
1.1773459 0.0017139768 -0.018866734
1.6539836 0.0022356023 -0.019184057
2.3198257 0.0029642905 -0.019627343
3.2499783 0.0039822363 -0.020246595
4.5493611 0.0054042624 -0.021111663
6.3645424 0.0073907711 -0.022320126
8.9002719 0.010165837 -0.024008295
12.442576 0.014042485 -0.026366595
17.391021 0.019457992 -0.029661037
24.303783 0.027023222 -0.03426323
33.960613 0.037591519 -0.040692293
47.450784 0.05235497 -0.049673415
66.295967 0.072978871 -0.062219653
92.621869 0.10178957 -0.079746203
129.39801 0.14203685 -0.10423003
180.77269 0.19826057 -0.13843288
252.54088 0.27680266 -0.18621277
352.79792 0.38652254 -0.2529592
-0.01375008 0.011985191 -0.018082469
-0.010584562 0.011988656 -0.018084576
-0.0061624713 0.011993495 -0.018087521
0.000014998114 0.012000256 -0.018091633
0.0086446546 0.0120097 -0.018097378
0.02069991 0.012022893 -0.018105404
0.037540578 0.012041323 -0.018116616
0.06106626 0.012067069 -0.018132278
0.093930617 0.012103036 -0.018154158
0.1398407 0.012153279 -0.018184723
0.20397508 0.012223467 -0.01822742
0.29356804 0.012321516 -0.018287067
0.4187255 0.012458487 -0.018370391
0.59356505 0.012649829 -0.018486791
0.8378083 0.012917125 -0.018649397
1.1790055 0.013290526 -0.01887655
1.6556432 0.013812152 -0.019193873
2.3214854 0.01454084 -0.019637159
3.251638 0.015558786 -0.020256411
4.5510208 0.016980812 -0.021121479
6.3662021 0.018967321 -0.022329942
8.9019316 0.021742387 -0.024018111
12.444236 0.025619034 -0.026376411
17.39268 0.031034542 -0.029670853
24.305443 0.038599771 -0.034273046
33.962272 0.049168068 -0.040702109
47.452443 0.06393152 -0.049683231
66.297626 0.084555421 -0.062229469
92.623529 0.11336611 -0.079756019
129.39967 0.1536134 -0.10423985
180.77435 0.20983712 -0.13844269
252.54254 0.28837921 -0.18622258
352.79958 0.39809909 -0.25296901
-0.011431635 0.028157128 -0.018096181
-0.0082661171 0.028160593 -0.018098289
-0.0038440259 0.028165432 -0.018101233
0.0023334434 0.028172193 -0.018105345
0.0109631 0.028181637 -0.018111091
0.023018355 0.02819483 -0.018119116
0.039859023 0.02821326 -0.018130328
0.063384706 0.028239006 -0.018145991
0.096249062 0.028274973 -0.01816787
0.14215914 0.028325216 -0.018198435
0.20629353 0.028395404 -0.018241132
0.29588648 0.028493453 -0.018300779
0.42104395 0.028630424 -0.018384103
0.59588349 0.028821765 -0.018500503
0.84012675 0.029089062 -0.018663109
1.181324 0.029462463 -0.018890262
1.6579617 0.029984089 -0.019207585
2.3238038 0.030712777 -0.019650871
3.2539564 0.031730723 -0.020270123
4.5533392 0.033152749 -0.021135191
6.3685205 0.035139258 -0.022343654
8.90425 0.037914324 -0.024031823
12.446554 0.041790971 -0.026390123
17.394999 0.047206479 -0.029684565
24.307761 0.054771708 -0.034286758
33.964591 0.065340005 -0.040715821
47.454762 0.080103457 -0.049696944
66.299945 0.10072736 -0.062243181
92.625847 0.12953805 -0.079769731
129.40199 0.16978534 -0.10425356
180.77666 0.22600905 -0.1384564
252.54485 0.30455114 -0.18623629
352.8019 0.41427103 -0.25298273
-0.0081928677 0.050748622 -0.018115337
-0.0050273497 0.050752086 -0.018117444
-0.00060525853 0.050756926 -0.018120388
0.0055722108 0.050763686 -0.018124501
0.014201867 0.050773131 -0.018130246
0.026257123 0.050786324 -0.018138272
0.043097791 0.050804754 -0.018149484
0.066623473 0.0508305 -0.018165146
0.09948783 0.050866466 -0.018187025
0.14539791 0.05091671 -0.01821759
0.2095323 0.050986897 -0.018260288
0.29912525 0.051084947 -0.018319935
0.42428272 0.051221917 -0.018403259
0.59912226 0.051413259 -0.018519659
0.84336551 0.051680556 -0.018682264
1.1845627 0.052053957 -0.018909417
1.6612004 0.052575582 -0.01922674
2.3270426 0.053304271 -0.019670027
3.2571952 0.054322216 -0.020289279
4.556578 0.055744243 -0.021154347
6.3717593 0.057730751 -0.022362809
8.9074888 0.060505818 -0.024050979
12.449793 0.064382465 -0.026409278
17.398238 0.069797973 -0.029703721
24.311 0.077363202 -0.034305913
33.967829 0.087931499 -0.040734977
47.458 0.10269495 -0.049716099
66.303184 0.12331885 -0.062262337
92.629086 0.15212955 -0.079788886
129.40523 0.19237683 -0.10427271
180.7799 0.24860055 -0.13847556
252.54809 0.32714264 -0.18625545
352.80514 0.43686252 -0.25300188
-0.0036684503 0.082307958 -0.018142096
-0.00050293227 0.082311422 -0.018144203
0.0039191589 0.082316262 -0.018147148
0.010096628 0.082323022 -0.01815126
0.018726285 0.082332466 -0.018157005
0.03078154 0.082345659 -0.018165031
0.047622208 0.08236409 -0.018176243
0.071147891 0.082389836 -0.018191905
0.10401225 0.082425802 -0.018213785
0.14992233 0.082476045 -0.01824435
0.21405671 0.082546233 -0.018287047
0.30364967 0.082644282 -0.018346694
0.42880713 0.082781253 -0.018430018
0.60364668 0.082972595 -0.018546418
0.84788993 0.083239891 -0.018709024
1.1890871 0.083613293 -0.018936177
1.6657248 0.084134918 -0.0192535
2.331567 0.084863606 -0.019696786
3.2617196 0.085881552 -0.020316038
4.5611024 0.087303578 -0.021181106
6.3762837 0.089290087 -0.022389569
8.9120132 0.092065153 -0.024077738
12.454317 0.095941801 -0.026436038
17.402762 0.10135731 -0.02973048
24.315525 0.10892254 -0.034332673
33.972354 0.11949083 -0.040761736
47.462525 0.13425429 -0.049742858
66.307708 0.15487819 -0.062289096
92.63361 0.18368888 -0.079815646
129.40975 0.22393617 -0.10429947
180.78443 0.28015988 -0.13850232
252.55262 0.35870197 -0.18628221
352.80966 0.46842186 -0.25302864
0.0026519644 0.12639498 -0.018179478
0.0058174824 0.12639844 -0.018181585
0.010239574 0.12640328 -0.018184529
0.016417043 0.12641004 -0.018188642
0.025046699 0.12641949 -0.018194387
0.037101955 0.12643268 -0.018202413
0.053942623 0.12645111 -0.018213625
0.077468305 0.12647686 -0.018229287
0.11033266 0.12651282 -0.018251166
0.15624274 0.12656307 -0.018281731
0.22037713 0.12663325 -0.018324429
0.30997008 0.1267313 -0.018384076
0.43512755 0.12686827 -0.0184674
0.60996709 0.12705962 -0.0185838
0.85421035 0.12732691 -0.018746405
1.1954076 0.12770031 -0.018973558
1.6720453 0.12822194 -0.019290881
2.3378874 0.12895063 -0.019734168
3.26804 0.12996857 -0.02035342
4.5674228 0.1313906 -0.021218488
6.3826041 0.13337711 -0.02242695
8.9183336 0.13615217 -0.02411512
12.460638 0.14002882 -0.026473419
17.409082 0.14544433 -0.029767862
24.321845 0.15300956 -0.034370054
33.978674 0.16357786 -0.040799118
47.468845 0.17834131 -0.04978024
66.314028 0.19896521 -0.062326478
92.639931 0.2277759 -0.079853027
129.41607 0.26802319 -0.10433686
180.79075 0.32424691 -0.1385397
252.55894 0.40278899 -0.18631959
352.81598 0.51250888 -0.25306602
0.011481309 0.18798263 -0.018231698
0.014646827 0.1879861 -0.018233806
0.019068919 0.18799094 -0.01823675
0.025246388 0.1879977 -0.018240862
0.033876044 0.18800714 -0.018246607
0.0459313 0.18802034 -0.018254633
0.062771968 0.18803877 -0.018265845
0.08629765 0.18806451 -0.018281507
0.11916201 0.18810048 -0.018303387
0.16507209 0.18815072 -0.018333952
0.22920647 0.18822091 -0.018376649
0.31879943 0.18831896 -0.018436296
0.44395689 0.18845593 -0.01851962
0.61879644 0.18864727 -0.01863602
0.86303969 0.18891457 -0.018798626
1.2042369 0.18928797 -0.019025779
1.6808746 0.18980959 -0.019343102
2.3467168 0.19053828 -0.019786388
3.2768694 0.19155623 -0.02040564
4.5762521 0.19297825 -0.021270708
6.3914335 0.19496476 -0.022479171
8.927163 0.19773983 -0.02416734
12.469467 0.20161648 -0.02652564
17.417912 0.20703198 -0.029820082
24.330674 0.21459721 -0.034422275
33.987504 0.22516551 -0.040851338
47.477675 0.23992896 -0.04983246
66.322858 0.26055286 -0.062378698
92.64876 0.28936356 -0.079905248
129.4249 0.32961085 -0.10438908
180.79958 0.38583456 -0.13859192
252.56777 0.46437665 -0.18637181
352.82481 0.57409653 -0.25311824
0.023815521 0.27401791 -0.018304648
0.026981039 0.27402138 -0.018306755
0.03140313 0.27402622 -0.018309699
0.037580599 0.27403298 -0.018313812
0.046210256 0.27404242 -0.018319557
0.058265511 0.27405562 -0.018327583
0.075106179 0.27407405 -0.018338795
0.098631862 0.27409979 -0.018354457
0.13149622 0.27413576 -0.018376337
0.1774063 0.274186 -0.018406901
0.24154068 0.27425619 -0.018449599
0.33113364 0.27435424 -0.018509246
0.4562911 0.27449121 -0.01859257
0.63113065 0.27468255 -0.01870897
0.8753739 0.27494985 -0.018871575
1.2165711 0.27532325 -0.019098728
1.6932088 0.27584487 -0.019416051
2.359051 0.27657356 -0.019859338
3.2892036 0.27759151 -0.02047859
4.5885864 0.27901353 -0.021343658
6.4037677 0.28100004 -0.02255212
8.9394972 0.28377511 -0.02424029
12.481801 0.28765176 -0.02659859
17.430246 0.29306726 -0.029893032
24.343009 0.30063249 -0.034495224
33.999838 0.31120079 -0.040924288
47.490009 0.32596424 -0.04990541
66.335192 0.34658814 -0.062451648
92.661094 0.37539884 -0.079978197
129.43724 0.41564613 -0.10446203
180.81191 0.47186984 -0.13866487
252.5801 0.55041193 -0.18644476
352.83714 0.66013181 -0.25319119
0.041045879 0.39420546 -0.018406555
0.044211397 0.39420893 -0.018408663
0.048633488 0.39421377 -0.018411607
0.054810957 0.39422053 -0.01841572
0.063440614 0.39422997 -0.018421465
0.075495869 0.39424316 -0.018429491
0.092336537 0.39426159 -0.018440702
0.11586222 0.39428734 -0.018456365
0.14872658 0.39432331 -0.018478244
0.19463666 0.39437355 -0.018508809
0.25877104 0.39444374 -0.018551507
0.348364 0.39454179 -0.018611153
0.47352146 0.39467876 -0.018694477
0.64836101 0.3948701 -0.018810877
0.89260426 0.3951374 -0.018973483
1.2338015 0.3955108 -0.019200636
1.7104392 0.39603242 -0.019517959
2.3762813 0.39676111 -0.019961246
3.3064339 0.39777906 -0.020580497
4.6058167 0.39920108 -0.021445565
6.420998 0.40118759 -0.022654028
8.9567275 0.40396266 -0.024342198
12.499032 0.40783931 -0.026700497
17.447476 0.41325481 -0.029994939
24.360239 0.42082004 -0.034597132
34.017068 0.43138834 -0.041026195
47.507239 0.44615179 -0.050007318
66.352422 0.46677569 -0.062553556
92.678325 0.49558639 -0.080080105
129.45447 0.53583367 -0.10456393
180.82914 0.59205739 -0.13876678
252.59733 0.67059948 -0.18654667
352.85437 0.78031936 -0.2532931
0.06511594 0.56210225 -0.018548916
0.068281458 0.56210571 -0.018551023
0.072703549 0.56211055 -0.018553967
0.078881019 0.56211731 -0.01855808
0.087510675 0.56212676 -0.018563825
0.099565931 0.56213995 -0.018571851
0.1164066 0.56215838 -0.018583063
0.13993228 0.56218413 -0.018598725
0.17279664 0.56222009 -0.018620605
0.21870672 0.56227034 -0.018651169
0.2828411 0.56234053 -0.018693867
0.37243406 0.56243858 -0.018753514
0.49759152 0.56257555 -0.018836838
0.67243107 0.56276689 -0.018953238
0.91667432 0.56303418 -0.019115843
1.2578715 0.56340759 -0.019342997
1.7345092 0.56392921 -0.01966032
2.4003514 0.5646579 -0.020103606
3.330504 0.56567584 -0.020722858
4.6298868 0.56709787 -0.021587926
6.4450681 0.56908438 -0.022796388
8.9807976 0.57185945 -0.024484558
12.523102 0.57573609 -0.026842858
17.471546 0.5811516 -0.0301373
24.384309 0.58871683 -0.034739493
34.041138 0.59928513 -0.041168556
47.531309 0.61404858 -0.050149678
66.376492 0.63467248 -0.062695916
92.702395 0.66348317 -0.080222466
129.47854 0.70373046 -0.10470629
180.85321 0.75995418 -0.13890914
252.6214 0.83849626 -0.18668903
352.87845 0.94821615 -0.25343546
0.098740771 0.79664677 -0.018747787
0.10190629 0.79665024 -0.018749895
0.10632838 0.79665508 -0.018752839
0.11250585 0.79666184 -0.018756951
0.12113551 0.79667128 -0.018762697
0.13319076 0.79668447 -0.018770723
0.15003143 0.7967029 -0.018781934
0.17355711 0.79672865 -0.018797597
0.20642147 0.79676462 -0.018819476
0.25233155 0.79681486 -0.018850041
0.31646593 0.79688505 -0.018892739
0.40605889 0.7969831 -0.018952385
0.53121635 0.79712007 -0.019035709
0.7060559 0.79731141 -0.019152109
0.95029915 0.79757871 -0.019314715
1.2914964 0.79795211 -0.019541868
1.7681341 0.79847373 -0.019859191
2.4339762 0.79920242 -0.020302477
3.3641288 0.80022037 -0.020921729
4.6635116 0.80164239 -0.021786797
6.4786929 0.8036289 -0.02299526
9.0144224 0.80640397 -0.024683429
12.556726 0.81028061 -0.027041729
17.505171 0.81569612 -0.030336171
24.417934 0.82326135 -0.034938364
34.074763 0.83382965 -0.041367427
47.564934 0.8485931 -0.05034855
66.410117 0.869217 -0.062894787
92.73602 0.8980277 -0.080421337
129.51216 0.93827498 -0.10490517
180.88684 0.9944987 -0.13910801
252.65503 1.0730408 -0.1868879
352.91207 1.1827607 -0.25363433
0.1457132 1.1242953 -0.019025602
0.14887872 1.1242987 -0.01902771
0.15330081 1.1243036 -0.019030654
0.15947828 1.1243103 -0.019034766
0.16810793 1.1243198 -0.019040511
0.18016319 1.124333 -0.019048537
0.19700386 1.1243514 -0.019059749
0.22052954 1.1243772 -0.019075411
0.2533939 1.1244131 -0.019097291
0.29930398 1.1244634 -0.019127856
0.36343836 1.1245336 -0.019170553
0.45303132 1.1246316 -0.0192302
0.57818878 1.1247686 -0.019313524
0.75302833 1.1249599 -0.019429924
0.99727158 1.1252272 -0.01959253
1.3384688 1.1256006 -0.019819683
1.8151065 1.1261222 -0.020137006
2.4809487 1.1268509 -0.020580292
3.4111013 1.1278689 -0.021199544
4.710484 1.1292909 -0.022064612
6.5256654 1.1312774 -0.023273075
9.0613949 1.1340525 -0.024961244
12.603699 1.1379291 -0.027319544
17.552144 1.1433446 -0.030613986
24.464906 1.1509099 -0.035216179
34.121735 1.1614782 -0.041645242
47.611906 1.1762416 -0.050626364
66.45709 1.1968655 -0.063172602
92.782992 1.2256762 -0.080699152
129.55913 1.2659235 -0.10518298
180.93381 1.3221472 -0.13938583
252.702 1.4006893 -0.18716572
352.95904 1.5104092 -0.25391215
0.21133164 1.582006 -0.019413697
0.21449716 1.5820095 -0.019415805
0.21891925 1.5820143 -0.019418749
0.22509672 1.5820211 -0.019422861
0.23372638 1.5820305 -0.019428607
0.24578163 1.5820437 -0.019436632
0.2626223 1.5820622 -0.019447844
0.28614798 1.5820879 -0.019463506
0.31901234 1.5821239 -0.019485386
0.36492242 1.5821741 -0.019515951
0.42905681 1.5822443 -0.019558648
0.51864976 1.5823424 -0.019618295
0.64380723 1.5824793 -0.019701619
0.81864677 1.5826707 -0.019818019
1.06289 1.582938 -0.019980625
1.4040872 1.5833114 -0.020207778
1.8807249 1.583833 -0.020525101
2.5465671 1.5845617 -0.020968387
3.4767197 1.5855796 -0.021587639
4.7761025 1.5870016 -0.022452707
6.5912838 1.5889882 -0.02366117
9.1270133 1.5917632 -0.025349339
12.669317 1.5956399 -0.027707639
17.617762 1.6010554 -0.031002081
24.530525 1.6086206 -0.035604274
34.187354 1.6191889 -0.042033337
47.677525 1.6339524 -0.051014459
66.522708 1.6545763 -0.063560697
92.848611 1.683387 -0.081087247
129.62475 1.7236342 -0.10557108
180.99943 1.779858 -0.13977392
252.76762 1.8584 -0.18755381
353.02466 1.9681199 -0.25430024
0.30299776 2.2214081 -0.019955849
0.30616328 2.2214115 -0.019957957
0.31058537 2.2214164 -0.019960901
0.31676284 2.2214231 -0.019965013
0.32539249 2.2214326 -0.019970759
0.33744775 2.2214458 -0.019978784
0.35428842 2.2214642 -0.019989996
0.3778141 2.2214899 -0.020005658
0.41067846 2.2215259 -0.020027538
0.45658854 2.2215762 -0.020058103
0.52072292 2.2216463 -0.0201008
0.61031588 2.2217444 -0.020160447
0.73547334 2.2218814 -0.020243771
0.91031289 2.2220727 -0.020360171
1.1545561 2.22234 -0.020522777
1.4957534 2.2227134 -0.02074993
1.9723911 2.223235 -0.021067253
2.6382332 2.2239637 -0.021510539
3.5683858 2.2249817 -0.022129791
4.8677686 2.2264037 -0.022994859
6.6829499 2.2283902 -0.024203322
9.2186794 2.2311653 -0.025891491
12.760983 2.2350419 -0.028249791
17.709428 2.2404574 -0.031544233
24.622191 2.2480226 -0.036146426
34.27902 2.2585909 -0.042575489
47.769191 2.2733544 -0.051556611
66.614374 2.2939783 -0.064102849
92.940277 2.322789 -0.081629399
129.71642 2.3630363 -0.10611323
181.09109 2.41926 -0.14031607
252.85928 2.4978021 -0.18809596
353.11633 2.607522 -0.25484239
0.43105134 3.1146249 -0.020713212
0.43421686 3.1146284 -0.02071532
0.43863895 3.1146332 -0.020718264
0.44481642 3.11464 -0.020722376
0.45344608 3.1146494 -0.020728121
0.46550133 3.1146626 -0.020736147
0.482342 3.1146811 -0.020747359
0.50586768 3.1147068 -0.020763021
0.53873204 3.1147428 -0.020784901
0.58464212 3.114793 -0.020815466
0.64877651 3.1148632 -0.020858163
0.73836946 3.1149613 -0.02091781
0.86352692 3.1150982 -0.021001134
1.0383665 3.1152896 -0.021117534
1.2826097 3.1155569 -0.02128014
1.6238069 3.1159303 -0.021507293
2.1004446 3.1164519 -0.021824616
2.7662868 3.1171806 -0.022267902
3.6964394 3.1181985 -0.022887154
4.9958222 3.1196206 -0.023752222
6.8110035 3.1216071 -0.024960685
9.346733 3.1243821 -0.026648854
12.889037 3.1282588 -0.029007154
17.837482 3.1336743 -0.032301596
24.750244 3.1412395 -0.036903789
34.407074 3.1518078 -0.043332852
47.897245 3.1665713 -0.052313974
66.742428 3.1871952 -0.064860212
93.06833 3.2160059 -0.082386762
129.84447 3.2562532 -0.10687059
181.21915 3.3124769 -0.14107344
252.98734 3.391019 -0.18885333
353.24438 3.5007388 -0.25559976
0.60993664 4.3624101 -0.021771215
0.61310216 4.3624136 -0.021773323
0.61752425 4.3624184 -0.021776267
0.62370172 4.3624252 -0.021780379
0.63233137 4.3624346 -0.021786125
0.64438663 4.3624478 -0.02179415
0.6612273 4.3624663 -0.021805362
0.68475298 4.362492 -0.021821024
0.71761733 4.362528 -0.021842904
0.76352741 4.3625782 -0.021873469
0.8276618 4.3626484 -0.021916166
0.91725475 4.3627465 -0.021975813
1.0424122 4.3628834 -0.022059137
1.2172518 4.3630748 -0.022175537
1.461495 4.3633421 -0.022338143
1.8026922 4.3637155 -0.022565296
2.2793299 4.3642371 -0.022882619
2.9451721 4.3649658 -0.023325905
3.8753247 4.3659837 -0.023945157
5.1747075 4.3674058 -0.024810225
6.9898888 4.3693923 -0.026018688
9.5256183 4.3721673 -0.027706857
13.067922 4.376044 -0.030065157
18.016367 4.3814595 -0.033359599
24.92913 4.3890247 -0.037961792
34.585959 4.399593 -0.044390855
48.07613 4.4143565 -0.053371977
66.921313 4.4349804 -0.065918215
93.247216 4.4637911 -0.083444765
130.02336 4.5040383 -0.10792859
181.39803 4.5602621 -0.14213144
253.16622 4.6388041 -0.18991133
353.42327 4.748524 -0.25665776
0.85983163 6.1055119 -0.023249199
0.86299715 6.1055153 -0.023251307
0.86741924 6.1055202 -0.023254251
0.87359671 6.1055269 -0.023258364
0.88222636 6.1055364 -0.023264109
0.89428162 6.1055496 -0.023272135
