site/assets/luts/upstream-urnaswfociotransformid10canoninputlinear-cinemagamut-d55-to-aces2065-110--e04d378ea.cube
# LUTr-Schema-Version: 2
# LUTr-ID: upstream-urnaswfociotransformid10canoninputlinear-cinemagamut-d55-to-aces2065-110--e04d378ea
# LUTr-Title: Canon.Input.Linear-CinemaGamut-D55 to ACES2065-1
# LUTr-Collection: OCIO ACES
# LUTr-Collection-ID: aswf-opencolorio-config-aces
# LUTr-Source: https://github.com/AcademySoftwareFoundation/OpenColorIO-Config-ACES
# LUTr-Retrieved: 2026-07-27
# LUTr-Source-File: submissions/aswf-opencolorio-config-aces/opencolorio_config_aces/clf/transforms/canon/input/Canon.Input.Linear-CinemaGamut-D55_to_ACES2065-1.clf
# LUTr-Source-Format: CLF
# LUTr-Source-SHA256: 6f52d17899c30f8b23f4956a1ddfea5f105f8d64f83bc00d963e7a08ac7adb65
# LUTr-License: BSD-3-Clause
# LUTr-License-URL: https://github.com/AcademySoftwareFoundation/OpenColorIO-Config-ACES/blob/main/LICENSE
# LUTr-License-Basis: repo-license-file
# LUTr-Transform-Class: color-space-conversion
# LUTr-Tags: technical, aces, ocio, clf, color-management, cube
# LUTr-Input-Color-Space: linear-canon-cinema-gamut
# LUTr-Input-Gamut: canon-cinema-gamut
# LUTr-Input-Transfer: linear
# LUTr-Output-Color-Space: aces2065-1
# LUTr-Output-Gamut: aces-ap0
# LUTr-Output-Transfer: linear
# LUTr-Color-Space-Confidence: declared-by-source
# LUTr-Domain-Normalized: true
# LUTr-Shaper: none
# LUTr-Original-Grid: analytic
# LUTr-Conversion-Grid: 33x33x33
# LUTr-Conversion-Interpolation: linear
# LUTr-Conversion-Method: CLF operations evaluated as float and sampled to 33x33x33 3D CUBE
# LUTr-Conversion-Tool: LUTr scripts/convert-all-to-cube.mjs 2.0.0
# LUTr-Conversion-Date: 2026-07-27
# LUTr-Conversion-Warning: A sampled 3D CUBE is bounded to DOMAIN_MIN/MAX 0..1 and cannot preserve CLF values outside its input domain.
# LUTr-Upstream-ID: urn:aswf:ocio:transformId:1.0:Canon:Input:Linear-CinemaGamut-D55_to_ACES2065-1:1.0
# LUTr-Upstream-Name: Linear Canon Cinema Gamut (Daylight) to ACES2065-1
# LUTr-Upstream-Input-Descriptor: Linear Canon Cinema Gamut (Daylight)
# LUTr-Upstream-Output-Descriptor: ACES2065-1
# LUTr-Upstream-Operations: Matrix
# LUTr-Upstream-Domain: unbounded
# LUTr-Note: Preserve this metadata and the upstream license notices when redistributing.
TITLE "Canon.Input.Linear-CinemaGamut-D55 to ACES2065-1"
LUT_3D_SIZE 5
DOMAIN_MIN 0 0 0
DOMAIN_MAX 1 1 1
0 0 0
0.19076611 0.00091436418 -0.0023519485
0.38153223 0.0018287284 -0.004703897
0.57229834 0.0027430925 -0.0070558455
0.76306445 0.0036574567 -0.009407794
0.03725529 0.2767401 -0.054595826
0.2280214 0.27765446 -0.056947775
0.41878752 0.27856882 -0.059299723
0.60955363 0.27948319 -0.061651672
0.80031975 0.28039755 -0.06400362
0.074510581 0.55348019 -0.10919165
0.26527669 0.55439455 -0.1115436
0.45604281 0.55530892 -0.11389555
0.64680892 0.55622328 -0.1162475
0.83757504 0.55713765 -0.11859945
0.11176587 0.83022029 -0.16378748
0.30253198 0.83113465 -0.16613943
0.4932981 0.83204901 -0.16849138
0.68406421 0.83296338 -0.17084332
0.87483033 0.83387774 -0.17319527
0.14902116 1.1069604 -0.2183833
0.33978727 1.1078747 -0.22073525
0.53055339 1.1087891 -0.2230872
0.7213195 1.1097035 -0.22543915
0.91208562 1.1106178 -0.2277911
0.021978596 -0.027654459 0.30694777
0.21274471 -0.026740095 0.30459583
0.40351082 -0.025825731 0.30224388
0.59427694 -0.024911367 0.29989193
0.78504305 -0.023997003 0.29753998
0.059233886 0.24908564 0.25235195
0.25 0.25 0.25
0.44076611 0.25091436 0.24764805
0.63153223 0.25182873 0.2452961
0.82229834 0.25274309 0.24294415
0.096489177 0.52582573 0.19775612
0.28725529 0.5267401 0.19540417
0.4780214 0.52765446 0.19305223
0.66878752 0.52856882 0.19070028
0.85955363 0.52948319 0.18834833
0.13374447 0.80256583 0.1431603
0.32451058 0.80348019 0.14080835
0.51527669 0.80439455 0.1384564
0.70604281 0.80530892 0.13610445
0.89680892 0.80622328 0.1337525
0.17099976 1.0793059 0.08856447
0.36176587 1.0802203 0.086212521
0.55253198 1.0811346 0.083860573
0.7432981 1.082049 0.081508624
0.93406421 1.0829634 0.079156676
0.043957192 -0.055308919 0.61389555
0.23472331 -0.054394554 0.6115436
0.42548942 -0.05348019 0.60919165
0.61625553 -0.052565826 0.6068397
0.80702165 -0.051651462 0.60448776
0.081212482 0.22143118 0.55929972
0.2719786 0.22234554 0.55694777
0.46274471 0.2232599 0.55459583
0.65351082 0.22417427 0.55224388
0.84427694 0.22508863 0.54989193
0.11846777 0.49817127 0.5047039
0.30923389 0.49908564 0.50235195
0.5 0.5 0.5
0.69076611 0.50091436 0.49764805
0.88153223 0.50182873 0.4952961
0.15572306 0.77491137 0.45010807
0.34648918 0.77582573 0.44775612
0.53725529 0.7767401 0.44540417
0.7280214 0.77765446 0.44305223
0.91878752 0.77856882 0.44070028
0.19297835 1.0516515 0.39551224
0.38374447 1.0525658 0.3931603
0.57451058 1.0534802 0.39080835
0.76527669 1.0543946 0.3884564
0.95604281 1.0553089 0.38610445
0.065935788 -0.082963378 0.92084332
0.2567019 -0.082049014 0.91849138
0.44746802 -0.081134649 0.91613943
0.63823413 -0.080220285 0.91378748
0.82900024 -0.079305921 0.91143553
0.10319108 0.19377672 0.8662475
0.29395719 0.19469108 0.86389555
0.48472331 0.19560545 0.8615436
0.67548942 0.19651981 0.85919165
0.86625553 0.19743417 0.8568397
0.14044637 0.47051681 0.81165167
0.33121248 0.47143118 0.80929972
0.5219786 0.47234554 0.80694777
0.71274471 0.4732599 0.80459583
0.90351082 0.47417427 0.80224388
0.17770166 0.74725691 0.75705585
0.36846777 0.74817127 0.7547039
0.55923389 0.74908564 0.75235195
0.75 0.75 0.75
0.94076611 0.75091436 0.74764805
0.21495695 1.023997 0.70246002
0.40572306 1.0249114 0.70010807
0.59648918 1.0258257 0.69775612
0.78725529 1.0267401 0.69540417
0.9780214 1.0276545 0.69305223
0.087914384 -0.11061784 1.2277911
0.2786805 -0.10970347 1.2254392
0.46944661 -0.10878911 1.2230872
0.66021273 -0.10787474 1.2207353
0.85097884 -0.10696038 1.2183833
0.12516967 0.16612226 1.1731953
0.31593579 0.16703662 1.1708433
0.5067019 0.16795099 1.1684914
0.69746802 0.16886535 1.1661394
0.88823413 0.16977971 1.1637875
0.16242496 0.44286235 1.1185994
0.35319108 0.44377672 1.1162475
0.54395719 0.44469108 1.1138955
0.73472331 0.44560545 1.1115436
0.92548942 0.44651981 1.1091917
0.19968025 0.71960245 1.0640036
0.39044637 0.72051681 1.0616517
0.58121248 0.72143118 1.0592997
0.7719786 0.72234554 1.0569478
0.96274471 0.7232599 1.0545958
0.23693555 0.99634254 1.0094078
0.42770166 0.99725691 1.0070558
0.61846777 0.99817127 1.0047039
0.80923389 0.99908564 1.0023519
1 1 1
