site/assets/luts/upstream-urnaswfociotransformid10blackmagicdesigninputbmdfilm-gen5-log-curve-to-linear10--edcdce6f8.cube
# LUTr-Schema-Version: 2
# LUTr-ID: upstream-urnaswfociotransformid10blackmagicdesigninputbmdfilm-gen5-log-curve-to-linear10--edcdce6f8
# LUTr-Title: BlackmagicDesign.Input.BMDFilm Gen5 Log-Curve
# LUTr-Collection: OCIO ACES
# LUTr-Collection-ID: aswf-opencolorio-config-aces
# LUTr-Source: https://github.com/AcademySoftwareFoundation/OpenColorIO-Config-ACES
# LUTr-Retrieved: 2026-07-27
# LUTr-Source-File: submissions/aswf-opencolorio-config-aces/opencolorio_config_aces/clf/transforms/blackmagic/input/BlackmagicDesign.Input.BMDFilm_Gen5_Log-Curve.clf
# LUTr-Source-Format: CLF
# LUTr-Source-SHA256: d5d638d82e13707333467d8d262676eac92487727d14a4b75db24493f7cc7271
# LUTr-License: BSD-3-Clause
# LUTr-License-URL: https://github.com/AcademySoftwareFoundation/OpenColorIO-Config-ACES/blob/main/LICENSE
# LUTr-License-Basis: repo-license-file
# LUTr-Transform-Class: color-space-conversion
# LUTr-Tags: technical, aces, ocio, clf, color-management, cube
# LUTr-Input-Color-Space: 
# LUTr-Input-Gamut: unspecified
# LUTr-Input-Transfer: blackmagic-film-gen5
# LUTr-Output-Color-Space: 
# LUTr-Output-Gamut: unspecified
# LUTr-Output-Transfer: linear
# LUTr-Color-Space-Confidence: descriptor-only
# LUTr-Domain-Normalized: true
# LUTr-Shaper: none
# LUTr-Original-Grid: analytic
# LUTr-Conversion-Grid: 33x33x33
# LUTr-Conversion-Interpolation: linear
# LUTr-Conversion-Method: CLF operations evaluated as float and sampled to 33x33x33 3D CUBE
# LUTr-Conversion-Tool: LUTr scripts/convert-all-to-cube.mjs 2.0.0
# LUTr-Conversion-Date: 2026-07-27
# LUTr-Conversion-Warning: A sampled 3D CUBE is bounded to DOMAIN_MIN/MAX 0..1 and cannot preserve CLF values outside its input domain.
# LUTr-Upstream-ID: urn:aswf:ocio:transformId:1.0:BlackmagicDesign:Input:BMDFilm_Gen5_Log-Curve_to_Linear:1.0
# LUTr-Upstream-Name: Blackmagic Film (Gen 5) Log to Linear Curve
# LUTr-Upstream-Input-Descriptor: Blackmagic Film (Gen 5) Log
# LUTr-Upstream-Output-Descriptor: Blackmagic Film (Gen 5) Linear
# LUTr-Upstream-Operations: Log
# LUTr-Upstream-Domain: unbounded
# LUTr-Note: Preserve this metadata and the upstream license notices when redistributing.
TITLE "BlackmagicDesign.Input.BMDFilm Gen5 Log-Curve"
LUT_3D_SIZE 33
DOMAIN_MIN 0 0 0
DOMAIN_MAX 1 1 1
-0.0111625 -0.0111625 -0.0111625
-0.0073899886 -0.0111625 -0.0111625
-0.0036174769 -0.0111625 -0.0111625
0.00015503473 -0.0111625 -0.0111625
0.0039275464 -0.0111625 -0.0111625
0.0080792218 -0.0111625 -0.0111625
0.013951005 -0.0111625 -0.0111625
0.022362912 -0.0111625 -0.0111625
0.034413796 -0.0111625 -0.0111625
0.051677871 -0.0111625 -0.0111625
0.076410355 -0.0111625 -0.0111625
0.11184207 -0.0111625 -0.0111625
0.16260148 -0.0111625 -0.0111625
0.23531932 -0.0111625 -0.0111625
0.33949478 -0.0111625 -0.0111625
0.48873637 -0.0111625 -0.0111625
0.7025396 -0.0111625 -0.0111625
1.0088337 -0.0111625 -0.0111625
1.4476302 -0.0111625 -0.0111625
2.0762492 -0.0111625 -0.0111625
2.9768078 -0.0111625 -0.0111625
4.2669464 -0.0111625 -0.0111625
6.1151968 -0.0111625 -0.0111625
8.7629971 -0.0111625 -0.0111625
12.556231 -0.0111625 -0.0111625
17.990412 -0.0111625 -0.0111625
25.77541 -0.0111625 -0.0111625
36.928184 -0.0111625 -0.0111625
52.905629 -0.0111625 -0.0111625
75.79489 -0.0111625 -0.0111625
108.586 -0.0111625 -0.0111625
155.5625 -0.0111625 -0.0111625
222.86094 -0.0111625 -0.0111625
-0.0111625 -0.0073899886 -0.0111625
-0.0073899886 -0.0073899886 -0.0111625
-0.0036174769 -0.0073899886 -0.0111625
0.00015503473 -0.0073899886 -0.0111625
0.0039275464 -0.0073899886 -0.0111625
0.0080792218 -0.0073899886 -0.0111625
0.013951005 -0.0073899886 -0.0111625
0.022362912 -0.0073899886 -0.0111625
0.034413796 -0.0073899886 -0.0111625
0.051677871 -0.0073899886 -0.0111625
0.076410355 -0.0073899886 -0.0111625
0.11184207 -0.0073899886 -0.0111625
0.16260148 -0.0073899886 -0.0111625
0.23531932 -0.0073899886 -0.0111625
0.33949478 -0.0073899886 -0.0111625
0.48873637 -0.0073899886 -0.0111625
0.7025396 -0.0073899886 -0.0111625
1.0088337 -0.0073899886 -0.0111625
1.4476302 -0.0073899886 -0.0111625
2.0762492 -0.0073899886 -0.0111625
2.9768078 -0.0073899886 -0.0111625
4.2669464 -0.0073899886 -0.0111625
6.1151968 -0.0073899886 -0.0111625
8.7629971 -0.0073899886 -0.0111625
12.556231 -0.0073899886 -0.0111625
17.990412 -0.0073899886 -0.0111625
25.77541 -0.0073899886 -0.0111625
36.928184 -0.0073899886 -0.0111625
52.905629 -0.0073899886 -0.0111625
75.79489 -0.0073899886 -0.0111625
108.586 -0.0073899886 -0.0111625
155.5625 -0.0073899886 -0.0111625
222.86094 -0.0073899886 -0.0111625
-0.0111625 -0.0036174769 -0.0111625
-0.0073899886 -0.0036174769 -0.0111625
-0.0036174769 -0.0036174769 -0.0111625
0.00015503473 -0.0036174769 -0.0111625
0.0039275464 -0.0036174769 -0.0111625
0.0080792218 -0.0036174769 -0.0111625
0.013951005 -0.0036174769 -0.0111625
0.022362912 -0.0036174769 -0.0111625
0.034413796 -0.0036174769 -0.0111625
0.051677871 -0.0036174769 -0.0111625
0.076410355 -0.0036174769 -0.0111625
0.11184207 -0.0036174769 -0.0111625
0.16260148 -0.0036174769 -0.0111625
0.23531932 -0.0036174769 -0.0111625
0.33949478 -0.0036174769 -0.0111625
0.48873637 -0.0036174769 -0.0111625
0.7025396 -0.0036174769 -0.0111625
1.0088337 -0.0036174769 -0.0111625
1.4476302 -0.0036174769 -0.0111625
2.0762492 -0.0036174769 -0.0111625
2.9768078 -0.0036174769 -0.0111625
4.2669464 -0.0036174769 -0.0111625
6.1151968 -0.0036174769 -0.0111625
8.7629971 -0.0036174769 -0.0111625
12.556231 -0.0036174769 -0.0111625
17.990412 -0.0036174769 -0.0111625
25.77541 -0.0036174769 -0.0111625
36.928184 -0.0036174769 -0.0111625
52.905629 -0.0036174769 -0.0111625
75.79489 -0.0036174769 -0.0111625
108.586 -0.0036174769 -0.0111625
155.5625 -0.0036174769 -0.0111625
222.86094 -0.0036174769 -0.0111625
-0.0111625 0.00015503473 -0.0111625
-0.0073899886 0.00015503473 -0.0111625
-0.0036174769 0.00015503473 -0.0111625
0.00015503473 0.00015503473 -0.0111625
0.0039275464 0.00015503473 -0.0111625
0.0080792218 0.00015503473 -0.0111625
0.013951005 0.00015503473 -0.0111625
0.022362912 0.00015503473 -0.0111625
0.034413796 0.00015503473 -0.0111625
0.051677871 0.00015503473 -0.0111625
0.076410355 0.00015503473 -0.0111625
0.11184207 0.00015503473 -0.0111625
0.16260148 0.00015503473 -0.0111625
0.23531932 0.00015503473 -0.0111625
0.33949478 0.00015503473 -0.0111625
0.48873637 0.00015503473 -0.0111625
0.7025396 0.00015503473 -0.0111625
1.0088337 0.00015503473 -0.0111625
1.4476302 0.00015503473 -0.0111625
2.0762492 0.00015503473 -0.0111625
2.9768078 0.00015503473 -0.0111625
4.2669464 0.00015503473 -0.0111625
6.1151968 0.00015503473 -0.0111625
8.7629971 0.00015503473 -0.0111625
12.556231 0.00015503473 -0.0111625
17.990412 0.00015503473 -0.0111625
25.77541 0.00015503473 -0.0111625
36.928184 0.00015503473 -0.0111625
52.905629 0.00015503473 -0.0111625
75.79489 0.00015503473 -0.0111625
108.586 0.00015503473 -0.0111625
155.5625 0.00015503473 -0.0111625
222.86094 0.00015503473 -0.0111625
-0.0111625 0.0039275464 -0.0111625
-0.0073899886 0.0039275464 -0.0111625
-0.0036174769 0.0039275464 -0.0111625
0.00015503473 0.0039275464 -0.0111625
0.0039275464 0.0039275464 -0.0111625
0.0080792218 0.0039275464 -0.0111625
0.013951005 0.0039275464 -0.0111625
0.022362912 0.0039275464 -0.0111625
0.034413796 0.0039275464 -0.0111625
0.051677871 0.0039275464 -0.0111625
0.076410355 0.0039275464 -0.0111625
0.11184207 0.0039275464 -0.0111625
0.16260148 0.0039275464 -0.0111625
0.23531932 0.0039275464 -0.0111625
0.33949478 0.0039275464 -0.0111625
0.48873637 0.0039275464 -0.0111625
0.7025396 0.0039275464 -0.0111625
1.0088337 0.0039275464 -0.0111625
1.4476302 0.0039275464 -0.0111625
2.0762492 0.0039275464 -0.0111625
2.9768078 0.0039275464 -0.0111625
4.2669464 0.0039275464 -0.0111625
6.1151968 0.0039275464 -0.0111625
8.7629971 0.0039275464 -0.0111625
12.556231 0.0039275464 -0.0111625
17.990412 0.0039275464 -0.0111625
25.77541 0.0039275464 -0.0111625
36.928184 0.0039275464 -0.0111625
52.905629 0.0039275464 -0.0111625
75.79489 0.0039275464 -0.0111625
108.586 0.0039275464 -0.0111625
155.5625 0.0039275464 -0.0111625
222.86094 0.0039275464 -0.0111625
-0.0111625 0.0080792218 -0.0111625
-0.0073899886 0.0080792218 -0.0111625
-0.0036174769 0.0080792218 -0.0111625
0.00015503473 0.0080792218 -0.0111625
0.0039275464 0.0080792218 -0.0111625
0.0080792218 0.0080792218 -0.0111625
0.013951005 0.0080792218 -0.0111625
0.022362912 0.0080792218 -0.0111625
0.034413796 0.0080792218 -0.0111625
0.051677871 0.0080792218 -0.0111625
0.076410355 0.0080792218 -0.0111625
0.11184207 0.0080792218 -0.0111625
0.16260148 0.0080792218 -0.0111625
0.23531932 0.0080792218 -0.0111625
0.33949478 0.0080792218 -0.0111625
0.48873637 0.0080792218 -0.0111625
0.7025396 0.0080792218 -0.0111625
1.0088337 0.0080792218 -0.0111625
1.4476302 0.0080792218 -0.0111625
2.0762492 0.0080792218 -0.0111625
2.9768078 0.0080792218 -0.0111625
4.2669464 0.0080792218 -0.0111625
6.1151968 0.0080792218 -0.0111625
8.7629971 0.0080792218 -0.0111625
12.556231 0.0080792218 -0.0111625
17.990412 0.0080792218 -0.0111625
25.77541 0.0080792218 -0.0111625
36.928184 0.0080792218 -0.0111625
52.905629 0.0080792218 -0.0111625
75.79489 0.0080792218 -0.0111625
108.586 0.0080792218 -0.0111625
155.5625 0.0080792218 -0.0111625
222.86094 0.0080792218 -0.0111625
-0.0111625 0.013951005 -0.0111625
-0.0073899886 0.013951005 -0.0111625
-0.0036174769 0.013951005 -0.0111625
0.00015503473 0.013951005 -0.0111625
0.0039275464 0.013951005 -0.0111625
0.0080792218 0.013951005 -0.0111625
0.013951005 0.013951005 -0.0111625
0.022362912 0.013951005 -0.0111625
0.034413796 0.013951005 -0.0111625
0.051677871 0.013951005 -0.0111625
0.076410355 0.013951005 -0.0111625
0.11184207 0.013951005 -0.0111625
0.16260148 0.013951005 -0.0111625
0.23531932 0.013951005 -0.0111625
0.33949478 0.013951005 -0.0111625
0.48873637 0.013951005 -0.0111625
0.7025396 0.013951005 -0.0111625
1.0088337 0.013951005 -0.0111625
1.4476302 0.013951005 -0.0111625
2.0762492 0.013951005 -0.0111625
2.9768078 0.013951005 -0.0111625
4.2669464 0.013951005 -0.0111625
6.1151968 0.013951005 -0.0111625
8.7629971 0.013951005 -0.0111625
12.556231 0.013951005 -0.0111625
17.990412 0.013951005 -0.0111625
25.77541 0.013951005 -0.0111625
36.928184 0.013951005 -0.0111625
52.905629 0.013951005 -0.0111625
75.79489 0.013951005 -0.0111625
108.586 0.013951005 -0.0111625
155.5625 0.013951005 -0.0111625
222.86094 0.013951005 -0.0111625
-0.0111625 0.022362912 -0.0111625
-0.0073899886 0.022362912 -0.0111625
-0.0036174769 0.022362912 -0.0111625
0.00015503473 0.022362912 -0.0111625
0.0039275464 0.022362912 -0.0111625
0.0080792218 0.022362912 -0.0111625
0.013951005 0.022362912 -0.0111625
0.022362912 0.022362912 -0.0111625
0.034413796 0.022362912 -0.0111625
0.051677871 0.022362912 -0.0111625
0.076410355 0.022362912 -0.0111625
0.11184207 0.022362912 -0.0111625
0.16260148 0.022362912 -0.0111625
0.23531932 0.022362912 -0.0111625
0.33949478 0.022362912 -0.0111625
0.48873637 0.022362912 -0.0111625
0.7025396 0.022362912 -0.0111625
1.0088337 0.022362912 -0.0111625
1.4476302 0.022362912 -0.0111625
2.0762492 0.022362912 -0.0111625
2.9768078 0.022362912 -0.0111625
4.2669464 0.022362912 -0.0111625
6.1151968 0.022362912 -0.0111625
8.7629971 0.022362912 -0.0111625
12.556231 0.022362912 -0.0111625
17.990412 0.022362912 -0.0111625
25.77541 0.022362912 -0.0111625
36.928184 0.022362912 -0.0111625
52.905629 0.022362912 -0.0111625
75.79489 0.022362912 -0.0111625
108.586 0.022362912 -0.0111625
155.5625 0.022362912 -0.0111625
222.86094 0.022362912 -0.0111625
-0.0111625 0.034413796 -0.0111625
-0.0073899886 0.034413796 -0.0111625
-0.0036174769 0.034413796 -0.0111625
0.00015503473 0.034413796 -0.0111625
0.0039275464 0.034413796 -0.0111625
0.0080792218 0.034413796 -0.0111625
0.013951005 0.034413796 -0.0111625
0.022362912 0.034413796 -0.0111625
0.034413796 0.034413796 -0.0111625
0.051677871 0.034413796 -0.0111625
0.076410355 0.034413796 -0.0111625
0.11184207 0.034413796 -0.0111625
0.16260148 0.034413796 -0.0111625
0.23531932 0.034413796 -0.0111625
0.33949478 0.034413796 -0.0111625
0.48873637 0.034413796 -0.0111625
0.7025396 0.034413796 -0.0111625
1.0088337 0.034413796 -0.0111625
1.4476302 0.034413796 -0.0111625
2.0762492 0.034413796 -0.0111625
2.9768078 0.034413796 -0.0111625
4.2669464 0.034413796 -0.0111625
6.1151968 0.034413796 -0.0111625
8.7629971 0.034413796 -0.0111625
12.556231 0.034413796 -0.0111625
17.990412 0.034413796 -0.0111625
25.77541 0.034413796 -0.0111625
36.928184 0.034413796 -0.0111625
52.905629 0.034413796 -0.0111625
75.79489 0.034413796 -0.0111625
108.586 0.034413796 -0.0111625
155.5625 0.034413796 -0.0111625
222.86094 0.034413796 -0.0111625
-0.0111625 0.051677871 -0.0111625
-0.0073899886 0.051677871 -0.0111625
-0.0036174769 0.051677871 -0.0111625
0.00015503473 0.051677871 -0.0111625
0.0039275464 0.051677871 -0.0111625
0.0080792218 0.051677871 -0.0111625
0.013951005 0.051677871 -0.0111625
0.022362912 0.051677871 -0.0111625
0.034413796 0.051677871 -0.0111625
0.051677871 0.051677871 -0.0111625
0.076410355 0.051677871 -0.0111625
0.11184207 0.051677871 -0.0111625
0.16260148 0.051677871 -0.0111625
0.23531932 0.051677871 -0.0111625
0.33949478 0.051677871 -0.0111625
0.48873637 0.051677871 -0.0111625
0.7025396 0.051677871 -0.0111625
1.0088337 0.051677871 -0.0111625
1.4476302 0.051677871 -0.0111625
2.0762492 0.051677871 -0.0111625
2.9768078 0.051677871 -0.0111625
4.2669464 0.051677871 -0.0111625
6.1151968 0.051677871 -0.0111625
8.7629971 0.051677871 -0.0111625
12.556231 0.051677871 -0.0111625
17.990412 0.051677871 -0.0111625
25.77541 0.051677871 -0.0111625
36.928184 0.051677871 -0.0111625
52.905629 0.051677871 -0.0111625
75.79489 0.051677871 -0.0111625
108.586 0.051677871 -0.0111625
155.5625 0.051677871 -0.0111625
222.86094 0.051677871 -0.0111625
-0.0111625 0.076410355 -0.0111625
-0.0073899886 0.076410355 -0.0111625
-0.0036174769 0.076410355 -0.0111625
0.00015503473 0.076410355 -0.0111625
0.0039275464 0.076410355 -0.0111625
0.0080792218 0.076410355 -0.0111625
0.013951005 0.076410355 -0.0111625
0.022362912 0.076410355 -0.0111625
0.034413796 0.076410355 -0.0111625
0.051677871 0.076410355 -0.0111625
0.076410355 0.076410355 -0.0111625
0.11184207 0.076410355 -0.0111625
0.16260148 0.076410355 -0.0111625
0.23531932 0.076410355 -0.0111625
0.33949478 0.076410355 -0.0111625
0.48873637 0.076410355 -0.0111625
0.7025396 0.076410355 -0.0111625
1.0088337 0.076410355 -0.0111625
1.4476302 0.076410355 -0.0111625
2.0762492 0.076410355 -0.0111625
2.9768078 0.076410355 -0.0111625
4.2669464 0.076410355 -0.0111625
6.1151968 0.076410355 -0.0111625
8.7629971 0.076410355 -0.0111625
12.556231 0.076410355 -0.0111625
17.990412 0.076410355 -0.0111625
25.77541 0.076410355 -0.0111625
36.928184 0.076410355 -0.0111625
52.905629 0.076410355 -0.0111625
75.79489 0.076410355 -0.0111625
108.586 0.076410355 -0.0111625
155.5625 0.076410355 -0.0111625
222.86094 0.076410355 -0.0111625
-0.0111625 0.11184207 -0.0111625
-0.0073899886 0.11184207 -0.0111625
-0.0036174769 0.11184207 -0.0111625
0.00015503473 0.11184207 -0.0111625
0.0039275464 0.11184207 -0.0111625
0.0080792218 0.11184207 -0.0111625
0.013951005 0.11184207 -0.0111625
0.022362912 0.11184207 -0.0111625
0.034413796 0.11184207 -0.0111625
0.051677871 0.11184207 -0.0111625
0.076410355 0.11184207 -0.0111625
0.11184207 0.11184207 -0.0111625
0.16260148 0.11184207 -0.0111625
0.23531932 0.11184207 -0.0111625
0.33949478 0.11184207 -0.0111625
0.48873637 0.11184207 -0.0111625
0.7025396 0.11184207 -0.0111625
1.0088337 0.11184207 -0.0111625
1.4476302 0.11184207 -0.0111625
2.0762492 0.11184207 -0.0111625
2.9768078 0.11184207 -0.0111625
4.2669464 0.11184207 -0.0111625
6.1151968 0.11184207 -0.0111625
8.7629971 0.11184207 -0.0111625
12.556231 0.11184207 -0.0111625
17.990412 0.11184207 -0.0111625
25.77541 0.11184207 -0.0111625
36.928184 0.11184207 -0.0111625
52.905629 0.11184207 -0.0111625
75.79489 0.11184207 -0.0111625
108.586 0.11184207 -0.0111625
155.5625 0.11184207 -0.0111625
222.86094 0.11184207 -0.0111625
-0.0111625 0.16260148 -0.0111625
-0.0073899886 0.16260148 -0.0111625
-0.0036174769 0.16260148 -0.0111625
0.00015503473 0.16260148 -0.0111625
0.0039275464 0.16260148 -0.0111625
0.0080792218 0.16260148 -0.0111625
0.013951005 0.16260148 -0.0111625
0.022362912 0.16260148 -0.0111625
0.034413796 0.16260148 -0.0111625
0.051677871 0.16260148 -0.0111625
0.076410355 0.16260148 -0.0111625
0.11184207 0.16260148 -0.0111625
0.16260148 0.16260148 -0.0111625
0.23531932 0.16260148 -0.0111625
0.33949478 0.16260148 -0.0111625
0.48873637 0.16260148 -0.0111625
0.7025396 0.16260148 -0.0111625
1.0088337 0.16260148 -0.0111625
1.4476302 0.16260148 -0.0111625
2.0762492 0.16260148 -0.0111625
2.9768078 0.16260148 -0.0111625
4.2669464 0.16260148 -0.0111625
6.1151968 0.16260148 -0.0111625
8.7629971 0.16260148 -0.0111625
12.556231 0.16260148 -0.0111625
17.990412 0.16260148 -0.0111625
25.77541 0.16260148 -0.0111625
36.928184 0.16260148 -0.0111625
52.905629 0.16260148 -0.0111625
75.79489 0.16260148 -0.0111625
108.586 0.16260148 -0.0111625
155.5625 0.16260148 -0.0111625
222.86094 0.16260148 -0.0111625
-0.0111625 0.23531932 -0.0111625
-0.0073899886 0.23531932 -0.0111625
-0.0036174769 0.23531932 -0.0111625
0.00015503473 0.23531932 -0.0111625
0.0039275464 0.23531932 -0.0111625
0.0080792218 0.23531932 -0.0111625
0.013951005 0.23531932 -0.0111625
0.022362912 0.23531932 -0.0111625
0.034413796 0.23531932 -0.0111625
0.051677871 0.23531932 -0.0111625
0.076410355 0.23531932 -0.0111625
0.11184207 0.23531932 -0.0111625
0.16260148 0.23531932 -0.0111625
0.23531932 0.23531932 -0.0111625
0.33949478 0.23531932 -0.0111625
0.48873637 0.23531932 -0.0111625
0.7025396 0.23531932 -0.0111625
1.0088337 0.23531932 -0.0111625
1.4476302 0.23531932 -0.0111625
2.0762492 0.23531932 -0.0111625
2.9768078 0.23531932 -0.0111625
4.2669464 0.23531932 -0.0111625
6.1151968 0.23531932 -0.0111625
8.7629971 0.23531932 -0.0111625
12.556231 0.23531932 -0.0111625
17.990412 0.23531932 -0.0111625
25.77541 0.23531932 -0.0111625
36.928184 0.23531932 -0.0111625
52.905629 0.23531932 -0.0111625
75.79489 0.23531932 -0.0111625
108.586 0.23531932 -0.0111625
155.5625 0.23531932 -0.0111625
222.86094 0.23531932 -0.0111625
-0.0111625 0.33949478 -0.0111625
-0.0073899886 0.33949478 -0.0111625
-0.0036174769 0.33949478 -0.0111625
0.00015503473 0.33949478 -0.0111625
0.0039275464 0.33949478 -0.0111625
0.0080792218 0.33949478 -0.0111625
0.013951005 0.33949478 -0.0111625
0.022362912 0.33949478 -0.0111625
0.034413796 0.33949478 -0.0111625
0.051677871 0.33949478 -0.0111625
0.076410355 0.33949478 -0.0111625
0.11184207 0.33949478 -0.0111625
0.16260148 0.33949478 -0.0111625
0.23531932 0.33949478 -0.0111625
0.33949478 0.33949478 -0.0111625
0.48873637 0.33949478 -0.0111625
0.7025396 0.33949478 -0.0111625
1.0088337 0.33949478 -0.0111625
1.4476302 0.33949478 -0.0111625
2.0762492 0.33949478 -0.0111625
2.9768078 0.33949478 -0.0111625
4.2669464 0.33949478 -0.0111625
6.1151968 0.33949478 -0.0111625
8.7629971 0.33949478 -0.0111625
12.556231 0.33949478 -0.0111625
17.990412 0.33949478 -0.0111625
25.77541 0.33949478 -0.0111625
36.928184 0.33949478 -0.0111625
52.905629 0.33949478 -0.0111625
75.79489 0.33949478 -0.0111625
108.586 0.33949478 -0.0111625
155.5625 0.33949478 -0.0111625
222.86094 0.33949478 -0.0111625
-0.0111625 0.48873637 -0.0111625
-0.0073899886 0.48873637 -0.0111625
-0.0036174769 0.48873637 -0.0111625
0.00015503473 0.48873637 -0.0111625
0.0039275464 0.48873637 -0.0111625
0.0080792218 0.48873637 -0.0111625
0.013951005 0.48873637 -0.0111625
0.022362912 0.48873637 -0.0111625
0.034413796 0.48873637 -0.0111625
0.051677871 0.48873637 -0.0111625
0.076410355 0.48873637 -0.0111625
0.11184207 0.48873637 -0.0111625
0.16260148 0.48873637 -0.0111625
0.23531932 0.48873637 -0.0111625
0.33949478 0.48873637 -0.0111625
0.48873637 0.48873637 -0.0111625
0.7025396 0.48873637 -0.0111625
1.0088337 0.48873637 -0.0111625
1.4476302 0.48873637 -0.0111625
2.0762492 0.48873637 -0.0111625
2.9768078 0.48873637 -0.0111625
4.2669464 0.48873637 -0.0111625
6.1151968 0.48873637 -0.0111625
8.7629971 0.48873637 -0.0111625
12.556231 0.48873637 -0.0111625
17.990412 0.48873637 -0.0111625
25.77541 0.48873637 -0.0111625
36.928184 0.48873637 -0.0111625
52.905629 0.48873637 -0.0111625
75.79489 0.48873637 -0.0111625
108.586 0.48873637 -0.0111625
155.5625 0.48873637 -0.0111625
222.86094 0.48873637 -0.0111625
-0.0111625 0.7025396 -0.0111625
-0.0073899886 0.7025396 -0.0111625
-0.0036174769 0.7025396 -0.0111625
0.00015503473 0.7025396 -0.0111625
0.0039275464 0.7025396 -0.0111625
0.0080792218 0.7025396 -0.0111625
0.013951005 0.7025396 -0.0111625
0.022362912 0.7025396 -0.0111625
0.034413796 0.7025396 -0.0111625
0.051677871 0.7025396 -0.0111625
0.076410355 0.7025396 -0.0111625
0.11184207 0.7025396 -0.0111625
0.16260148 0.7025396 -0.0111625
0.23531932 0.7025396 -0.0111625
0.33949478 0.7025396 -0.0111625
0.48873637 0.7025396 -0.0111625
0.7025396 0.7025396 -0.0111625
1.0088337 0.7025396 -0.0111625
1.4476302 0.7025396 -0.0111625
2.0762492 0.7025396 -0.0111625
2.9768078 0.7025396 -0.0111625
4.2669464 0.7025396 -0.0111625
6.1151968 0.7025396 -0.0111625
8.7629971 0.7025396 -0.0111625
12.556231 0.7025396 -0.0111625
17.990412 0.7025396 -0.0111625
25.77541 0.7025396 -0.0111625
36.928184 0.7025396 -0.0111625
52.905629 0.7025396 -0.0111625
75.79489 0.7025396 -0.0111625
108.586 0.7025396 -0.0111625
155.5625 0.7025396 -0.0111625
222.86094 0.7025396 -0.0111625
-0.0111625 1.0088337 -0.0111625
-0.0073899886 1.0088337 -0.0111625
-0.0036174769 1.0088337 -0.0111625
0.00015503473 1.0088337 -0.0111625
0.0039275464 1.0088337 -0.0111625
0.0080792218 1.0088337 -0.0111625
0.013951005 1.0088337 -0.0111625
0.022362912 1.0088337 -0.0111625
0.034413796 1.0088337 -0.0111625
0.051677871 1.0088337 -0.0111625
0.076410355 1.0088337 -0.0111625
0.11184207 1.0088337 -0.0111625
0.16260148 1.0088337 -0.0111625
0.23531932 1.0088337 -0.0111625
0.33949478 1.0088337 -0.0111625
0.48873637 1.0088337 -0.0111625
0.7025396 1.0088337 -0.0111625
1.0088337 1.0088337 -0.0111625
1.4476302 1.0088337 -0.0111625
2.0762492 1.0088337 -0.0111625
2.9768078 1.0088337 -0.0111625
4.2669464 1.0088337 -0.0111625
6.1151968 1.0088337 -0.0111625
8.7629971 1.0088337 -0.0111625
12.556231 1.0088337 -0.0111625
17.990412 1.0088337 -0.0111625
25.77541 1.0088337 -0.0111625
36.928184 1.0088337 -0.0111625
52.905629 1.0088337 -0.0111625
75.79489 1.0088337 -0.0111625
108.586 1.0088337 -0.0111625
155.5625 1.0088337 -0.0111625
222.86094 1.0088337 -0.0111625
-0.0111625 1.4476302 -0.0111625
-0.0073899886 1.4476302 -0.0111625
-0.0036174769 1.4476302 -0.0111625
0.00015503473 1.4476302 -0.0111625
0.0039275464 1.4476302 -0.0111625
0.0080792218 1.4476302 -0.0111625
0.013951005 1.4476302 -0.0111625
0.022362912 1.4476302 -0.0111625
0.034413796 1.4476302 -0.0111625
0.051677871 1.4476302 -0.0111625
0.076410355 1.4476302 -0.0111625
0.11184207 1.4476302 -0.0111625
0.16260148 1.4476302 -0.0111625
0.23531932 1.4476302 -0.0111625
0.33949478 1.4476302 -0.0111625
0.48873637 1.4476302 -0.0111625
0.7025396 1.4476302 -0.0111625
1.0088337 1.4476302 -0.0111625
1.4476302 1.4476302 -0.0111625
2.0762492 1.4476302 -0.0111625
2.9768078 1.4476302 -0.0111625
4.2669464 1.4476302 -0.0111625
6.1151968 1.4476302 -0.0111625
8.7629971 1.4476302 -0.0111625
12.556231 1.4476302 -0.0111625
17.990412 1.4476302 -0.0111625
25.77541 1.4476302 -0.0111625
36.928184 1.4476302 -0.0111625
52.905629 1.4476302 -0.0111625
75.79489 1.4476302 -0.0111625
108.586 1.4476302 -0.0111625
155.5625 1.4476302 -0.0111625
222.86094 1.4476302 -0.0111625
-0.0111625 2.0762492 -0.0111625
-0.0073899886 2.0762492 -0.0111625
-0.0036174769 2.0762492 -0.0111625
0.00015503473 2.0762492 -0.0111625
0.0039275464 2.0762492 -0.0111625
0.0080792218 2.0762492 -0.0111625
0.013951005 2.0762492 -0.0111625
0.022362912 2.0762492 -0.0111625
0.034413796 2.0762492 -0.0111625
0.051677871 2.0762492 -0.0111625
0.076410355 2.0762492 -0.0111625
0.11184207 2.0762492 -0.0111625
0.16260148 2.0762492 -0.0111625
0.23531932 2.0762492 -0.0111625
0.33949478 2.0762492 -0.0111625
0.48873637 2.0762492 -0.0111625
0.7025396 2.0762492 -0.0111625
1.0088337 2.0762492 -0.0111625
1.4476302 2.0762492 -0.0111625
